(LOWER SHAPING)
(T13 D=0.2362 CR=0. TAPER=45DEG - ZMIN=0.2974 - CHAMFER MILL)
(T15 D=0.5 CR=0. - ZMIN=0.1984 - FLAT END MILL)
(T16 D=0.2362 CR=0. - ZMIN=0.1984 - FLAT END MILL)
(T17 D=0.4724 CR=0. - ZMIN=-0.585 - FLAT END MILL)
(T18 D=0.9843 CR=0. TAPER=45DEG - ZMIN=-0.635 - DOVETAIL MILL)
(T19 D=0.2362 CR=0. - ZMIN=-0.5849 - FLAT END MILL)
(T20 D=0.0625 CR=0. - ZMIN=0.2484 - FLAT END MILL)
G90 G94 G91.1 G40 G49 G17
G20
G53 G0 Z0.

(ADAPTIVE1 3)
T19 M6
S16000 M3
G17 G90 G94
G55
M8
G0 X45.437 Y-1.2675
G43 Z0.9484 H19
G0 Z0.5484
Z-0.5376
G1 Z-0.5613 F86.6
X45.4368 Y-1.2674 Z-0.565
X45.4359 Y-1.2672 Z-0.5686
X45.4346 Y-1.2668 Z-0.572
X45.4327 Y-1.2663 Z-0.5751
X45.4303 Y-1.2657 Z-0.578
X45.4276 Y-1.265 Z-0.5804
X45.4245 Y-1.2643 Z-0.5823
X45.4212 Y-1.2634 Z-0.5837
X45.4177 Y-1.2625 Z-0.5846
X45.4142 Y-1.2616 Z-0.5849
G3 X45.2856 Y-1.2431 I-0.1496 J-0.5842
G1 X45.2844
X45.2842
X45.2839 Y-1.2436
X45.2836 Y-1.2441
X45.2832 Y-1.2446
X45.2829 Y-1.2451
X45.2826 Y-1.2456
X45.2823 Y-1.2461
X45.282 Y-1.2467
X45.2817 Y-1.2472
X45.2814 Y-1.2477
X45.2811 Y-1.2482
X45.2808 Y-1.2488
X45.2805 Y-1.2493
X45.2803 Y-1.2498
X45.28 Y-1.2504
X45.2797 Y-1.2509
X45.2795 Y-1.2514
X45.2792 Y-1.252
X45.2787 Y-1.2531
X45.2782 Y-1.2542
X45.2778 Y-1.2553
X45.2773 Y-1.2564
X45.2768 Y-1.2575
X45.2764 Y-1.2586
X45.276 Y-1.2597
X45.2756 Y-1.2609
X45.2751 Y-1.262
X45.2747 Y-1.2631
X45.2744 Y-1.2643
X45.274 Y-1.2654
X45.2736 Y-1.2665
X45.2732 Y-1.2677
X45.2729 Y-1.2688
X45.2725 Y-1.27
X45.2722 Y-1.2712
X45.2718 Y-1.2725
X45.2714 Y-1.2738
X45.271 Y-1.2752
X45.2707 Y-1.2766
X45.2703 Y-1.2781
X45.2699 Y-1.2796
X45.2695 Y-1.2812
X45.2691 Y-1.2829
X45.2687 Y-1.2847
X45.2683 Y-1.2865
X45.2679 Y-1.2884
X45.2674 Y-1.2904
X45.267 Y-1.2924
X45.2666 Y-1.2946
X45.2662 Y-1.2969
X45.2659 Y-1.2981
X45.2657 Y-1.2993
X45.2638 Y-1.3102
X45.2608 Y-1.321
X45.2567 Y-1.3314
X45.2517 Y-1.3414
X45.2458 Y-1.3509
X45.2392 Y-1.3599
X45.2319 Y-1.3683
X45.2241 Y-1.3762
X45.2157 Y-1.3836
X45.2068 Y-1.3904
X45.1976 Y-1.3967
X45.1881 Y-1.4025
X45.1783 Y-1.4078
X45.1682 Y-1.4126
X45.1579 Y-1.417
X45.1475 Y-1.4209
X45.1369 Y-1.4245
X45.1262 Y-1.4276
X45.1154 Y-1.4305
X45.1045 Y-1.433
X45.0936 Y-1.4353
X45.0826 Y-1.4373
X45.0716 Y-1.4391
X45.0605 Y-1.4406
X45.0495 Y-1.442
X45.0384 Y-1.4432
X45.0273 Y-1.4443
X45.0161 Y-1.4452
X45.005 Y-1.446
X44.9939 Y-1.4467
X44.9827 Y-1.4473
X44.9716 Y-1.4478
X44.9604 Y-1.4483
X44.9493 Y-1.4487
X44.9381 Y-1.4491
X44.9269 Y-1.4494
X44.9158 Y-1.4496
X44.9046 Y-1.4499
X44.8935 Y-1.4501
X44.8823 Y-1.4502
X44.8711 Y-1.4504
X44.86 Y-1.4505
X44.8488 Y-1.4506
X44.8377 Y-1.4507
X44.8265 Y-1.4508
X44.8153 Y-1.4509
X44.8042
X44.793 Y-1.451
X44.7818
X44.7707 Y-1.4511
X44.7595
X44.7484
X44.726 Y-1.4512
X44.7107
X44.702 Y-1.4516
X44.6933 Y-1.4526
X44.6848 Y-1.4543
X44.6764 Y-1.4567
X44.6682 Y-1.4598
X44.6623 Y-1.4623
X44.6538 Y-1.4655
X44.6489 Y-1.4672
X44.6454 Y-1.4684
X44.6369 Y-1.4708
X44.6285 Y-1.473
X44.62 Y-1.4748
X44.6159 Y-1.4757
X44.6116 Y-1.4764
X44.6031 Y-1.4776
X44.5947 Y-1.4785
X44.5862 Y-1.4791
X44.5777 Y-1.4794
X44.5693
X44.5667
G3 X44.5467 Y-1.4918 Z-0.5795 I0.0007 J-0.0236
G1 X44.5454 Y-1.4943 Z-0.579
X44.5444 Y-1.4969 Z-0.5784
X44.5433 Y-1.5001 Z-0.5776
X44.5426 Y-1.5035 Z-0.5769
G3 X44.587 Y-1.5499 I0.039 J-0.0072
X44.6525 Y-1.4913 I-0.0108 J0.078
X44.6546 Y-1.4791 Z-0.5795 I-0.0763 J0.0194
G2 X44.6682 Y-1.4598 Z-0.5849 I0.0235 J-0.0022
G1 X44.6707 Y-1.4587 F25.
X44.6792 Y-1.4548
X44.6877 Y-1.4504
X44.6919 Y-1.4479
X44.6957 Y-1.446
X44.6986 Y-1.4447
X44.7023 Y-1.4431
X44.7068 Y-1.4414
X44.7123 Y-1.4396
X44.7191 Y-1.4376
X44.7276 Y-1.4355
X44.7384 Y-1.4332
X44.7494 Y-1.4313
X44.7604 Y-1.4297
X44.7715 Y-1.4283
X44.7826 Y-1.4272
X44.7937 Y-1.4262
X44.8048 Y-1.4253
X44.816 Y-1.4246
X44.8271 Y-1.4239
X44.8383 Y-1.4233
X44.8494 Y-1.4228
X44.8606 Y-1.4223
X44.8717 Y-1.4218
X44.8829 Y-1.4214
X44.894 Y-1.4209
X44.9052 Y-1.4205
X44.9163 Y-1.42
X44.9275 Y-1.4195
X44.9386 Y-1.419
X44.9498 Y-1.4184
X44.9609 Y-1.4178
X44.9721 Y-1.4171
X44.9832 Y-1.4163
X44.9943 Y-1.4154
X45.0054 Y-1.4144
X45.0165 Y-1.4132
X45.0276 Y-1.4119
X45.0387 Y-1.4104
X45.0497 Y-1.4087
X45.0607 Y-1.4068
X45.0716 Y-1.4045
X45.0825 Y-1.402
X45.0933 Y-1.399
X45.1039 Y-1.3957
X45.1144 Y-1.3918
X45.1245 Y-1.3872
X45.1343 Y-1.3817
X45.1437 Y-1.3757
X45.1526 Y-1.369
X45.1611 Y-1.3617
X45.1692 Y-1.354
X45.1768 Y-1.3459
X45.1841 Y-1.3375
X45.1911 Y-1.3287
X45.1978 Y-1.3198
X45.2039 Y-1.3105
X45.2095 Y-1.3008
X45.2149 Y-1.2917
X45.2211 Y-1.2831
X45.2282 Y-1.2751
X45.2359 Y-1.2679
X45.2444 Y-1.2615
X45.2535 Y-1.256
X45.2631 Y-1.2514
X45.273 Y-1.2478
X45.2833 Y-1.2452
X45.2938 Y-1.2436
X45.3044 Y-1.2431
G2 X45.3244 Y-1.2556 I-0.0008 J-0.0236 F86.6
X45.3098 Y-1.2759 I-0.0123 J-0.0066
X45.2816 Y-1.2556 I0.0065 J0.0388
G3 X45.2616 Y-1.2431 I-0.0208 J-0.0111
G1 X45.2516
X45.251
X45.2479 Y-1.2444
X45.2447 Y-1.2459
X45.2411 Y-1.2476
X45.238 Y-1.2493
X45.2348 Y-1.2512
X45.2313 Y-1.2535
X45.2283 Y-1.2556
X45.2252 Y-1.258
X45.2215 Y-1.261
X45.2147 Y-1.267
X45.2066 Y-1.2747
X45.1987 Y-1.2825
X45.1907 Y-1.2904
X45.1826 Y-1.2981
X45.1742 Y-1.3054
X45.1656 Y-1.3125
X45.1566 Y-1.3191
X45.1473 Y-1.3253
X45.1378 Y-1.3312
X45.1281 Y-1.3366
X45.1182 Y-1.3417
X45.108 Y-1.3464
X45.0978 Y-1.3508
X45.0874 Y-1.3548
X45.0768 Y-1.3585
X45.0662 Y-1.3619
X45.0555 Y-1.365
X45.0447 Y-1.3678
X45.0338 Y-1.3704
X45.0229 Y-1.3728
X45.0119 Y-1.3749
X45.0009 Y-1.3768
X44.9899 Y-1.3786
X44.9789 Y-1.3801
X44.9678 Y-1.3816
X44.9567 Y-1.3829
X44.9456 Y-1.3841
X44.9345 Y-1.3852
X44.9234 Y-1.3862
X44.9123 Y-1.3872
X44.9011 Y-1.3881
X44.89 Y-1.3889
X44.8789 Y-1.3898
X44.8678 Y-1.3906
X44.8566 Y-1.3914
X44.8455 Y-1.3923
X44.8344 Y-1.3932
X44.8232 Y-1.3941
X44.8121 Y-1.3952
X44.801 Y-1.3963
X44.7899 Y-1.3976
X44.7836 Y-1.3984
X44.7733 Y-1.4003
X44.7632 Y-1.4031
X44.7534 Y-1.4069
X44.744 Y-1.4116
X44.7351 Y-1.4172
X44.7268 Y-1.4236
X44.7253 Y-1.4249
X44.7215 Y-1.428
X44.7144 Y-1.4334
X44.713 Y-1.4344
X44.7046 Y-1.4402
G3 X44.6952 Y-1.4619 I0.0141 J-0.019
X44.7195 Y-1.4632 I0.0123 J0.0014
X44.7196 Y-1.4461 I-0.0384 J0.0087
G1 X44.7192 Y-1.4436
X44.7191 Y-1.4411
G2 X44.7268 Y-1.4236 I0.0236 J0.
G1 X44.7299 Y-1.421 F25.
X44.735 Y-1.4165
X44.7384 Y-1.4133
X44.7437 Y-1.408
X44.7468 Y-1.4048
X44.7483 Y-1.4034
X44.7496 Y-1.4022
X44.751 Y-1.4009
X44.7528 Y-1.3995
X44.7547 Y-1.3981
X44.757 Y-1.3966
X44.7596 Y-1.395
X44.7627 Y-1.3932
X44.7664 Y-1.3912
X44.7709 Y-1.3891
X44.7761 Y-1.3868
X44.7825 Y-1.3843
X44.7902 Y-1.3816
X44.7996 Y-1.3787
X44.8104 Y-1.3758
X44.8213 Y-1.3733
X44.8322 Y-1.3711
X44.8432 Y-1.369
X44.8542 Y-1.3672
X44.8652 Y-1.3655
X44.8763 Y-1.3639
X44.8873 Y-1.3623
X44.8984 Y-1.3608
X44.9095 Y-1.3593
X44.9205 Y-1.3578
X44.9316 Y-1.3562
X44.9426 Y-1.3546
X44.9536 Y-1.3529
X44.9646 Y-1.351
X44.9756 Y-1.3491
X44.9866 Y-1.3469
X44.9975 Y-1.3446
X45.0084 Y-1.3421
X45.0192 Y-1.3393
X45.0299 Y-1.3363
X45.0406 Y-1.333
X45.0511 Y-1.3293
X45.0616 Y-1.3254
X45.0719 Y-1.321
X45.082 Y-1.3163
X45.0919 Y-1.3112
X45.1017 Y-1.3058
X45.1113 Y-1.3001
X45.1207 Y-1.2942
X45.1301 Y-1.2881
X45.1393 Y-1.2817
X45.1484 Y-1.2753
X45.1575 Y-1.2689
X45.1625 Y-1.2652
X45.1708 Y-1.2595
X45.1797 Y-1.2546
X45.189 Y-1.2505
X45.1986 Y-1.2473
X45.2084 Y-1.245
X45.2184 Y-1.2436
X45.2286 Y-1.2431
G2 X45.2486 Y-1.2556 I-0.0008 J-0.0236 F86.6
X45.237 Y-1.2639 I-0.0063 J-0.0034
X45.2311 Y-1.2556 I0.0289 J0.0268
G3 X45.2111 Y-1.2431 I-0.0208 J-0.0111
G1 X45.1924
X45.1899 Y-1.2432
X45.1878 Y-1.2434
X45.1854 Y-1.2437
X45.1829 Y-1.2441
X45.1796 Y-1.2447
X45.1755 Y-1.2457
X45.1705 Y-1.2471
X45.1639 Y-1.2492
X45.1546 Y-1.2525
X45.1443 Y-1.2566
X45.134 Y-1.261
X45.1238 Y-1.2655
X45.1136 Y-1.2699
X45.1033 Y-1.2743
X45.093 Y-1.2786
X45.0826 Y-1.2827
X45.0721 Y-1.2866
X45.0616 Y-1.2904
X45.051 Y-1.2939
X45.0404 Y-1.2973
X45.0297 Y-1.3005
X45.019 Y-1.3035
X45.0082 Y-1.3064
X44.9974 Y-1.3091
X44.9865 Y-1.3116
X44.9756 Y-1.314
X44.9647 Y-1.3163
X44.9537 Y-1.3185
X44.9428 Y-1.3207
X44.9318 Y-1.3227
X44.9208 Y-1.3247
X44.9098 Y-1.3267
X44.8988 Y-1.3286
X44.8878 Y-1.3306
X44.8769 Y-1.3326
X44.8659 Y-1.3347
X44.855 Y-1.337
X44.8441 Y-1.3393
X44.8332 Y-1.3419
X44.8224 Y-1.3446
X44.8216 Y-1.3449
X44.8119 Y-1.3481
X44.8025 Y-1.3522
X44.7936 Y-1.3572
X44.7852 Y-1.363
X44.7774 Y-1.3696
X44.7702 Y-1.3768
X44.7638 Y-1.3848
X44.7588 Y-1.3911
X44.7553 Y-1.3953
X44.7516 Y-1.3996
G3 X44.7478 Y-1.4229 I0.0183 J-0.0149
X44.7643 Y-1.4186 I0.008 J0.003
X44.7613 Y-1.4082 I-0.039 J-0.0056
G2 X44.7638 Y-1.3848 I0.0216 J0.0096
G1 X44.7653 Y-1.3827 F25.
X44.7712 Y-1.3742
X44.7722 Y-1.3728
X44.7767 Y-1.3658
X44.7789 Y-1.3621
X44.7805 Y-1.3596
X44.7815 Y-1.3582
X44.7829 Y-1.3564
X44.7843 Y-1.3547
X44.7857 Y-1.3531
X44.7874 Y-1.3513
X44.7894 Y-1.3494
X44.7913 Y-1.3477
X44.7937 Y-1.3457
X44.7964 Y-1.3436
X44.7997 Y-1.3413
X44.8034 Y-1.3388
X44.8079 Y-1.3361
X44.8133 Y-1.3331
X44.8195 Y-1.3299
X44.8271 Y-1.3264
X44.8364 Y-1.3224
X44.8469 Y-1.3185
X44.8574 Y-1.3149
X44.8681 Y-1.3116
X44.8788 Y-1.3084
X44.8896 Y-1.3055
X44.9003 Y-1.3026
X44.9112 Y-1.2998
X44.922 Y-1.2971
X44.9328 Y-1.2944
X44.9436 Y-1.2917
X44.9544 Y-1.2889
X44.9652 Y-1.286
X44.976 Y-1.2831
X44.9868 Y-1.2801
X44.9975 Y-1.277
X45.0081 Y-1.2737
X45.0188 Y-1.2703
X45.0294 Y-1.2668
X45.0399 Y-1.2632
X45.0504 Y-1.2594
X45.0609 Y-1.2556
X45.0714 Y-1.2517
X45.0755 Y-1.2501
X45.0849 Y-1.2471
X45.0946 Y-1.2449
X45.1043 Y-1.2436
X45.1142 Y-1.2431
X45.1658
G2 X45.1858 Y-1.2556 Z-0.5795 I-0.0008 J-0.0236 F86.6
X45.1863 Y-1.2676 Z-0.5769 I-0.0123 J-0.0065
X45.176 Y-1.2758 I-0.0128 J0.0054
G1 X45.1725 Y-1.2763
X45.169 Y-1.2765
G2 X45.1417 Y-1.2654 I0. J0.0394
G1 X45.1393 Y-1.263 Z-0.5776
X45.1372 Y-1.2603 Z-0.5784
X45.1356 Y-1.258 Z-0.579
X45.1342 Y-1.2556 Z-0.5795
G3 X45.1142 Y-1.2431 Z-0.5849 I-0.0208 J-0.0111
G1 X45.0681
X45.057 Y-1.2437
X45.0472 Y-1.2443
X45.0361 Y-1.2455
X45.025 Y-1.247
X45.014 Y-1.2487
X45.003 Y-1.2507
X44.992 Y-1.2527
X44.9811 Y-1.2548
X44.9702 Y-1.2571
X44.9592 Y-1.2594
X44.9483 Y-1.2618
X44.9374 Y-1.2643
X44.9266 Y-1.2668
X44.9157 Y-1.2695
X44.9049 Y-1.2722
X44.8941 Y-1.2752
X44.8834 Y-1.2782
X44.8727 Y-1.2815
X44.8621 Y-1.285
X44.8516 Y-1.2887
X44.847 Y-1.2906
X44.8377 Y-1.2947
X44.8288 Y-1.2997
X44.8204 Y-1.3055
X44.8125 Y-1.3121
X44.8054 Y-1.3193
X44.7989 Y-1.3272
X44.7931 Y-1.3356
X44.7882 Y-1.3446
G3 X44.8001 Y-1.3758 Z-0.5769 I0.0216 J-0.0097
X44.8174 Y-1.3766 I0.0097 J0.0216
G1 X45.0749 Y-1.2891
G3 X45.0909 Y-1.2675 I-0.0076 J0.0224
X45.0681 Y-1.2431 Z-0.5849 I-0.0236 J0.0008
G1 X44.9582
X44.9471 Y-1.2437
X44.9363 Y-1.2444
X44.9252 Y-1.2457
X44.9141 Y-1.2472
X44.9031 Y-1.2492
X44.8922 Y-1.2515
X44.8814 Y-1.2541
X44.8725 Y-1.2566
X44.8646 Y-1.2592
X44.862 Y-1.2601
X44.8524 Y-1.2641
X44.8433 Y-1.269
X44.8346 Y-1.2747
X44.8265 Y-1.2813
X44.8191 Y-1.2885
X44.8124 Y-1.2965
X44.8065 Y-1.305
X44.8014 Y-1.314
X44.7972 Y-1.3235
G3 X44.8116 Y-1.3536 Z-0.5769 I0.0223 J-0.0078
X44.8295 Y-1.3527 I0.0078 J0.0223
G1 X44.9674 Y-1.2881
G3 X44.981 Y-1.2675 I-0.01 J0.0214
X44.9582 Y-1.2431 Z-0.5849 I-0.0236 J0.0008
G1 X44.9075
X44.899 Y-1.2432
X44.8906 Y-1.2439
X44.8821 Y-1.2453
X44.8737 Y-1.2473
X44.8733 Y-1.2474
X44.8652 Y-1.2501
X44.8568 Y-1.2537
X44.8524 Y-1.2559
X44.8483 Y-1.2582
X44.8398 Y-1.2637
X44.8389 Y-1.2644
X44.8314 Y-1.2703
X44.8286 Y-1.2728
X44.8229 Y-1.2784
X44.8204 Y-1.2813
X44.8145 Y-1.2886
X44.8137 Y-1.2897
X44.8082 Y-1.2982
X44.806 Y-1.3021
X44.8038 Y-1.3066
X44.8002 Y-1.3151
X44.7976 Y-1.3224
X44.7972 Y-1.3235
X44.7939 Y-1.332
X44.7919 Y-1.3366
X44.7908 Y-1.3402 Z-0.5841
G2 X44.7825 Y-1.3725 Z-0.5769 I-0.4321 J0.0939
X44.686 Y-1.5436 I-0.4238 J0.1262
X44.6727 Y-1.551 I-0.0175 J0.0159
G1 X44.1736 Y-1.6428
G2 X44.1586 Y-1.6406 I-0.0043 J0.0232
X43.9964 Y-1.4998 I0.2001 J0.3943
X43.9883 Y-1.4877 Z-0.58 I0.3623 J0.2535
G3 X43.9694 Y-1.477 Z-0.5849 I-0.0198 J-0.0129
G1 X43.9183 Y-1.4768
X43.9098
X43.9014 Y-1.4765
X43.8929 Y-1.4761
X43.8882 Y-1.4757
X43.8845 Y-1.4753
X43.876 Y-1.4742
X43.8676 Y-1.4728
X43.8591 Y-1.471
X43.8507 Y-1.469
X43.8415 Y-1.467
X43.8306 Y-1.4649
X43.8195 Y-1.4632
X43.8085 Y-1.4618
X43.7974 Y-1.4606
X43.7862 Y-1.4596
X43.7751 Y-1.4588
X43.764 Y-1.4581
X43.7528 Y-1.4575
X43.7417 Y-1.457
X43.7305 Y-1.4566
X43.7194 Y-1.4562
X43.7082 Y-1.4559
X43.697 Y-1.4556
X43.6859 Y-1.4554
X43.6747 Y-1.4552
X43.6636 Y-1.455
X43.6524 Y-1.4549
X43.6412 Y-1.4548
X43.6301 Y-1.4546
X43.6189
X43.6078 Y-1.4545
X43.5966 Y-1.4544
X43.5854
X43.5743 Y-1.4543
X43.5631
X43.552 Y-1.4542
X43.5408
X43.5185 Y-1.4541
X43.4961
X43.4627
X43.4292
X43.3734 Y-1.454
X43.2841
X43.0385
X43.0054
X42.9967 Y-1.4544
X42.988 Y-1.4554
X42.9795 Y-1.4572
X42.9711 Y-1.4596
X42.9629 Y-1.4627
X42.9545 Y-1.466
X42.9511 Y-1.4672
X42.946 Y-1.4689
X42.9375 Y-1.4714
X42.9291 Y-1.4737
X42.9206 Y-1.4755
X42.92 Y-1.4757
X42.9122 Y-1.4771
X42.9037 Y-1.4783
X42.8953 Y-1.4793
X42.8868 Y-1.4799
X42.8784 Y-1.4803
X42.8699 Y-1.4804
X42.8674 Y-1.4803
G3 X42.8473 Y-1.4927 Z-0.5795 I0.0007 J-0.0236
G1 X42.846 Y-1.4952 Z-0.579
X42.845 Y-1.4977 Z-0.5784
X42.8439 Y-1.501 Z-0.5776
X42.8432 Y-1.5043 Z-0.5769
G3 X42.8913 Y-1.5483 I0.038 J-0.0067
X42.9464 Y-1.4938 I-0.0207 J0.076
X42.9488 Y-1.4816 Z-0.5795 I-0.0758 J0.0214
G2 X42.9629 Y-1.4627 Z-0.5849 I0.0235 J-0.0028
G1 X42.9714 Y-1.4591 F25.
X42.9721 Y-1.4588
X42.9798 Y-1.4551
X42.9883 Y-1.4506
X42.9888 Y-1.4503
X42.9912 Y-1.4491
X42.9941 Y-1.4477
X42.9976 Y-1.4463
X43.0018 Y-1.4446
X43.0071 Y-1.4428
X43.0136 Y-1.4409
X43.0216 Y-1.4388
X43.0317 Y-1.4366
X43.0427 Y-1.4346
X43.0537 Y-1.433
X43.0648 Y-1.4316
X43.0759 Y-1.4305
X43.087 Y-1.4295
X43.0981 Y-1.4287
X43.1093 Y-1.428
X43.1204 Y-1.4274
X43.1316 Y-1.4269
X43.1427 Y-1.4265
X43.1539 Y-1.4261
X43.1651 Y-1.4258
X43.1762 Y-1.4256
X43.1874 Y-1.4254
X43.1985 Y-1.4252
X43.2097 Y-1.425
X43.2209 Y-1.4249
X43.232 Y-1.4247
X43.2432 Y-1.4246
X43.2543 Y-1.4245
X43.2655
X43.2767 Y-1.4244
X43.2878
X43.299 Y-1.4243
X43.3101
X43.3213 Y-1.4242
X43.3325
X43.3436
X43.366
X43.3883 Y-1.4241
X43.4106
X43.4329
X43.4553
X43.4776
X43.4999 Y-1.4242
X43.5111
X43.5222
X43.5334 Y-1.4243
X43.5445
X43.5557
X43.5669 Y-1.4244
X43.578
X43.5892 Y-1.4245
X43.6004 Y-1.4246
X43.6115 Y-1.4247
X43.6227 Y-1.4248
X43.6338 Y-1.4249
X43.645 Y-1.4251
X43.6562 Y-1.4252
X43.6673 Y-1.4255
X43.6785 Y-1.4257
X43.6896 Y-1.426
X43.7008 Y-1.4263
X43.712 Y-1.4267
X43.7231 Y-1.4271
X43.7343 Y-1.4277
X43.7388 Y-1.4279
X43.7492 Y-1.429
X43.7594 Y-1.431
X43.7693 Y-1.434
X43.779 Y-1.4379
X43.7882 Y-1.4427
X43.7915 Y-1.4447
X43.7999 Y-1.4494
X43.8018 Y-1.4503
X43.8084 Y-1.4536
X43.8168 Y-1.4574
X43.82 Y-1.4588
X43.8253 Y-1.4609
X43.8337 Y-1.4639
X43.8422 Y-1.4666
X43.8442 Y-1.4672
X43.8507 Y-1.469
G2 X43.866 Y-1.4986 Z-0.5769 I-0.0071 J-0.0225 F86.6
G1 Y-1.4987
G2 X43.8388 Y-1.5099 I-0.0183 J0.0058
X43.8048 Y-1.475 I0.0367 J0.0697
G1 X43.802 Y-1.4687 Z-0.5784
G2 X43.7986 Y-1.4575 Z-0.5809 I0.0734 J0.0285
G3 X43.7882 Y-1.4427 Z-0.5849 I-0.023 J-0.0052
G1 X43.7867 Y-1.4418
X43.783 Y-1.4395
X43.7746 Y-1.4339
X43.7739 Y-1.4334
X43.7661 Y-1.4277
X43.7648 Y-1.4268
X43.7631 Y-1.4257
X43.7611 Y-1.4245
X43.7585 Y-1.4231
X43.7555 Y-1.4216
X43.7519 Y-1.4199
X43.7474 Y-1.4181
X43.7421 Y-1.4162
X43.7357 Y-1.4141
X43.7279 Y-1.4118
X43.7183 Y-1.4095
X43.7074 Y-1.4072
X43.6964 Y-1.4053
X43.6853 Y-1.4037
X43.6743 Y-1.4023
X43.6632 Y-1.4012
X43.652 Y-1.4002
X43.6409 Y-1.3993
X43.6298 Y-1.3986
X43.6186 Y-1.398
X43.6075 Y-1.3974
X43.5963 Y-1.397
X43.5852 Y-1.3966
X43.574 Y-1.3962
X43.5629 Y-1.3959
X43.5517 Y-1.3957
X43.5405 Y-1.3955
X43.5294 Y-1.3953
X43.5182 Y-1.3951
X43.5071 Y-1.395
X43.4959 Y-1.3948
X43.4847 Y-1.3947
X43.4736 Y-1.3946
X43.4624
X43.4513 Y-1.3945
X43.4401
X43.4289 Y-1.3944
X43.4178
X43.4066
X43.3954 Y-1.3943
X43.3843
X43.3731
X43.362
X43.3508
X43.3396
X43.3285 Y-1.3944
X43.3173
X43.3061
X43.295 Y-1.3945
X43.2838
X43.2727 Y-1.3946
X43.2615 Y-1.3947
X43.2503 Y-1.3948
X43.2392 Y-1.3949
X43.228 Y-1.3951
X43.2169 Y-1.3952
X43.2057 Y-1.3954
X43.1945 Y-1.3957
X43.1834 Y-1.3959
X43.1722 Y-1.3963
X43.1611 Y-1.3966
X43.1499 Y-1.3971
X43.1388 Y-1.3976
X43.1276 Y-1.3982
X43.1165 Y-1.3989
X43.1053 Y-1.3997
X43.0942 Y-1.4007
X43.0831 Y-1.4018
X43.0806 Y-1.4022
X43.0703 Y-1.4039
X43.0603 Y-1.4066
X43.0506 Y-1.4102
X43.0413 Y-1.4147
X43.0324 Y-1.4201
X43.0241 Y-1.4263
X43.0221 Y-1.4279
X43.015 Y-1.4334
X43.0136 Y-1.4344
X43.0052 Y-1.4403
X43.0029 Y-1.4418
X42.9967 Y-1.4457
G3 X42.9864 Y-1.4669 I0.0133 J-0.0196
X43.0143 Y-1.4715 I0.0145 J0.001
X43.0166 Y-1.4486 I-0.0363 J0.0152
G2 X43.0241 Y-1.4263 I0.0232 J0.0046
G1 X43.0258 Y-1.4249 F25.
X43.0306 Y-1.4208
X43.0353 Y-1.4165
X43.039 Y-1.413
X43.044 Y-1.408
X43.0458 Y-1.4063
X43.0471 Y-1.4051
X43.0487 Y-1.4039
X43.0506 Y-1.4024
X43.0525 Y-1.4011
X43.0547 Y-1.3996
X43.0575 Y-1.398
X43.0606 Y-1.3963
X43.0644 Y-1.3944
X43.0689 Y-1.3924
X43.0741 Y-1.3903
X43.0802 Y-1.388
X43.0876 Y-1.3856
X43.0965 Y-1.3831
X43.1073 Y-1.3804
X43.1182 Y-1.3782
X43.1292 Y-1.3763
X43.1402 Y-1.3746
X43.1513 Y-1.3732
X43.1624 Y-1.372
X43.1735 Y-1.371
X43.1846 Y-1.37
X43.1958 Y-1.3693
X43.2069 Y-1.3686
X43.2181 Y-1.368
X43.2292 Y-1.3675
X43.2404 Y-1.367
X43.2515 Y-1.3667
X43.2627 Y-1.3663
X43.2738 Y-1.366
X43.285 Y-1.3658
X43.2962 Y-1.3656
X43.3073 Y-1.3654
X43.3185 Y-1.3653
X43.3296 Y-1.3651
X43.3408 Y-1.365
X43.352 Y-1.3649
X43.3631
X43.3743 Y-1.3648
X43.3854
X43.3966 Y-1.3647
X43.4078
X43.4189
X43.4301
X43.4413 Y-1.3648
X43.4524
X43.4636 Y-1.3649
X43.4747 Y-1.365
X43.4859 Y-1.3651
X43.4971 Y-1.3652
X43.5082 Y-1.3654
X43.5194 Y-1.3655
X43.5305 Y-1.3657
X43.5417 Y-1.366
X43.5529 Y-1.3663
X43.564 Y-1.3666
X43.5752 Y-1.367
X43.5863 Y-1.3674
X43.5975 Y-1.368
X43.6086 Y-1.3686
X43.6198 Y-1.3693
X43.6309 Y-1.3701
X43.642 Y-1.371
X43.6531 Y-1.3721
X43.6642 Y-1.3734
X43.6753 Y-1.3749
X43.6815 Y-1.3759
X43.6912 Y-1.3778
X43.7007 Y-1.3807
X43.7098 Y-1.3844
X43.7187 Y-1.3888
X43.727 Y-1.3941
X43.7349 Y-1.4001
X43.7422 Y-1.4068
X43.7435 Y-1.408
X43.7492 Y-1.4135
X43.7525 Y-1.4165
X43.7577 Y-1.4209
X43.7625 Y-1.4249
X43.7661 Y-1.4277
G2 X43.7742 Y-1.4499 I-0.0152 J-0.0181 F86.6
X43.747 Y-1.4509 I-0.0137 J0.0024
X43.7475 Y-1.4298 I0.0382 J0.0097
G3 X43.7422 Y-1.4068 I-0.0226 J0.0069
G1 X43.7407 Y-1.4053
X43.7354 Y-1.3996
X43.7323 Y-1.3962
X43.728 Y-1.3911
X43.7238 Y-1.3861
X43.7229 Y-1.385
X43.7217 Y-1.3836
X43.7201 Y-1.3821
X43.7185 Y-1.3806
X43.7169 Y-1.3792
X43.7149 Y-1.3776
X43.7128 Y-1.376
X43.7104 Y-1.3744
X43.7076 Y-1.3726
X43.7043 Y-1.3707
X43.7005 Y-1.3686
X43.696 Y-1.3665
X43.6908 Y-1.3642
X43.6847 Y-1.3617
X43.6776 Y-1.3592
X43.6691 Y-1.3565
X43.659 Y-1.3538
X43.6481 Y-1.3512
X43.6372 Y-1.349
X43.6262 Y-1.3471
X43.6152 Y-1.3455
X43.6041 Y-1.344
X43.593 Y-1.3428
X43.5819 Y-1.3417
X43.5708 Y-1.3408
X43.5596 Y-1.3399
X43.5485 Y-1.3392
X43.5373 Y-1.3386
X43.5262 Y-1.3381
X43.515 Y-1.3376
X43.5039 Y-1.3372
X43.4927 Y-1.3368
X43.4816 Y-1.3365
X43.4704 Y-1.3363
X43.4593 Y-1.336
X43.4481 Y-1.3359
X43.4369 Y-1.3357
X43.4258 Y-1.3356
X43.4146 Y-1.3355
X43.4035 Y-1.3354
X43.3923
X43.3811
X43.37
X43.3588
X43.3476 Y-1.3355
X43.3365 Y-1.3356
X43.3253 Y-1.3357
X43.3142 Y-1.3359
X43.303 Y-1.3361
X43.2918 Y-1.3363
X43.2807 Y-1.3365
X43.2695 Y-1.3369
X43.2584 Y-1.3372
X43.2472 Y-1.3377
X43.2361 Y-1.3382
X43.2249 Y-1.3387
X43.2138 Y-1.3394
X43.2026 Y-1.3402
X43.1915 Y-1.3411
X43.1804 Y-1.3421
X43.1693 Y-1.3433
X43.1582 Y-1.3446
X43.1472 Y-1.3462
X43.1362 Y-1.348
X43.1256 Y-1.35
X43.1159 Y-1.3523
X43.1064 Y-1.3555
X43.0972 Y-1.3596
X43.0885 Y-1.3644
X43.0802 Y-1.3701
X43.0725 Y-1.3764
X43.0653 Y-1.3835
X43.0589 Y-1.3911
X43.0559 Y-1.3948
X43.0518 Y-1.3996
X43.0475 Y-1.4044
X43.044 Y-1.408
G3 X43.0392 Y-1.4311 I0.0176 J-0.0157
X43.0588 Y-1.4274 I0.0095 J0.0032
X43.0558 Y-1.4145 I-0.0393 J-0.0022
G2 X43.0589 Y-1.3911 I0.0218 J0.009
G1 X43.0644 Y-1.384 F25.
X43.0653 Y-1.3827
X43.0712 Y-1.3742
X43.0728 Y-1.3718
X43.0749 Y-1.3685
X43.0772 Y-1.3653
X43.0785 Y-1.3636
X43.0798 Y-1.3619
X43.0811 Y-1.3604
X43.0828 Y-1.3587
X43.0847 Y-1.3568
X43.0865 Y-1.3552
X43.0885 Y-1.3535
X43.0909 Y-1.3516
X43.0934 Y-1.3498
X43.0965 Y-1.3477
X43.0999 Y-1.3456
X43.1039 Y-1.3433
X43.1086 Y-1.3409
X43.1139 Y-1.3384
X43.12 Y-1.3358
X43.1272 Y-1.333
X43.1355 Y-1.3302
X43.1453 Y-1.3272
X43.1561 Y-1.3244
X43.167 Y-1.3219
X43.178 Y-1.3198
X43.189 Y-1.3179
X43.2 Y-1.3163
X43.2111 Y-1.3148
X43.2222 Y-1.3136
X43.2333 Y-1.3125
X43.2444 Y-1.3115
X43.2555 Y-1.3107
X43.2667 Y-1.3099
X43.2778 Y-1.3093
X43.289 Y-1.3087
X43.3001 Y-1.3083
X43.3113 Y-1.3078
X43.3224 Y-1.3075
X43.3336 Y-1.3072
X43.3447 Y-1.3069
X43.3559 Y-1.3067
X43.3671 Y-1.3066
X43.3782 Y-1.3065
X43.3894 Y-1.3064
X43.4006
X43.4117
X43.4229
X43.434 Y-1.3065
X43.4452 Y-1.3067
X43.4564 Y-1.3068
X43.4675 Y-1.3071
X43.4787 Y-1.3073
X43.4898 Y-1.3077
X43.501 Y-1.3081
X43.5121 Y-1.3085
X43.5233 Y-1.3091
X43.5344 Y-1.3097
X43.5456 Y-1.3104
X43.5567 Y-1.3112
X43.5678 Y-1.3122
X43.5789 Y-1.3133
X43.59 Y-1.3145
X43.6011 Y-1.3159
X43.6121 Y-1.3176
X43.6231 Y-1.3194
X43.6341 Y-1.3216
X43.645 Y-1.324
X43.6483 Y-1.3248
X43.658 Y-1.3278
X43.6673 Y-1.3316
X43.6763 Y-1.3363
X43.6848 Y-1.3417
X43.6927 Y-1.348
X43.7001 Y-1.3549
X43.7068 Y-1.3625
X43.7127 Y-1.3706
X43.7151 Y-1.3742
X43.7154 Y-1.3746
X43.7212 Y-1.3827
X43.7238 Y-1.3861
G2 X43.7262 Y-1.4095 I-0.0192 J-0.0138 F86.6
X43.7097 Y-1.4039 I-0.008 J0.0036
X43.7134 Y-1.3942 I0.0383 J-0.009
G3 X43.7127 Y-1.3706 I-0.0208 J0.0112
G1 X43.7095 Y-1.3658
X43.7069 Y-1.3617
X43.7044 Y-1.3573
X43.6997 Y-1.3489
X43.699 Y-1.3475
X43.6977 Y-1.3451
X43.6968 Y-1.3436
X43.6956 Y-1.3418
X43.6943 Y-1.34
X43.693 Y-1.3384
X43.6915 Y-1.3365
X43.6896 Y-1.3345
X43.6879 Y-1.3327
X43.686 Y-1.3308
X43.6836 Y-1.3288
X43.6812 Y-1.3268
X43.6786 Y-1.3248
X43.6755 Y-1.3226
X43.672 Y-1.3203
X43.6679 Y-1.3179
X43.6633 Y-1.3153
X43.658 Y-1.3126
X43.6518 Y-1.3098
X43.6448 Y-1.3069
X43.6366 Y-1.3039
X43.6272 Y-1.3008
X43.6165 Y-1.2977
X43.6057 Y-1.295
X43.5948 Y-1.2926
X43.5838 Y-1.2905
X43.5728 Y-1.2887
X43.5617 Y-1.2871
X43.5507 Y-1.2857
X43.5396 Y-1.2844
X43.5285 Y-1.2833
X43.5174 Y-1.2823
X43.5062 Y-1.2815
X43.4951 Y-1.2808
X43.4839 Y-1.2801
X43.4728 Y-1.2796
X43.4616 Y-1.2791
X43.4505 Y-1.2787
X43.4393 Y-1.2784
X43.4282 Y-1.2782
X43.417 Y-1.278
X43.4058 Y-1.2778
X43.3947
X43.3835 Y-1.2777
X43.3724 Y-1.2778
X43.3612 Y-1.2779
X43.35 Y-1.278
X43.3389 Y-1.2782
X43.3277 Y-1.2785
X43.3166 Y-1.2789
X43.3054 Y-1.2793
X43.2943 Y-1.2798
X43.2831 Y-1.2804
X43.272 Y-1.2811
X43.2608 Y-1.2819
X43.2497 Y-1.2828
X43.2386 Y-1.2839
X43.2275 Y-1.2851
X43.2164 Y-1.2864
X43.2054 Y-1.288
X43.1944 Y-1.2897
X43.1834 Y-1.2917
X43.1724 Y-1.294
X43.1616 Y-1.2966
X43.1508 Y-1.2995
X43.1481 Y-1.3003
X43.138 Y-1.304
X43.1282 Y-1.3087
X43.1189 Y-1.3143
X43.1103 Y-1.3208
X43.1023 Y-1.3281
X43.095 Y-1.3362
X43.0886 Y-1.3449
X43.0831 Y-1.3542
X43.0815 Y-1.3573
X43.0813 Y-1.3577
X43.0766 Y-1.3658
X43.0749 Y-1.3685
G3 X43.0748 Y-1.3921 I0.0204 J-0.0119
X43.0889 Y-1.3853 I0.0068 J0.0039
G1 X43.0871 Y-1.3814
X43.0849 Y-1.3778
G2 X43.0808 Y-1.3645 I0.0195 J0.0133
X43.0831 Y-1.3542 I0.0236 J0.
G1 X43.086 Y-1.3489 F25.
X43.0897 Y-1.341
X43.09 Y-1.3404
X43.0936 Y-1.332
X43.0946 Y-1.3294
X43.0957 Y-1.327
X43.0965 Y-1.3253
X43.0974 Y-1.3237
X43.0985 Y-1.3217
X43.0998 Y-1.3196
X43.1011 Y-1.3177
X43.1026 Y-1.3158
X43.1044 Y-1.3135
X43.1062 Y-1.3114
X43.108 Y-1.3095
X43.1103 Y-1.3072
X43.1127 Y-1.305
X43.1152 Y-1.3029
X43.118 Y-1.3006
X43.1213 Y-1.2982
X43.1251 Y-1.2956
X43.1292 Y-1.293
X43.1341 Y-1.2902
X43.1396 Y-1.2873
X43.1458 Y-1.2843
X43.1529 Y-1.2812
X43.1611 Y-1.278
X43.1705 Y-1.2746
X43.1811 Y-1.2713
X43.1919 Y-1.2684
X43.2028 Y-1.2658
X43.2137 Y-1.2635
X43.2247 Y-1.2615
X43.2357 Y-1.2597
X43.2467 Y-1.2581
X43.2578 Y-1.2567
X43.2689 Y-1.2555
X43.28 Y-1.2544
X43.2911 Y-1.2534
X43.3022 Y-1.2526
X43.3134 Y-1.2519
X43.3245 Y-1.2513
X43.3357 Y-1.2508
X43.3468 Y-1.2504
X43.358 Y-1.25
X43.3692 Y-1.2498
X43.3803 Y-1.2496
X43.3915 Y-1.2495
X43.4026
X43.4138
X43.425 Y-1.2497
X43.4361 Y-1.2499
X43.4473 Y-1.2502
X43.4584 Y-1.2506
X43.4696 Y-1.251
X43.4807 Y-1.2516
X43.4919 Y-1.2523
X43.503 Y-1.253
X43.5141 Y-1.254
X43.5252 Y-1.255
X43.5363 Y-1.2562
X43.5474 Y-1.2576
X43.5585 Y-1.2591
X43.5695 Y-1.2609
X43.5805 Y-1.2628
X43.5914 Y-1.2651
X43.6023 Y-1.2676
X43.6131 Y-1.2704
X43.6238 Y-1.2736
X43.6276 Y-1.2749
X43.6369 Y-1.2785
X43.6459 Y-1.283
X43.6544 Y-1.2883
X43.6625 Y-1.2943
X43.6699 Y-1.3011
X43.6767 Y-1.3085
X43.6828 Y-1.3164
X43.6881 Y-1.3249
X43.6926 Y-1.3339
X43.6956 Y-1.3404
G2 X43.6924 Y-1.3638 I-0.0219 J-0.0089 F86.6
G1 X43.6914 Y-1.3647
X43.6901 Y-1.365
X43.6888 Y-1.3648
X43.6877 Y-1.364
X43.687 Y-1.3629
X43.6869 Y-1.3615
X43.6874 Y-1.3603
X43.6895 Y-1.3573
G3 X43.6926 Y-1.3339 I-0.0187 J0.0144
G1 X43.6918 Y-1.332
X43.69 Y-1.3277
X43.6884 Y-1.3235
X43.6853 Y-1.3151
X43.6817 Y-1.3066
X43.6816 Y-1.3063
X43.6781 Y-1.2998
X43.6758 Y-1.2959
X43.6744 Y-1.2938
X43.6731 Y-1.2918
X43.6714 Y-1.2896
X43.6695 Y-1.2873
X43.6677 Y-1.2853
X43.6656 Y-1.2831
X43.6632 Y-1.2807
X43.6607 Y-1.2785
X43.658 Y-1.2761
X43.6547 Y-1.2736
X43.6511 Y-1.271
X43.6469 Y-1.2682
X43.6422 Y-1.2653
X43.637 Y-1.2623
X43.6309 Y-1.2592
X43.6241 Y-1.2559
X43.6163 Y-1.2526
X43.6074 Y-1.2492
X43.6071 Y-1.2491
X43.5984 Y-1.2465
X43.5895 Y-1.2446
X43.5805 Y-1.2435
X43.5714 Y-1.2431
G3 X43.5486 Y-1.2675 Z-0.5769 I0.0008 J-0.0236
X43.5614 Y-1.2877 I0.0236 J0.0008
G1 X43.6461 Y-1.3311
G3 X43.6672 Y-1.3314 I0.0108 J0.021
G1 X43.6702 Y-1.3296 Z-0.5776
X43.6729 Y-1.3275 Z-0.5784
G3 X43.6781 Y-1.2998 Z-0.5849 I-0.016 J0.0174
G1 X43.6772 Y-1.2982
X43.6731 Y-1.2916
X43.6718 Y-1.2897
X43.6651 Y-1.2813
X43.6646 Y-1.2807
X43.657 Y-1.2728
X43.6562 Y-1.272
X43.6477 Y-1.265
X43.6468 Y-1.2644
X43.6393 Y-1.2593
X43.6333 Y-1.2559
X43.6308 Y-1.2546
X43.6224 Y-1.2508
X43.6139 Y-1.2479
X43.6124 Y-1.2474
X43.6055 Y-1.2457
X43.597 Y-1.2442
X43.5886 Y-1.2433
X43.5801 Y-1.2431
X43.2335
X43.2223 Y-1.2437
X43.2142 Y-1.2442
X43.2057 Y-1.2451
X43.1971 Y-1.2463
X43.1886 Y-1.2479
X43.1803 Y-1.2497
X43.1723 Y-1.2518
X43.1699 Y-1.2525
X43.1602 Y-1.2559
X43.1508 Y-1.2602
X43.1418 Y-1.2654
X43.1334 Y-1.2714
X43.1256 Y-1.2782
X43.1184 Y-1.2857
X43.112 Y-1.2938
X43.1064 Y-1.3025
X43.1016 Y-1.3116
X43.0977 Y-1.3212
G3 X43.1131 Y-1.3508 Z-0.5769 I0.0225 J-0.0071
X43.1316 Y-1.349 I0.0071 J0.0225
G1 X43.244 Y-1.2874
G3 X43.2562 Y-1.2675 I-0.0113 J0.0207
X43.2335 Y-1.2431 Z-0.5849 I-0.0236 J0.0008
G1 X43.2081
X43.1996 Y-1.2432
X43.1912 Y-1.2438
X43.1827 Y-1.2451
X43.1743 Y-1.2471
X43.173 Y-1.2474
X43.1658 Y-1.2498
X43.1574 Y-1.2533
X43.1521 Y-1.2559
X43.1489 Y-1.2577
X43.1405 Y-1.263
X43.1386 Y-1.2644
X43.132 Y-1.2695
X43.1283 Y-1.2728
X43.1236 Y-1.2774
X43.1201 Y-1.2813
X43.1151 Y-1.2874
X43.1134 Y-1.2897
X43.1079 Y-1.2982
X43.1066 Y-1.3004
X43.1034 Y-1.3066
X43.0999 Y-1.3151
X43.0982 Y-1.3198
X43.0974 Y-1.3234 Z-0.5841
G2 X43.0912 Y-1.3562 Z-0.5769 I-0.4339 J0.0647
X42.9818 Y-1.5606 I-0.4277 J0.0975
X42.9693 Y-1.5675 I-0.0171 J0.0163
G1 X42.5022 Y-1.6624
G2 X42.4881 Y-1.6609 I-0.0047 J0.0231
X42.2966 Y-1.4993 I0.1753 J0.4021
G1 X42.2929 Y-1.4936 Z-0.5784
X42.2891 Y-1.4876 Z-0.5799
G3 X42.27 Y-1.4763 Z-0.5849 I-0.0202 J-0.0123
G1 X42.2105 Y-1.4759
X42.202 Y-1.4757
X42.1991
X42.1935 Y-1.4754
X42.1851 Y-1.4748
X42.1766 Y-1.4739
X42.1682 Y-1.4726
X42.1597 Y-1.4711
X42.1513 Y-1.4692
X42.1506 Y-1.469
X42.1396 Y-1.4667
X42.1287 Y-1.4647
X42.1176 Y-1.4631
X42.1066 Y-1.4617
X42.0954 Y-1.4605
X42.0843 Y-1.4596
X42.0732 Y-1.4587
X42.0621 Y-1.458
X42.0509 Y-1.4575
X42.0398 Y-1.457
X42.0286 Y-1.4565
X42.0175 Y-1.4562
X42.0063 Y-1.4559
X41.9951 Y-1.4556
X41.984 Y-1.4554
X41.9728 Y-1.4552
X41.9617 Y-1.455
X41.9505 Y-1.4549
X41.9393 Y-1.4547
X41.9282 Y-1.4546
X41.917 Y-1.4545
X41.9058
X41.8947 Y-1.4544
X41.8835
X41.8724 Y-1.4543
X41.8612
X41.85 Y-1.4542
X41.8389
X41.8166 Y-1.4541
X41.7942
X41.7607
X41.7273
X41.6714 Y-1.454
X41.5822
X41.3254
X41.3108
X41.3008 Y-1.4545
X41.291 Y-1.456
X41.2814 Y-1.4584
X41.272 Y-1.4617
X41.2635 Y-1.4649
X41.2566 Y-1.4672
X41.2551 Y-1.4677
X41.2466 Y-1.4701
X41.2382 Y-1.4723
X41.2297 Y-1.4741
X41.2213 Y-1.4756
X41.2207 Y-1.4757
X41.2128 Y-1.4768
X41.2044 Y-1.4776
X41.1959 Y-1.4782
X41.1874 Y-1.4785
X41.179
X41.1764
G3 X41.1564 Y-1.491 Z-0.5795 I0.0008 J-0.0236
X41.1524 Y-1.5026 Z-0.5769 I0.0339 J-0.0181
X41.2005 Y-1.5461 I0.0379 J-0.0065
X41.2551 Y-1.4925 I-0.0209 J0.0759
X41.2577 Y-1.4804 Z-0.5795 I-0.0755 J0.0223
G2 X41.272 Y-1.4617 Z-0.5849 I0.0234 J-0.0031
G1 X41.2791 Y-1.4588 F25.
X41.2804 Y-1.4582
X41.2889 Y-1.4542
X41.2966 Y-1.4503
X41.2968 Y-1.4502
X41.3003 Y-1.4485
X41.3034 Y-1.447
X41.3073 Y-1.4455
X41.312 Y-1.4438
X41.3178 Y-1.4419
X41.325 Y-1.4399
X41.3339 Y-1.4378
X41.3448 Y-1.4356
X41.3558 Y-1.4338
X41.3669 Y-1.4323
X41.378 Y-1.431
X41.3891 Y-1.43
X41.4002 Y-1.4291
X41.4114 Y-1.4283
X41.4225 Y-1.4277
X41.4337 Y-1.4272
X41.4448 Y-1.4267
X41.456 Y-1.4263
X41.4671 Y-1.426
X41.4783 Y-1.4257
X41.4894 Y-1.4255
X41.5006 Y-1.4253
X41.5118 Y-1.4251
X41.5229 Y-1.4249
X41.5341 Y-1.4248
X41.5452 Y-1.4247
X41.5564 Y-1.4246
X41.5676 Y-1.4245
X41.5787 Y-1.4244
X41.5899
X41.6011 Y-1.4243
X41.6122
X41.6234
X41.6345 Y-1.4242
X41.6457
X41.668
X41.6904 Y-1.4241
X41.7127
X41.735
X41.7573
X41.7796 Y-1.4242
X41.802
X41.8131
X41.8243
X41.8355 Y-1.4243
X41.8466
X41.8578
X41.8689 Y-1.4244
X41.8801 Y-1.4245
X41.8913
X41.9024 Y-1.4246
X41.9136 Y-1.4247
X41.9247 Y-1.4248
X41.9359 Y-1.425
X41.9471 Y-1.4251
X41.9582 Y-1.4253
X41.9694 Y-1.4255
X41.9806 Y-1.4258
X41.9917 Y-1.4261
X42.0029 Y-1.4264
X42.014 Y-1.4268
X42.0252 Y-1.4273
X42.0363 Y-1.4278
X42.0367
X42.0469 Y-1.4289
X42.0569 Y-1.4309
X42.0667 Y-1.4338
X42.0762 Y-1.4376
X42.0853 Y-1.4423
X42.0921 Y-1.4462
X42.0998 Y-1.4503
X42.1005 Y-1.4507
X42.109 Y-1.4547
X42.1175 Y-1.4583
X42.1185 Y-1.4588
X42.1259 Y-1.4616
X42.1344 Y-1.4645
X42.1428 Y-1.467
G2 X42.1585 Y-1.4846 Z-0.5795 I-0.0075 J-0.0224 F86.6
X42.1559 Y-1.4964 Z-0.5769 I-0.0145 J-0.003
G1 X42.1539 Y-1.4986
X42.1516 Y-1.5003
X42.1489 Y-1.5016
G2 X42.098 Y-1.4754 I-0.0131 J0.0371
X42.0964 Y-1.4632 Z-0.5795 I0.0378 J0.0109
G3 X42.0853 Y-1.4423 Z-0.5849 I-0.0236 J0.0008
G1 X42.0845 Y-1.4418
X42.0836 Y-1.4414
X42.0752 Y-1.436
X42.0713 Y-1.4334
X42.0667 Y-1.4301
X42.0647 Y-1.4285
X42.0613 Y-1.4262
X42.0595 Y-1.4251
X42.0573 Y-1.4238
X42.0546 Y-1.4224
X42.0513 Y-1.4208
X42.0474 Y-1.4191
X42.0426 Y-1.4172
X42.0369 Y-1.4152
X42.03 Y-1.4131
X42.0215 Y-1.4108
X42.0109 Y-1.4084
X42. Y-1.4063
X41.989 Y-1.4045
X41.9779 Y-1.403
X41.9668 Y-1.4018
X41.9557 Y-1.4007
X41.9446 Y-1.3998
X41.9334 Y-1.399
X41.9223 Y-1.3983
X41.9111 Y-1.3977
X41.9 Y-1.3972
X41.8888 Y-1.3968
X41.8777 Y-1.3964
X41.8665 Y-1.3961
X41.8554 Y-1.3958
X41.8442 Y-1.3956
X41.8331 Y-1.3954
X41.8219 Y-1.3952
X41.8107 Y-1.395
X41.7996 Y-1.3949
X41.7884 Y-1.3948
X41.7772 Y-1.3947
X41.7661 Y-1.3946
X41.7549 Y-1.3945
X41.7438
X41.7326 Y-1.3944
X41.7214
X41.7103
X41.6991
X41.688 Y-1.3943
X41.6768
X41.6656
X41.6545
X41.6433 Y-1.3944
X41.6321
X41.621
X41.6098 Y-1.3945
X41.5987
X41.5875 Y-1.3946
X41.5763 Y-1.3947
X41.5652
X41.554 Y-1.3949
X41.5428 Y-1.395
X41.5317 Y-1.3951
X41.5205 Y-1.3953
X41.5094 Y-1.3955
X41.4982 Y-1.3958
X41.487 Y-1.3961
X41.4759 Y-1.3964
X41.4647 Y-1.3968
X41.4536 Y-1.3973
X41.4424 Y-1.3978
X41.4313 Y-1.3984
X41.4202 Y-1.3992
X41.409 Y-1.4001
X41.3979 Y-1.4011
X41.3908 Y-1.4019
X41.3805 Y-1.4035
X41.3703 Y-1.4061
X41.3605 Y-1.4097
X41.351 Y-1.4142
X41.342 Y-1.4196
X41.3336 Y-1.4258
X41.3312 Y-1.4277
X41.3236 Y-1.4334
X41.3227 Y-1.434
X41.3143 Y-1.4398
X41.3111 Y-1.4418
X41.3058 Y-1.4451
X41.2974 Y-1.4499
X41.2968 Y-1.4502
G3 X41.2854 Y-1.4708 Z-0.5795 I0.0122 J-0.0202
X41.2898 Y-1.4821 Z-0.5769 I0.0176 J0.0003
X41.3158 Y-1.4826 I0.0133 J0.0116
X41.3263 Y-1.4604 I-0.0286 J0.027
X41.3259 Y-1.4481 Z-0.5795 I-0.0391 J0.0048
G2 X41.3336 Y-1.4258 Z-0.5849 I0.0232 J0.0045
G1 X41.3346 Y-1.4249 F25.
X41.3396 Y-1.4207
X41.3444 Y-1.4165
X41.3481 Y-1.4131
X41.3533 Y-1.408
X41.3536 Y-1.4077
X41.3554 Y-1.406
X41.3568 Y-1.4048
X41.3583 Y-1.4036
X41.3601 Y-1.4022
X41.3621 Y-1.4008
X41.3644 Y-1.3993
X41.367 Y-1.3978
X41.3702 Y-1.396
X41.374 Y-1.3942
X41.3784 Y-1.3922
X41.3837 Y-1.39
X41.39 Y-1.3878
X41.3974 Y-1.3854
X41.4063 Y-1.3829
X41.4171 Y-1.3802
X41.4281 Y-1.378
X41.4391 Y-1.3761
X41.4501 Y-1.3745
X41.4612 Y-1.3731
X41.4723 Y-1.3719
X41.4834 Y-1.3709
X41.4945 Y-1.37
X41.5057 Y-1.3692
X41.5168 Y-1.3685
X41.528 Y-1.3679
X41.5391 Y-1.3674
X41.5503 Y-1.367
X41.5614 Y-1.3666
X41.5726 Y-1.3663
X41.5837 Y-1.366
X41.5949 Y-1.3658
X41.6061 Y-1.3656
X41.6172 Y-1.3654
X41.6284 Y-1.3652
X41.6395 Y-1.3651
X41.6507 Y-1.365
X41.6619 Y-1.3649
X41.673
X41.6842 Y-1.3648
X41.6953
X41.7065
X41.7177
X41.7288
X41.74
X41.7512 Y-1.3649
X41.7623
X41.7735 Y-1.365
X41.7846 Y-1.3651
X41.7958 Y-1.3652
X41.807 Y-1.3654
X41.8181 Y-1.3656
X41.8293 Y-1.3658
X41.8404 Y-1.366
X41.8516 Y-1.3663
X41.8628 Y-1.3666
X41.8739 Y-1.367
X41.8851 Y-1.3675
X41.8962 Y-1.368
X41.9074 Y-1.3686
X41.9185 Y-1.3693
X41.9296 Y-1.3702
X41.9408 Y-1.3711
X41.9519 Y-1.3722
X41.9629 Y-1.3736
X41.974 Y-1.3751
X41.9789 Y-1.3758
X41.9884 Y-1.3778
X41.9978 Y-1.3806
X42.0069 Y-1.3843
X42.0156 Y-1.3887
X42.0239 Y-1.3939
X42.0317 Y-1.3998
X42.0389 Y-1.4063
X42.0406 Y-1.408
X42.0414 Y-1.4087
X42.0456 Y-1.4127
X42.0498 Y-1.4165
X42.054 Y-1.4201
X42.0564 Y-1.4221
G2 X42.0638 Y-1.4445 I-0.0157 J-0.0176 F86.6
X42.0428 Y-1.443 I-0.0104 J0.0022
X42.0444 Y-1.4293 I0.0393 J0.0024
G3 X42.0389 Y-1.4063 I-0.0226 J0.0068
G1 X42.0366 Y-1.4041
X42.0329 Y-1.4001
X42.0324 Y-1.3996
X42.0285 Y-1.3954
X42.0244 Y-1.3906
X42.0213 Y-1.3866
X42.0192 Y-1.3842
X42.0178 Y-1.3828
X42.0162 Y-1.3812
X42.0147 Y-1.3799
X42.0129 Y-1.3784
X42.0108 Y-1.3768
X42.0085 Y-1.3752
X42.0061 Y-1.3735
X42.003 Y-1.3716
X41.9995 Y-1.3697
X41.9954 Y-1.3676
X41.9906 Y-1.3654
X41.9851 Y-1.363
X41.9786 Y-1.3605
X41.9709 Y-1.358
X41.9617 Y-1.3552
X41.9509 Y-1.3525
X41.94 Y-1.3501
X41.9291 Y-1.348
X41.918 Y-1.3463
X41.907 Y-1.3447
X41.8959 Y-1.3434
X41.8848 Y-1.3422
X41.8737 Y-1.3412
X41.8626 Y-1.3403
X41.8514 Y-1.3396
X41.8403 Y-1.3389
X41.8291 Y-1.3383
X41.818 Y-1.3378
X41.8068 Y-1.3374
X41.7957 Y-1.337
X41.7845 Y-1.3367
X41.7734 Y-1.3364
X41.7622 Y-1.3362
X41.751 Y-1.336
X41.7399 Y-1.3358
X41.7287 Y-1.3357
X41.7175 Y-1.3356
X41.7064 Y-1.3355
X41.6952
X41.6841
X41.6729
X41.6617
X41.6506 Y-1.3356
X41.6394 Y-1.3357
X41.6283 Y-1.3358
X41.6171 Y-1.336
X41.6059 Y-1.3362
X41.5948 Y-1.3364
X41.5836 Y-1.3367
X41.5725 Y-1.3371
X41.5613 Y-1.3375
X41.5502 Y-1.3379
X41.539 Y-1.3385
X41.5279 Y-1.3391
X41.5167 Y-1.3398
X41.5056 Y-1.3407
X41.4945 Y-1.3416
X41.4834 Y-1.3427
X41.4723 Y-1.344
X41.4612 Y-1.3455
X41.4502 Y-1.3472
X41.4392 Y-1.3491
X41.4337 Y-1.3503
X41.4231 Y-1.353
X41.4128 Y-1.3568
X41.4029 Y-1.3615
X41.3936 Y-1.3673
X41.3849 Y-1.3739
X41.3769 Y-1.3814
X41.3696 Y-1.3896
X41.3685 Y-1.3911
X41.365 Y-1.3953
X41.3612 Y-1.3996
X41.3565 Y-1.4046
X41.3536 Y-1.4077
G3 X41.3487 Y-1.4308 I0.0176 J-0.0157
X41.3702 Y-1.4269 I0.0105 J0.0034
X41.367 Y-1.4131 I-0.0393 J-0.0019
G2 X41.3696 Y-1.3896 I0.0217 J0.0094
G1 X41.3734 Y-1.3848 F25.
X41.3751 Y-1.3827
X41.3811 Y-1.3742
X41.3819 Y-1.373
X41.3856 Y-1.3672
X41.3878 Y-1.3643
X41.3889 Y-1.3628
X41.3902 Y-1.3613
X41.3918 Y-1.3595
X41.3935 Y-1.3577
X41.3952 Y-1.3562
X41.3971 Y-1.3544
X41.3994 Y-1.3526
X41.4018 Y-1.3507
X41.4045 Y-1.3489
X41.4077 Y-1.3468
X41.4113 Y-1.3446
X41.4155 Y-1.3423
X41.4203 Y-1.3399
X41.4259 Y-1.3374
X41.4324 Y-1.3347
X41.4399 Y-1.3319
X41.4487 Y-1.329
X41.459 Y-1.3261
X41.4699 Y-1.3234
X41.4808 Y-1.321
X41.4918 Y-1.319
X41.5028 Y-1.3172
X41.5138 Y-1.3157
X41.5249 Y-1.3143
X41.536 Y-1.3131
X41.5471 Y-1.3121
X41.5583 Y-1.3112
X41.5694 Y-1.3104
X41.5805 Y-1.3097
X41.5917 Y-1.3091
X41.6028 Y-1.3086
X41.614 Y-1.3081
X41.6251 Y-1.3077
X41.6363 Y-1.3074
X41.6475 Y-1.3072
X41.6586 Y-1.3069
X41.6698 Y-1.3068
X41.6809 Y-1.3067
X41.6921 Y-1.3066
X41.7033 Y-1.3065
X41.7144
X41.7256 Y-1.3066
X41.7367 Y-1.3067
X41.7479 Y-1.3068
X41.7591 Y-1.307
X41.7702 Y-1.3073
X41.7814 Y-1.3076
X41.7925 Y-1.3079
X41.8037 Y-1.3083
X41.8148 Y-1.3088
X41.826 Y-1.3094
X41.8371 Y-1.3101
X41.8483 Y-1.3108
X41.8594 Y-1.3117
X41.8705 Y-1.3127
X41.8816 Y-1.3139
X41.8927 Y-1.3152
X41.9038 Y-1.3167
X41.9148 Y-1.3185
X41.9258 Y-1.3205
X41.9367 Y-1.3227
X41.9433 Y-1.3243
X41.9532 Y-1.3272
X41.9627 Y-1.3309
X41.9718 Y-1.3355
X41.9805 Y-1.3409
X41.9886 Y-1.3472
X41.9961 Y-1.3541
X42.0029 Y-1.3617
X42.009 Y-1.3699
X42.0119 Y-1.3742
X42.016 Y-1.3798
X42.0181 Y-1.3827
X42.0213 Y-1.3866
G2 X42.0241 Y-1.4101 I-0.0189 J-0.0141 F86.6
X42.0059 Y-1.4045 I-0.0088 J0.0038
X42.0098 Y-1.3935 I0.0386 J-0.0075
G3 X42.009 Y-1.3699 I-0.0209 J0.0111
G1 X42.0075 Y-1.3677
X42.0063 Y-1.3658
X42.0011 Y-1.3573
X41.9991 Y-1.3537
X41.9964 Y-1.3489
X41.9958 Y-1.3476
X41.9943 Y-1.3449
X41.9934 Y-1.3434
X41.9922 Y-1.3417
X41.9909 Y-1.3398
X41.9895 Y-1.3381
X41.9881 Y-1.3364
X41.9862 Y-1.3343
X41.9844 Y-1.3324
X41.9825 Y-1.3307
X41.9803 Y-1.3286
X41.9778 Y-1.3267
X41.9751 Y-1.3246
X41.9721 Y-1.3225
X41.9685 Y-1.3201
X41.9645 Y-1.3177
X41.9598 Y-1.3152
X41.9545 Y-1.3125
X41.9483 Y-1.3097
X41.9413 Y-1.3068
X41.9332 Y-1.3038
X41.9237 Y-1.3007
X41.913 Y-1.2976
X41.9022 Y-1.2949
X41.8913 Y-1.2925
X41.8803 Y-1.2905
X41.8693 Y-1.2886
X41.8582 Y-1.287
X41.8472 Y-1.2856
X41.8361 Y-1.2844
X41.825 Y-1.2833
X41.8138 Y-1.2824
X41.8027 Y-1.2815
X41.7916 Y-1.2808
X41.7804 Y-1.2802
X41.7693 Y-1.2797
X41.7581 Y-1.2792
X41.747 Y-1.2788
X41.7358 Y-1.2785
X41.7246 Y-1.2783
X41.7135 Y-1.2781
X41.7023 Y-1.278
X41.6912
X41.68
X41.6688 Y-1.2781
X41.6577 Y-1.2782
X41.6465 Y-1.2784
X41.6354 Y-1.2787
X41.6242 Y-1.279
X41.613 Y-1.2795
X41.6019 Y-1.28
X41.5908 Y-1.2806
X41.5796 Y-1.2813
X41.5685 Y-1.2821
X41.5574 Y-1.283
X41.5462 Y-1.2841
X41.5351 Y-1.2853
X41.5241 Y-1.2867
X41.513 Y-1.2883
X41.502 Y-1.2901
X41.491 Y-1.2921
X41.4801 Y-1.2944
X41.4693 Y-1.2971
X41.4585 Y-1.3
X41.4576 Y-1.3003
X41.4476 Y-1.304
X41.4381 Y-1.3086
X41.4291 Y-1.3141
X41.4206 Y-1.3204
X41.4128 Y-1.3275
X41.4057 Y-1.3354
X41.3994 Y-1.3439
X41.3939 Y-1.3529
X41.3915 Y-1.3573
G3 X41.393 Y-1.3809 I0.0212 J-0.0105
G1 X41.3938 Y-1.3816
X41.3949 Y-1.3819
X41.396 Y-1.3815
X41.3967 Y-1.3807
X41.397 Y-1.3797
X41.3967 Y-1.3786
X41.3954 Y-1.3765
G2 X41.3939 Y-1.3529 I0.0197 J0.0131
G1 X41.3961 Y-1.3489 F25.
X41.3988 Y-1.3434
X41.4002 Y-1.3404
X41.4039 Y-1.332
X41.4049 Y-1.3294
X41.4064 Y-1.3261
X41.4072 Y-1.3245
X41.4082 Y-1.3228
X41.4094 Y-1.3208
X41.4107 Y-1.3188
X41.4119 Y-1.317
X41.4135 Y-1.3149
X41.4154 Y-1.3126
X41.4171 Y-1.3107
X41.419 Y-1.3086
X41.4214 Y-1.3063
X41.4237 Y-1.3043
X41.4262 Y-1.3022
X41.4292 Y-1.2998
X41.4325 Y-1.2974
X41.4363 Y-1.2949
X41.4407 Y-1.2922
X41.4456 Y-1.2894
X41.4513 Y-1.2865
X41.4577 Y-1.2834
X41.465 Y-1.2803
X41.4734 Y-1.2771
X41.4831 Y-1.2738
X41.4938 Y-1.2705
X41.5046 Y-1.2677
X41.5154 Y-1.2652
X41.5264 Y-1.263
X41.5374 Y-1.261
X41.5484 Y-1.2593
X41.5594 Y-1.2578
X41.5705 Y-1.2564
X41.5816 Y-1.2552
X41.5927 Y-1.2542
X41.6039 Y-1.2533
X41.615 Y-1.2525
X41.6261 Y-1.2518
X41.6373 Y-1.2513
X41.6484 Y-1.2508
X41.6596 Y-1.2505
X41.6707 Y-1.2502
X41.6819 Y-1.25
X41.6931 Y-1.2499
X41.7042 Y-1.2498
X41.7154 Y-1.2499
X41.7266 Y-1.25
X41.7377 Y-1.2502
X41.7489 Y-1.2505
X41.76 Y-1.2509
X41.7712 Y-1.2514
X41.7823 Y-1.252
X41.7935 Y-1.2527
X41.8046 Y-1.2535
X41.8157 Y-1.2545
X41.8268 Y-1.2556
X41.8379 Y-1.2568
X41.849 Y-1.2582
X41.86 Y-1.2599
X41.871 Y-1.2617
X41.882 Y-1.2638
X41.8929 Y-1.2662
X41.9038 Y-1.2688
X41.9145 Y-1.2718
X41.9246 Y-1.2749
X41.9256 Y-1.2753
X41.9348 Y-1.279
X41.9436 Y-1.2836
X41.9519 Y-1.2889
X41.9598 Y-1.2949
X41.967 Y-1.3016
X41.9737 Y-1.3089
X41.9796 Y-1.3168
X41.9848 Y-1.3252
X41.9893 Y-1.3341
X41.9906 Y-1.3371
X41.9922 Y-1.3404
X41.9958 Y-1.3476
G2 X41.9936 Y-1.3711 I-0.0215 J-0.0098 F86.6
X41.9819 Y-1.3641 I-0.0056 J0.004
G1 X41.9838 Y-1.3607
X41.986 Y-1.3574
G3 X41.9893 Y-1.3341 I-0.0187 J0.0145
G1 X41.9883 Y-1.332
X41.9849 Y-1.3235
X41.9822 Y-1.3161
X41.9818 Y-1.3151
X41.9782 Y-1.3066
X41.9748 Y-1.3001
X41.9742 Y-1.299
X41.9741 Y-1.2988
X41.9735 Y-1.2978
X41.973 Y-1.2969
X41.9724 Y-1.2961
G3 X41.9456 Y-1.2878 Z-0.5784 I-0.0187 J-0.0131
G1 X41.9425 Y-1.2892 Z-0.5776
X41.9396 Y-1.2911 Z-0.5769
G3 X41.9629 Y-1.33 I0.014 J-0.018
X41.9757 Y-1.3032 Z-0.5839 I-0.0093 J0.0209
G1 X41.975 Y-1.3009 Z-0.5844
X41.9741 Y-1.2988 Z-0.5849
X41.9738 Y-1.2982
X41.9737 Y-1.2981
X41.971 Y-1.2939
X41.9687 Y-1.2907
X41.9669 Y-1.2885
X41.9652 Y-1.2864
X41.9633 Y-1.2842
X41.961 Y-1.2819
X41.9588 Y-1.2798
X41.9562 Y-1.2775
X41.9532 Y-1.2751
X41.9499 Y-1.2725
X41.9461 Y-1.2699
X41.9417 Y-1.267
X41.9369 Y-1.2642
X41.9313 Y-1.2611
X41.925 Y-1.2579
X41.9178 Y-1.2547
X41.9097 Y-1.2513
X41.9059 Y-1.2499
X41.8966 Y-1.247
X41.8872 Y-1.2448
X41.8775 Y-1.2435
X41.8678 Y-1.2431
G3 X41.845 Y-1.2675 Z-0.5769 I0.0008 J-0.0236
X41.8584 Y-1.288 I0.0236 J0.0008
G1 X41.9405 Y-1.3274
G3 X41.9629 Y-1.3263 I0.0102 J0.0213
X41.971 Y-1.2939 Z-0.5849 I-0.0122 J0.0203
G1 X41.9683 Y-1.2897
X41.9653 Y-1.2857
X41.9616 Y-1.2813
X41.9568 Y-1.276
X41.9535 Y-1.2728
X41.9484 Y-1.2683
X41.9433 Y-1.2644
X41.9399 Y-1.2619
X41.9315 Y-1.2568
X41.9298 Y-1.2559
X41.923 Y-1.2526
X41.9145 Y-1.2492
X41.9089 Y-1.2474
X41.9061 Y-1.2467
X41.8976 Y-1.2448
X41.8892 Y-1.2436
X41.8807 Y-1.2431
X41.8723
X41.5425
X41.5314 Y-1.2437
X41.5233 Y-1.2442
X41.5149 Y-1.2452
X41.5064 Y-1.2464
X41.4979 Y-1.248
X41.4895 Y-1.2498
X41.4815 Y-1.2519
X41.4798 Y-1.2525
X41.4697 Y-1.2561
X41.46 Y-1.2606
X41.4508 Y-1.2661
X41.4422 Y-1.2725
X41.4342 Y-1.2796
X41.427 Y-1.2875
X41.4206 Y-1.2961
X41.415 Y-1.3053
X41.4104 Y-1.3149
G3 X41.424 Y-1.3454 Z-0.5769 I0.0221 J-0.0084
X41.4433 Y-1.3443 I0.0084 J0.0221
G1 X41.5526 Y-1.2877
G3 X41.5653 Y-1.2675 I-0.0109 J0.021
X41.5425 Y-1.2431 Z-0.5849 I-0.0236 J0.0008
G1 X41.5172
X41.5087 Y-1.2432
X41.5003 Y-1.244
X41.4918 Y-1.2453
X41.4834 Y-1.2474
X41.4833
X41.4749 Y-1.2502
X41.4664 Y-1.2539
X41.4624 Y-1.2559
X41.458 Y-1.2584
X41.4495 Y-1.2639
X41.4489 Y-1.2644
X41.4411 Y-1.2706
X41.4387 Y-1.2728
X41.4326 Y-1.2789
X41.4305 Y-1.2813
X41.4242 Y-1.2892
X41.4238 Y-1.2897
X41.4183 Y-1.2982
X41.4157 Y-1.3029
X41.4139 Y-1.3066
X41.4103 Y-1.3151
X41.4086 Y-1.3197
X41.4078 Y-1.3233 Z-0.5841
G2 X41.4015 Y-1.3561 Z-0.5769 I-0.4444 J0.0681
X41.3142 Y-1.5364 I-0.4382 J0.1009
X41.3004 Y-1.5448 I-0.0184 J0.0148
G1 X40.7637 Y-1.6522
G2 X40.7477 Y-1.6498 I-0.0046 J0.0232
X40.5867 Y-1.5007 I0.2156 J0.3945
G1 X40.583 Y-1.4949 Z-0.5784
X40.5793 Y-1.4891 Z-0.5798
G3 X40.56 Y-1.4778 Z-0.5849 I-0.0202 J-0.0123
G1 X40.5111 Y-1.4777
X40.5026 Y-1.4776
X40.4942 Y-1.4774
X40.4857 Y-1.4768
X40.4773 Y-1.4759
X40.4749 Y-1.4757
X40.4688 Y-1.4747
X40.4603 Y-1.4733
X40.4519 Y-1.4715
X40.4434 Y-1.4693
X40.4355 Y-1.4675
X40.4246 Y-1.4653
X40.4136 Y-1.4636
X40.4025 Y-1.4621
X40.3914 Y-1.4609
X40.3803 Y-1.4598
X40.3692 Y-1.459
X40.358 Y-1.4583
X40.3469 Y-1.4576
X40.3357 Y-1.4571
X40.3246 Y-1.4567
X40.3134 Y-1.4563
X40.3023 Y-1.4559
X40.2911 Y-1.4557
X40.2799 Y-1.4554
X40.2688 Y-1.4552
X40.2576 Y-1.4551
X40.2465 Y-1.4549
X40.2353 Y-1.4548
X40.2241 Y-1.4547
X40.213 Y-1.4546
X40.2018 Y-1.4545
X40.1907 Y-1.4544
X40.1795
X40.1683 Y-1.4543
X40.1572
X40.146 Y-1.4542
X40.1348
X40.1125
X40.0902 Y-1.4541
X40.0567
X40.0232
X39.9786 Y-1.454
X39.9004
X39.7219
X39.584
X39.5734 Y-1.4545
X39.5629 Y-1.4561
X39.5526 Y-1.4586
X39.5426 Y-1.4621
X39.5388 Y-1.4636
X39.5303 Y-1.4667
X39.529 Y-1.4672
X39.5219 Y-1.4695
X39.5134 Y-1.4719
X39.505 Y-1.474
X39.4969 Y-1.4757
X39.4965
X39.4881 Y-1.4772
X39.4796 Y-1.4783
X39.4712 Y-1.4791
X39.4627 Y-1.4796
X39.4542 Y-1.4798
X39.4458
G3 X39.4258 Y-1.4924 Z-0.5795 I0.0008 J-0.0236
X39.4218 Y-1.504 Z-0.5769 I0.0349 J-0.0186
X39.4606 Y-1.5504 I0.0389 J-0.0069
G1 X39.4607
G3 X39.471 Y-1.5491 I0. J0.0395
X39.5265 Y-1.4934 I-0.0206 J0.076
X39.5287 Y-1.4812 Z-0.5795 I-0.0761 J0.0203
G2 X39.5426 Y-1.4621 Z-0.5849 I0.0235 J-0.0024
G1 X39.5472 Y-1.4602 F25.
X39.5505 Y-1.4588
X39.5557 Y-1.4563
X39.5642 Y-1.452
X39.5673 Y-1.4503
X39.5709 Y-1.4485
X39.574 Y-1.4471
X39.5778 Y-1.4456
X39.5825 Y-1.4439
X39.5882 Y-1.442
X39.5953 Y-1.4401
X39.6041 Y-1.4379
X39.615 Y-1.4357
X39.626 Y-1.4339
X39.6371 Y-1.4324
X39.6482 Y-1.4311
X39.6593 Y-1.43
X39.6704 Y-1.4291
X39.6815 Y-1.4284
X39.6927 Y-1.4277
X39.7038 Y-1.4272
X39.715 Y-1.4267
X39.7261 Y-1.4263
X39.7373 Y-1.426
X39.7485 Y-1.4257
X39.7596 Y-1.4255
X39.7708 Y-1.4253
X39.7819 Y-1.4251
X39.7931 Y-1.4249
X39.8043 Y-1.4248
X39.8154 Y-1.4247
X39.8266 Y-1.4246
X39.8377 Y-1.4245
X39.8489 Y-1.4244
X39.8601
X39.8712 Y-1.4243
X39.8824
X39.8936
X39.9047 Y-1.4242
X39.9159
X39.9382
X39.9605 Y-1.4241
X39.9829
X40.0052
X40.0275
X40.0498
X40.0721
X40.0945 Y-1.4242
X40.1056
X40.1168
X40.128 Y-1.4243
X40.1391
X40.1503
X40.1614 Y-1.4244
X40.1726 Y-1.4245
X40.1838
X40.1949 Y-1.4246
X40.2061 Y-1.4247
X40.2173 Y-1.4248
X40.2284 Y-1.425
X40.2396 Y-1.4251
X40.2507 Y-1.4253
X40.2619 Y-1.4255
X40.2731 Y-1.4258
X40.2842 Y-1.4261
X40.2954 Y-1.4264
X40.3065 Y-1.4268
X40.3177 Y-1.4273
X40.3288 Y-1.4278
X40.3328 Y-1.428
X40.3433 Y-1.4291
X40.3537 Y-1.4313
X40.3638 Y-1.4344
X40.3735 Y-1.4384
X40.3828 Y-1.4434
X40.3843 Y-1.4442
X40.3927 Y-1.4491
X40.3951 Y-1.4503
X40.4012 Y-1.4534
X40.4096 Y-1.4573
X40.4129 Y-1.4588
X40.4181 Y-1.4609
X40.4265 Y-1.464
X40.4312 Y-1.4656
G2 X40.4462 Y-1.4838 Z-0.5795 I-0.0083 J-0.0221 F86.6
G1 X40.4464 Y-1.4868 Z-0.5789
X40.4462 Y-1.4899 Z-0.5782
X40.4454 Y-1.4929 Z-0.5776
X40.4441 Y-1.4958 Z-0.5769
G2 X40.424 Y-1.5046 I-0.0159 J0.0089
X40.395 Y-1.4766 I0.009 J0.0383
X40.3936 Y-1.4644 Z-0.5795 I0.038 J0.0103
G3 X40.3828 Y-1.4434 Z-0.5849 I-0.0236 J0.0011
G1 X40.3802 Y-1.4418
X40.3758 Y-1.439
X40.3676 Y-1.4334
X40.3673 Y-1.4332
X40.3608 Y-1.4283
X40.3576 Y-1.4262
X40.3557 Y-1.425
X40.3533 Y-1.4237
X40.3505 Y-1.4222
X40.347 Y-1.4206
X40.3429 Y-1.4188
X40.3379 Y-1.4169
X40.3318 Y-1.4149
X40.3245 Y-1.4127
X40.3156 Y-1.4103
X40.3047 Y-1.4079
X40.2937 Y-1.4059
X40.2827 Y-1.4042
X40.2716 Y-1.4028
X40.2605 Y-1.4015
X40.2494 Y-1.4005
X40.2383 Y-1.3996
X40.2271 Y-1.3988
X40.216 Y-1.3982
X40.2048 Y-1.3976
X40.1937 Y-1.3971
X40.1825 Y-1.3967
X40.1714 Y-1.3963
X40.1602 Y-1.396
X40.149 Y-1.3958
X40.1379 Y-1.3955
X40.1267 Y-1.3953
X40.1156 Y-1.3952
X40.1044 Y-1.395
X40.0932 Y-1.3949
X40.0821 Y-1.3948
X40.0709 Y-1.3947
X40.0598 Y-1.3946
X40.0486 Y-1.3945
X40.0374
X40.0263 Y-1.3944
X40.0151
X40.004 Y-1.3943
X39.9928
X39.9816
X39.9705
X39.9593
X39.9481
X39.937
X39.9258
X39.9147
X39.9035 Y-1.3944
X39.8923
X39.8812
X39.87 Y-1.3945
X39.8588 Y-1.3946
X39.8477
X39.8365 Y-1.3947
X39.8254 Y-1.3948
X39.8142 Y-1.395
X39.803 Y-1.3951
X39.7919 Y-1.3953
X39.7807 Y-1.3955
X39.7696 Y-1.3957
X39.7584 Y-1.396
X39.7472 Y-1.3964
X39.7361 Y-1.3968
X39.7249 Y-1.3972
X39.7138 Y-1.3978
X39.7026 Y-1.3984
X39.6915 Y-1.3991
X39.6804 Y-1.4
X39.6693 Y-1.401
X39.6607 Y-1.402
X39.6504 Y-1.4036
X39.6403 Y-1.4062
X39.6305 Y-1.4097
X39.621 Y-1.4142
X39.612 Y-1.4196
X39.6036 Y-1.4257
X39.598 Y-1.4303
X39.5937 Y-1.4334
X39.5895 Y-1.4365
X39.5815 Y-1.4418
X39.5811 Y-1.4421
X39.5726 Y-1.4473
X39.5673 Y-1.4503
G3 X39.5559 Y-1.471 Z-0.5795 I0.0122 J-0.0202
X39.5604 Y-1.4822 Z-0.5769 I0.0173 J0.0003
X39.5858 Y-1.4825 I0.0128 J0.0116
X39.5962 Y-1.4603 I-0.0286 J0.0271
X39.5958 Y-1.448 Z-0.5795 I-0.0391 J0.0049
G2 X39.6036 Y-1.4257 Z-0.5849 I0.0232 J0.0045
G1 X39.6046 Y-1.4249 F25.
X39.6064 Y-1.4234
X39.6142 Y-1.4165
X39.6149 Y-1.4158
X39.6189 Y-1.412
X39.6229 Y-1.408
X39.6248 Y-1.4062
X39.6262 Y-1.405
X39.6276 Y-1.4038
X39.6295 Y-1.4024
X39.6315 Y-1.401
X39.6338 Y-1.3996
X39.6364 Y-1.398
X39.6396 Y-1.3962
X39.6433 Y-1.3944
X39.6477 Y-1.3924
X39.653 Y-1.3902
X39.6592 Y-1.388
X39.6665 Y-1.3856
X39.6754 Y-1.3831
X39.6861 Y-1.3804
X39.6971 Y-1.3782
X39.7081 Y-1.3763
X39.7191 Y-1.3746
X39.7302 Y-1.3732
X39.7413 Y-1.372
X39.7524 Y-1.3709
X39.7635 Y-1.37
X39.7746 Y-1.3693
X39.7858 Y-1.3686
X39.7969 Y-1.368
X39.8081 Y-1.3675
X39.8192 Y-1.367
X39.8304 Y-1.3667
X39.8415 Y-1.3663
X39.8527 Y-1.366
X39.8639 Y-1.3658
X39.875 Y-1.3656
X39.8862 Y-1.3654
X39.8973 Y-1.3652
X39.9085 Y-1.3651
X39.9197 Y-1.365
X39.9308 Y-1.3649
X39.942 Y-1.3648
X39.9531
X39.9643 Y-1.3647
X39.9755
X39.9866
X39.9978
X40.009
X40.0201
X40.0313
X40.0424 Y-1.3648
X40.0536
X40.0648 Y-1.3649
X40.0759 Y-1.365
X40.0871 Y-1.3651
X40.0982 Y-1.3653
X40.1094 Y-1.3655
X40.1206 Y-1.3657
X40.1317 Y-1.3659
X40.1429 Y-1.3662
X40.154 Y-1.3665
X40.1652 Y-1.3669
X40.1764 Y-1.3673
X40.1875 Y-1.3678
X40.1986 Y-1.3684
X40.2098 Y-1.369
X40.2209 Y-1.3698
X40.2321 Y-1.3707
X40.2432 Y-1.3718
X40.2543 Y-1.373
X40.2653 Y-1.3744
X40.2764 Y-1.376
X40.2775 Y-1.3762
X40.2872 Y-1.3784
X40.2965 Y-1.3813
X40.3056 Y-1.3851
X40.3143 Y-1.3897
X40.3226 Y-1.3951
X40.3303 Y-1.4012
X40.3375 Y-1.4079
X40.3376 Y-1.408
X40.342 Y-1.4123
X40.3465 Y-1.4165
X40.3504 Y-1.4199
X40.3565 Y-1.4249
X40.3589 Y-1.4269
X40.3608 Y-1.4283
G2 X40.3694 Y-1.4503 I-0.0147 J-0.0185 F86.6
X40.3415 Y-1.4511 I-0.014 J0.0021
X40.3425 Y-1.431 I0.0385 J0.0082
G3 X40.3375 Y-1.4079 I-0.0225 J0.0072
G1 X40.3335 Y-1.4038
X40.3296 Y-1.3996
X40.3251 Y-1.3945
X40.3223 Y-1.3911
X40.3192 Y-1.3872
X40.3168 Y-1.3846
X40.3153 Y-1.3831
X40.3139 Y-1.3816
X40.3123 Y-1.3802
X40.3104 Y-1.3786
X40.3084 Y-1.377
X40.3063 Y-1.3755
X40.3037 Y-1.3738
X40.3007 Y-1.372
X40.2972 Y-1.37
X40.2932 Y-1.3679
X40.2884 Y-1.3657
X40.2828 Y-1.3633
X40.2763 Y-1.3608
X40.2686 Y-1.3582
X40.2595 Y-1.3555
X40.2487 Y-1.3527
X40.2378 Y-1.3503
X40.2269 Y-1.3482
X40.2159 Y-1.3464
X40.2048 Y-1.3449
X40.1937 Y-1.3435
X40.1826 Y-1.3423
X40.1715 Y-1.3413
X40.1604 Y-1.3404
X40.1492 Y-1.3396
X40.1381 Y-1.339
X40.127 Y-1.3384
X40.1158 Y-1.3379
X40.1047 Y-1.3374
X40.0935 Y-1.337
X40.0823 Y-1.3367
X40.0712 Y-1.3364
X40.06 Y-1.3361
X40.0489 Y-1.3359
X40.0377 Y-1.3358
X40.0265 Y-1.3356
X40.0154 Y-1.3355
X40.0042 Y-1.3354
X39.9931 Y-1.3353
X39.9819
X39.9707
X39.9596
X39.9484
X39.9372
X39.9261 Y-1.3354
X39.9149 Y-1.3355
X39.9038 Y-1.3357
X39.8926 Y-1.3358
X39.8814 Y-1.336
X39.8703 Y-1.3362
X39.8591 Y-1.3365
X39.848 Y-1.3368
X39.8368 Y-1.3372
X39.8257 Y-1.3377
X39.8145 Y-1.3382
X39.8034 Y-1.3387
X39.7922 Y-1.3394
X39.7811 Y-1.3402
X39.77 Y-1.3411
X39.7588 Y-1.3421
X39.7477 Y-1.3433
X39.7367 Y-1.3447
X39.7256 Y-1.3463
X39.7146 Y-1.3481
X39.7036 Y-1.3502
X39.7015 Y-1.3507
X39.691 Y-1.3535
X39.681 Y-1.3573
X39.6713 Y-1.3622
X39.6622 Y-1.3679
X39.6537 Y-1.3745
X39.6458 Y-1.3819
X39.6387 Y-1.39
X39.6379 Y-1.3911
X39.6318 Y-1.3984
G3 X39.6285 Y-1.4218 I0.0186 J-0.0146
X39.638 Y-1.4185 I0.0047 J0.0019
G1 X39.6372 Y-1.416
X39.6362 Y-1.4135
G2 X39.6387 Y-1.39 I0.0216 J0.0095
G1 X39.6402 Y-1.3881 F25.
X39.6444 Y-1.3827
X39.6487 Y-1.3766
X39.6503 Y-1.3742
X39.6545 Y-1.3677
X39.6568 Y-1.3646
X39.6579 Y-1.3631
X39.6592 Y-1.3615
X39.6609 Y-1.3597
X39.6625 Y-1.358
X39.6642 Y-1.3564
X39.6662 Y-1.3546
X39.6685 Y-1.3528
X39.6708 Y-1.351
X39.6735 Y-1.3491
X39.6766 Y-1.3471
X39.6803 Y-1.3448
X39.6844 Y-1.3426
X39.6892 Y-1.3401
X39.6948 Y-1.3376
X39.7012 Y-1.3349
X39.7087 Y-1.3321
X39.7174 Y-1.3292
X39.7278 Y-1.3262
X39.7386 Y-1.3235
X39.7495 Y-1.3212
X39.7605 Y-1.3191
X39.7715 Y-1.3173
X39.7826 Y-1.3158
X39.7937 Y-1.3144
X39.8048 Y-1.3132
X39.8159 Y-1.3121
X39.827 Y-1.3112
X39.8381 Y-1.3104
X39.8493 Y-1.3097
X39.8604 Y-1.3091
X39.8716 Y-1.3085
X39.8827 Y-1.3081
X39.8939 Y-1.3077
X39.905 Y-1.3073
X39.9162 Y-1.307
X39.9273 Y-1.3068
X39.9385 Y-1.3066
X39.9497 Y-1.3064
X39.9608 Y-1.3063
X39.972 Y-1.3062
X39.9832
X39.9943
X40.0055
X40.0166 Y-1.3063
X40.0278 Y-1.3064
X40.039 Y-1.3065
X40.0501 Y-1.3067
X40.0613 Y-1.307
X40.0724 Y-1.3073
X40.0836 Y-1.3076
X40.0947 Y-1.308
X40.1059 Y-1.3085
X40.1171 Y-1.309
X40.1282 Y-1.3096
X40.1393 Y-1.3104
X40.1505 Y-1.3112
X40.1616 Y-1.3121
X40.1727 Y-1.3132
X40.1838 Y-1.3145
X40.1949 Y-1.3159
X40.2059 Y-1.3175
X40.2169 Y-1.3194
X40.2279 Y-1.3215
X40.2388 Y-1.3239
X40.2426 Y-1.3249
X40.2524 Y-1.3279
X40.2619 Y-1.3318
X40.2711 Y-1.3366
X40.2797 Y-1.3422
X40.2877 Y-1.3486
X40.2952 Y-1.3557
X40.3019 Y-1.3635
X40.3079 Y-1.3718
G2 X40.3111 Y-1.3861 I-0.0203 J-0.0121 F86.6
G1 X40.3108 Y-1.3875
X40.31 Y-1.3887
X40.3089 Y-1.3897
X40.3075 Y-1.3902
X40.306 Y-1.3903
X40.3047 Y-1.3905
X40.3035 Y-1.3912
X40.3027 Y-1.3923
X40.3024 Y-1.3936
X40.3026 Y-1.3949
X40.3034 Y-1.3961
X40.3046 Y-1.3968
X40.3056 Y-1.397
X40.3067 Y-1.3968
X40.3076 Y-1.3962
X40.3083 Y-1.3954
G3 X40.3079 Y-1.3718 I-0.0206 J0.0115
G1 X40.304 Y-1.3658
X40.2997 Y-1.3586
X40.299 Y-1.3573
X40.2943 Y-1.3489
X40.2938 Y-1.3478
X40.2925 Y-1.3455
X40.2916 Y-1.344
X40.2905 Y-1.3422
X40.2891 Y-1.3404
X40.2879 Y-1.3387
X40.2863 Y-1.3369
X40.2845 Y-1.3348
X40.2827 Y-1.333
X40.2808 Y-1.3312
X40.2785 Y-1.3291
X40.2761 Y-1.3271
X40.2735 Y-1.3251
X40.2704 Y-1.3229
X40.267 Y-1.3207
X40.2629 Y-1.3182
X40.2583 Y-1.3156
X40.253 Y-1.313
X40.2469 Y-1.3102
X40.2399 Y-1.3072
X40.2319 Y-1.3042
X40.2226 Y-1.3011
X40.2119 Y-1.298
X40.2011 Y-1.2953
X40.1902 Y-1.2928
X40.1792 Y-1.2907
X40.1682 Y-1.2889
X40.1572 Y-1.2872
X40.1461 Y-1.2858
X40.135 Y-1.2845
X40.1239 Y-1.2834
X40.1128 Y-1.2824
X40.1017 Y-1.2815
X40.0905 Y-1.2808
X40.0794 Y-1.2801
X40.0683 Y-1.2795
X40.0571 Y-1.2791
X40.0459 Y-1.2786
X40.0348 Y-1.2783
X40.0236 Y-1.278
X40.0125 Y-1.2778
X40.0013 Y-1.2776
X39.9902 Y-1.2775
X39.979 Y-1.2774
X39.9678
X39.9567 Y-1.2775
X39.9455 Y-1.2776
X39.9343 Y-1.2777
X39.9232 Y-1.2779
X39.912 Y-1.2782
X39.9009 Y-1.2786
X39.8897 Y-1.279
X39.8786 Y-1.2794
X39.8674 Y-1.28
X39.8563 Y-1.2807
X39.8451 Y-1.2814
X39.834 Y-1.2823
X39.8229 Y-1.2833
X39.8118 Y-1.2844
X39.8007 Y-1.2857
X39.7896 Y-1.2872
X39.7786 Y-1.2888
X39.7676 Y-1.2907
X39.7566 Y-1.2929
X39.7457 Y-1.2953
X39.7349 Y-1.298
X39.7291 Y-1.2997
X39.7187 Y-1.3033
X39.7087 Y-1.3079
X39.6992 Y-1.3135
X39.6903 Y-1.32
X39.6821 Y-1.3274
X39.6747 Y-1.3356
X39.6681 Y-1.3444
X39.6625 Y-1.3539
X39.6606 Y-1.3573
G3 X39.6623 Y-1.3809 I0.0212 J-0.0103
G1 X39.6629 Y-1.3814
X39.6638 Y-1.3816
X39.6646 Y-1.3813
X39.6652 Y-1.3807
X39.6654 Y-1.3799
X39.6652 Y-1.379
X39.6641 Y-1.3774
G2 X39.6625 Y-1.3539 I0.0196 J0.0132
G1 X39.6651 Y-1.3489 F25.
X39.6656 Y-1.3479
X39.6692 Y-1.3404
X39.6728 Y-1.332
X39.6741 Y-1.3289
X39.6747 Y-1.3274
X39.6756 Y-1.3256
X39.6764 Y-1.3239
X39.6774 Y-1.3222
X39.6787 Y-1.3201
X39.6801 Y-1.3181
X39.6814 Y-1.3162
X39.6831 Y-1.3142
X39.685 Y-1.3119
X39.6869 Y-1.3099
X39.6888 Y-1.3079
X39.6912 Y-1.3056
X39.6937 Y-1.3034
X39.6965 Y-1.3011
X39.6996 Y-1.2988
X39.7032 Y-1.2963
X39.7073 Y-1.2937
X39.7119 Y-1.2909
X39.7173 Y-1.288
X39.7233 Y-1.285
X39.7301 Y-1.282
X39.738 Y-1.2788
X39.747 Y-1.2755
X39.7574 Y-1.2721
X39.7682 Y-1.2691
X39.779 Y-1.2664
X39.7899 Y-1.264
X39.8009 Y-1.2619
X39.8119 Y-1.2601
X39.8229 Y-1.2584
X39.834 Y-1.257
X39.8451 Y-1.2557
X39.8562 Y-1.2545
X39.8673 Y-1.2535
X39.8784 Y-1.2527
X39.8896 Y-1.2519
X39.9007 Y-1.2513
X39.9119 Y-1.2507
X39.923 Y-1.2502
X39.9342 Y-1.2498
X39.9453 Y-1.2495
X39.9565 Y-1.2493
X39.9676 Y-1.2492
X39.9788 Y-1.2491
X39.99
X40.0011
X40.0123 Y-1.2492
X40.0234 Y-1.2494
X40.0346 Y-1.2497
X40.0458 Y-1.2501
X40.0569 Y-1.2505
X40.0681 Y-1.2511
X40.0792 Y-1.2517
X40.0903 Y-1.2524
X40.1015 Y-1.2533
X40.1126 Y-1.2542
X40.1237 Y-1.2553
X40.1348 Y-1.2566
X40.1459 Y-1.2581
X40.1569 Y-1.2597
X40.1679 Y-1.2615
X40.1789 Y-1.2636
X40.1898 Y-1.266
X40.2006 Y-1.2686
X40.2114 Y-1.2716
X40.2216 Y-1.2747
X40.2236 Y-1.2754
X40.2329 Y-1.2792
X40.2417 Y-1.2837
X40.2501 Y-1.2891
X40.258 Y-1.2951
X40.2653 Y-1.3019
X40.272 Y-1.3093
X40.278 Y-1.3173
X40.2832 Y-1.3258
X40.2877 Y-1.3347
X40.2891 Y-1.3378
G2 X40.2857 Y-1.3612 I-0.0219 J-0.0088 F86.6
G1 X40.285 Y-1.3617
X40.2841
X40.2833 Y-1.3611
X40.283 Y-1.3603
X40.2833 Y-1.3594
X40.2843 Y-1.358
G3 X40.2877 Y-1.3347 I-0.0186 J0.0146
G1 X40.2865 Y-1.332
X40.2831 Y-1.3235
X40.2828 Y-1.3228
X40.28 Y-1.3151
X40.2765 Y-1.3066
X40.2743 Y-1.3024
X40.272 Y-1.2982
X40.2668 Y-1.2909
X40.265 Y-1.2886
X40.2633 Y-1.2866
X40.2613 Y-1.2844
X40.2591 Y-1.2821
X40.2568 Y-1.2799
X40.2542 Y-1.2777
X40.2512 Y-1.2752
X40.2479 Y-1.2727
X40.244 Y-1.27
X40.2396 Y-1.2671
X40.2348 Y-1.2642
X40.2292 Y-1.2611
X40.2228 Y-1.2579
X40.2156 Y-1.2546
X40.2074 Y-1.2513
X40.2038 Y-1.2499
X40.1945 Y-1.247
X40.185 Y-1.2448
X40.1754 Y-1.2435
X40.1657 Y-1.2431
G3 X40.1429 Y-1.2675 Z-0.5769 I0.0008 J-0.0236
X40.1559 Y-1.2879 I0.0236 J0.0008
G1 X40.2404 Y-1.33
G3 X40.2617 Y-1.3299 I0.0106 J0.0211
G1 X40.2646 Y-1.3282 Z-0.5776
X40.2673 Y-1.326 Z-0.5784
G3 X40.272 Y-1.2982 Z-0.5849 I-0.0163 J0.0171
G1 X40.2665 Y-1.2897
X40.2659 Y-1.2888
X40.2598 Y-1.2813
X40.2574 Y-1.2786
X40.2516 Y-1.2728
X40.249 Y-1.2704
X40.2414 Y-1.2644
X40.2405 Y-1.2637
X40.2321 Y-1.2582
X40.2279 Y-1.2559
X40.2236 Y-1.2538
X40.2152 Y-1.2502
X40.207 Y-1.2474
X40.2067
X40.1983 Y-1.2453
X40.1898 Y-1.2439
X40.1813 Y-1.2432
X40.1729 Y-1.2431
X39.8093
X39.7982 Y-1.2437
X39.7899 Y-1.2444
X39.7813 Y-1.2454
X39.7727 Y-1.2468
X39.7642 Y-1.2485
X39.756 Y-1.2505
X39.748 Y-1.2527
X39.7474 Y-1.2529
X39.7379 Y-1.2564
X39.7288 Y-1.2607
X39.7201 Y-1.2659
X39.7119 Y-1.2719
X39.7043 Y-1.2785
X39.6974 Y-1.2859
X39.6911 Y-1.2938
X39.6856 Y-1.3024
X39.6809 Y-1.3113
X39.6771 Y-1.3207
G3 X39.6924 Y-1.3504 Z-0.5769 I0.0225 J-0.0072
X39.7112 Y-1.3484 I0.0072 J0.0225
G1 X39.8201 Y-1.2873
G3 X39.8321 Y-1.2675 I-0.0116 J0.0206
G1 X39.832 Y-1.2641 Z-0.5776
X39.8314 Y-1.2607 Z-0.5784
G3 X39.8093 Y-1.2431 Z-0.5849 I-0.0229 J-0.006
G1 X39.784
X39.7755 Y-1.2433
X39.7671 Y-1.2442
X39.7586 Y-1.2458
X39.7522 Y-1.2474
X39.7502 Y-1.2481
X39.7417 Y-1.2511
X39.7332 Y-1.2549
X39.7313 Y-1.2559
X39.7248 Y-1.2596
X39.7178 Y-1.2644
X39.7163 Y-1.2654
X39.7121 Y-1.2688
X39.7079 Y-1.2725
X39.7075 Y-1.2728
X39.7033 Y-1.2769
X39.6994 Y-1.2811
X39.6993 Y-1.2813
X39.6926 Y-1.2897
X39.691 Y-1.292
X39.6871 Y-1.2982
X39.6827 Y-1.3066
X39.6825 Y-1.3069
X39.6791 Y-1.3151
X39.6761 Y-1.3235
X39.6752 Y-1.3271 Z-0.5841
G2 X39.6689 Y-1.3599 Z-0.5769 I-0.427 J0.0651
X39.5607 Y-1.5603 I-0.4207 J0.0979
X39.5483 Y-1.5671 I-0.0171 J0.0163
G1 X39.0902 Y-1.6597
G2 X39.0762 Y-1.6583 I-0.0047 J0.0232
X38.8875 Y-1.4997 I0.172 J0.3962
X38.88 Y-1.4879 Z-0.5799 I0.3607 J0.2377
G3 X38.8608 Y-1.4767 Z-0.5849 I-0.0201 J-0.0124
G1 X38.8117 Y-1.4764
X38.8032
X38.7948 Y-1.4762
X38.7863 Y-1.4759
X38.7825 Y-1.4757
X38.7779 Y-1.4752
X38.7694 Y-1.4743
X38.761 Y-1.473
X38.7525 Y-1.4715
X38.7441 Y-1.4696
X38.7427 Y-1.4692
X38.7317 Y-1.4669
X38.7208 Y-1.4649
X38.7097 Y-1.4632
X38.6987 Y-1.4618
X38.6876 Y-1.4606
X38.6764 Y-1.4596
X38.6653 Y-1.4588
X38.6542 Y-1.4581
X38.643 Y-1.4575
X38.6319 Y-1.457
X38.6207 Y-1.4566
X38.6096 Y-1.4562
X38.5984 Y-1.4559
X38.5872 Y-1.4556
X38.5761 Y-1.4554
X38.5649 Y-1.4552
X38.5538 Y-1.455
X38.5426 Y-1.4549
X38.5314 Y-1.4547
X38.5203 Y-1.4546
X38.5091
X38.498 Y-1.4545
X38.4868 Y-1.4544
X38.4756
X38.4645 Y-1.4543
X38.4533
X38.4421 Y-1.4542
X38.431
X38.4087 Y-1.4541
X38.3863
X38.3528
X38.3194
X38.2636 Y-1.454
X38.1743
X37.9287
X37.8997
X37.8908 Y-1.4544
X37.882 Y-1.4554
X37.8732 Y-1.4571
X37.8647 Y-1.4595
X37.8563 Y-1.4625
X37.8479 Y-1.4659
X37.8444 Y-1.4672
X37.8394 Y-1.4689
X37.831 Y-1.4717
X37.8225 Y-1.474
X37.8158 Y-1.4757
X37.814 Y-1.476
X37.8056 Y-1.4778
X37.7971 Y-1.4791
X37.7887 Y-1.4802
X37.7802 Y-1.481
X37.7718 Y-1.4814
X37.7633 Y-1.4816
X37.7587
G3 X37.7386 Y-1.494 Z-0.5795 I0.0007 J-0.0236
X37.7345 Y-1.5056 Z-0.5769 I0.0341 J-0.0184
X37.781 Y-1.5503 I0.0382 J-0.0068
X37.8402 Y-1.4937 I-0.0169 J0.0769
X37.8425 Y-1.4816 Z-0.5795 I-0.0761 J0.0204
G2 X37.8563 Y-1.4625 Z-0.5849 I0.0235 J-0.0025
G1 X37.8645 Y-1.4588 F25.
X37.8648 Y-1.4586
X37.8732 Y-1.4545
X37.8808 Y-1.4503
X37.8838 Y-1.4488
X37.8868 Y-1.4474
X37.8905 Y-1.4459
X37.895 Y-1.4442
X37.9005 Y-1.4424
X37.9073 Y-1.4404
X37.9158 Y-1.4383
X37.9265 Y-1.436
X37.9375 Y-1.4342
X37.9486 Y-1.4326
X37.9597 Y-1.4313
X37.9708 Y-1.4302
X37.9819 Y-1.4293
X37.993 Y-1.4285
X38.0042 Y-1.4278
X38.0153 Y-1.4273
X38.0265 Y-1.4268
X38.0376 Y-1.4264
X38.0488 Y-1.4261
X38.0599 Y-1.4258
X38.0711 Y-1.4255
X38.0823 Y-1.4253
X38.0934 Y-1.4251
X38.1046 Y-1.425
X38.1157 Y-1.4248
X38.1269 Y-1.4247
X38.1381 Y-1.4246
X38.1492 Y-1.4245
X38.1604
X38.1715 Y-1.4244
X38.1827 Y-1.4243
X38.1939
X38.205
X38.2162 Y-1.4242
X38.2274
X38.2497
X38.272 Y-1.4241
X38.2943
X38.3167
X38.339
X38.3613
X38.3836 Y-1.4242
X38.3948
X38.4059
X38.4171
X38.4283 Y-1.4243
X38.4394
X38.4506 Y-1.4244
X38.4618
X38.4729 Y-1.4245
X38.4841
X38.4952 Y-1.4246
X38.5064 Y-1.4247
X38.5176 Y-1.4248
X38.5287 Y-1.425
X38.5399 Y-1.4251
X38.551 Y-1.4253
X38.5622 Y-1.4255
X38.5734 Y-1.4258
X38.5845 Y-1.4261
X38.5957 Y-1.4264
X38.6068 Y-1.4269
X38.618 Y-1.4273
X38.6293 Y-1.4279
X38.6395 Y-1.429
X38.6496 Y-1.431
X38.6594 Y-1.434
X38.669 Y-1.4378
X38.6781 Y-1.4425
X38.6849 Y-1.4465
X38.692 Y-1.4503
X38.6933 Y-1.451
X38.7018 Y-1.455
X38.7102 Y-1.4586
X38.7105 Y-1.4588
X38.7187 Y-1.4619
X38.7271 Y-1.4648
X38.7351 Y-1.4672
G2 X38.7507 Y-1.4849 Z-0.5795 I-0.0075 J-0.0224 F86.6
G1 X38.751 Y-1.4879 Z-0.5789
X38.7508 Y-1.4902 Z-0.5784
X38.7503 Y-1.4925 Z-0.5779
X38.7494 Y-1.4947 Z-0.5774
X38.7482 Y-1.4967 Z-0.5769
X38.7466 Y-1.4985
X38.7448 Y-1.5001
X38.7427 Y-1.5014
X38.7405 Y-1.5023
G2 X38.6906 Y-1.4756 I-0.012 J0.0375
X38.6891 Y-1.4634 Z-0.5795 I0.0379 J0.0108
G3 X38.6781 Y-1.4425 Z-0.5849 I-0.0236 J0.0008
G1 X38.6769 Y-1.4418
X38.6764 Y-1.4416
X38.668 Y-1.4362
X38.6638 Y-1.4334
X38.6595 Y-1.4302
X38.6574 Y-1.4286
X38.654 Y-1.4263
X38.6523 Y-1.4252
X38.65 Y-1.424
X38.6474 Y-1.4225
X38.6441 Y-1.421
X38.6402 Y-1.4192
X38.6354 Y-1.4174
X38.6297 Y-1.4154
X38.6228 Y-1.4132
X38.6144 Y-1.4109
X38.604 Y-1.4085
X38.593 Y-1.4064
X38.582 Y-1.4046
X38.5709 Y-1.4031
X38.5598 Y-1.4018
X38.5487 Y-1.4007
X38.5376 Y-1.3998
X38.5265 Y-1.399
X38.5153 Y-1.3983
X38.5042 Y-1.3977
X38.493 Y-1.3972
X38.4819 Y-1.3968
X38.4707 Y-1.3964
X38.4596 Y-1.3961
X38.4484 Y-1.3958
X38.4373 Y-1.3956
X38.4261 Y-1.3954
X38.4149 Y-1.3952
X38.4038 Y-1.395
X38.3926 Y-1.3949
X38.3814 Y-1.3948
X38.3703 Y-1.3947
X38.3591 Y-1.3946
X38.348 Y-1.3945
X38.3368
X38.3256 Y-1.3944
X38.3145
X38.3033
X38.2921 Y-1.3943
X38.281
X38.2698
X38.2587
X38.2475
X38.2363
X38.2252 Y-1.3944
X38.214
X38.2029
X38.1917 Y-1.3945
X38.1805
X38.1694 Y-1.3946
X38.1582 Y-1.3947
X38.147 Y-1.3948
X38.1359 Y-1.3949
X38.1247 Y-1.395
X38.1136 Y-1.3952
X38.1024 Y-1.3954
X38.0912 Y-1.3956
X38.0801 Y-1.3958
X38.0689 Y-1.3961
X38.0578 Y-1.3965
X38.0466 Y-1.3969
X38.0355 Y-1.3974
X38.0243 Y-1.3979
X38.0132 Y-1.3986
X38.002 Y-1.3994
X37.9909 Y-1.4003
X37.9798 Y-1.4013
X37.9718 Y-1.4022
X37.9616 Y-1.4039
X37.9516 Y-1.4065
X37.9419 Y-1.4101
X37.9326 Y-1.4146
X37.9238 Y-1.42
X37.9155 Y-1.4262
X37.9071 Y-1.4329
X37.9064 Y-1.4334
X37.8986 Y-1.439
X37.8945 Y-1.4418
X37.8901 Y-1.4447
X37.8817 Y-1.4498
X37.8808 Y-1.4503
G3 X37.8695 Y-1.471 Z-0.5795 I0.0124 J-0.0201
X37.8742 Y-1.4822 Z-0.5769 I0.0166 J0.0004
X37.8986 Y-1.4815 I0.0119 J0.0116
X37.908 Y-1.4607 I-0.0297 J0.0259
X37.9077 Y-1.4484 Z-0.5795 I-0.039 J0.0051
G2 X37.9155 Y-1.4262 Z-0.5849 I0.0232 J0.0043
G1 X37.917 Y-1.4249 F25.
X37.924 Y-1.4187
X37.9263 Y-1.4165
X37.9324 Y-1.4105
X37.9348 Y-1.408
X37.936 Y-1.4069
X37.9373 Y-1.4057
X37.9387 Y-1.4045
X37.9405 Y-1.4032
X37.9424 Y-1.4018
X37.9445 Y-1.4003
X37.947 Y-1.3988
X37.9501 Y-1.3971
X37.9536 Y-1.3953
X37.9578 Y-1.3933
X37.9627 Y-1.3912
X37.9685 Y-1.389
X37.9754 Y-1.3866
X37.9837 Y-1.3841
X37.9936 Y-1.3815
X38.0045 Y-1.3791
X38.0155 Y-1.3771
X38.0265 Y-1.3753
X38.0376 Y-1.3738
X38.0487 Y-1.3725
X38.0598 Y-1.3714
X38.0709 Y-1.3704
X38.082 Y-1.3696
X38.0932 Y-1.3689
X38.1043 Y-1.3683
X38.1155 Y-1.3677
X38.1266 Y-1.3672
X38.1378 Y-1.3668
X38.1489 Y-1.3665
X38.1601 Y-1.3662
X38.1713 Y-1.3659
X38.1824 Y-1.3657
X38.1936 Y-1.3655
X38.2047 Y-1.3653
X38.2159 Y-1.3652
X38.2271 Y-1.3651
X38.2382 Y-1.365
X38.2494 Y-1.3649
X38.2605 Y-1.3648
X38.2717
X38.2829 Y-1.3647
X38.294
X38.3052
X38.3164
X38.3275 Y-1.3648
X38.3387
X38.3498 Y-1.3649
X38.361
X38.3722 Y-1.365
X38.3833 Y-1.3652
X38.3945 Y-1.3653
X38.4056 Y-1.3655
X38.4168 Y-1.3657
X38.428 Y-1.3659
X38.4391 Y-1.3662
X38.4503 Y-1.3665
X38.4614 Y-1.3668
X38.4726 Y-1.3673
X38.4837 Y-1.3678
X38.4949 Y-1.3683
X38.506 Y-1.369
X38.5172 Y-1.3698
X38.5283 Y-1.3707
X38.5394 Y-1.3717
X38.5505 Y-1.3729
X38.5616 Y-1.3744
X38.5726 Y-1.376
X38.5731 Y-1.3761
X38.5825 Y-1.3782
X38.5917 Y-1.381
X38.6006 Y-1.3847
X38.6092 Y-1.3892
X38.6173 Y-1.3943
X38.6249 Y-1.4002
X38.632 Y-1.4067
X38.6334 Y-1.408
X38.6341 Y-1.4088
X38.6383 Y-1.4127
X38.6424 Y-1.4165
X38.6426 Y-1.4167
X38.6468 Y-1.4203
X38.6492 Y-1.4222
G2 X38.6565 Y-1.4446 I-0.0158 J-0.0176 F86.6
X38.6357 Y-1.443 I-0.0103 J0.0022
X38.6373 Y-1.4297 I0.0393 J0.0018
G3 X38.632 Y-1.4067 I-0.0226 J0.0069
G1 X38.6294 Y-1.4041
X38.6257 Y-1.4001
X38.6252 Y-1.3996
X38.6213 Y-1.3954
X38.6172 Y-1.3905
X38.6141 Y-1.3866
X38.6122 Y-1.3844
X38.6107 Y-1.3829
X38.6092 Y-1.3814
X38.6077 Y-1.38
X38.6058 Y-1.3784
X38.6038 Y-1.3769
X38.6017 Y-1.3754
X38.5991 Y-1.3736
X38.5962 Y-1.3719
X38.5927 Y-1.3699
X38.5886 Y-1.3678
X38.5839 Y-1.3656
X38.5784 Y-1.3632
X38.5719 Y-1.3607
X38.5643 Y-1.3582
X38.5552 Y-1.3554
X38.5444 Y-1.3526
X38.5335 Y-1.3502
X38.5225 Y-1.3482
X38.5115 Y-1.3464
X38.5005 Y-1.3448
X38.4894 Y-1.3435
X38.4783 Y-1.3423
X38.4672 Y-1.3413
X38.456 Y-1.3404
X38.4449 Y-1.3396
X38.4338 Y-1.339
X38.4226 Y-1.3384
X38.4115 Y-1.3379
X38.4003 Y-1.3374
X38.3892 Y-1.337
X38.378 Y-1.3367
X38.3669 Y-1.3364
X38.3557 Y-1.3362
X38.3445 Y-1.336
X38.3334 Y-1.3358
X38.3222 Y-1.3357
X38.311 Y-1.3356
X38.2999 Y-1.3355
X38.2887 Y-1.3354
X38.2776
X38.2664
X38.2552
X38.2441 Y-1.3355
X38.2329 Y-1.3356
X38.2218 Y-1.3357
X38.2106 Y-1.3358
X38.1994 Y-1.336
X38.1883 Y-1.3362
X38.1771 Y-1.3364
X38.166 Y-1.3367
X38.1548 Y-1.3371
X38.1436 Y-1.3375
X38.1325 Y-1.3379
X38.1213 Y-1.3385
X38.1102 Y-1.3391
X38.0991 Y-1.3398
X38.0879 Y-1.3407
X38.0768 Y-1.3416
X38.0657 Y-1.3427
X38.0546 Y-1.344
X38.0435 Y-1.3454
X38.0325 Y-1.3471
X38.0215 Y-1.3491
X38.015 Y-1.3504
X38.0055 Y-1.3528
X37.9962 Y-1.356
X37.9872 Y-1.3601
X37.9787 Y-1.3649
X37.9705 Y-1.3705
X37.963 Y-1.3767
X37.956 Y-1.3836
X37.9496 Y-1.3911
X37.9493 Y-1.3915
X37.9426 Y-1.3996
G3 X37.9393 Y-1.423 I0.0187 J-0.0145
X37.9491 Y-1.4196 I0.0048 J0.0019
G1 X37.9482 Y-1.4171
X37.9472 Y-1.4146
G2 X37.9496 Y-1.3911 I0.0215 J0.0097
G1 X37.9559 Y-1.3827 F25.
X37.9578 Y-1.3801
X37.9617 Y-1.3742
X37.9653 Y-1.3686
X37.9676 Y-1.3654
X37.9689 Y-1.3637
X37.9702 Y-1.3621
X37.9716 Y-1.3605
X37.9734 Y-1.3586
X37.9752 Y-1.3569
X37.977 Y-1.3552
X37.9793 Y-1.3534
X37.9816 Y-1.3515
X37.9843 Y-1.3496
X37.9874 Y-1.3476
X37.9909 Y-1.3454
X37.995 Y-1.3431
X37.9997 Y-1.3407
X38.0052 Y-1.3382
X38.0115 Y-1.3355
X38.0188 Y-1.3327
X38.0274 Y-1.3298
X38.0374 Y-1.3269
X38.0482 Y-1.3241
X38.0591 Y-1.3217
X38.0701 Y-1.3196
X38.0811 Y-1.3177
X38.0921 Y-1.3161
X38.1032 Y-1.3147
X38.1143 Y-1.3135
X38.1254 Y-1.3124
X38.1365 Y-1.3114
X38.1477 Y-1.3106
X38.1588 Y-1.3099
X38.17 Y-1.3092
X38.1811 Y-1.3087
X38.1923 Y-1.3082
X38.2034 Y-1.3078
X38.2146 Y-1.3075
X38.2257 Y-1.3072
X38.2369 Y-1.3069
X38.248 Y-1.3067
X38.2592 Y-1.3066
X38.2704 Y-1.3065
X38.2815 Y-1.3064
X38.2927
X38.3038
X38.315 Y-1.3065
X38.3262 Y-1.3066
X38.3373 Y-1.3067
X38.3485 Y-1.3069
X38.3597 Y-1.3071
X38.3708 Y-1.3074
X38.382 Y-1.3077
X38.3931 Y-1.3081
X38.4043 Y-1.3086
X38.4154 Y-1.3092
X38.4266 Y-1.3098
X38.4377 Y-1.3106
X38.4488 Y-1.3114
X38.46 Y-1.3124
X38.4711 Y-1.3135
X38.4821 Y-1.3148
X38.4932 Y-1.3162
X38.5042 Y-1.3179
X38.5152 Y-1.3198
X38.5262 Y-1.322
X38.5371 Y-1.3245
X38.5387 Y-1.3249
X38.5482 Y-1.3279
X38.5574 Y-1.3317
X38.5663 Y-1.3364
X38.5746 Y-1.3418
X38.5825 Y-1.348
X38.5897 Y-1.3548
X38.5963 Y-1.3623
X38.6022 Y-1.3703
X38.6048 Y-1.3742
X38.6088 Y-1.3797
X38.611 Y-1.3827
X38.6141 Y-1.3866
G2 X38.6188 Y-1.4007 I-0.019 J-0.0141 F86.6
G1 X38.6186 Y-1.4039
X38.6179 Y-1.407
X38.6168 Y-1.41
G2 X38.5991 Y-1.4044 I-0.0086 J0.0037
X38.6029 Y-1.3939 I0.0385 J-0.0082
G3 X38.6022 Y-1.3703 I-0.0208 J0.0112
G1 X38.6003 Y-1.3675
X38.5992 Y-1.3658
X38.5941 Y-1.3573
X38.5919 Y-1.3534
X38.5894 Y-1.3489
X38.5888 Y-1.3476
X38.5874 Y-1.3451
X38.5865 Y-1.3436
X38.5853 Y-1.3418
X38.584 Y-1.34
X38.5827 Y-1.3384
X38.5811 Y-1.3365
X38.5794 Y-1.3345
X38.5776 Y-1.3327
X38.5756 Y-1.3308
X38.5733 Y-1.3288
X38.571 Y-1.3269
X38.5684 Y-1.3248
X38.5654 Y-1.3227
X38.5619 Y-1.3204
X38.5578 Y-1.318
X38.5532 Y-1.3154
X38.5479 Y-1.3127
X38.5419 Y-1.31
X38.5349 Y-1.3071
X38.5269 Y-1.3041
X38.5175 Y-1.301
X38.5068 Y-1.2978
X38.496 Y-1.2951
X38.4851 Y-1.2927
X38.4741 Y-1.2906
X38.4631 Y-1.2888
X38.4521 Y-1.2872
X38.441 Y-1.2857
X38.4299 Y-1.2845
X38.4188 Y-1.2834
X38.4077 Y-1.2824
X38.3966 Y-1.2815
X38.3854 Y-1.2808
X38.3743 Y-1.2802
X38.3631 Y-1.2796
X38.352 Y-1.2791
X38.3408 Y-1.2788
X38.3297 Y-1.2784
X38.3185 Y-1.2782
X38.3073 Y-1.278
X38.2962 Y-1.2779
X38.285 Y-1.2778
X38.2739
X38.2627
X38.2515 Y-1.2779
X38.2404 Y-1.2781
X38.2292 Y-1.2783
X38.218 Y-1.2786
X38.2069 Y-1.2789
X38.1957 Y-1.2793
X38.1846 Y-1.2798
X38.1734 Y-1.2804
X38.1623 Y-1.2811
X38.1512 Y-1.2819
X38.14 Y-1.2829
X38.1289 Y-1.2839
X38.1178 Y-1.2851
X38.1068 Y-1.2865
X38.0957 Y-1.2881
X38.0847 Y-1.2898
X38.0737 Y-1.2918
X38.0628 Y-1.2941
X38.0519 Y-1.2967
X38.0411 Y-1.2996
X38.0384 Y-1.3005
X38.0281 Y-1.3042
X38.0183 Y-1.3089
X38.0089 Y-1.3146
X38.0002 Y-1.3212
X37.9922 Y-1.3286
X37.9849 Y-1.3368
X37.9785 Y-1.3457
X37.9731 Y-1.3551
G3 X37.9712 Y-1.3696 I0.0214 J-0.0101
G1 X37.9717 Y-1.371
X37.9726 Y-1.3721
X37.9738 Y-1.373
X37.9752 Y-1.3734
X37.9767 Y-1.3733
X37.9781 Y-1.3734
X37.9793 Y-1.3739
X37.9802 Y-1.375
X37.9807 Y-1.3762
X37.9805 Y-1.3776
X37.9799 Y-1.3788
X37.9788 Y-1.3796
X37.9778 Y-1.3799
X37.9767 Y-1.3798
X37.9757 Y-1.3794
X37.975 Y-1.3786
G2 X37.9731 Y-1.3551 I0.0194 J0.0134
G1 X37.9747 Y-1.3519 F25.
X37.9762 Y-1.3489
X37.9802 Y-1.3404
X37.9831 Y-1.3336
X37.9838 Y-1.332
X37.9843 Y-1.3306
X37.9856 Y-1.3277
X37.9864 Y-1.3259
X37.9873 Y-1.3243
X37.9884 Y-1.3224
X37.9897 Y-1.3203
X37.991 Y-1.3184
X37.9924 Y-1.3165
X37.9941 Y-1.3142
X37.996 Y-1.3121
X37.9978 Y-1.3101
X37.9999 Y-1.3079
X38.0024 Y-1.3057
X38.0048 Y-1.3035
X38.0076 Y-1.3013
X38.0108 Y-1.2988
X38.0144 Y-1.2963
X38.0186 Y-1.2937
X38.0233 Y-1.2909
X38.0286 Y-1.288
X38.0347 Y-1.285
X38.0417 Y-1.2819
X38.0496 Y-1.2787
X38.0588 Y-1.2754
X38.0693 Y-1.272
X38.0801 Y-1.269
X38.0909 Y-1.2664
X38.1018 Y-1.264
X38.1128 Y-1.2619
X38.1238 Y-1.2601
X38.1348 Y-1.2585
X38.1459 Y-1.257
X38.157 Y-1.2557
X38.1681 Y-1.2546
X38.1792 Y-1.2536
X38.1903 Y-1.2528
X38.2015 Y-1.2521
X38.2126 Y-1.2514
X38.2238 Y-1.2509
X38.2349 Y-1.2505
X38.2461 Y-1.2501
X38.2572 Y-1.2498
X38.2684 Y-1.2496
X38.2796 Y-1.2495
X38.2907
X38.3019
X38.313 Y-1.2497
X38.3242 Y-1.2499
X38.3354 Y-1.2501
X38.3465 Y-1.2505
X38.3577 Y-1.251
X38.3688 Y-1.2515
X38.38 Y-1.2522
X38.3911 Y-1.2529
X38.4022 Y-1.2538
X38.4133 Y-1.2548
X38.4244 Y-1.256
X38.4355 Y-1.2574
X38.4466 Y-1.2589
X38.4576 Y-1.2606
X38.4686 Y-1.2625
X38.4795 Y-1.2647
X38.4904 Y-1.2672
X38.5012 Y-1.27
X38.512 Y-1.2731
X38.5165 Y-1.2746
X38.5261 Y-1.2783
X38.5352 Y-1.2828
X38.5439 Y-1.2882
X38.5521 Y-1.2943
X38.5597 Y-1.3012
X38.5665 Y-1.3088
X38.5727 Y-1.3169
X38.5781 Y-1.3256
X38.5826 Y-1.3348
X38.5834 Y-1.3366
X38.5852 Y-1.3404
X38.5888 Y-1.3476
G2 X38.5865 Y-1.3711 I-0.0215 J-0.0097 F86.6
X38.5753 Y-1.3642 I-0.0054 J0.0038
G1 X38.5771 Y-1.3611
X38.5792 Y-1.3581
G3 X38.5826 Y-1.3348 I-0.0186 J0.0146
G1 X38.5814 Y-1.332
X38.578 Y-1.3235
X38.5748 Y-1.3151
X38.5713 Y-1.3066
X38.5678 Y-1.3001
X38.5653 Y-1.2959
X38.564 Y-1.2938
X38.5626 Y-1.2918
X38.561 Y-1.2897
X38.5591 Y-1.2873
X38.5573 Y-1.2853
X38.5552 Y-1.2831
X38.5528 Y-1.2807
X38.5503 Y-1.2784
X38.5476 Y-1.2762
X38.5443 Y-1.2736
X38.5408 Y-1.271
X38.5366 Y-1.2682
X38.532 Y-1.2654
X38.5268 Y-1.2624
X38.5207 Y-1.2592
X38.5139 Y-1.256
X38.5062 Y-1.2527
X38.4974 Y-1.2493
X38.4969 Y-1.2491
X38.4882 Y-1.2465
X38.4792 Y-1.2446
X38.4702 Y-1.2435
X38.4611 Y-1.2431
G3 X38.4383 Y-1.2675 Z-0.5769 I0.0008 J-0.0236
X38.4511 Y-1.2877 I0.0236 J0.0008
G1 X38.5357 Y-1.3313
G3 X38.5569 Y-1.3316 I0.0108 J0.021
X38.5678 Y-1.3001 Z-0.5849 I-0.0103 J0.0213
G1 X38.5668 Y-1.2982
X38.5665 Y-1.2976
X38.5613 Y-1.2897
X38.5581 Y-1.2853
X38.5547 Y-1.2813
X38.5496 Y-1.2758
X38.5465 Y-1.2728
X38.5411 Y-1.2681
X38.5364 Y-1.2644
X38.5327 Y-1.2618
X38.5242 Y-1.2566
X38.5229 Y-1.2559
X38.5158 Y-1.2525
X38.5073 Y-1.2492
X38.502 Y-1.2474
X38.4989 Y-1.2466
X38.4904 Y-1.2448
X38.482 Y-1.2436
X38.4735 Y-1.2431
X38.4651
X38.1269
X38.1157 Y-1.2437
X38.1077 Y-1.2441
X38.0995 Y-1.2448
X38.091 Y-1.2459
X38.0825 Y-1.2473
X38.074 Y-1.249
X38.0658 Y-1.251
X38.058 Y-1.2532
X38.0578 Y-1.2533
X38.0483 Y-1.2568
X38.0392 Y-1.2612
X38.0305 Y-1.2664
X38.0224 Y-1.2724
X38.0148 Y-1.2791
X38.0079 Y-1.2865
X38.0017 Y-1.2944
X37.9962 Y-1.3029
X37.9916 Y-1.3119
X37.9878 Y-1.3213
G3 X38.0032 Y-1.3509 Z-0.5769 I0.0225 J-0.0071
X38.0214 Y-1.3492 I0.0071 J0.0225
G1 X38.1372 Y-1.2876
G3 X38.1497 Y-1.2675 I-0.0111 J0.0208
X38.1269 Y-1.2431 Z-0.5849 I-0.0236 J0.0008
G1 X38.0931
X38.0846 Y-1.2435
X38.0761 Y-1.2445
X38.0677 Y-1.2462
X38.063 Y-1.2474
X38.0592 Y-1.2486
X38.0508 Y-1.2518
X38.0423 Y-1.2558
X38.0421 Y-1.2559
X38.0339 Y-1.2607
X38.0285 Y-1.2644
X38.0254 Y-1.2667
X38.0182 Y-1.2728
X38.017 Y-1.274
X38.0101 Y-1.2813
X38.0085 Y-1.2831
X38.0034 Y-1.2897
X38.0001 Y-1.2947
X37.998 Y-1.2982
X37.9935 Y-1.3066
X37.9916 Y-1.3109
X37.99 Y-1.3151
X37.987 Y-1.3235
X37.9843 Y-1.3306
X37.9834 Y-1.3342 Z-0.5841
G2 X37.9766 Y-1.3668 Z-0.5769 I-0.423 J0.0714
X37.8911 Y-1.5361 I-0.4162 J0.1041
X37.8773 Y-1.5442 I-0.0182 J0.0151
G1 X37.3712 Y-1.642
G2 X37.3554 Y-1.6396 I-0.0045 J0.0232
X37.202 Y-1.4984 I0.205 J0.3768
X37.1945 Y-1.4866 Z-0.5799 I0.3584 J0.2357
G3 X37.1754 Y-1.4753 Z-0.5849 I-0.0202 J-0.0123
G1 X37.1123 Y-1.4746
X37.1039 Y-1.4745
X37.0954 Y-1.4742
X37.087 Y-1.4737
X37.0785 Y-1.4728
X37.07 Y-1.4717
X37.0616 Y-1.4702
X37.0531 Y-1.4684
X37.0422 Y-1.4663
X37.0312 Y-1.4644
X37.0201 Y-1.4628
X37.009 Y-1.4615
X36.9979 Y-1.4603
X36.9868 Y-1.4594
X36.9757 Y-1.4586
X36.9645 Y-1.4579
X36.9534 Y-1.4574
X36.9422 Y-1.4569
X36.9311 Y-1.4565
X36.9199 Y-1.4561
X36.9088 Y-1.4558
X36.8976 Y-1.4555
X36.8865 Y-1.4553
X36.8753 Y-1.4551
X36.8641 Y-1.455
X36.853 Y-1.4548
X36.8418 Y-1.4547
X36.8306 Y-1.4546
X36.8195 Y-1.4545
X36.8083
X36.7972 Y-1.4544
X36.786 Y-1.4543
X36.7748
X36.7637
X36.7525 Y-1.4542
X36.7414
X36.719 Y-1.4541
X36.6967
X36.6632
X36.6297
X36.5739 Y-1.454
X36.4846
X36.2279
X36.209
X36.1985 Y-1.4545
X36.188 Y-1.456
X36.1778 Y-1.4585
X36.1678 Y-1.462
X36.1654 Y-1.463
X36.1569 Y-1.4661
X36.1535 Y-1.4672
X36.1485 Y-1.4688
X36.14 Y-1.4711
X36.1316 Y-1.4732
X36.1231 Y-1.4749
X36.1185 Y-1.4757
X36.1147 Y-1.4763
X36.1062 Y-1.4773
X36.0978 Y-1.4781
X36.0893 Y-1.4786
X36.0809 Y-1.4788
X36.0724
G3 X36.0524 Y-1.4913 Z-0.5795 I0.0008 J-0.0236
X36.0484 Y-1.503 Z-0.5769 I0.0351 J-0.0187
X36.0995 Y-1.5478 I0.0391 J-0.007
X36.1517 Y-1.4932 I-0.0238 J0.0751
X36.154 Y-1.4811 Z-0.5795 I-0.076 J0.0205
G2 X36.1678 Y-1.462 Z-0.5849 I0.0235 J-0.0025
G1 X36.1739 Y-1.4596 F25.
X36.1758 Y-1.4588
X36.1823 Y-1.4557
X36.1908 Y-1.4516
X36.1931 Y-1.4503
X36.1968 Y-1.4484
X36.2 Y-1.447
X36.2038 Y-1.4455
X36.2086 Y-1.4438
X36.2144 Y-1.4419
X36.2216 Y-1.4399
X36.2305 Y-1.4378
X36.2415 Y-1.4356
X36.2525 Y-1.4338
X36.2635 Y-1.4323
X36.2746 Y-1.431
X36.2857 Y-1.43
X36.2969 Y-1.4291
X36.308 Y-1.4283
X36.3192 Y-1.4277
X36.3303 Y-1.4272
X36.3415 Y-1.4267
X36.3526 Y-1.4263
X36.3638 Y-1.426
X36.3749 Y-1.4257
X36.3861 Y-1.4255
X36.3972 Y-1.4253
X36.4084 Y-1.4251
X36.4196 Y-1.4249
X36.4307 Y-1.4248
X36.4419 Y-1.4247
X36.4531 Y-1.4246
X36.4642 Y-1.4245
X36.4754 Y-1.4244
X36.4865
X36.4977 Y-1.4243
X36.5089
X36.52
X36.5312 Y-1.4242
X36.5423
X36.5647
X36.587 Y-1.4241
X36.6093
X36.6316
X36.654
X36.6763
X36.6986 Y-1.4242
X36.7098
X36.7209
X36.7321
X36.7433 Y-1.4243
X36.7544
X36.7656 Y-1.4244
X36.7767
X36.7879 Y-1.4245
X36.7991 Y-1.4246
X36.8102
X36.8214 Y-1.4247
X36.8326 Y-1.4249
X36.8437 Y-1.425
X36.8549 Y-1.4252
X36.866 Y-1.4254
X36.8772 Y-1.4256
X36.8884 Y-1.4258
X36.8995 Y-1.4261
X36.9107 Y-1.4265
X36.9218 Y-1.4269
X36.933 Y-1.4274
X36.9376 Y-1.4276
X36.9478 Y-1.4286
X36.9579 Y-1.4306
X36.9677 Y-1.4335
X36.9773 Y-1.4372
X36.9864 Y-1.4418
X36.994 Y-1.4461
X37.0022 Y-1.4503
X37.0024 Y-1.4504
X37.0109 Y-1.4543
X37.0193 Y-1.4579
X37.0215 Y-1.4588
X37.0278 Y-1.461
X37.0362 Y-1.4638
X37.0447 Y-1.4663
G2 X37.0605 Y-1.4838 Z-0.5795 I-0.0073 J-0.0225 F86.6
X37.058 Y-1.4956 Z-0.5769 I-0.0145 J-0.0031
G1 X37.0561 Y-1.4977
X37.054 Y-1.4994
X37.0515 Y-1.5006
G2 X37.0368 Y-1.5035 I-0.0147 J0.0365
X36.9989 Y-1.4749 I0. J0.0394
X36.9974 Y-1.4627 Z-0.5795 I0.0379 J0.0108
G3 X36.9864 Y-1.4418 Z-0.5849 I-0.0236 J0.0009
G1 X36.9855 Y-1.4413
X36.977 Y-1.4361
X36.973 Y-1.4334
X36.9686 Y-1.4303
X36.9646 Y-1.4274
X36.9623 Y-1.4258
X36.9604 Y-1.4247
X36.9581 Y-1.4234
X36.9554 Y-1.422
X36.952 Y-1.4204
X36.9479 Y-1.4186
X36.943 Y-1.4167
X36.937 Y-1.4147
X36.9298 Y-1.4125
X36.921 Y-1.4102
X36.9101 Y-1.4078
X36.8991 Y-1.4058
X36.888 Y-1.4041
X36.877 Y-1.4027
X36.8659 Y-1.4014
X36.8548 Y-1.4004
X36.8436 Y-1.3995
X36.8325 Y-1.3988
X36.8214 Y-1.3981
X36.8102 Y-1.3976
X36.7991 Y-1.3971
X36.7879 Y-1.3967
X36.7768 Y-1.3963
X36.7656 Y-1.396
X36.7544 Y-1.3957
X36.7433 Y-1.3955
X36.7321 Y-1.3953
X36.721 Y-1.3951
X36.7098 Y-1.395
X36.6986 Y-1.3949
X36.6875 Y-1.3948
X36.6763 Y-1.3947
X36.6651 Y-1.3946
X36.654 Y-1.3945
X36.6428
X36.6317 Y-1.3944
X36.6205
X36.6093
X36.5982 Y-1.3943
X36.587
X36.5759
X36.5647
X36.5535
X36.5424
X36.5312 Y-1.3944
X36.52
X36.5089
X36.4977 Y-1.3945
X36.4866 Y-1.3946
X36.4754
X36.4642 Y-1.3947
X36.4531 Y-1.3948
X36.4419 Y-1.3949
X36.4307 Y-1.3951
X36.4196 Y-1.3953
X36.4084 Y-1.3955
X36.3973 Y-1.3957
X36.3861 Y-1.396
X36.375 Y-1.3963
X36.3638 Y-1.3967
X36.3526 Y-1.3971
X36.3415 Y-1.3977
X36.3304 Y-1.3983
X36.3192 Y-1.399
X36.3081 Y-1.3998
X36.297 Y-1.4008
X36.2859 Y-1.402
X36.2855 Y-1.4021
X36.2756 Y-1.4038
X36.2659 Y-1.4064
X36.2565 Y-1.4098
X36.2474 Y-1.4142
X36.2388 Y-1.4193
X36.2307 Y-1.4252
X36.2246 Y-1.43
X36.22 Y-1.4334
X36.2161 Y-1.4362
X36.2075 Y-1.4418
X36.2011 Y-1.4457
G3 X36.1904 Y-1.4668 I0.0129 J-0.0198
X36.2188 Y-1.4731 I0.0151 J0.0008
X36.2228 Y-1.4474 I-0.0348 J0.0185
G2 X36.2307 Y-1.4252 I0.0232 J0.0043
G1 X36.2309 Y-1.4249 F25.
X36.233 Y-1.4232
X36.2407 Y-1.4165
X36.2415 Y-1.4158
X36.2455 Y-1.412
X36.2496 Y-1.408
X36.2499 Y-1.4077
X36.2515 Y-1.4061
X36.2528 Y-1.405
X36.2544 Y-1.4037
X36.2562 Y-1.4023
X36.258 Y-1.401
X36.2603 Y-1.3996
X36.2629 Y-1.398
X36.266 Y-1.3963
X36.2697 Y-1.3945
X36.274 Y-1.3925
X36.2792 Y-1.3904
X36.2852 Y-1.3881
X36.2925 Y-1.3857
X36.3012 Y-1.3832
X36.3118 Y-1.3806
X36.3227 Y-1.3783
X36.3337 Y-1.3764
X36.3447 Y-1.3747
X36.3558 Y-1.3733
X36.3669 Y-1.3721
X36.378 Y-1.371
X36.3891 Y-1.3701
X36.4002 Y-1.3693
X36.4114 Y-1.3686
X36.4225 Y-1.368
X36.4337 Y-1.3675
X36.4448 Y-1.3671
X36.456 Y-1.3667
X36.4672 Y-1.3663
X36.4783 Y-1.3661
X36.4895 Y-1.3658
X36.5006 Y-1.3656
X36.5118 Y-1.3654
X36.523 Y-1.3653
X36.5341 Y-1.3651
X36.5453 Y-1.365
X36.5564 Y-1.3649
X36.5676
X36.5788 Y-1.3648
X36.5899
X36.6011 Y-1.3647
X36.6122
X36.6234
X36.6346 Y-1.3648
X36.6457
X36.6569 Y-1.3649
X36.6681
X36.6792 Y-1.365
X36.6904 Y-1.3651
X36.7015 Y-1.3653
X36.7127 Y-1.3654
X36.7239 Y-1.3656
X36.735 Y-1.3658
X36.7462 Y-1.3661
X36.7573 Y-1.3664
X36.7685 Y-1.3667
X36.7796 Y-1.3672
X36.7908 Y-1.3676
X36.8019 Y-1.3682
X36.8131 Y-1.3688
X36.8242 Y-1.3696
X36.8354 Y-1.3705
X36.8465 Y-1.3715
X36.8576 Y-1.3727
X36.8686 Y-1.374
X36.8797 Y-1.3756
X36.8807 Y-1.3758
X36.8902 Y-1.3778
X36.8995 Y-1.3807
X36.9084 Y-1.3844
X36.9171 Y-1.3888
X36.9252 Y-1.394
X36.9329 Y-1.3999
X36.9401 Y-1.4064
X36.9417 Y-1.408
X36.9432 Y-1.4095
X36.951 Y-1.4165
X36.9517 Y-1.4171
X36.9559 Y-1.4206
G2 X36.9634 Y-1.4429 I-0.0156 J-0.0177 F86.6
X36.9437 Y-1.441 I-0.0097 J0.002
X36.9454 Y-1.4294 I0.0394 J0.0002
G3 X36.9401 Y-1.4064 I-0.0226 J0.0069
G1 X36.9348 Y-1.4011
X36.9334 Y-1.3996
X36.9263 Y-1.3918
X36.9257 Y-1.3911
X36.9213 Y-1.3856
X36.9195 Y-1.3837
X36.918 Y-1.3822
X36.9166 Y-1.3808
X36.915 Y-1.3794
X36.9131 Y-1.3778
X36.9111 Y-1.3762
X36.9089 Y-1.3747
X36.9062 Y-1.373
X36.9032 Y-1.3712
X36.8996 Y-1.3692
X36.8955 Y-1.3671
X36.8906 Y-1.3649
X36.8849 Y-1.3625
X36.8782 Y-1.36
X36.8703 Y-1.3574
X36.8609 Y-1.3547
X36.8501 Y-1.352
X36.8392 Y-1.3497
X36.8282 Y-1.3477
X36.8172 Y-1.3459
X36.8061 Y-1.3444
X36.795 Y-1.3431
X36.7839 Y-1.342
X36.7728 Y-1.341
X36.7617 Y-1.3402
X36.7506 Y-1.3394
X36.7394 Y-1.3388
X36.7283 Y-1.3382
X36.7171 Y-1.3377
X36.706 Y-1.3373
X36.6948 Y-1.3369
X36.6836 Y-1.3366
X36.6725 Y-1.3363
X36.6613 Y-1.3361
X36.6502 Y-1.3359
X36.639 Y-1.3358
X36.6278 Y-1.3356
X36.6167
X36.6055 Y-1.3355
X36.5944 Y-1.3354
X36.5832
X36.572
X36.5609 Y-1.3355
X36.5497 Y-1.3356
X36.5385
X36.5274 Y-1.3358
X36.5162 Y-1.3359
X36.5051 Y-1.3361
X36.4939 Y-1.3364
X36.4827 Y-1.3366
X36.4716 Y-1.337
X36.4604 Y-1.3374
X36.4493 Y-1.3378
X36.4381 Y-1.3383
X36.427 Y-1.3389
X36.4158 Y-1.3396
X36.4047 Y-1.3404
X36.3936 Y-1.3414
X36.3825 Y-1.3424
X36.3714 Y-1.3437
X36.3603 Y-1.3451
X36.3493 Y-1.3467
X36.3383 Y-1.3486
X36.3307 Y-1.3501
X36.3201 Y-1.3528
X36.3097 Y-1.3565
X36.2998 Y-1.3612
X36.2904 Y-1.3669
X36.2816 Y-1.3735
X36.2736 Y-1.381
X36.2663 Y-1.3892
X36.2647 Y-1.3911
X36.2584 Y-1.3986
G3 X36.255 Y-1.4219 I0.0185 J-0.0146
X36.2655 Y-1.4185 I0.0051 J0.002
G1 X36.2646 Y-1.4155
X36.2635 Y-1.4126
G2 X36.2663 Y-1.3892 I0.0217 J0.0093
G1 X36.2669 Y-1.3885 F25.
X36.2713 Y-1.3827
X36.2753 Y-1.3771
X36.2773 Y-1.3742
X36.2816 Y-1.3677
X36.284 Y-1.3642
X36.2852 Y-1.3627
X36.2865 Y-1.3613
X36.2881 Y-1.3595
X36.2898 Y-1.3577
X36.2915 Y-1.3561
X36.2934 Y-1.3544
X36.2957 Y-1.3525
X36.2981 Y-1.3507
X36.3008 Y-1.3488
X36.3039 Y-1.3468
X36.3076 Y-1.3446
X36.3118 Y-1.3423
X36.3166 Y-1.3399
X36.3222 Y-1.3373
X36.3288 Y-1.3346
X36.3363 Y-1.3318
X36.3452 Y-1.329
X36.3556 Y-1.326
X36.3664 Y-1.3233
X36.3773 Y-1.321
X36.3883 Y-1.319
X36.3993 Y-1.3172
X36.4104 Y-1.3156
X36.4214 Y-1.3143
X36.4325 Y-1.3131
X36.4437 Y-1.3121
X36.4548 Y-1.3111
X36.4659 Y-1.3104
X36.4771 Y-1.3097
X36.4882 Y-1.3091
X36.4994 Y-1.3085
X36.5105 Y-1.3081
X36.5217 Y-1.3077
X36.5328 Y-1.3074
X36.544 Y-1.3071
X36.5551 Y-1.3069
X36.5663 Y-1.3067
X36.5775 Y-1.3066
X36.5886 Y-1.3065
X36.5998
X36.6109
X36.6221
X36.6333 Y-1.3066
X36.6444 Y-1.3067
X36.6556 Y-1.3069
X36.6667 Y-1.3071
X36.6779 Y-1.3074
X36.6891 Y-1.3077
X36.7002 Y-1.3081
X36.7114 Y-1.3086
X36.7225 Y-1.3091
X36.7337 Y-1.3097
X36.7448 Y-1.3104
X36.7559 Y-1.3113
X36.7671 Y-1.3122
X36.7782 Y-1.3133
X36.7893 Y-1.3146
X36.8003 Y-1.316
X36.8114 Y-1.3177
X36.8224 Y-1.3196
X36.8333 Y-1.3217
X36.8437 Y-1.3241
X36.8536 Y-1.3268
X36.8631 Y-1.3305
X36.8723 Y-1.335
X36.881 Y-1.3405
X36.8891 Y-1.3467
X36.8966 Y-1.3537
X36.9034 Y-1.3614
X36.9094 Y-1.3697
X36.9126 Y-1.3742
X36.9179 Y-1.3813
X36.9189 Y-1.3827
X36.9213 Y-1.3856
G2 X36.9242 Y-1.409 I-0.0188 J-0.0143 F86.6
X36.9061 Y-1.4032 I-0.0088 J0.0037
X36.9099 Y-1.3933 I0.0383 J-0.009
G3 X36.9094 Y-1.3697 I-0.0207 J0.0113
G1 X36.9069 Y-1.3658
X36.9016 Y-1.3573
X36.9009 Y-1.3561
X36.8969 Y-1.3489
X36.8957 Y-1.3465
X36.8942 Y-1.3439
X36.8933 Y-1.3425
X36.8921 Y-1.3408
X36.8908 Y-1.3389
X36.8895 Y-1.3372
X36.888 Y-1.3355
X36.8862 Y-1.3335
X36.8843 Y-1.3317
X36.8825 Y-1.33
X36.8803 Y-1.328
X36.8779 Y-1.3261
X36.8751 Y-1.324
X36.872 Y-1.3218
X36.8683 Y-1.3195
X36.8642 Y-1.3171
X36.8594 Y-1.3145
X36.8539 Y-1.3118
X36.8477 Y-1.309
X36.8405 Y-1.3061
X36.8321 Y-1.3031
X36.8224 Y-1.3
X36.8116 Y-1.297
X36.8008 Y-1.2944
X36.7899 Y-1.292
X36.7789 Y-1.29
X36.7679 Y-1.2882
X36.7568 Y-1.2867
X36.7457 Y-1.2853
X36.7346 Y-1.2841
X36.7235 Y-1.283
X36.7124 Y-1.2821
X36.7013 Y-1.2813
X36.6901 Y-1.2806
X36.679 Y-1.28
X36.6678 Y-1.2795
X36.6567 Y-1.2791
X36.6455 Y-1.2787
X36.6344 Y-1.2784
X36.6232 Y-1.2782
X36.612 Y-1.278
X36.6009 Y-1.2779
X36.5897
X36.5786
X36.5674 Y-1.278
X36.5562 Y-1.2781
X36.5451 Y-1.2783
X36.5339 Y-1.2786
X36.5228 Y-1.2789
X36.5116 Y-1.2793
X36.5005 Y-1.2798
X36.4893 Y-1.2804
X36.4782 Y-1.2811
X36.467 Y-1.2819
X36.4559 Y-1.2828
X36.4448 Y-1.2838
X36.4337 Y-1.285
X36.4226 Y-1.2864
X36.4116 Y-1.2879
X36.4005 Y-1.2897
X36.3896 Y-1.2917
X36.3786 Y-1.2939
X36.3678 Y-1.2965
X36.357 Y-1.2994
X36.3546 Y-1.3001
X36.3445 Y-1.3038
X36.3348 Y-1.3084
X36.3257 Y-1.3139
X36.3171 Y-1.3203
X36.3091 Y-1.3274
X36.3019 Y-1.3354
X36.2955 Y-1.3439
X36.29 Y-1.3531
X36.2877 Y-1.3573
G3 X36.2892 Y-1.3809 I0.0212 J-0.0105
G1 X36.29 Y-1.3816
X36.2909 Y-1.3818
X36.291
X36.292 Y-1.3815
X36.2928 Y-1.3808
X36.293 Y-1.3797
X36.2928 Y-1.3787
X36.2915 Y-1.3767
G2 X36.29 Y-1.3531 I0.0197 J0.0131
G1 X36.2922 Y-1.349 F25.
X36.2964 Y-1.3404
X36.3001 Y-1.332
X36.3007 Y-1.3305
X36.3011 Y-1.3293
X36.3024 Y-1.3265
X36.3032 Y-1.3248
X36.3041 Y-1.3232
X36.3053 Y-1.3212
X36.3066 Y-1.3191
X36.3079 Y-1.3173
X36.3093 Y-1.3153
X36.3112 Y-1.313
X36.313 Y-1.311
X36.3148 Y-1.309
X36.3171 Y-1.3068
X36.3195 Y-1.3046
X36.322 Y-1.3025
X36.3249 Y-1.3002
X36.3281 Y-1.2978
X36.332 Y-1.2952
X36.3362 Y-1.2926
X36.3411 Y-1.2898
X36.3466 Y-1.2869
X36.3529 Y-1.2839
X36.3601 Y-1.2808
X36.3683 Y-1.2775
X36.3778 Y-1.2742
X36.3885 Y-1.271
X36.3993 Y-1.2681
X36.4101 Y-1.2655
X36.4211 Y-1.2633
X36.432 Y-1.2613
X36.4431 Y-1.2595
X36.4541 Y-1.2579
X36.4652 Y-1.2566
X36.4763 Y-1.2553
X36.4874 Y-1.2543
X36.4985 Y-1.2534
X36.5097 Y-1.2526
X36.5208 Y-1.2519
X36.5319 Y-1.2513
X36.5431 Y-1.2508
X36.5543 Y-1.2504
X36.5654 Y-1.2501
X36.5766 Y-1.2499
X36.5877 Y-1.2497
X36.5989
X36.6101
X36.6212 Y-1.2498
X36.6324 Y-1.25
X36.6435 Y-1.2502
X36.6547 Y-1.2506
X36.6658 Y-1.251
X36.677 Y-1.2516
X36.6881 Y-1.2522
X36.6993 Y-1.253
X36.7104 Y-1.2539
X36.7215 Y-1.2549
X36.7326 Y-1.256
X36.7437 Y-1.2574
X36.7548 Y-1.2589
X36.7658 Y-1.2606
X36.7768 Y-1.2626
X36.7877 Y-1.2648
X36.7986 Y-1.2672
X36.8094 Y-1.27
X36.8201 Y-1.2732
X36.8239 Y-1.2744
X36.8332 Y-1.278
X36.8421 Y-1.2824
X36.8506 Y-1.2876
X36.8586 Y-1.2935
X36.8661 Y-1.3002
X36.8729 Y-1.3075
X36.879 Y-1.3153
X36.8844 Y-1.3237
X36.889 Y-1.3326
X36.8925 Y-1.3402
X36.8926 Y-1.3404
X36.8957 Y-1.3465
G2 X36.8937 Y-1.3701 I-0.0214 J-0.01 F86.6
X36.8817 Y-1.3632 I-0.0057 J0.004
G1 X36.8837 Y-1.3595
X36.886 Y-1.356
G3 X36.889 Y-1.3326 I-0.0188 J0.0143
G1 X36.8887 Y-1.332
X36.8852 Y-1.3235
X36.884 Y-1.3206
X36.882 Y-1.3151
X36.8784 Y-1.3066
X36.8756 Y-1.3011
X36.8739 Y-1.2982
X36.8682 Y-1.2902
X36.8665 Y-1.288
X36.8647 Y-1.2858
X36.8629 Y-1.2838
X36.8606 Y-1.2815
X36.8583 Y-1.2793
X36.8558 Y-1.2771
X36.8529 Y-1.2747
X36.8496 Y-1.2722
X36.8458 Y-1.2695
X36.8416 Y-1.2668
X36.8367 Y-1.2639
X36.8312 Y-1.2608
X36.825 Y-1.2578
X36.8179 Y-1.2545
X36.8098 Y-1.2512
X36.8064 Y-1.2499
X36.7971 Y-1.247
X36.7876 Y-1.2448
X36.778 Y-1.2435
X36.7683 Y-1.2431
G3 X36.7455 Y-1.2675 Z-0.5769 I0.0008 J-0.0236
X36.7585 Y-1.2878 I0.0236 J0.0008
G1 X36.8423 Y-1.3301
G3 X36.8639 Y-1.33 I0.0106 J0.0211
X36.8739 Y-1.2982 Z-0.5849 I-0.0109 J0.021
G1 X36.8685 Y-1.2897
X36.8671 Y-1.2879
X36.8618 Y-1.2813
X36.8587 Y-1.2778
X36.8536 Y-1.2728
X36.8502 Y-1.2698
X36.8433 Y-1.2644
X36.8418 Y-1.2632
X36.8333 Y-1.2578
X36.8298 Y-1.2559
X36.8249 Y-1.2534
X36.8164 Y-1.2499
X36.809 Y-1.2474
X36.808 Y-1.2472
X36.7995 Y-1.2452
X36.791 Y-1.2438
X36.7826 Y-1.2432
X36.7741 Y-1.2431
X36.4359
X36.4249 Y-1.2437
X36.4165 Y-1.2444
X36.4079 Y-1.2455
X36.3993 Y-1.2469
X36.3909 Y-1.2486
X36.3827 Y-1.2505
X36.3748 Y-1.2527
X36.3739 Y-1.253
X36.3639 Y-1.2568
X36.3543 Y-1.2614
X36.3452 Y-1.267
X36.3367 Y-1.2735
X36.3289 Y-1.2807
X36.3218 Y-1.2887
X36.3155 Y-1.2973
X36.31 Y-1.3065
G3 X36.321 Y-1.338 Z-0.5769 I0.0213 J-0.0103
X36.3416 Y-1.3381 I0.0103 J0.0213
G1 X36.4454 Y-1.288
G3 X36.4587 Y-1.2675 I-0.0103 J0.0213
X36.4359 Y-1.2431 Z-0.5849 I-0.0236 J0.0008
G1 X36.4106
X36.4021 Y-1.2434
X36.3937 Y-1.2443
X36.3852 Y-1.2459
X36.3793 Y-1.2474
X36.3768 Y-1.2482
X36.3683 Y-1.2513
X36.3599 Y-1.2552
X36.3584 Y-1.2559
X36.3514 Y-1.26
X36.3449 Y-1.2644
X36.3429 Y-1.2658
X36.3347 Y-1.2728
X36.3345 Y-1.273
X36.3304 Y-1.2771
X36.3266 Y-1.2813
X36.326 Y-1.2819
X36.3199 Y-1.2897
X36.3176 Y-1.2931
X36.3144 Y-1.2982
X36.31 Y-1.3066
X36.3091 Y-1.3085
X36.3064 Y-1.3151
X36.3034 Y-1.3235
X36.3011 Y-1.3293
X36.3002 Y-1.3329 Z-0.5841
G2 X36.293 Y-1.3655 Z-0.5769 I-0.4381 J0.0793
X36.2018 Y-1.5413 I-0.4309 J0.1119
X36.1882 Y-1.5493 I-0.018 J0.0153
G1 X35.6678 Y-1.6486
G2 X35.6522 Y-1.6462 I-0.0044 J0.0232
X35.4916 Y-1.5004 I0.2099 J0.3926
X35.484 Y-1.4887 Z-0.5799 I0.3705 J0.2468
G3 X35.4648 Y-1.4775 Z-0.5849 I-0.0201 J-0.0125
G1 X35.4129 Y-1.4774
X35.4045 Y-1.4773
X35.396 Y-1.477
X35.3876 Y-1.4764
X35.3807 Y-1.4757
X35.3791 Y-1.4755
X35.3707 Y-1.4742
X35.3622 Y-1.4727
X35.3538 Y-1.4708
X35.3491 Y-1.4696
X35.3382 Y-1.4673
X35.3272 Y-1.4652
X35.3162 Y-1.4635
X35.3051 Y-1.462
X35.294 Y-1.4608
X35.2829 Y-1.4598
X35.2718 Y-1.4589
X35.2606 Y-1.4582
X35.2495 Y-1.4576
X35.2384 Y-1.4571
X35.2272 Y-1.4566
X35.216 Y-1.4562
X35.2049 Y-1.4559
X35.1937 Y-1.4557
X35.1826 Y-1.4554
X35.1714 Y-1.4552
X35.1602 Y-1.455
X35.1491 Y-1.4549
X35.1379 Y-1.4548
X35.1268 Y-1.4547
X35.1156 Y-1.4546
X35.1044 Y-1.4545
X35.0933 Y-1.4544
X35.0821
X35.071 Y-1.4543
X35.0598
X35.0486 Y-1.4542
X35.0375
X35.0151
X34.9928 Y-1.4541
X34.9593
X34.9259
X34.8812 Y-1.454
X34.8031
X34.6245
X34.5048
X34.4949 Y-1.4544
X34.4851 Y-1.4557
X34.4755 Y-1.4579
X34.466 Y-1.4608
X34.4576 Y-1.4639
X34.4491 Y-1.4666
X34.447 Y-1.4672
X34.4407 Y-1.469
X34.4322 Y-1.471
X34.4237 Y-1.4727
X34.4153 Y-1.4741
X34.4068 Y-1.4752
X34.4026 Y-1.4757
X34.3984 Y-1.476
X34.3899 Y-1.4765
X34.3815 Y-1.4767
X34.373 Y-1.4768
X34.3705
G3 X34.3505 Y-1.4894 Z-0.5795 I0.0009 J-0.0236
X34.3466 Y-1.501 Z-0.5769 I0.0339 J-0.0179
X34.3946 Y-1.5441 I0.0378 J-0.0062
X34.4487 Y-1.4914 I-0.0211 J0.0759
X34.4515 Y-1.4794 Z-0.5795 I-0.0752 J0.0232
G2 X34.466 Y-1.4608 Z-0.5849 I0.0234 J-0.0033
G1 X34.4712 Y-1.4588 F25.
X34.4745 Y-1.4574
X34.4829 Y-1.4535
X34.4895 Y-1.4503
X34.4914 Y-1.4493
X34.4931 Y-1.4485
X34.4962 Y-1.4471
X34.5001 Y-1.4455
X34.5048 Y-1.4438
X34.5105 Y-1.442
X34.5176 Y-1.44
X34.5265 Y-1.4379
X34.5375 Y-1.4356
X34.5485 Y-1.4338
X34.5595 Y-1.4323
X34.5706 Y-1.4311
X34.5817 Y-1.43
X34.5929 Y-1.4291
X34.604 Y-1.4284
X34.6151 Y-1.4277
X34.6263 Y-1.4272
X34.6374 Y-1.4267
X34.6486 Y-1.4263
X34.6598 Y-1.426
X34.6709 Y-1.4257
X34.6821 Y-1.4255
X34.6932 Y-1.4253
X34.7044 Y-1.4251
X34.7156 Y-1.4249
X34.7267 Y-1.4248
X34.7379 Y-1.4247
X34.749 Y-1.4246
X34.7602 Y-1.4245
X34.7714 Y-1.4244
X34.7825
X34.7937 Y-1.4243
X34.8048
X34.816
X34.8272 Y-1.4242
X34.8383
X34.8607
X34.883 Y-1.4241
X34.9053
X34.9276
X34.95
X34.9723
X34.9946 Y-1.4242
X35.0058
X35.0169
X35.0281 Y-1.4243
X35.0392
X35.0504
X35.0616 Y-1.4244
X35.0727
X35.0839 Y-1.4245
X35.0951 Y-1.4246
X35.1062 Y-1.4247
X35.1174 Y-1.4248
X35.1285 Y-1.4249
X35.1397 Y-1.4251
X35.1509 Y-1.4252
X35.162 Y-1.4254
X35.1732 Y-1.4257
X35.1843 Y-1.426
X35.1955 Y-1.4263
X35.2067 Y-1.4267
X35.2178 Y-1.4271
X35.229 Y-1.4276
X35.2367 Y-1.4281
X35.2471 Y-1.4291
X35.2573 Y-1.4312
X35.2673 Y-1.4342
X35.2769 Y-1.4382
X35.2861 Y-1.443
X35.2946 Y-1.4479
X35.299 Y-1.4503
X35.303 Y-1.4523
X35.3115 Y-1.4564
X35.317 Y-1.4588
X35.3199 Y-1.46
X35.3284 Y-1.4632
X35.3368 Y-1.4661
X35.3405 Y-1.4672
X35.3453 Y-1.4686
X35.3491 Y-1.4696
G2 X35.3649 Y-1.499 Z-0.5769 I-0.0068 J-0.0226 F86.6
X35.3371 Y-1.5108 I-0.0188 J0.0057
X35.3025 Y-1.4753 I0.0363 J0.0699
G1 X35.2998 Y-1.469 Z-0.5784
G2 X35.2965 Y-1.4579 Z-0.5809 I0.0735 J0.0281
G3 X35.2861 Y-1.443 Z-0.5849 I-0.0231 J-0.0051
G1 X35.2841 Y-1.4418
X35.2777 Y-1.4377
X35.2714 Y-1.4334
X35.2692 Y-1.4318
X35.265 Y-1.4286
X35.2619 Y-1.4265
X35.26 Y-1.4253
X35.2578 Y-1.424
X35.255 Y-1.4226
X35.2517 Y-1.421
X35.2477 Y-1.4192
X35.2429 Y-1.4174
X35.2371 Y-1.4153
X35.2301 Y-1.4132
X35.2215 Y-1.4108
X35.2109 Y-1.4084
X35.1999 Y-1.4063
X35.1889 Y-1.4046
X35.1779 Y-1.4031
X35.1668 Y-1.4018
X35.1557 Y-1.4007
X35.1445 Y-1.3998
X35.1334 Y-1.399
X35.1223 Y-1.3983
X35.1111 Y-1.3977
X35.1 Y-1.3972
X35.0888 Y-1.3968
X35.0776 Y-1.3964
X35.0665 Y-1.3961
X35.0553 Y-1.3958
X35.0442 Y-1.3956
X35.033 Y-1.3954
X35.0219 Y-1.3952
X35.0107 Y-1.395
X34.9995 Y-1.3949
X34.9884 Y-1.3948
X34.9772 Y-1.3947
X34.966 Y-1.3946
X34.9549
X34.9437 Y-1.3945
X34.9326 Y-1.3944
X34.9214
X34.9102
X34.8991
X34.8879 Y-1.3943
X34.8767
X34.8656
X34.8544
X34.8433
X34.8321 Y-1.3944
X34.8209
X34.8098
X34.7986 Y-1.3945
X34.7875
X34.7763 Y-1.3946
X34.7651 Y-1.3947
X34.754 Y-1.3948
X34.7428 Y-1.3949
X34.7316 Y-1.395
X34.7205 Y-1.3952
X34.7093 Y-1.3954
X34.6982 Y-1.3956
X34.687 Y-1.3959
X34.6758 Y-1.3962
X34.6647 Y-1.3965
X34.6535 Y-1.397
X34.6424 Y-1.3974
X34.6312 Y-1.398
X34.6201 Y-1.3987
X34.609 Y-1.3995
X34.5978 Y-1.4004
X34.5867 Y-1.4015
X34.5855 Y-1.4017
X34.5753 Y-1.4033
X34.5653 Y-1.4059
X34.5555 Y-1.4094
X34.5462 Y-1.4138
X34.5372 Y-1.419
X34.5288 Y-1.4249
X34.5252 Y-1.4277
X34.5174 Y-1.4334
X34.5167 Y-1.4339
X34.5083 Y-1.4395
X34.5046 Y-1.4418
X34.4998 Y-1.4446
X34.4914 Y-1.4493
G3 X34.48 Y-1.47 Z-0.5795 I0.0122 J-0.0202
X34.4844 Y-1.4813 Z-0.5769 I0.0173 J0.0003
X34.5093 Y-1.4821 I0.0128 J0.0116
X34.5208 Y-1.4594 I-0.0275 J0.0282
X34.5206 Y-1.4471 Z-0.5795 I-0.039 J0.0056
G2 X34.5288 Y-1.4249 Z-0.5849 I0.0233 J0.004
G1 X34.5337 Y-1.4209 F25.
X34.5388 Y-1.4165
X34.5421 Y-1.4135
X34.5478 Y-1.408
X34.5487 Y-1.4072
X34.551 Y-1.4051
X34.5524 Y-1.4039
X34.5541 Y-1.4026
X34.5561 Y-1.4012
X34.5581 Y-1.3998
X34.5606 Y-1.3983
X34.5635 Y-1.3967
X34.567 Y-1.3948
X34.5711 Y-1.3929
X34.576 Y-1.3909
X34.5817 Y-1.3887
X34.5885 Y-1.3863
X34.5967 Y-1.3839
X34.6066 Y-1.3813
X34.6175 Y-1.3789
X34.6285 Y-1.3769
X34.6395 Y-1.3752
X34.6506 Y-1.3737
X34.6617 Y-1.3724
X34.6728 Y-1.3713
X34.6839 Y-1.3703
X34.695 Y-1.3695
X34.7062 Y-1.3688
X34.7173 Y-1.3682
X34.7285 Y-1.3676
X34.7396 Y-1.3672
X34.7508 Y-1.3668
X34.7619 Y-1.3664
X34.7731 Y-1.3661
X34.7843 Y-1.3659
X34.7954 Y-1.3656
X34.8066 Y-1.3655
X34.8177 Y-1.3653
X34.8289 Y-1.3652
X34.8401 Y-1.365
X34.8512
X34.8624 Y-1.3649
X34.8735 Y-1.3648
X34.8847
X34.8959
X34.907 Y-1.3647
X34.9182
X34.9293 Y-1.3648
X34.9405
X34.9517 Y-1.3649
X34.9628
X34.974 Y-1.365
X34.9852 Y-1.3651
X34.9963 Y-1.3652
X35.0075 Y-1.3654
X35.0186 Y-1.3656
X35.0298 Y-1.3658
X35.041 Y-1.366
X35.0521 Y-1.3663
X35.0633 Y-1.3667
X35.0744 Y-1.3671
X35.0856 Y-1.3675
X35.0967 Y-1.3681
X35.1079 Y-1.3687
X35.119 Y-1.3694
X35.1301 Y-1.3702
X35.1413 Y-1.3712
X35.1524 Y-1.3723
X35.1635 Y-1.3737
X35.1745 Y-1.3752
X35.1801 Y-1.3761
X35.1899 Y-1.3781
X35.1995 Y-1.3811
X35.2088 Y-1.3849
X35.2177 Y-1.3895
X35.2261 Y-1.395
X35.234 Y-1.4011
X35.2413 Y-1.408
X35.2438 Y-1.4105
X35.2502 Y-1.4165
X35.2523 Y-1.4183
X35.2602 Y-1.4249
X35.2608 Y-1.4254
X35.265 Y-1.4286
G2 X35.2734 Y-1.4506 I-0.0149 J-0.0184 F86.6
X35.2452 Y-1.4513 I-0.0142 J0.0022
X35.2462 Y-1.4311 I0.0385 J0.0081
G3 X35.2413 Y-1.408 I-0.0225 J0.0073
G1 X35.2354 Y-1.4019
X35.2332 Y-1.3996
X35.2269 Y-1.3924
X35.2259 Y-1.3911
X35.2226 Y-1.3869
X35.2207 Y-1.3848
X35.2193 Y-1.3833
X35.2177 Y-1.3818
X35.2162 Y-1.3804
X35.2145 Y-1.3789
X35.2124 Y-1.3773
X35.2102 Y-1.3757
X35.2078 Y-1.374
X35.2048 Y-1.3722
X35.2014 Y-1.3703
X35.1973 Y-1.3682
X35.1927 Y-1.366
X35.1873 Y-1.3636
X35.1809 Y-1.3611
X35.1734 Y-1.3586
X35.1645 Y-1.3559
X35.1539 Y-1.353
X35.143 Y-1.3506
X35.1321 Y-1.3485
X35.121 Y-1.3467
X35.11 Y-1.3451
X35.0989 Y-1.3437
X35.0878 Y-1.3425
X35.0767 Y-1.3415
X35.0656 Y-1.3406
X35.0545 Y-1.3398
X35.0433 Y-1.3391
X35.0322 Y-1.3385
X35.021 Y-1.3379
X35.0099 Y-1.3375
X34.9987 Y-1.3371
X34.9876 Y-1.3368
X34.9764 Y-1.3365
X34.9652 Y-1.3362
X34.9541 Y-1.336
X34.9429 Y-1.3358
X34.9318 Y-1.3357
X34.9206 Y-1.3356
X34.9094 Y-1.3355
X34.8983
X34.8871 Y-1.3354
X34.8759
X34.8648 Y-1.3355
X34.8536
X34.8425 Y-1.3356
X34.8313 Y-1.3357
X34.8201 Y-1.3358
X34.809 Y-1.336
X34.7978 Y-1.3362
X34.7867 Y-1.3365
X34.7755 Y-1.3368
X34.7643 Y-1.3371
X34.7532 Y-1.3375
X34.742 Y-1.338
X34.7309 Y-1.3386
X34.7197 Y-1.3392
X34.7086 Y-1.34
X34.6975 Y-1.3408
X34.6864 Y-1.3418
X34.6753 Y-1.343
X34.6642 Y-1.3443
X34.6531 Y-1.3458
X34.6421 Y-1.3475
X34.6311 Y-1.3496
X34.628 Y-1.3502
X34.6177 Y-1.3529
X34.6078 Y-1.3566
X34.5983 Y-1.3612
X34.5892 Y-1.3667
X34.5807 Y-1.3731
X34.5729 Y-1.3803
X34.5658 Y-1.3881
X34.5633 Y-1.3911
X34.559 Y-1.3962
X34.5559 Y-1.3996
X34.5506 Y-1.4053
X34.5487 Y-1.4072
G3 X34.5433 Y-1.4302 I0.0173 J-0.0161
X34.5658 Y-1.4269 I0.011 J0.0033
X34.5628 Y-1.4115 I-0.0394 J0.0002
G2 X34.5658 Y-1.3881 I0.0218 J0.0091
G1 X34.5675 Y-1.3861 F25.
X34.5701 Y-1.3827
X34.5759 Y-1.3746
X34.5762 Y-1.3742
X34.5818 Y-1.3658
X34.5827 Y-1.3646
X34.5838 Y-1.3631
X34.585 Y-1.3616
X34.5865 Y-1.3599
X34.5882 Y-1.3581
X34.5898 Y-1.3565
X34.5916 Y-1.3549
X34.5939 Y-1.353
X34.5961 Y-1.3512
X34.5986 Y-1.3494
X34.6016 Y-1.3474
X34.605 Y-1.3453
X34.609 Y-1.3431
X34.6135 Y-1.3407
X34.6188 Y-1.3382
X34.6249 Y-1.3356
X34.632 Y-1.3329
X34.6403 Y-1.33
X34.6499 Y-1.3271
X34.6607 Y-1.3243
X34.6716 Y-1.3218
X34.6826 Y-1.3197
X34.6936 Y-1.3178
X34.7046 Y-1.3162
X34.7157 Y-1.3148
X34.7268 Y-1.3135
X34.7379 Y-1.3124
X34.749 Y-1.3115
X34.7602 Y-1.3106
X34.7713 Y-1.3099
X34.7824 Y-1.3093
X34.7936 Y-1.3087
X34.8047 Y-1.3082
X34.8159 Y-1.3078
X34.827 Y-1.3075
X34.8382 Y-1.3072
X34.8494 Y-1.307
X34.8605 Y-1.3068
X34.8717 Y-1.3066
X34.8829 Y-1.3065
X34.894
X34.9052
X34.9163
X34.9275
X34.9387 Y-1.3067
X34.9498 Y-1.3068
X34.961 Y-1.307
X34.9721 Y-1.3073
X34.9833 Y-1.3076
X34.9945 Y-1.3079
X35.0056 Y-1.3084
X35.0168 Y-1.3089
X35.0279 Y-1.3095
X35.039 Y-1.3101
X35.0502 Y-1.3109
X35.0613 Y-1.3118
X35.0724 Y-1.3129
X35.0835 Y-1.314
X35.0946 Y-1.3154
X35.1057 Y-1.3169
X35.1167 Y-1.3187
X35.1277 Y-1.3207
X35.1386 Y-1.323
X35.145 Y-1.3246
X35.1548 Y-1.3274
X35.1643 Y-1.3312
X35.1734 Y-1.3358
X35.182 Y-1.3413
X35.1901 Y-1.3475
X35.1976 Y-1.3544
X35.2044 Y-1.3621
X35.2105 Y-1.3703
X35.2131 Y-1.3742
X35.2185 Y-1.3817
X35.2192 Y-1.3827
X35.2226 Y-1.3869
G2 X35.2252 Y-1.4104 I-0.019 J-0.014 F86.6
X35.2073 Y-1.4048 I-0.0086 J0.0038
X35.2112 Y-1.3939 I0.0386 J-0.0077
G3 X35.2105 Y-1.3703 I-0.0208 J0.0111
G1 X35.21 Y-1.3696
X35.2076 Y-1.3658
X35.2025 Y-1.3573
X35.2016 Y-1.3556
X35.1979 Y-1.3489
X35.1975 Y-1.3482
X35.1961 Y-1.3456
X35.1952 Y-1.3441
X35.1942 Y-1.3425
X35.1928 Y-1.3406
X35.1914 Y-1.3388
X35.19 Y-1.3371
X35.1883 Y-1.3351
X35.1864 Y-1.3331
X35.1846 Y-1.3314
X35.1824 Y-1.3294
X35.18 Y-1.3274
X35.1773 Y-1.3253
X35.1744 Y-1.3232
X35.1709 Y-1.3209
X35.167 Y-1.3185
X35.1624 Y-1.316
X35.1572 Y-1.3133
X35.1513 Y-1.3105
X35.1445 Y-1.3076
X35.1366 Y-1.3046
X35.1275 Y-1.3015
X35.1168 Y-1.2984
X35.106 Y-1.2956
X35.0951 Y-1.2931
X35.0841 Y-1.291
X35.0731 Y-1.2891
X35.0621 Y-1.2874
X35.051 Y-1.286
X35.0399 Y-1.2847
X35.0288 Y-1.2836
X35.0177 Y-1.2826
X35.0066 Y-1.2817
X34.9954 Y-1.281
X34.9843 Y-1.2803
X34.9731 Y-1.2797
X34.962 Y-1.2793
X34.9508 Y-1.2789
X34.9397 Y-1.2785
X34.9285 Y-1.2783
X34.9174 Y-1.2781
X34.9062 Y-1.278
X34.895 Y-1.2779
X34.8839
X34.8727
X34.8616 Y-1.278
X34.8504 Y-1.2782
X34.8392 Y-1.2784
X34.8281 Y-1.2787
X34.8169 Y-1.279
X34.8058 Y-1.2795
X34.7946 Y-1.28
X34.7835 Y-1.2806
X34.7723 Y-1.2814
X34.7612 Y-1.2822
X34.7501 Y-1.2831
X34.739 Y-1.2842
X34.7279 Y-1.2855
X34.7168 Y-1.2869
X34.7058 Y-1.2886
X34.6948 Y-1.2904
X34.6838 Y-1.2925
X34.6729 Y-1.2949
X34.6621 Y-1.2976
X34.6562 Y-1.2992
X34.6459 Y-1.3027
X34.6361 Y-1.3071
X34.6267 Y-1.3126
X34.6179 Y-1.3189
X34.6097 Y-1.326
X34.6023 Y-1.3339
X34.5957 Y-1.3425
X34.59 Y-1.3517
X34.5869 Y-1.3573
G3 X34.5881 Y-1.3809 I0.021 J-0.0107
G1 X34.589 Y-1.3817
X34.5901 Y-1.3821
X34.5913 Y-1.382
X34.5923 Y-1.3814
X34.593 Y-1.3804
X34.5932 Y-1.3792
X34.5929 Y-1.3781
X34.5912 Y-1.3753
G2 X34.59 Y-1.3517 I0.0198 J0.0128
G1 X34.5916 Y-1.3489 F25.
X34.5928 Y-1.3463
X34.5957 Y-1.3404
X34.5996 Y-1.332
X34.6013 Y-1.3278
X34.6021 Y-1.3259
X34.603 Y-1.3241
X34.6039 Y-1.3225
X34.605 Y-1.3207
X34.6064 Y-1.3186
X34.6078 Y-1.3166
X34.6091 Y-1.3147
X34.6109 Y-1.3126
X34.6129 Y-1.3104
X34.6147 Y-1.3084
X34.6168 Y-1.3063
X34.6193 Y-1.3041
X34.6219 Y-1.3019
X34.6248 Y-1.2996
X34.6281 Y-1.2972
X34.6318 Y-1.2947
X34.6362 Y-1.292
X34.6411 Y-1.2893
X34.6467 Y-1.2864
X34.6531 Y-1.2833
X34.6604 Y-1.2802
X34.6687 Y-1.277
X34.6783 Y-1.2737
X34.689 Y-1.2705
X34.6997 Y-1.2676
X34.7106 Y-1.2651
X34.7216 Y-1.2629
X34.7326 Y-1.261
X34.7436 Y-1.2592
X34.7546 Y-1.2577
X34.7657 Y-1.2563
X34.7768 Y-1.2551
X34.7879 Y-1.2541
X34.7991 Y-1.2532
X34.8102 Y-1.2524
X34.8213 Y-1.2518
X34.8325 Y-1.2512
X34.8436 Y-1.2507
X34.8548 Y-1.2503
X34.8659 Y-1.25
X34.8771 Y-1.2498
X34.8883 Y-1.2497
X34.8994
X34.9106
X34.9217 Y-1.2498
X34.9329 Y-1.25
X34.9441 Y-1.2503
X34.9552 Y-1.2506
X34.9664 Y-1.2511
X34.9775 Y-1.2516
X34.9887 Y-1.2523
X34.9998 Y-1.253
X35.0109 Y-1.2539
X35.022 Y-1.255
X35.0331 Y-1.2561
X35.0442 Y-1.2575
X35.0553 Y-1.259
X35.0663 Y-1.2607
X35.0773 Y-1.2627
X35.0882 Y-1.2649
X35.0991 Y-1.2674
X35.1099 Y-1.2702
X35.1206 Y-1.2733
X35.1254 Y-1.2749
X35.1349 Y-1.2785
X35.144 Y-1.283
X35.1526 Y-1.2884
X35.1608 Y-1.2945
X35.1683 Y-1.3014
X35.1751 Y-1.3089
X35.1813 Y-1.317
X35.1866 Y-1.3256
X35.1912 Y-1.3347
X35.1931 Y-1.3391
X35.1938 Y-1.3404
X35.1975 Y-1.3482
G2 X35.1951 Y-1.3716 I-0.0216 J-0.0096 F86.6
X35.1837 Y-1.3647 I-0.0054 J0.0039
G1 X35.1856 Y-1.3613
X35.1879 Y-1.3581
G3 X35.1912 Y-1.3347 I-0.0186 J0.0146
G1 X35.19 Y-1.332
X35.1866 Y-1.3235
X35.1847 Y-1.3182
X35.1835 Y-1.3151
X35.18 Y-1.3066
X35.1762 Y-1.2994
X35.1727 Y-1.294
X35.1714 Y-1.292
X35.1697 Y-1.2899
X35.1678 Y-1.2875
X35.166 Y-1.2855
X35.164 Y-1.2833
X35.1616 Y-1.281
X35.159 Y-1.2786
X35.1563 Y-1.2764
X35.153 Y-1.2738
X35.1495 Y-1.2712
X35.1453 Y-1.2684
X35.1407 Y-1.2655
X35.1354 Y-1.2625
X35.1294 Y-1.2594
X35.1225 Y-1.2561
X35.1148 Y-1.2528
X35.106 Y-1.2494
X35.1052 Y-1.2491
X35.0964 Y-1.2465
X35.0875 Y-1.2446
