(UPPER SHAPING)
(T13 D=0.2362 CR=0. TAPER=45DEG - ZMIN=0.3073 - CHAMFER MILL)
(T14 D=0.125 CR=0. - ZMIN=0.2483 - FLAT END MILL)
(T15 D=0.5 CR=0. - ZMIN=0.1983 - FLAT END MILL)
(T16 D=0.2362 CR=0. - ZMIN=0.1983 - FLAT END MILL)
(T17 D=0.4724 CR=0. - ZMIN=-0.585 - FLAT END MILL)
(T18 D=0.9843 CR=0. TAPER=45DEG - ZMIN=-0.615 - DOVETAIL MILL)
G90 G94 G91.1 G40 G49 G17
G20
G53 G0 Z0.

(POCKET2 3)
T15 M6
S12000 M3
G17 G90 G94
G55
G0 X23.0558 Y1.9455
G43 Z1.2483 H15
G0 Z0.5435
G1 Z0.4216 F50.
Y1.9457 Z0.4163
Y1.9466 Z0.411
Y1.948 Z0.4058
Y1.95 Z0.4008
Y1.9525 Z0.3961
Y1.9555 Z0.3916
X23.0559 Y1.9589 Z0.3875
Y1.9627 Z0.3838
Y1.967 Z0.3805
Y1.9715 Z0.3777
Y1.9764 Z0.3754
X23.056 Y1.9814 Z0.3736
Y1.9867 Z0.3724
Y1.992 Z0.3717
X23.0654 Y4.3382 Z0.2077
G2 X23.1005 Y4.3731 Z0.2038 I0.035 J-0.0001
G1 X23.1044 Z0.2036
G2 X23.1394 Y4.3378 Z0.1997 I0. J-0.035
G1 X23.1393 Y4.3193 Z0.1984
Y4.3158 Z0.1983
X23.1222 Y1.155 F100.
G2 X23.1092 Y1.1326 I-0.026 J0.0001
G3 X23.0977 Y1.1258 I0.2517 J-0.4358
G1 X23.0922 Y1.1224
G2 X23.0526 Y1.1447 I-0.0136 J0.0222
G1 X23.0654 Y4.3382
G2 X23.1005 Y4.3731 I0.035 J-0.0001
G1 X23.1044
G2 X23.1394 Y4.3378 I0. J-0.035
G1 X23.1393 Y4.3158
G3 X23.2286 Y4.1804 I0.1462 J-0.0008
G2 X23.3179 Y4.0449 I-0.057 J-0.1347
G1 X23.3019 Y1.0944
G2 X23.2385 Y0.9969 I-0.1076 J0.0006
G3 X23.041 Y0.8206 I0.1812 J-0.4019
G2 X22.9794 Y0.82 I-0.031 J0.0183
G3 X22.9566 Y0.8544 I-0.556 J-0.3437
X22.9309 Y0.8867 I-0.3125 J-0.2216
X22.9191 Y0.8986 I-0.1115 J-0.0987
G2 X22.9069 Y0.9101 I0.3801 J0.4218
X22.872 Y0.9921 I0.078 J0.0816
G1 X22.886 Y4.4891
G2 X22.9502 Y4.5531 I0.0642 J-0.0003
G1 X23.2568
G2 X23.3203 Y4.4893 I0. J-0.0634
G1 X23.3179 Y4.0449
G3 X23.4076 Y3.9086 I0.1471 J-0.0008
G2 X23.4974 Y3.7724 I-0.0573 J-0.1354
G1 X23.4816 Y0.8545
X23.4247 Y0.8548
X23.4219
X23.4104 Y0.8546
X23.4023 Y0.8542
X23.3965 Y0.8538
X23.3907 Y0.8532
X23.385 Y0.8525
X23.3792 Y0.8516
X23.3734 Y0.8507
X23.3676 Y0.8495
X23.3619 Y0.8483
X23.3564 Y0.847
X23.3511 Y0.8456
X23.3453 Y0.8439
X23.3391 Y0.842
X23.333 Y0.8399
X23.3273 Y0.8378
X23.3215 Y0.8355
X23.3157 Y0.8331
X23.3078 Y0.8294
X23.2979 Y0.8244
X23.2922 Y0.8214
X23.2906 Y0.8205
X23.2869 Y0.8183
X23.2811 Y0.8147
X23.2753 Y0.811
X23.2696 Y0.807
X23.2647 Y0.8035
X23.2606 Y0.8004
X23.2547 Y0.7957
X23.2473 Y0.7893
X23.241 Y0.7835
X23.2357 Y0.7783
X23.2299 Y0.7723
X23.2236 Y0.7654
X23.2187 Y0.7596
X23.215 Y0.755
X23.2111 Y0.7498
X23.2069 Y0.7441
X23.203 Y0.7383
X23.1993 Y0.7325
X23.1958 Y0.7268
X23.1925 Y0.721
X23.1894 Y0.7152
X23.1865 Y0.7095
X23.1837 Y0.7037
X23.1812 Y0.6979
X23.1787 Y0.6922
X23.1765 Y0.6864
X23.1752 Y0.6828
X23.1747 Y0.6815
X23.1728 Y0.6758
X23.1697 Y0.6656
X23.1675 Y0.6576
X23.1662 Y0.6518
X23.1649 Y0.6461
X23.1638 Y0.6403
X23.1629 Y0.6346
X23.1621 Y0.6288
X23.1614 Y0.623
X23.1608 Y0.6173
X23.1603 Y0.6089
X23.1599 Y0.5974
X23.1598 Y0.5938
X23.15 Y-1.2271
Y-1.2274
X23.1499 Y-1.2389
X23.15 Y-1.243
X23.1503 Y-1.2545
X23.1506 Y-1.261
X23.151 Y-1.266
X22.8545
X22.8549 Y-1.2588
X22.8551 Y-1.2536
X22.8554 Y-1.242
Y-1.2399
X22.8627 Y0.581
Y0.5814
Y0.5929
X22.8626 Y0.5984
X22.8624 Y0.6041
X22.862 Y0.6102
X22.8614 Y0.6167
X22.8604 Y0.6253
X22.8587 Y0.6362
X22.8571 Y0.6445
X22.8558 Y0.6502
X22.8544 Y0.656
X22.8528 Y0.6618
X22.8511 Y0.6675
X22.8492 Y0.6733
X22.8472 Y0.679
X22.8451 Y0.6848
X22.8425 Y0.6911
X22.8396 Y0.6979
X22.8369 Y0.7037
X22.8346 Y0.7084
X22.8318 Y0.7136
X22.8286 Y0.7194
X22.8252 Y0.7252
X22.8217 Y0.7309
X22.8186 Y0.7356
X22.8162 Y0.7391
X22.812 Y0.745
X22.8059 Y0.7529
X22.803 Y0.7565
X22.8001 Y0.7599
X22.7946 Y0.7661
X22.7892 Y0.7718
X22.7838 Y0.7772
X22.7781 Y0.7826
X22.7719 Y0.7881
X22.7685 Y0.791
X22.7649 Y0.7939
X22.757 Y0.8
X22.7512 Y0.8042
X22.7475 Y0.8066
X22.7429 Y0.8097
X22.7371 Y0.8133
X22.7313 Y0.8166
X22.7256 Y0.8198
X22.7204 Y0.8226
X22.7157 Y0.8248
X22.71 Y0.8275
X22.7031 Y0.8305
X22.6967 Y0.8331
X22.691 Y0.8353
X22.6904 Y0.8355
X22.706 Y4.7341
X23.5026
X23.4974 Y3.7724
X23.4972 Y3.7696 Z0.1984
X23.4969 Y3.7668 Z0.1986
X23.4964 Y3.7641 Z0.199
X23.4958 Y3.7614 Z0.1995
X23.495 Y3.7588 Z0.2002
X23.4941 Y3.7563 Z0.2011
X23.4931 Y3.7539 Z0.2021
X23.492 Y3.7516 Z0.2032
X23.4908 Y3.7494 Z0.2045
X23.4895 Y3.7473 Z0.2059
X23.4882 Y3.7454 Z0.2075
X23.4869 Y3.7436 Z0.2092
X23.4855 Y3.742 Z0.211
X23.4841 Y3.7405 Z0.2129
X23.4828 Y3.7391 Z0.215
X23.4815 Y3.7378 Z0.2171
X23.4802 Y3.7367 Z0.2193
X23.479 Y3.7357 Z0.2217
X23.4779 Y3.7349 Z0.2241
X23.4768 Y3.7341 Z0.2266
X23.4759 Y3.7335 Z0.2291
X23.475 Y3.7329 Z0.2318
X23.4743 Y3.7325 Z0.2344
X23.4737 Y3.7321 Z0.2371
X23.4733 Y3.7318 Z0.2399
X23.4729 Y3.7316 Z0.2427
X23.4727 Y3.7315 Z0.2455
X23.4726 Z0.2483
G0 Z0.8483
X24.841 Y1.0958
Z0.5435
G1 Z0.4216 F50.
Y1.0955 Z0.4163
Y1.0947 Z0.411
Y1.0933 Z0.4058
Y1.0913 Z0.4008
Y1.0888 Z0.3961
Y1.0858 Z0.3916
Y1.0824 Z0.3875
Y1.0785 Z0.3838
X24.8409 Y1.0743 Z0.3805
Y1.0697 Z0.3777
Y1.0649 Z0.3754
Y1.0598 Z0.3736
Y1.0546 Z0.3724
Y1.0493 Z0.3717
X24.8349 Y-1.239 Z0.2117
Y-1.2427 Z0.2115
X24.8352 Y-1.2542 Z0.2107
X24.8355 Y-1.2604 Z0.2102
X24.8359 Y-1.266 Z0.2098
X24.6725 Z0.1984
X24.669 Z0.1983
X24.5412 F100.
X24.5416 Y-1.2586
X24.5418 Y-1.2535
G3 X24.5421 Y-1.2401 I-0.7701 J0.0215
G1 X24.5744 Y4.7341
X24.8505
X24.8349 Y-1.239
Y-1.2427
X24.8352 Y-1.2542
X24.8355 Y-1.2604
X24.8359 Y-1.266
X24.669
X24.6662 Y-1.2658 Z0.1984
X24.6634 Y-1.2655 Z0.1986
X24.6607 Y-1.265 Z0.199
X24.658 Y-1.2644 Z0.1995
X24.6554 Y-1.2637 Z0.2002
X24.6528 Y-1.2628 Z0.2011
X24.6504 Y-1.2618 Z0.2021
X24.6481 Y-1.2607 Z0.2032
X24.6459 Y-1.2595 Z0.2045
X24.6439 Y-1.2582 Z0.2059
X24.6419 Y-1.2569 Z0.2075
X24.6401 Y-1.2556 Z0.2092
X24.6385 Y-1.2542 Z0.211
X24.637 Y-1.2529 Z0.2129
X24.6356 Y-1.2515 Z0.215
X24.6343 Y-1.2502 Z0.2171
X24.6332 Y-1.249 Z0.2193
X24.6322 Y-1.2478 Z0.2217
X24.6313 Y-1.2466 Z0.2241
X24.6306 Y-1.2456 Z0.2266
X24.6299 Y-1.2447 Z0.2291
X24.6294 Y-1.2438 Z0.2318
X24.6289 Y-1.2431 Z0.2344
X24.6285 Y-1.2425 Z0.2371
X24.6283 Y-1.242 Z0.2399
X24.6281 Y-1.2417 Z0.2427
X24.6279 Y-1.2415 Z0.2455
Y-1.2414 Z0.2483
G0 Z0.8483
X26.2304 Y1.9119
Z0.5435
G1 Z0.4216 F50.
Y1.9122 Z0.4163
Y1.9131 Z0.411
Y1.9145 Z0.4058
Y1.9164 Z0.4008
X26.2305 Y1.9189 Z0.3961
Y1.9219 Z0.3916
Y1.9254 Z0.3875
Y1.9292 Z0.3838
Y1.9334 Z0.3805
Y1.938 Z0.3777
Y1.9428 Z0.3754
Y1.9479 Z0.3736
Y1.9531 Z0.3724
X26.2306 Y1.9584 Z0.3717
X26.2368 Y4.3538 Z0.2042
G2 X26.2561 Y4.3731 Z0.2021 I0.0193 J-0.0001
G1 X26.2603 Z0.2018
G2 X26.2796 Y4.3537 Z0.1997 I0. J-0.0193
G1 X26.2795 Y4.3351 Z0.1984
Y4.3316 Z0.1983
X26.2685 Y1.1853 F100.
G2 X26.2421 Y1.1675 I-0.0193 J0.0001
G1 X26.2407 Y1.1681
G2 X26.2285 Y1.186 I0.0071 J0.0179
G1 X26.2368 Y4.3538
G2 X26.2561 Y4.3731 I0.0193 J-0.0001
G1 X26.2603
G2 X26.2796 Y4.3537 I0. J-0.0193
G1 X26.2795 Y4.3316
G3 X26.369 Y4.1963 I0.1462 J-0.0005
G2 X26.4585 Y4.061 I-0.0567 J-0.1348
G1 X26.4474 Y0.8651
G2 X26.4411 Y0.8452 I-0.035 J0.0001
G1 X26.439 Y0.8422
G2 X26.3732 Y0.842 I-0.033 J0.0224
G3 X26.1123 Y1.0205 I-0.361 J-0.2479
G1 X26.1113 Y1.0206
X26.1104 Y1.0208
G2 X26.0483 Y1.0991 I0.018 J0.078
G1 X26.0572 Y4.4891
G2 X26.1213 Y4.5531 I0.0641 J-0.0002
G1 X26.3964
G2 X26.46 Y4.4892 I0. J-0.0636
G1 X26.4585 Y4.061
G3 X26.5486 Y3.9249 I0.1471 J-0.0005
G2 X26.6386 Y3.7889 I-0.057 J-0.1356
G1 X26.6281 Y0.7859
X26.6223 Y0.7804
X26.6192 Y0.7774
X26.6187 Y0.7768
X26.6157 Y0.7737
X26.6103 Y0.7679
X26.6053 Y0.7622
X26.6005 Y0.7564
X26.5978 Y0.7529
X26.5969 Y0.7518
X26.5945 Y0.7486
X26.5908 Y0.7434
X26.5872 Y0.7382
X26.5839 Y0.7331
X26.5799 Y0.7266
X26.5755 Y0.7188
X26.5724 Y0.713
X26.5705 Y0.7093
X26.5682 Y0.7045
X26.5656 Y0.6988
X26.5632 Y0.693
X26.5609 Y0.6872
X26.5587 Y0.6815
X26.5567 Y0.6757
X26.5549 Y0.6699
X26.5532 Y0.6642
X26.5519 Y0.6592
X26.5508 Y0.6549
X26.5495 Y0.6492
X26.548 Y0.6419
X26.5469 Y0.6354
X26.546 Y0.6296
X26.5453 Y0.6238
X26.5447 Y0.6181
X26.5441 Y0.6095
X26.5436 Y0.598
Y0.5935
X26.5372 Y-1.2389
Y-1.2428
X26.5375 Y-1.2543
X26.5378 Y-1.2606
X26.5382 Y-1.266
X26.2647
X26.2652 Y-1.2591
X26.2654 Y-1.2537
X26.2656 Y-1.2421
X26.2657 Y-1.2397
X26.2704 Y0.5928
Y0.5977
X26.2702 Y0.6035
X26.2698 Y0.6093
X26.2694 Y0.615
X26.2688 Y0.6208
X26.268 Y0.6266
X26.2672 Y0.6323
X26.2662 Y0.6381
X26.2651 Y0.6438
X26.2638 Y0.6496
X26.2624 Y0.6554
X26.2609 Y0.6611
X26.2598 Y0.6649
X26.2593 Y0.6665
X26.2575 Y0.6723
X26.254 Y0.6822
X26.251 Y0.69
X26.2486 Y0.6957
X26.2459 Y0.7015
X26.2432 Y0.7072
X26.2403 Y0.7128
X26.2375 Y0.718
X26.2341 Y0.7238
X26.2303 Y0.7301
X26.2266 Y0.7358
X26.2229 Y0.7412
X26.2191 Y0.7465
X26.215 Y0.7518
X26.2126 Y0.7549
X26.2119 Y0.7558
X26.209 Y0.7591
X26.204 Y0.7649
X26.1986 Y0.7707
X26.1928 Y0.7766
X26.187 Y0.7821
X26.1813 Y0.7873
X26.1755 Y0.7922
X26.1697 Y0.7968
X26.1657 Y0.7999
X26.1635 Y0.8015
X26.1578 Y0.8055
X26.1485 Y0.8116
X26.1412 Y0.816
X26.1362 Y0.8189
X26.1312 Y0.8215
X26.1262 Y0.8241
X26.123 Y0.8257
X26.1214 Y0.8264
X26.1178 Y0.8281
X26.112 Y0.8306
X26.1063 Y0.833
X26.1005 Y0.8352
X26.0947 Y0.8373
X26.089 Y0.8392
X26.0832 Y0.8409
X26.0774 Y0.8425
X26.0716 Y0.844
X26.0659 Y0.8453
X26.0601 Y0.8465
X26.0543 Y0.8476
X26.0509 Y0.8482
X26.0498 Y0.8483
X26.0441 Y0.8491
X26.0336 Y0.8502
G3 X26.023 Y0.851 I-0.0142 J-0.1292
G1 X26.0115 Y0.8513
X26.0082
X25.8667 Y0.8517
X25.8768 Y4.7341
X26.6419
X26.6386 Y3.7889
X26.6384 Y3.7861 Z0.1984
X26.6381 Y3.7833 Z0.1986
X26.6376 Y3.7805 Z0.199
X26.637 Y3.7779 Z0.1995
X26.6362 Y3.7753 Z0.2002
X26.6354 Y3.7727 Z0.2011
X26.6343 Y3.7703 Z0.2021
X26.6332 Y3.768 Z0.2032
X26.632 Y3.7658 Z0.2045
X26.6308 Y3.7638 Z0.2059
X26.6295 Y3.7618 Z0.2075
X26.6281 Y3.7601 Z0.2092
X26.6268 Y3.7584 Z0.211
X26.6254 Y3.7569 Z0.2129
X26.624 Y3.7555 Z0.215
X26.6227 Y3.7543 Z0.2171
X26.6215 Y3.7531 Z0.2193
X26.6203 Y3.7522 Z0.2217
X26.6191 Y3.7513 Z0.2241
X26.6181 Y3.7505 Z0.2266
X26.6172 Y3.7499 Z0.2291
X26.6163 Y3.7493 Z0.2318
X26.6156 Y3.7489 Z0.2344
X26.615 Y3.7485 Z0.2371
X26.6145 Y3.7482 Z0.2399
X26.6142 Y3.748 Z0.2427
X26.614 Y3.7479 Z0.2455
X26.6139 Z0.2483
G0 Z0.8483
X28.0293 Y1.9729
Z0.5435
G1 Z0.4216 F50.
Y1.9732 Z0.4163
Y1.974 Z0.411
Y1.9755 Z0.4058
X28.0294 Y1.9774 Z0.4008
Y1.9799 Z0.3961
Y1.9829 Z0.3916
Y1.9863 Z0.3875
Y1.9902 Z0.3838
Y1.9944 Z0.3805
Y1.999 Z0.3777
Y2.0038 Z0.3754
X28.0295 Y2.0089 Z0.3736
Y2.0141 Z0.3724
Y2.0194 Z0.3717
X28.0376 Y4.3262 Z0.2104
G2 X28.0846 Y4.3731 Z0.2053 I0.0471 J-0.0002
G1 X28.0896 Z0.2049
G2 X28.1367 Y4.3257 Z0.1997 I0. J-0.0471
G1 X28.1365 Y4.3067 Z0.1984
Y4.3032 Z0.1983
X28.1148 Y1.1104 F100.
G2 X28.0585 Y1.0828 I-0.035 J0.0002
G1 X28.0523 Y1.0875
G3 X28.041 Y1.0958 I-0.2993 J-0.3934
G2 X28.0264 Y1.1244 I0.0204 J0.0285
G1 X28.0376 Y4.3262
G2 X28.0846 Y4.3731 I0.0471 J-0.0002
G1 X28.0896
G2 X28.1367 Y4.3257 I0. J-0.0471
G1 X28.1365 Y4.3032
G3 X28.2256 Y4.1676 I0.1462 J-0.001
G2 X28.3147 Y4.0319 I-0.0572 J-0.1346
G1 X28.2945 Y1.0703
G2 X28.2313 Y0.9408 I-0.1666 J0.0011
G3 X28.1214 Y0.8119 I0.2701 J-0.3416
G2 X28.0612 Y0.8117 I-0.0302 J0.017
G3 X27.9244 Y0.9583 I-0.3841 J-0.2212
G1 X27.9206 Y0.9608
X27.9167 Y0.963
X27.9088 Y0.9676
G2 X27.8462 Y1.0791 I0.0674 J0.1111
G1 X27.8581 Y4.4891
G2 X27.9223 Y4.5531 I0.0641 J-0.0002
G1 X28.2544
G2 X28.3178 Y4.4893 I0. J-0.0633
G1 X28.3147 Y4.0319
G3 X28.4042 Y3.8956 I0.1471 J-0.001
G2 X28.4938 Y3.7592 I-0.0575 J-0.1354
G1 X28.474 Y0.8535
X28.4732 Y0.8534
X28.4675 Y0.8526
X28.4617 Y0.8517
X28.4559 Y0.8507
X28.4502 Y0.8495
X28.443 Y0.8478
X28.4344 Y0.8455
X28.4286 Y0.8438
X28.4257 Y0.8429
X28.4213 Y0.8414
X28.4155 Y0.8394
X28.4098 Y0.8372
X28.404 Y0.8348
X28.3982 Y0.8323
X28.3925 Y0.8296
X28.3867 Y0.8267
X28.3809 Y0.8236
X28.3777 Y0.8219
X28.377 Y0.8214
X28.3739 Y0.8196
X28.3685 Y0.8164
X28.3631 Y0.8129
X28.3577 Y0.8093
X28.3519 Y0.8052
X28.3458 Y0.8005
X28.34 Y0.7959
X28.3346 Y0.7913
X28.3283 Y0.7856
X28.3211 Y0.7787
X28.3154 Y0.7727
X28.311 Y0.7679
X28.3061 Y0.7622
X28.3007 Y0.7555
X28.2977 Y0.7517
X28.2949 Y0.7477
X28.2887 Y0.7389
X28.2849 Y0.7331
X28.2833 Y0.7304
X28.2808 Y0.7262
X28.2776 Y0.7204
X28.2745 Y0.7146
X28.2716 Y0.7089
X28.2682 Y0.7016
X28.2645 Y0.6928
X28.2622 Y0.687
X28.2612 Y0.6843
X28.2597 Y0.6801
X28.2578 Y0.6743
X28.256 Y0.6685
X28.2544 Y0.6628
X28.2529 Y0.657
X28.2516 Y0.6512
X28.2504 Y0.6455
X28.2493 Y0.6397
X28.2484 Y0.634
X28.2476 Y0.6282
X28.247 Y0.6224
X28.2464 Y0.6167
X28.2459 Y0.6085
X28.2456 Y0.597
X28.2455 Y0.594
X28.2331 Y-1.227
Y-1.2274
Y-1.2389
Y-1.2432
X28.2335 Y-1.2547
X28.2338 Y-1.2612
X28.2342 Y-1.266
X27.9321
X27.9325 Y-1.2589
X27.9327 Y-1.2536
X27.933 Y-1.2421
Y-1.2398
X27.9394 Y0.5811
Y0.5814
Y0.5929
X27.9393 Y0.5981
X27.9391 Y0.6038
X27.9387 Y0.6096
X27.9382 Y0.6154
X27.9374 Y0.6229
X27.9361 Y0.6322
X27.9351 Y0.6379
X27.9347 Y0.6402
X27.9339 Y0.6442
X27.9326 Y0.65
X27.9312 Y0.6557
X27.9296 Y0.6615
X27.9279 Y0.6672
X27.9261 Y0.673
X27.9241 Y0.6788
X27.922 Y0.6845
X27.9188 Y0.6922
X27.9145 Y0.7019
X27.9118 Y0.7076
X27.9108 Y0.7095
X27.9088 Y0.7133
X27.9056 Y0.7191
X27.9022 Y0.7249
X27.8987 Y0.7306
X27.895 Y0.7363
X27.8911 Y0.7418
X27.8869 Y0.7476
X27.8822 Y0.7536
X27.8765 Y0.7605
X27.8696 Y0.7681
X27.8642 Y0.7738
X27.8603 Y0.7777
X27.8546 Y0.783
X27.8469 Y0.7897
X27.8435 Y0.7927
X27.8399 Y0.7955
X27.8336 Y0.8003
X27.8278 Y0.8044
X27.8226 Y0.808
X27.8171 Y0.8115
X27.8114 Y0.815
X27.8056 Y0.8183
X27.7998 Y0.8214
X27.7955 Y0.8236
X27.7927 Y0.825
X27.7869 Y0.8277
X27.7782 Y0.8314
X27.771 Y0.8343
X27.7652 Y0.8364
X27.7594 Y0.8383
X27.7537 Y0.8401
X27.7479 Y0.8418
X27.7421 Y0.8433
X27.7364 Y0.8446
X27.7306 Y0.8459
X27.7241 Y0.8471
X27.717 Y0.8482
X27.7112 Y0.849
X27.7068 Y0.8495
X27.7018 Y0.85
X27.696 Y0.8504
X27.6902 Y0.8507
X27.6844 Y0.8509
X27.6809 Y0.851
X27.6644
X27.678 Y4.7341
X28.5005
X28.4938 Y3.7592
X28.4936 Y3.7564 Z0.1984
X28.4933 Y3.7536 Z0.1986
X28.4928 Y3.7509 Z0.199
X28.4922 Y3.7482 Z0.1995
X28.4914 Y3.7456 Z0.2002
X28.4905 Y3.7431 Z0.2011
X28.4895 Y3.7407 Z0.2021
X28.4884 Y3.7384 Z0.2032
X28.4872 Y3.7362 Z0.2045
X28.4859 Y3.7342 Z0.2059
X28.4846 Y3.7322 Z0.2075
X28.4832 Y3.7305 Z0.2092
X28.4819 Y3.7288 Z0.211
X28.4805 Y3.7273 Z0.2129
X28.4792 Y3.7259 Z0.215
X28.4778 Y3.7247 Z0.2171
X28.4766 Y3.7236 Z0.2193
X28.4754 Y3.7226 Z0.2217
X28.4742 Y3.7217 Z0.2241
X28.4732 Y3.721 Z0.2266
X28.4723 Y3.7203 Z0.2291
X28.4714 Y3.7198 Z0.2318
X28.4707 Y3.7193 Z0.2344
X28.4701 Y3.7189 Z0.2371
X28.4696 Y3.7187 Z0.2399
X28.4693 Y3.7185 Z0.2427
X28.4691 Y3.7184 Z0.2455
X28.469 Y3.7183 Z0.2483
G0 Z0.8483
X29.9245 Y3.6409
Z0.5435
G1 Z0.4216 F50.
Y3.6406 Z0.4163
Y3.6398 Z0.411
Y3.6384 Z0.4058
Y3.6364 Z0.4008
Y3.6339 Z0.3961
Y3.6309 Z0.3916
Y3.6275 Z0.3875
Y3.6236 Z0.3838
Y3.6194 Z0.3805
Y3.6148 Z0.3777
Y3.61 Z0.3754
X29.9244 Y3.6049 Z0.3736
Y3.5997 Z0.3724
Y3.5944 Z0.3717
X29.9181 Y1.164 Z0.2018
G2 X29.9043 Y1.1411 Z0.1998 I-0.026 J0.0001
G3 X29.8953 Y1.1361 Z0.1991 I0.2324 J-0.4328
G1 X29.8911 Y1.1338 Z0.1988
X29.8888 Y1.1326 Z0.1986
X29.8864 Y1.1317 Z0.1984
X29.8847 Y1.1312 Z0.1983
X29.883 Y1.1308
G2 X29.8523 Y1.1566 I-0.0047 J0.0256 F100.
G1 X29.8739 Y4.3291
G2 X29.9263 Y4.3289 I0.0262 J-0.0002
G1 X29.9181 Y1.164
G2 X29.9043 Y1.1411 I-0.026 J0.0001
G3 X29.8953 Y1.1361 I0.2324 J-0.4328
G1 X29.8911 Y1.1338
X29.8885 Y1.1325
X29.8858 Y1.1315
X29.883 Y1.1308
G3 X29.7829 Y1.0697 I0.0291 J-0.1603
G2 X29.6719 Y1.1078 I-0.0491 J0.0377
G1 X29.695 Y4.4902
G2 X29.7581 Y4.5529 I0.0631 J-0.0004
G1 X30.0444
G2 X30.1068 Y4.4903 I0. J-0.0624
G1 X30.0979 Y1.0947
G2 X30.0357 Y1.0039 I-0.0977 J0.0003
G3 X29.8177 Y0.8173 I0.1588 J-0.4062
G2 X29.7576 Y0.8169 I-0.0302 J0.0177
G3 X29.7009 Y0.8917 I-0.3914 J-0.2374
G2 X29.671 Y0.9681 I0.0808 J0.0756
G1 X29.6719 Y1.1078
G3 X29.5823 Y1.2443 I-0.1472 J0.001
G2 X29.4926 Y1.3808 I0.0575 J0.1355
G1 X29.5154 Y4.7341
X30.2886
X30.2784 Y0.8534
X30.207 Y0.8536
X30.2066
X30.1951
X30.1895 Y0.8535
X30.1837 Y0.8532
X30.178 Y0.8529
X30.1722 Y0.8523
X30.1664 Y0.8517
X30.1606 Y0.8509
X30.1549 Y0.85
X30.1491 Y0.849
X30.1436 Y0.8479
X30.1383 Y0.8467
X30.1326 Y0.8453
X30.1263 Y0.8436
X30.1203 Y0.8418
X30.1145 Y0.8399
X30.1087 Y0.8378
X30.103 Y0.8357
X30.0972 Y0.8333
X30.0914 Y0.8308
X30.0857 Y0.8281
X30.0799 Y0.8253
X30.0766 Y0.8236
X30.0759 Y0.8232
X30.0728 Y0.8215
X30.0674 Y0.8185
X30.062 Y0.8153
X30.0566 Y0.8119
X30.0504 Y0.8077
X30.0432 Y0.8026
X30.0375 Y0.7982
X30.0331 Y0.7947
X30.0287 Y0.791
X30.0243 Y0.7872
X30.02 Y0.7832
X30.0157 Y0.779
X30.0121 Y0.7755
X30.0092 Y0.7725
X30.0041 Y0.7668
X29.9967 Y0.7582
X29.9938 Y0.7547
X29.991 Y0.7511
X29.9868 Y0.7454
X29.9828 Y0.7396
X29.9789 Y0.7338
X29.9753 Y0.728
X29.972 Y0.7222
X29.9688 Y0.7165
X29.9658 Y0.7107
X29.9636 Y0.7064
X29.9623 Y0.7036
X29.9598 Y0.6979
X29.9561 Y0.6891
X29.9534 Y0.6819
X29.9514 Y0.6761
X29.9495 Y0.6703
X29.9478 Y0.6646
X29.9462 Y0.6588
X29.9448 Y0.6531
X29.9435 Y0.6473
X29.9424 Y0.6415
X29.9414 Y0.6358
X29.9405 Y0.63
X29.9397 Y0.6242
X29.9391 Y0.6185
X29.9388 Y0.6148
X29.9387 Y0.6133
X29.9383 Y0.6076
X29.938 Y0.5976
X29.9379 Y0.5934
X29.9331 Y-1.239
X29.9332 Y-1.2427
X29.9335 Y-1.2542
X29.9338 Y-1.2604
X29.9342 Y-1.266
X29.6262
X29.6266 Y-1.2583
X29.6268 Y-1.2534
G3 X29.627 Y-1.2402 I-0.918 J0.0237
G1 X29.6394 Y0.5807
Y0.5811
Y0.5815
Y0.5931
X29.6393 Y0.5996
X29.639 Y0.6053
X29.6386 Y0.6111
X29.638 Y0.6168
X29.6373 Y0.6226
X29.6365 Y0.6284
X29.6356 Y0.6341
X29.6345 Y0.6399
X29.6333 Y0.6457
X29.632 Y0.6514
X29.6305 Y0.6572
X29.6289 Y0.663
X29.6277 Y0.667
X29.627 Y0.6692
X29.625 Y0.675
X29.6215 Y0.6843
X29.6185 Y0.6918
X29.616 Y0.6975
X29.6132 Y0.7033
X29.6103 Y0.7091
X29.6075 Y0.7143
X29.6049 Y0.7191
X29.6014 Y0.7249
X29.5972 Y0.7316
X29.5933 Y0.7374
X29.5898 Y0.7423
X29.5862 Y0.7472
X29.5824 Y0.7521
X29.5797 Y0.7554
X29.5782 Y0.7571
X29.5751 Y0.7607
X29.5704 Y0.766
X29.5654 Y0.7712
X29.5601 Y0.7765
X29.5568 Y0.7796
X29.5558 Y0.7806
X29.5527 Y0.7834
X29.5474 Y0.7879
X29.5422 Y0.7923
X29.5369 Y0.7964
X29.5323 Y0.7998
X29.5283 Y0.8027
X29.5225 Y0.8066
X29.515 Y0.8113
X29.5084 Y0.8153
X29.5026 Y0.8185
X29.4968 Y0.8215
X29.4911 Y0.8243
X29.4888 Y0.8254
X29.4926 Y1.3808
X29.4928 Y1.3836 Z0.1984
X29.4931 Y1.3864 Z0.1986
X29.4936 Y1.3891 Z0.199
X29.4942 Y1.3918 Z0.1995
X29.495 Y1.3944 Z0.2002
X29.4959 Y1.3969 Z0.2011
X29.4969 Y1.3993 Z0.2021
X29.498 Y1.4017 Z0.2032
X29.4992 Y1.4038 Z0.2045
X29.5005 Y1.4059 Z0.2059
X29.5018 Y1.4078 Z0.2075
X29.5032 Y1.4096 Z0.2092
X29.5046 Y1.4112 Z0.211
X29.5059 Y1.4128 Z0.2129
X29.5073 Y1.4141 Z0.215
X29.5086 Y1.4154 Z0.2171
X29.5099 Y1.4165 Z0.2193
X29.5111 Y1.4175 Z0.2217
X29.5122 Y1.4183 Z0.2241
X29.5132 Y1.4191 Z0.2266
X29.5142 Y1.4197 Z0.2291
X29.515 Y1.4203 Z0.2318
X29.5157 Y1.4207 Z0.2344
X29.5163 Y1.4211 Z0.2371
X29.5168 Y1.4214 Z0.2399
X29.5171 Y1.4216 Z0.2427
X29.5173 Y1.4217 Z0.2455
X29.5174 Z0.2483
G0 Z0.8483
X31.3242 Y2.7067
Z0.5435
G1 Z0.4216 F50.
Y2.707 Z0.4163
Y2.7078 Z0.411
Y2.7093 Z0.4058
Y2.7112 Z0.4008
Y2.7137 Z0.3961
Y2.7167 Z0.3916
Y2.7201 Z0.3875
Y2.724 Z0.3838
Y2.7282 Z0.3805
X31.3243 Y2.7328 Z0.3777
Y2.7376 Z0.3754
Y2.7427 Z0.3736
Y2.7479 Z0.3724
Y2.7532 Z0.3717
X31.3295 Y4.7341 Z0.2332
X31.6501 Z0.2108
X31.6494 Y4.5567 Z0.1984
X31.6493 Y4.5532 Z0.1983
X31.6261 Y-1.2388 F100.
X31.6262 Y-1.2428
X31.6265 Y-1.2544
X31.6268 Y-1.2607
X31.6272 Y-1.266
X31.3129
X31.3133 Y-1.2591
X31.3136 Y-1.2537
X31.3138 Y-1.2422
Y-1.2397
X31.3295 Y4.7341
X31.6501
X31.6493 Y4.5532
X31.6492 Y4.5504 Z0.1984
X31.6489 Y4.5477 Z0.1986
X31.6484 Y4.5449 Z0.199
X31.6478 Y4.5422 Z0.1995
X31.647 Y4.5396 Z0.2002
X31.6461 Y4.5371 Z0.2011
X31.6451 Y4.5347 Z0.2021
X31.644 Y4.5324 Z0.2032
X31.6428 Y4.5302 Z0.2045
X31.6415 Y4.5282 Z0.2059
X31.6402 Y4.5262 Z0.2075
X31.6389 Y4.5244 Z0.2092
X31.6375 Y4.5228 Z0.211
X31.6361 Y4.5213 Z0.2129
X31.6348 Y4.5199 Z0.215
X31.6335 Y4.5187 Z0.2171
X31.6322 Y4.5175 Z0.2193
X31.631 Y4.5165 Z0.2217
X31.6299 Y4.5157 Z0.2241
X31.6288 Y4.5149 Z0.2266
X31.6279 Y4.5143 Z0.2291
X31.6271 Y4.5137 Z0.2318
X31.6263 Y4.5133 Z0.2344
X31.6257 Y4.5129 Z0.2371
X31.6253 Y4.5126 Z0.2399
X31.6249 Y4.5124 Z0.2427
X31.6247 Y4.5123 Z0.2455
Z0.2483
G0 Z0.8483
X33.1159 Y3.6879
Z0.5435
G1 Z0.4216 F50.
Y3.6876 Z0.4163
Y3.6867 Z0.411
Y3.6853 Z0.4058
Y3.6834 Z0.4008
Y3.6809 Z0.3961
Y3.6779 Z0.3916
Y3.6745 Z0.3875
Y3.6706 Z0.3838
Y3.6664 Z0.3805
Y3.6618 Z0.3777
Y3.657 Z0.3754
X33.1158 Y3.6519 Z0.3736
Y3.6467 Z0.3724
Y3.6414 Z0.3717
X33.1111 Y1.1791 Z0.1996
G2 X33.1073 Y1.1632 Z0.1984 I-0.035 J0.0001
G1 X33.1064 Y1.1617 Z0.1983
X33.1055 Y1.1602
G2 X33.0604 Y1.1478 I-0.0295 J0.019 F100.
X33.041 Y1.1793 I0.0157 J0.0314
G1 X33.0536 Y4.3253
G2 X33.1171 Y4.3251 I0.0318 J-0.0001
G1 X33.1111 Y1.1791
G2 X33.1055 Y1.1602 I-0.035 J0.0001
G3 X33.1069 Y1.044 I0.0886 J-0.057
G2 X33.0257 Y0.9609 I-0.0491 J-0.0333
G3 X32.9216 Y1.0104 I-0.2429 J-0.3762
G2 X32.8606 Y1.0948 I0.0274 J0.084
G1 X32.8743 Y4.4902
G2 X32.9372 Y4.5529 I0.0629 J-0.0003
G1 X33.235
G2 X33.2975 Y4.4903 I0. J-0.0624
G1 X33.2907 Y0.9495
G2 X33.2683 Y0.8931 I-0.0827 J0.0002
G3 X33.2422 Y0.8622 I0.2975 J-0.2786
X33.219 Y0.8291 I0.3652 J-0.2795
G2 X33.1569 I-0.0311 J0.0197
G3 X33.055 Y0.9402 I-0.3638 J-0.231
X33.0257 Y0.9609 I-0.2722 J-0.3555
X32.8528 Y0.9143 I-0.0654 J-0.1013
G2 X32.6789 Y0.9565 I-0.082 J0.0418
G1 X32.694 Y4.7341
X33.4791
X33.4716 Y0.8238
X33.4694 Y0.8227
X33.4669 Y0.8213
X33.4627 Y0.8189
X33.457 Y0.8155
X33.4512 Y0.8119
X33.4454 Y0.8081
X33.4405 Y0.8047
X33.4365 Y0.8018
X33.4307 Y0.7973
X33.4232 Y0.7911
X33.4166 Y0.7853
X33.4109 Y0.7799
X33.4051 Y0.7742
X33.3993 Y0.7679
X33.3942 Y0.7621
X33.3898 Y0.7568
X33.3857 Y0.7517
X33.382 Y0.7467
X33.3784 Y0.7417
X33.375 Y0.7367
X33.3729 Y0.7334
X33.3719 Y0.7319
X33.3697 Y0.7283
X33.3663 Y0.7225
X33.3631 Y0.7167
X33.3601 Y0.711
X33.3565 Y0.7034
X33.3523 Y0.694
X33.3499 Y0.6882
X33.3491 Y0.6861
X33.3476 Y0.6822
X33.3456 Y0.6764
X33.3437 Y0.6706
X33.342 Y0.6649
X33.3404 Y0.6591
X33.339 Y0.6533
X33.3377 Y0.6476
X33.3365 Y0.6418
X33.3355 Y0.636
X33.3346 Y0.6303
X33.3338 Y0.6245
X33.3332 Y0.6188
X33.3326 Y0.6101
X33.3321 Y0.5986
X33.332 Y0.5933
X33.3284 Y-1.2391
X33.3285 Y-1.2426
X33.3288 Y-1.2541
X33.3291 Y-1.2603
X33.3295 Y-1.266
X33.0373
X33.0378 Y-1.2588
X33.038 Y-1.2536
X33.0382 Y-1.2421
X33.0383 Y-1.2399
X33.0456 Y0.581
Y0.5814
Y0.5929
X33.0455 Y0.5983
X33.0452 Y0.6041
X33.0449 Y0.6099
X33.0444 Y0.6156
X33.0438 Y0.6214
X33.043 Y0.6272
X33.0421 Y0.6329
X33.0411 Y0.6387
X33.04 Y0.6445
X33.0387 Y0.6502
X33.0373 Y0.656
X33.0357 Y0.6617
X33.034 Y0.6675
X33.0321 Y0.6733
X33.0301 Y0.679
X33.028 Y0.6848
X33.0256 Y0.6908
X33.0229 Y0.6969
X33.0202 Y0.7027
X33.0176 Y0.7081
X33.0147 Y0.7135
X33.0117 Y0.7191
X33.0083 Y0.7249
X33.0046 Y0.7308
X33.0007 Y0.7367
X32.9967 Y0.7424
X32.9925 Y0.7482
X32.9879 Y0.754
X32.9843 Y0.7585
X32.9815 Y0.7617
X32.9782 Y0.7654
X32.9743 Y0.7695
X32.9703 Y0.7737
X32.9661 Y0.7778
X32.9623 Y0.7815
X32.9587 Y0.7847
X32.9544 Y0.7885
X32.9491 Y0.7929
X32.9438 Y0.797
X32.9385 Y0.801
X32.9354 Y0.8033
X32.9344 Y0.8039
X32.9311 Y0.8062
X32.9253 Y0.81
X32.9195 Y0.8136
X32.9137 Y0.8169
X32.9072 Y0.8205
X32.9 Y0.8242
X32.8942 Y0.8269
X32.8899 Y0.8289
X32.8849 Y0.831
X32.8791 Y0.8333
X32.8734 Y0.8354
X32.8676 Y0.8374
X32.8618 Y0.8393
X32.8561 Y0.841
X32.8503 Y0.8425
X32.8445 Y0.8439
X32.8388 Y0.8452
X32.833 Y0.8463
X32.8272 Y0.8473
X32.8214 Y0.8482
X32.8177 Y0.8487
X32.8161 Y0.8489
X32.8104 Y0.8495
X32.8004 Y0.8502
X32.7919 Y0.8506
X32.7804 Y0.8507
X32.78
X32.7795
X32.6785 Y0.8511
X32.6789 Y0.9565
X32.679 Y0.9593 Z0.1984
X32.6794 Y0.9621 Z0.1986
X32.6798 Y0.9648 Z0.199
X32.6805 Y0.9675 Z0.1995
X32.6812 Y0.9701 Z0.2002
X32.6821 Y0.9726 Z0.2011
X32.6831 Y0.975 Z0.2021
X32.6843 Y0.9774 Z0.2032
X32.6854 Y0.9795 Z0.2045
X32.6867 Y0.9816 Z0.2059
X32.688 Y0.9835 Z0.2075
X32.6894 Y0.9853 Z0.2092
X32.6907 Y0.987 Z0.211
X32.6921 Y0.9885 Z0.2129
X32.6935 Y0.9899 Z0.215
X32.6948 Y0.9911 Z0.2171
X32.696 Y0.9922 Z0.2193
X32.6972 Y0.9932 Z0.2217
X32.6984 Y0.9941 Z0.2241
X32.6994 Y0.9948 Z0.2266
X32.7003 Y0.9955 Z0.2291
X32.7012 Y0.996 Z0.2318
X32.7019 Y0.9965 Z0.2344
X32.7025 Y0.9969 Z0.2371
X32.703 Y0.9971 Z0.2399
X32.7033 Y0.9973 Z0.2427
X32.7035 Y0.9975 Z0.2455
X32.7036 Z0.2483
G0 Z0.8483
X34.8979 Y1.9629
Z0.5435
G1 Z0.4216 F50.
Y1.9632 Z0.4163
Y1.9641 Z0.411
Y1.9655 Z0.4058
Y1.9675 Z0.4008
Y1.97 Z0.3961
Y1.9729 Z0.3916
Y1.9764 Z0.3875
Y1.9802 Z0.3838
Y1.9845 Z0.3805
Y1.989 Z0.3777
Y1.9939 Z0.3754
X34.898 Y1.9989 Z0.3736
Y2.0041 Z0.3724
Y2.0095 Z0.3717
X34.9024 Y4.3381 Z0.2089
G2 X34.9375 Y4.3731 Z0.2051 I0.035 J-0.0001
G1 X34.9531 Z0.204
G2 X34.9882 Y4.3379 Z0.2001 I0. J-0.035
G1 X34.9881 Y4.3135 Z0.1984
Y4.31 Z0.1983
X34.9748 Y1.1455 F100.
G2 X34.9587 Y1.1162 I-0.035 J0.0001
G3 X34.9495 Y1.1101 I0.2657 J-0.4129
G2 X34.8963 Y1.1384 I-0.0191 J0.0283
G1 X34.9024 Y4.3381
G2 X34.9375 Y4.3731 I0.035 J-0.0001
G1 X34.9531
G2 X34.9882 Y4.3379 I0. J-0.035
G1 X34.9881 Y4.31
G3 X35.0775 Y4.1746 I0.1462 J-0.0006
G2 X35.1669 Y4.0393 I-0.0568 J-0.1348
G1 X35.1546 Y1.0893
G2 X35.0915 Y0.9854 I-0.1179 J0.0005
G3 X34.9097 Y0.8082 I0.2069 J-0.3942
G2 X34.8501 I-0.0298 J0.0166
G3 X34.7652 Y0.9156 I-0.3737 J-0.2084
G2 X34.7161 Y1.0273 I0.1018 J0.1114
G1 X34.7227 Y4.4892
G2 X34.7868 Y4.5531 I0.064 J-0.0001
G1 X35.1053
G2 X35.1688 Y4.4892 I0. J-0.0635
G1 X35.1669 Y4.0393
G3 X35.2568 Y3.9031 I0.1471 J-0.0006
G2 X35.3468 Y3.767 I-0.0571 J-0.1355
G1 X35.3346 Y0.8542
X35.2942 Y0.8543
X35.2891 Y0.8542
X35.2834 Y0.854
X35.2776 Y0.8537
X35.2718 Y0.8533
X35.2661 Y0.8527
X35.2603 Y0.8519
X35.2545 Y0.8511
X35.2488 Y0.8501
X35.2413 Y0.8486
X35.2323 Y0.8465
X35.2265 Y0.8451
X35.224 Y0.8444
X35.2199 Y0.8431
X35.2142 Y0.8413
X35.2084 Y0.8394
X35.2026 Y0.8372
X35.1969 Y0.8349
X35.1911 Y0.8325
X35.1853 Y0.8299
X35.1795 Y0.8271
X35.1751 Y0.8249
X35.1719 Y0.8232
X35.1661 Y0.8199
X35.1578 Y0.8149
G3 X35.149 Y0.8092 I0.0667 J-0.1116
G1 X35.1398 Y0.8027
X35.1341 Y0.7983
X35.1317 Y0.7964
X35.1279 Y0.7932
X35.1226 Y0.7887
X35.1174 Y0.7839
X35.1121 Y0.7788
X35.109 Y0.7757
X35.108 Y0.7746
X35.1051 Y0.7715
X35.1003 Y0.7663
X35.0958 Y0.7611
X35.0916 Y0.7558
X35.0882 Y0.7515
X35.0857 Y0.7481
X35.0816 Y0.7424
X35.0762 Y0.7343
X35.0719 Y0.7274
X35.0687 Y0.7217
X35.0656 Y0.716
X35.0625 Y0.7101
X35.0597 Y0.7042
X35.0571 Y0.6985
X35.0547 Y0.6927
X35.0524 Y0.6869
X35.0503 Y0.6812
X35.0483 Y0.6754
X35.0465 Y0.6696
X35.0448 Y0.6639
X35.0433 Y0.6581
X35.0419 Y0.6524
X35.0406 Y0.6466
X35.0395 Y0.6408
X35.0388 Y0.6368
X35.0384 Y0.6345
X35.0376 Y0.6287
X35.0366 Y0.6195
G3 X35.0358 Y0.6093 I0.1291 J-0.0149
G1 X35.0354 Y0.5978
X35.0353 Y0.5936
X35.0276 Y-1.2388
X35.0277 Y-1.2428
X35.028 Y-1.2544
X35.0283 Y-1.2608
X35.0287 Y-1.266
X34.7215
X34.722 Y-1.2592
X34.7222 Y-1.2537
X34.7224 Y-1.2422
X34.7225 Y-1.2396
X34.726 Y0.5928
X34.7259 Y0.5974
X34.7257 Y0.6031
X34.7254 Y0.6089
X34.725 Y0.6147
X34.7244 Y0.6204
X34.7237 Y0.6262
X34.7228 Y0.632
X34.7219 Y0.6377
X34.7208 Y0.6435
X34.7195 Y0.6493
X34.7181 Y0.655
X34.7166 Y0.6608
X34.7154 Y0.6651
X34.7145 Y0.668
X34.7126 Y0.6738
X34.7096 Y0.6824
X34.7068 Y0.6896
X34.7044 Y0.6954
X34.7018 Y0.7011
X34.699 Y0.7069
X34.696 Y0.7128
X34.6927 Y0.7189
X34.6894 Y0.7247
X34.6861 Y0.7301
X34.6825 Y0.7357
X34.6786 Y0.7413
X34.6744 Y0.7471
X34.6699 Y0.753
X34.6652 Y0.7588
X34.6602 Y0.7645
X34.6549 Y0.7703
X34.6493 Y0.7761
X34.646 Y0.7793
X34.6452 Y0.78
X34.642 Y0.783
X34.6362 Y0.7881
X34.6305 Y0.793
X34.6247 Y0.7976
X34.6211 Y0.8004
X34.6196 Y0.8014
X34.6164 Y0.8037
X34.6114 Y0.8072
X34.6063 Y0.8105
X34.6013 Y0.8137
X34.5943 Y0.8178
X34.5853 Y0.8226
X34.5794 Y0.8256
X34.5769 Y0.8268
X34.5728 Y0.8287
X34.567 Y0.8312
X34.5612 Y0.8336
X34.5555 Y0.8358
X34.5497 Y0.8378
X34.5439 Y0.8397
X34.5382 Y0.8414
X34.5347 Y0.8424
X34.5422 Y4.7341
X35.3508
X35.3468 Y3.767
X35.3466 Y3.7642 Z0.1984
X35.3463 Y3.7614 Z0.1986
X35.3458 Y3.7587 Z0.199
X35.3452 Y3.756 Z0.1995
X35.3444 Y3.7534 Z0.2002
X35.3435 Y3.7509 Z0.2011
X35.3425 Y3.7485 Z0.2021
X35.3414 Y3.7462 Z0.2032
X35.3402 Y3.744 Z0.2045
X35.3389 Y3.7419 Z0.2059
X35.3376 Y3.74 Z0.2075
X35.3363 Y3.7382 Z0.2092
X35.3349 Y3.7366 Z0.211
X35.3336 Y3.7351 Z0.2129
X35.3322 Y3.7337 Z0.215
X35.3309 Y3.7324 Z0.2171
X35.3296 Y3.7313 Z0.2193
X35.3284 Y3.7303 Z0.2217
X35.3273 Y3.7295 Z0.2241
X35.3263 Y3.7287 Z0.2266
X35.3253 Y3.7281 Z0.2291
X35.3245 Y3.7275 Z0.2318
X35.3238 Y3.727 Z0.2344
X35.3232 Y3.7267 Z0.2371
X35.3227 Y3.7264 Z0.2399
X35.3224 Y3.7262 Z0.2427
X35.3222 Y3.7261 Z0.2455
X35.3221 Y3.726 Z0.2483
G0 Z0.8483
X36.7297 Y1.0815
Z0.5435
G1 Z0.4216 F50.
Y1.0812 Z0.4163
Y1.0804 Z0.411
Y1.079 Z0.4058
Y1.077 Z0.4008
Y1.0745 Z0.3961
Y1.0715 Z0.3916
Y1.0681 Z0.3875
X36.7298 Y1.0642 Z0.3838
Y1.06 Z0.3805
Y1.0554 Z0.3777
Y1.0506 Z0.3754
X36.7299 Y1.0455 Z0.3736
Y1.0403 Z0.3724
Y1.035 Z0.3717
X36.7414 Y-1.24 Z0.2126
Y-1.242 Z0.2125
X36.7417 Y-1.2535 Z0.2117
X36.7419 Y-1.2586 Z0.2113
X36.7423 Y-1.266 Z0.2108
X36.5646 Z0.1984
X36.5611 Z0.1983
X36.4199 F100.
X36.4204 Y-1.2588
X36.4206 Y-1.2536
X36.4208 Y-1.2421
Y-1.2399
X36.4459 Y4.7341
X36.7112
X36.7414 Y-1.24
Y-1.242
X36.7417 Y-1.2535
X36.7419 Y-1.2586
X36.7423 Y-1.266
X36.5611
X36.5583 Y-1.2658 Z0.1984
X36.5555 Y-1.2655 Z0.1986
X36.5528 Y-1.265 Z0.199
X36.5501 Y-1.2644 Z0.1995
X36.5475 Y-1.2637 Z0.2002
X36.545 Y-1.2628 Z0.2011
X36.5425 Y-1.2618 Z0.2021
X36.5402 Y-1.2607 Z0.2032
X36.538 Y-1.2595 Z0.2045
X36.536 Y-1.2582 Z0.2059
X36.534 Y-1.2569 Z0.2075
X36.5322 Y-1.2556 Z0.2092
X36.5306 Y-1.2542 Z0.211
X36.5291 Y-1.2529 Z0.2129
X36.5277 Y-1.2515 Z0.215
X36.5264 Y-1.2502 Z0.2171
X36.5253 Y-1.249 Z0.2193
X36.5243 Y-1.2478 Z0.2217
X36.5234 Y-1.2466 Z0.2241
X36.5227 Y-1.2456 Z0.2266
X36.522 Y-1.2447 Z0.2291
X36.5215 Y-1.2438 Z0.2318
X36.521 Y-1.2431 Z0.2344
X36.5206 Y-1.2425 Z0.2371
X36.5204 Y-1.242 Z0.2399
X36.5202 Y-1.2417 Z0.2427
X36.52 Y-1.2415 Z0.2455
Y-1.2414 Z0.2483
G0 Z0.8483
X38.1192 Y1.9842
Z0.5435
G1 Z0.4216 F50.
Y1.9845 Z0.4163
Y1.9854 Z0.411
Y1.9868 Z0.4058
Y1.9887 Z0.4008
Y1.9912 Z0.3961
Y1.9942 Z0.3916
Y1.9977 Z0.3875
X38.1191 Y2.0015 Z0.3838
Y2.0057 Z0.3805
Y2.0103 Z0.3777
Y2.0151 Z0.3754
X38.119 Y2.0202 Z0.3736
Y2.0254 Z0.3724
Y2.0307 Z0.3717
X38.1074 Y4.3258 Z0.2112
G2 X38.1544 Y4.3731 Z0.2061 I0.0471 J0.0002
G1 X38.167 Z0.2052
G2 X38.2141 Y4.3258 Z0.2 I0. J-0.0471
G1 X38.214 Y4.303 Z0.1984
Y4.2995 Z0.1983
X38.1987 Y1.1759 F100.
G2 X38.1474 Y1.145 I-0.035 J0.0002
G1 X38.1423 Y1.1477
G2 X38.1233 Y1.1786 I0.016 J0.0312
G1 X38.1074 Y4.3258
G2 X38.1544 Y4.3731 I0.0471 J0.0002
G1 X38.167
G2 X38.2141 Y4.3258 I0. J-0.0471
G1 X38.214 Y4.2995
G3 X38.3033 Y4.164 I0.1462 J-0.0007
G2 X38.3926 Y4.0286 I-0.0569 J-0.1347
G1 X38.3775 Y0.9285
G2 X38.3585 Y0.8755 I-0.0844 J0.0004
G3 X38.3313 Y0.8389 I0.3877 J-0.3161
X38.3081 Y0.7997 I0.3312 J-0.2231
G2 X38.2502 I-0.0289 J0.015
G3 X38.1484 Y0.9281 I-0.3819 J-0.1981
X38.0067 Y1.0105 I-0.2936 J-0.3423
G2 X37.9437 Y1.0994 I0.032 J0.0894
G1 X37.9265 Y4.4893
G2 X37.99 Y4.5531 I0.0635 J0.0003
G1 X38.3314
G2 X38.3949 Y4.4893 I0. J-0.0635
G1 X38.3926 Y4.0286
G3 X38.4825 Y3.8924 I0.1471 J-0.0007
G2 X38.5723 Y3.7562 I-0.0572 J-0.1355
G1 X38.5579 Y0.8134
X38.5538 Y0.8107
X38.5492 Y0.8075
X38.5445 Y0.8042
X38.5399 Y0.8007
X38.5365 Y0.798
X38.5342 Y0.7962
X38.5304 Y0.793
X38.5252 Y0.7885
X38.5199 Y0.7836
X38.5146 Y0.7785
X38.5115 Y0.7754
X38.5105 Y0.7743
X38.5076 Y0.7712
X38.5029 Y0.766
X38.4984 Y0.7607
X38.4942 Y0.7555
X38.4908 Y0.7511
X38.4882 Y0.7476
X38.4842 Y0.7419
X38.4789 Y0.7339
X38.4747 Y0.7269
X38.4714 Y0.7212
X38.4682 Y0.7154
X38.4653 Y0.7096
X38.4626 Y0.7039
X38.46 Y0.6981
X38.4576 Y0.6923
X38.4553 Y0.6866
X38.4532 Y0.6808
X38.4512 Y0.6751
X38.4494 Y0.6693
X38.4478 Y0.6635
X38.4463 Y0.6578
X38.4449 Y0.652
X38.4437 Y0.6462
X38.4426 Y0.6405
X38.4417 Y0.6355
X38.4411 Y0.6314
X38.4404 Y0.6256
X38.4396 Y0.6182
X38.4392 Y0.6136
X38.4389 Y0.609
X38.4386 Y0.5975
X38.4385 Y0.5937
X38.4296 Y-1.2387
Y-1.243
X38.4299 Y-1.2545
X38.4303 Y-1.2609
X38.4306 Y-1.266
X38.1279
X38.1283 Y-1.2609
X38.1286 Y-1.2545
X38.1289 Y-1.2429
X38.129 Y-1.2387
X38.1197 Y0.5937
Y0.5975
X38.1193 Y0.609
X38.1187 Y0.6174
X38.1181 Y0.6232
X38.1174 Y0.6289
X38.1166 Y0.6347
X38.1156 Y0.6405
X38.1145 Y0.6462
X38.1133 Y0.652
X38.1119 Y0.6578
X38.1104 Y0.6635
X38.1088 Y0.6693
X38.107 Y0.6751
X38.105 Y0.6808
X38.1038 Y0.6844
X38.1033 Y0.6857
X38.1009 Y0.6915
X38.0966 Y0.7017
X38.0929 Y0.7096
X38.09 Y0.7154
X38.0869 Y0.7212
X38.0836 Y0.7269
X38.0814 Y0.7306
X38.0804 Y0.7321
X38.0783 Y0.7354
X38.075 Y0.7404
X38.0716 Y0.7454
X38.0679 Y0.7504
X38.0638 Y0.7557
X38.0592 Y0.7614
X38.0542 Y0.7672
X38.0489 Y0.773
X38.0431 Y0.7789
X38.0369 Y0.7849
X38.0305 Y0.7907
X38.024 Y0.7962
X38.0182 Y0.8008
X38.0132 Y0.8045
X38.0079 Y0.8083
X38.0021 Y0.8122
X37.9963 Y0.8159
X37.9906 Y0.8193
X37.9872 Y0.8213
X37.9864 Y0.8217
X37.9833 Y0.8234
X37.978 Y0.8262
X37.9726 Y0.8289
X37.9673 Y0.8314
X37.9617 Y0.8338
X37.9559 Y0.8362
X37.9502 Y0.8384
X37.9444 Y0.8405
X37.9386 Y0.8424
X37.9328 Y0.8442
X37.9271 Y0.8458
X37.9213 Y0.8473
X37.9156 Y0.8486
X37.9098 Y0.8498
X37.904 Y0.8509
X37.8983 Y0.8518
X37.8925 Y0.8526
X37.8867 Y0.8533
X37.881 Y0.8538
X37.8752 Y0.8542
X37.8674 Y0.8545
X37.8559 Y0.8547
X37.8538
X37.7639 Y0.8542
X37.7443 Y4.7341
X38.5771
X38.5723 Y3.7562
X38.5721 Y3.7534 Z0.1984
X38.5718 Y3.7506 Z0.1986
X38.5713 Y3.7479 Z0.199
X38.5707 Y3.7452 Z0.1995
X38.5699 Y3.7426 Z0.2002
X38.569 Y3.7401 Z0.2011
X38.568 Y3.7377 Z0.2021
X38.5669 Y3.7354 Z0.2032
X38.5657 Y3.7332 Z0.2045
X38.5645 Y3.7311 Z0.2059
X38.5631 Y3.7292 Z0.2075
X38.5618 Y3.7274 Z0.2092
X38.5604 Y3.7258 Z0.211
X38.5591 Y3.7243 Z0.2129
X38.5577 Y3.7229 Z0.215
X38.5564 Y3.7216 Z0.2171
X38.5551 Y3.7205 Z0.2193
X38.5539 Y3.7195 Z0.2217
X38.5528 Y3.7187 Z0.2241
X38.5518 Y3.7179 Z0.2266
X38.5508 Y3.7173 Z0.2291
X38.55 Y3.7167 Z0.2318
X38.5493 Y3.7163 Z0.2344
X38.5487 Y3.7159 Z0.2371
X38.5482 Y3.7156 Z0.2399
X38.5479 Y3.7154 Z0.2427
X38.5477 Y3.7153 Z0.2455
X38.5476 Z0.2483
G0 Z0.8483
X40.0322 Y3.5882
Z0.5435
G1 Z0.4216 F50.
Y3.5879 Z0.4163
Y3.587 Z0.411
Y3.5856 Z0.4058
Y3.5836 Z0.4008
Y3.5811 Z0.3961
Y3.5782 Z0.3916
Y3.5747 Z0.3875
Y3.5709 Z0.3838
X40.0321 Y3.5666 Z0.3805
Y3.5621 Z0.3777
Y3.5572 Z0.3754
Y3.5522 Z0.3736
Y3.547 Z0.3724
Y3.5416 Z0.3717
X40.0248 Y1.0987 Z0.2009
G2 X40.0174 Y1.0836 Z0.1997 I-0.0193 J0.0001
G3 X40.0093 Y1.0771 Z0.199 I0.3455 J-0.4415
G1 X40.0071 Y1.0756 Z0.1988
X40.0047 Y1.0744 Z0.1986
X40.0022 Y1.0735 Z0.1984
X40.0005 Y1.0732 Z0.1983
X39.9987 Y1.0729
G2 X39.9779 Y1.0922 I-0.0015 J0.0192 F100.
G1 X39.9938 Y4.3338
G2 X40.0344 Y4.3336 I0.0203 J-0.0001
G1 X40.0248 Y1.0987
G2 X40.0174 Y1.0836 I-0.0193 J0.0001
G3 X40.0093 Y1.0771 I0.3455 J-0.4415
G2 X39.9987 Y1.0729 I-0.0121 J0.015
G3 X39.8953 Y1.0357 I0.0164 J-0.2076
G2 X39.7979 Y1.0866 I-0.0356 J0.0506
G1 X39.8145 Y4.4902
G2 X39.8775 Y4.5529 I0.063 J-0.0003
G1 X40.1525
G2 X40.2149 Y4.4903 I0. J-0.0624
G1 X40.2048 Y1.0723
G2 X40.1427 Y0.9526 I-0.1475 J0.0004
G3 X40.0798 Y0.8977 I0.2445 J-0.344
X40.0282 Y0.8321 I0.3431 J-0.3227
G2 X39.9656 I-0.0313 J0.0204
G3 X39.9169 Y0.8935 I-0.3564 J-0.2321
X39.8582 Y0.9454 I-0.3342 J-0.3187
G2 X39.7978 Y1.0664 I0.0894 J0.1202
G1 X39.7979 Y1.0866
G3 X39.708 Y1.2229 I-0.1472 J0.0007
G2 X39.618 Y1.3592 I0.0573 J0.1356
G1 X39.6345 Y4.7341
X40.3968
X40.3853 Y0.8534
X40.382 Y0.8532
X40.3763 Y0.8528
X40.3705 Y0.8522
X40.3647 Y0.8515
X40.359 Y0.8506
X40.3532 Y0.8496
X40.3474 Y0.8485
X40.3416 Y0.8473
X40.338 Y0.8464
X40.3366 Y0.8461
X40.3308 Y0.8445
X40.3207 Y0.8415
X40.3128 Y0.8389
X40.307 Y0.8368
X40.3013 Y0.8345
X40.2955 Y0.8321
X40.2886 Y0.8289
X40.2805 Y0.8249
X40.2747 Y0.8219
X40.2713 Y0.82
X40.2667 Y0.8173
X40.2609 Y0.8138
X40.2551 Y0.81
X40.2494 Y0.8061
X40.2451 Y0.803
X40.2423 Y0.8009
X40.2387 Y0.7981
X40.2343 Y0.7946
X40.2299 Y0.7909
X40.2256 Y0.7871
X40.2212 Y0.7831
X40.2169 Y0.7789
X40.2111 Y0.7729
X40.2039 Y0.765
X40.1989 Y0.7592
X40.1959 Y0.7555
X40.1923 Y0.7509
X40.1881 Y0.7451
X40.1841 Y0.7393
X40.1803 Y0.7336
X40.1781 Y0.7302
X40.1776 Y0.7293
X40.1757 Y0.7262
X40.1727 Y0.7209
X40.1698 Y0.7156
X40.1671 Y0.7103
X40.1644 Y0.7047
X40.1617 Y0.699
X40.1593 Y0.6932
X40.157 Y0.6875
X40.1554 Y0.6834
X40.1546 Y0.6812
X40.1527 Y0.6754
X40.1498 Y0.6662
X40.1477 Y0.6586
X40.1463 Y0.6529
X40.145 Y0.6471
X40.1439 Y0.6413
X40.1429 Y0.6356
X40.142 Y0.6298
X40.1413 Y0.6241
X40.1407 Y0.6183
X40.14 Y0.6097
X40.1396 Y0.5982
X40.1395 Y0.5935
Y0.5803
X40.1341 Y-1.239
Y-1.2427
X40.1344 Y-1.2542
X40.1347 Y-1.2605
X40.1351 Y-1.266
X39.8467
X39.8471 Y-1.2586
X39.8473 Y-1.2535
X39.8476 Y-1.242
Y-1.24
X39.8565 Y0.5809
Y0.5814
Y0.593
X39.8564 Y0.5988
X39.8561 Y0.6045
X39.8557 Y0.6103
X39.8552 Y0.616
X39.8546 Y0.6218
X39.8538 Y0.6276
X39.8529 Y0.6333
X39.8519 Y0.6391
X39.851 Y0.6437
X39.8502 Y0.6473
X39.8488 Y0.653
X39.8467 Y0.661
X39.8447 Y0.6679
X39.8428 Y0.6737
X39.8407 Y0.6794
X39.8386 Y0.6852
X39.8362 Y0.691
X39.8337 Y0.6967
X39.831 Y0.7025
X39.8282 Y0.7083
X39.8252 Y0.714
X39.822 Y0.7198
X39.8185 Y0.7256
X39.8149 Y0.7313
X39.8108 Y0.7375
X39.8061 Y0.7442
X39.8017 Y0.7499
X39.7978 Y0.7548
X39.7921 Y0.7615
X39.7845 Y0.7698
X39.779 Y0.7755
X39.7757 Y0.7787
X39.77 Y0.7839
X39.7617 Y0.791
X39.7582 Y0.7939
X39.7546 Y0.7967
X39.7486 Y0.8011
X39.7428 Y0.8052
X39.7373 Y0.8089
X39.7316 Y0.8124
X39.7258 Y0.8158
X39.7201 Y0.8191
X39.7143 Y0.8221
X39.7099 Y0.8243
X39.707 Y0.8257
X39.7012 Y0.8282
X39.6926 Y0.8318
X39.6854 Y0.8346
X39.6797 Y0.8366
X39.6739 Y0.8385
X39.6681 Y0.8402
X39.6624 Y0.8418
X39.6566 Y0.8432
X39.6508 Y0.8445
X39.6451 Y0.8457
X39.6393 Y0.8467
X39.6335 Y0.8476
X39.6275 Y0.8484
X39.6211 Y0.8491
X39.6156 Y0.8496
X39.618 Y1.3592
X39.6182 Y1.362 Z0.1984
X39.6185 Y1.3648 Z0.1986
X39.619 Y1.3676 Z0.199
X39.6196 Y1.3702 Z0.1995
X39.6204 Y1.3728 Z0.2002
X39.6213 Y1.3754 Z0.2011
X39.6223 Y1.3778 Z0.2021
X39.6234 Y1.3801 Z0.2032
X39.6246 Y1.3823 Z0.2045
X39.6259 Y1.3843 Z0.2059
X39.6272 Y1.3862 Z0.2075
X39.6286 Y1.388 Z0.2092
X39.6299 Y1.3897 Z0.211
X39.6313 Y1.3912 Z0.2129
X39.6326 Y1.3926 Z0.215
X39.634 Y1.3938 Z0.2171
X39.6352 Y1.3949 Z0.2193
X39.6364 Y1.3959 Z0.2217
X39.6376 Y1.3968 Z0.2241
X39.6386 Y1.3975 Z0.2266
X39.6395 Y1.3982 Z0.2291
X39.6404 Y1.3987 Z0.2318
X39.6411 Y1.3992 Z0.2344
X39.6417 Y1.3996 Z0.2371
X39.6422 Y1.3998 Z0.2399
X39.6425 Y1.4 Z0.2427
X39.6427 Y1.4002 Z0.2455
X39.6428 Z0.2483
G0 Z0.8483
X41.7977 Y1.9409
Z0.5435
G1 Z0.4216 F50.
Y1.9412 Z0.4163
Y1.942 Z0.411
Y1.9434 Z0.4058
Y1.9454 Z0.4008
Y1.9479 Z0.3961
Y1.9509 Z0.3916
Y1.9543 Z0.3875
Y1.9582 Z0.3838
Y1.9624 Z0.3805
X41.7978 Y1.967 Z0.3777
Y1.9718 Z0.3754
Y1.9768 Z0.3736
Y1.9821 Z0.3724
Y1.9874 Z0.3717
X41.8048 Y4.3381 Z0.2074
G2 X41.8398 Y4.3731 Z0.2035 I0.035 J-0.0001
G1 X41.8406
G2 X41.8757 Y4.3377 Z0.1996 I0. J-0.035
G1 X41.8755 Y4.3208 Z0.1984
Y4.3173 Z0.1983
X41.8469 Y1.1714 F100.
G2 X41.8362 Y1.1543 I-0.0193 J0.0002
G3 X41.8235 Y1.1479 I0.4297 J-0.8717
G2 X41.7954 Y1.1651 I-0.0088 J0.0171
G1 X41.8048 Y4.3381
G2 X41.8398 Y4.3731 I0.035 J-0.0001
G1 X41.8406
G2 X41.8757 Y4.3377 I0. J-0.035
G1 X41.8755 Y4.3173
G3 X41.9643 Y4.1815 I0.1462 J-0.0013
G2 X42.053 Y4.0457 I-0.0575 J-0.1345
G1 X42.0263 Y1.1013
G2 X41.9626 Y1.0124 I-0.095 J0.0009
G3 X41.7236 Y0.8112 I0.1439 J-0.4133
G2 X41.6639 Y0.8104 I-0.0301 J0.0167
G3 X41.6469 Y0.8376 I-0.5285 J-0.3107
X41.6282 Y0.8635 I-0.3129 J-0.2067
G2 X41.6146 Y0.9028 I0.0495 J0.0391
G1 X41.6252 Y4.4891
G2 X41.6893 Y4.5531 I0.0641 J-0.0002
G1 X41.9939
G2 X42.0571 Y4.4893 I0. J-0.0632
G1 X42.053 Y4.0457
G3 X42.1423 Y3.9091 I0.1471 J-0.0013
G2 X42.2316 Y3.7725 I-0.0578 J-0.1352
G1 X42.2051 Y0.8555
X42.1121 Y0.8563
X42.1073
X42.0958 Y0.856
X42.0872 Y0.8554
X42.0814 Y0.8549
X42.0756 Y0.8542
X42.0699 Y0.8534
X42.0641 Y0.8525
X42.0583 Y0.8514
X42.0526 Y0.8502
X42.0468 Y0.8488
X42.0398 Y0.847
X42.0317 Y0.8446
X42.0259 Y0.8428
X42.0225 Y0.8416
X42.018 Y0.84
X42.0122 Y0.8377
X42.0064 Y0.8353
X42.0007 Y0.8328
X41.9951 Y0.8302
X41.9899 Y0.8276
X41.9846 Y0.8248
X41.9793 Y0.8218
X41.9762 Y0.82
X41.9752 Y0.8194
X41.9718 Y0.8173
X41.966 Y0.8137
X41.9603 Y0.8098
X41.9545 Y0.8056
X41.9497 Y0.802
X41.9457 Y0.7989
X41.9399 Y0.794
X41.9323 Y0.7872
X41.9262 Y0.7814
X41.9214 Y0.7766
X41.9156 Y0.7704
X41.9088 Y0.7625
X41.9041 Y0.7567
X41.9013 Y0.753
X41.8978 Y0.7483
X41.8938 Y0.7426
X41.89 Y0.7368
X41.8864 Y0.731
X41.8841 Y0.7272
X41.883 Y0.7253
X41.8799 Y0.7196
X41.8749 Y0.7099
X41.8713 Y0.7022
X41.8688 Y0.6964
X41.8665 Y0.6907
X41.8643 Y0.6849
X41.8623 Y0.679
X41.8603 Y0.6729
X41.8586 Y0.6672
X41.8571 Y0.6617
X41.8557 Y0.6561
X41.8544 Y0.6503
X41.8533 Y0.6446
X41.8523 Y0.6388
X41.8514 Y0.633
X41.8506 Y0.6273
X41.85 Y0.6215
X41.8495 Y0.6158
X41.8491 Y0.608
X41.8488 Y0.5964
X41.8487 Y0.5943
X41.8322 Y-1.2267
Y-1.227
Y-1.2274
Y-1.239
Y-1.2435
X41.8326 Y-1.255
X41.8329 Y-1.2615
X41.8333 Y-1.266
X41.5349
X41.5354 Y-1.259
X41.5356 Y-1.2537
X41.5358 Y-1.2421
X41.5359 Y-1.2397
X41.5413 Y0.5927
X41.5412 Y0.5979
X41.541 Y0.6036
X41.5406 Y0.6094
X41.5402 Y0.6151
X41.5396 Y0.6209
X41.5388 Y0.6267
X41.538 Y0.6324
X41.537 Y0.6382
X41.5357 Y0.6446
X41.5341 Y0.6516
X41.5327 Y0.6574
X41.5315 Y0.6619
X41.53 Y0.667
X41.5281 Y0.6728
X41.5262 Y0.6785
X41.524 Y0.6843
X41.5217 Y0.6901
X41.5193 Y0.6958
X41.5167 Y0.7016
X41.5139 Y0.7074
X41.5119 Y0.7113
X41.5108 Y0.7134
X41.5075 Y0.7192
X41.5019 Y0.7286
G3 X41.4962 Y0.7375 I-0.1118 J-0.0664
G1 X41.4902 Y0.7459
X41.4859 Y0.7516
X41.4834 Y0.7547
X41.48 Y0.7588
X41.4757 Y0.7638
X41.4712 Y0.7687
X41.4665 Y0.7736
X41.4633 Y0.7769
X41.4616 Y0.7786
X41.4583 Y0.7816
X41.4534 Y0.7861
X41.4484 Y0.7903
X41.4435 Y0.7944
X41.439 Y0.7979
X41.4349 Y0.8009
X41.4333 Y0.8021
X41.4335 Y0.8659
X41.445 Y4.7341
X42.2403
X42.2316 Y3.7725
X42.2314 Y3.7697 Z0.1984
X42.231 Y3.767 Z0.1986
X42.2306 Y3.7642 Z0.199
X42.2299 Y3.7616 Z0.1995
X42.2291 Y3.759 Z0.2002
X42.2282 Y3.7564 Z0.2011
X42.2272 Y3.754 Z0.2021
X42.2261 Y3.7517 Z0.2032
X42.2249 Y3.7495 Z0.2045
X42.2236 Y3.7475 Z0.2059
X42.2223 Y3.7456 Z0.2075
X42.2209 Y3.7438 Z0.2092
X42.2196 Y3.7421 Z0.211
X42.2182 Y3.7406 Z0.2129
X42.2168 Y3.7393 Z0.215
X42.2155 Y3.738 Z0.2171
X42.2142 Y3.7369 Z0.2193
X42.213 Y3.7359 Z0.2217
X42.2119 Y3.7351 Z0.2241
X42.2109 Y3.7343 Z0.2266
X42.2099 Y3.7337 Z0.2291
X42.2091 Y3.7331 Z0.2318
X42.2083 Y3.7327 Z0.2344
X42.2078 Y3.7323 Z0.2371
X42.2073 Y3.732 Z0.2399
X42.2069 Y3.7318 Z0.2427
X42.2067 Y3.7317 Z0.2455
Z0.2483
G0 Z0.8483
X43.5232 Y1.0795
Z0.5435
G1 Z0.4216 F50.
Y1.0792 Z0.4163
Y1.0783 Z0.411
Y1.0769 Z0.4058
Y1.0749 Z0.4008
Y1.0725 Z0.3961
Y1.0695 Z0.3916
X43.5233 Y1.066 Z0.3875
Y1.0622 Z0.3838
Y1.0579 Z0.3805
Y1.0534 Z0.3777
X43.5234 Y1.0486 Z0.3754
Y1.0435 Z0.3736
X43.5235 Y1.0383 Z0.3724
Y1.033 Z0.3717
X43.5394 Y-1.2403 Z0.2128
Y-1.2408 Z0.2127
Y-1.2413
Y-1.2419
X43.5396 Y-1.2534 Z0.2118
X43.5398 Y-1.2583 Z0.2115
X43.5402 Y-1.266 Z0.211
X43.3604 Z0.1984
X43.357 Z0.1983
X43.2134 F100.
X43.2139 Y-1.258
X43.214 Y-1.2533
X43.2142 Y-1.2418
X43.2143 Y-1.2412
Y-1.2405
X43.2685 Y4.7341
X43.4976
X43.5394 Y-1.2403
G3 X43.5396 Y-1.2534 I1.2465 J0.0167
G1 X43.5398 Y-1.2583
X43.5402 Y-1.266
X43.357
X43.3542 Y-1.2658 Z0.1984
X43.3514 Y-1.2655 Z0.1986
X43.3486 Y-1.265 Z0.199
X43.346 Y-1.2644 Z0.1995
X43.3434 Y-1.2637 Z0.2002
X43.3408 Y-1.2628 Z0.2011
X43.3384 Y-1.2618 Z0.2021
X43.3361 Y-1.2607 Z0.2032
X43.3339 Y-1.2595 Z0.2045
X43.3318 Y-1.2582 Z0.2059
X43.3299 Y-1.2569 Z0.2075
X43.3281 Y-1.2556 Z0.2092
X43.3265 Y-1.2542 Z0.211
X43.3249 Y-1.2529 Z0.2129
X43.3236 Y-1.2515 Z0.215
X43.3223 Y-1.2502 Z0.2171
X43.3212 Y-1.249 Z0.2193
X43.3202 Y-1.2478 Z0.2217
X43.3193 Y-1.2466 Z0.2241
X43.3186 Y-1.2456 Z0.2266
X43.3179 Y-1.2447 Z0.2291
X43.3173 Y-1.2438 Z0.2318
X43.3169 Y-1.2431 Z0.2344
X43.3165 Y-1.2425 Z0.2371
X43.3162 Y-1.242 Z0.2399
X43.316 Y-1.2417 Z0.2427
X43.3159 Y-1.2415 Z0.2455
Y-1.2414 Z0.2483
G0 Z0.8483
X45.6127 Y-0.905
Z0.2483
G1 X45.6124 Z0.2427 F100.
X45.6114 Z0.2372
X45.6099 Z0.2318
X45.6078 Z0.2266
X45.605 Z0.2217
X45.6018 Z0.2171
X45.5981 Z0.2129
X45.5939 Z0.2092
X45.5893 Z0.2059
X45.5844 Z0.2032
X45.5792 Z0.2011
X45.5738 Z0.1995
X45.5683 Z0.1986
X45.5627 Z0.1983
X45.4141
X45.3538
G2 X45.2894 Y-0.841 I0. J0.0644
G1 X45.2534 Y4.3093
G2 X45.3168 Y4.3731 I0.0633 J0.0004
G1 X45.4141
X45.6107
X45.6163 Z0.1986
X45.6219 Z0.1995
X45.6273 Z0.2011
X45.6324 Z0.2032
X45.6373 Z0.2059
X45.6419 Z0.2092
X45.6461 Z0.2129
X45.6498 Z0.2171
X45.6531 Z0.2217
X45.6558 Z0.2266
X45.6579 Z0.2318
X45.6595 Z0.2371
X45.6604 Z0.2427
X45.6607 Z0.2483
G0 Z0.8483
X45.6127 Y-1.085
Z0.2483
G1 X45.6124 Z0.2427 F100.
X45.6114 Z0.2372
X45.6099 Z0.2318
X45.6078 Z0.2266
X45.605 Z0.2217
X45.6018 Z0.2171
X45.5981 Z0.2129
X45.5939 Z0.2092
X45.5893 Z0.2059
X45.5844 Z0.2032
X45.5792 Z0.2011
X45.5738 Z0.1995
X45.5683 Z0.1986
X45.5627 Z0.1983
X45.4141
X45.1751
G2 X45.1107 Y-1.021 I0. J0.0644
G1 X45.0722 Y4.4893
G2 X45.1355 Y4.5531 I0.0633 J0.0004
G1 X45.4142
X45.6108
X45.6164 Z0.1986
X45.6219 Z0.1995
X45.6273 Z0.2011
X45.6325 Z0.2032
X45.6374 Z0.2059
X45.6419 Z0.2092
X45.6461 Z0.2129
X45.6499 Z0.2171
X45.6531 Z0.2217
X45.6558 Z0.2266
X45.658 Z0.2318
X45.6595 Z0.2371
X45.6605 Z0.2427
X45.6608 Z0.2483
G0 Z0.8483
X45.6127 Y-1.2351
Z0.2433
G1 X45.6124 Y-1.2352 Z0.2382 F100.
X45.6116 Y-1.2353 Z0.2333
X45.6102 Y-1.2355 Z0.2284
X45.6083 Y-1.2358 Z0.2238
X45.6059 Y-1.2362 Z0.2193
X45.603 Y-1.2367 Z0.2152
X45.5997 Y-1.2372 Z0.2115
X45.596 Y-1.2378 Z0.2081
X45.5919 Y-1.2384 Z0.2052
X45.5875 Y-1.2391 Z0.2027
X45.5829 Y-1.2398 Z0.2008
X45.5781 Y-1.2406 Z0.1994
X45.5732 Y-1.2414 Z0.1986
X45.5683 Y-1.2422 Z0.1983
X45.422 Y-1.2653
X45.4181 Y-1.2658
X45.4142 Y-1.266
X44.93
X44.9304 Y-1.2613
X44.9307 Y-1.2547
X44.9311 Y-1.2432
Y-1.2387
X44.931 Y-1.2156
Y-1.2154
X44.8895 Y4.7341
X45.4141
X45.4181 Y4.7339
X45.4219 Y4.7334
X45.6161 Y4.7027
X45.6217 Y4.7018 Z0.1986
X45.6271 Y4.7009 Z0.1995
X45.6324 Y4.7001 Z0.2011
X45.6376 Y4.6993 Z0.2032
X45.6424 Y4.6985 Z0.2059
X45.6469 Y4.6978 Z0.2092
X45.6511 Y4.6972 Z0.2129
X45.6547 Y4.6966 Z0.2171
X45.658 Y4.6961 Z0.2217
X45.6606 Y4.6956 Z0.2266
X45.6628 Y4.6953 Z0.2318
X45.6643 Y4.6951 Z0.2371
X45.6652 Y4.6949 Z0.2427
X45.6655 Z0.2483
G0 Z0.8483
X21.1681 Y1.9766
Z0.5435
G1 Z0.4216 F50.
Y1.9769 Z0.4163
Y1.9777 Z0.411
X21.1682 Y1.9792 Z0.4058
Y1.9811 Z0.4008
Y1.9836 Z0.3961
Y1.9866 Z0.3916
Y1.99 Z0.3875
Y1.9939 Z0.3838
Y1.9981 Z0.3805
Y2.0027 Z0.3777
Y2.0075 Z0.3754
Y2.0126 Z0.3736
Y2.0178 Z0.3724
Y2.0231 Z0.3717
X21.1722 Y4.3261 Z0.2107
G2 X21.2193 Y4.3731 Z0.2055 I0.0471 J-0.0001
G1 X21.2269 Z0.205
G2 X21.2739 Y4.3258 Z0.1998 I0. J-0.0471
G1 X21.2738 Y4.3055 Z0.1984
Y4.302 Z0.1983
X21.2612 Y1.1461 F100.
G2 X21.2073 Y1.1167 I-0.0351 J0.0001
G3 X21.19 Y1.1272 I-0.2685 J-0.4226
G2 X21.1667 Y1.1678 I0.0238 J0.0406
G1 X21.1722 Y4.3261
G2 X21.2193 Y4.3731 I0.0471 J-0.0001
G1 X21.2269
G2 X21.2739 Y4.3258 I0. J-0.0471
G1 X21.2738 Y4.302
G3 X21.3633 Y4.1667 I0.1462 J-0.0006
G2 X21.4527 Y4.0313 I-0.0568 J-0.1348
G1 X21.4406 Y0.9977
G2 X21.4053 Y0.9162 I-0.1129 J0.0005
G3 X21.3584 Y0.8645 I0.3215 J-0.3393
X21.32 Y0.8062 I0.3407 J-0.266
G2 X21.261 Y0.8059 I-0.0296 J0.0162
G3 X21.1708 Y0.9189 I-0.3961 J-0.2235
X21.0493 Y0.9971 I-0.2936 J-0.3229
G2 X20.9866 Y1.0923 I0.0408 J0.0951
G1 X20.9925 Y4.4892
G2 X21.0565 Y4.5531 I0.064 J-0.0001
G1 X21.391
G2 X21.4546 Y4.4892 I0. J-0.0636
G1 X21.4527 Y4.0313
G3 X21.5427 Y3.8952 I0.1471 J-0.0006
G2 X21.6326 Y3.7591 I-0.0571 J-0.1355
G1 X21.6209 Y0.8397
X21.6205 Y0.8396
X21.6202 Y0.8394
X21.6144 Y0.8373
X21.6086 Y0.835
X21.6029 Y0.8326
X21.5971 Y0.83
X21.5913 Y0.8272
X21.5868 Y0.825
X21.5835 Y0.8232
X21.5777 Y0.82
X21.5695 Y0.815
X21.563 Y0.811
X21.5584 Y0.8078
X21.5538 Y0.8045
X21.5492 Y0.8011
X21.5457 Y0.7984
X21.5434 Y0.7966
X21.5396 Y0.7934
X21.5343 Y0.7888
X21.529 Y0.784
X21.5237 Y0.7789
X21.5206 Y0.7758
X21.5197 Y0.7749
X21.5168 Y0.7718
X21.512 Y0.7665
X21.5074 Y0.7612
X21.5031 Y0.7559
X21.4998 Y0.7516
X21.4974 Y0.7484
X21.4933 Y0.7427
X21.4878 Y0.7344
X21.4835 Y0.7275
X21.4803 Y0.722
X21.4772 Y0.7162
X21.474 Y0.7102
X21.4712 Y0.7043
X21.4686 Y0.6985
X21.4661 Y0.6927
X21.4639 Y0.687
X21.4617 Y0.6812
X21.4598 Y0.6754
X21.4579 Y0.6697
X21.4563 Y0.6639
X21.4547 Y0.6582
X21.4533 Y0.6524
X21.4521 Y0.6466
X21.451 Y0.6409
X21.4503 Y0.6373
X21.4501 Y0.636
X21.4493 Y0.6303
X21.4481 Y0.6201
G3 X21.4473 Y0.6093 I0.1291 J-0.0154
G1 X21.4468 Y0.5978
Y0.5936
X21.4394 Y-1.2388
X21.4395 Y-1.2429
X21.4398 Y-1.2544
X21.4401 Y-1.2607
X21.4405 Y-1.266
X21.1314
Y-1.2653
Y-1.2647
X21.1318 Y-1.2579
X21.132 Y-1.2537
X21.1322 Y-1.2422
X21.1323 Y-1.2396
X21.1354 Y0.5929
Y0.5973
X21.1352 Y0.6031
X21.1349 Y0.6088
X21.1344 Y0.6146
X21.1339 Y0.6204
X21.1332 Y0.6261
X21.1323 Y0.6319
X21.1314 Y0.6377
X21.1301 Y0.644
X21.1286 Y0.6509
X21.1272 Y0.6566
X21.126 Y0.6613
X21.1245 Y0.6665
X21.1227 Y0.6722
X21.1207 Y0.678
X21.1186 Y0.6838
X21.1163 Y0.6895
X21.1139 Y0.6953
X21.1113 Y0.701
X21.1086 Y0.7068
X21.1066 Y0.7108
X21.1054 Y0.7132
X21.1021 Y0.719
X21.0967 Y0.7282
G3 X21.0909 Y0.7371 I-0.112 J-0.0659
G1 X21.0848 Y0.7458
X21.0806 Y0.7515
X21.0783 Y0.7544
X21.075 Y0.7584
X21.0706 Y0.7635
X21.066 Y0.7686
X21.0611 Y0.7738
X21.058 Y0.7769
X21.0567 Y0.7782
X21.0535 Y0.7812
X21.0484 Y0.7859
X21.0432 Y0.7903
X21.0381 Y0.7945
X21.0338 Y0.798
X21.0303 Y0.8006
X21.0246 Y0.8047
X21.0165 Y0.8101
X21.0097 Y0.8144
X21.0042 Y0.8176
X20.9985 Y0.8208
X20.9924 Y0.8239
X20.9865 Y0.8268
X20.9808 Y0.8294
X20.975 Y0.8319
X20.9692 Y0.8342
X20.9635 Y0.8364
X20.9577 Y0.8384
X20.9519 Y0.8402
X20.9462 Y0.8419
X20.9404 Y0.8435
X20.9346 Y0.8449
X20.9287 Y0.8462
X20.9226 Y0.8474
X20.914 Y0.8488
X20.9028 Y0.8503
G3 X20.8914 Y0.8512 I-0.0165 J-0.129
G1 X20.8799 Y0.8517
X20.875 Y0.8518
X20.8052 Y0.8519
X20.812 Y4.7341
X21.6366
X21.6326 Y3.7591
X21.6325 Y3.7563 Z0.1984
X21.6322 Y3.7535 Z0.1986
X21.6317 Y3.7508 Z0.199
X21.6311 Y3.7481 Z0.1995
X21.6303 Y3.7455 Z0.2002
X21.6294 Y3.743 Z0.2011
X21.6284 Y3.7405 Z0.2021
X21.6273 Y3.7382 Z0.2032
X21.6261 Y3.7361 Z0.2045
X21.6248 Y3.734 Z0.2059
X21.6235 Y3.7321 Z0.2075
X21.6222 Y3.7303 Z0.2092
X21.6208 Y3.7286 Z0.211
X21.6194 Y3.7271 Z0.2129
X21.6181 Y3.7257 Z0.215
X21.6168 Y3.7245 Z0.2171
X21.6155 Y3.7234 Z0.2193
X21.6143 Y3.7224 Z0.2217
X21.6132 Y3.7215 Z0.2241
X21.6121 Y3.7208 Z0.2266
X21.6112 Y3.7201 Z0.2291
X21.6104 Y3.7196 Z0.2318
X21.6096 Y3.7191 Z0.2344
X21.609 Y3.7187 Z0.2371
X21.6086 Y3.7185 Z0.2399
X21.6082 Y3.7183 Z0.2427
X21.608 Y3.7181 Z0.2455
Z0.2483
G0 Z0.8483
X19.4272 Y2.7155
Z0.5435
G1 Z0.4216 F50.
Y2.7157 Z0.4163
Y2.7166 Z0.411
Y2.718 Z0.4058
X19.4271 Y2.72 Z0.4008
Y2.7225 Z0.3961
Y2.7254 Z0.3916
Y2.7289 Z0.3875
Y2.7327 Z0.3838
Y2.737 Z0.3805
Y2.7415 Z0.3777
Y2.7464 Z0.3754
X19.427 Y2.7514 Z0.3736
Y2.7567 Z0.3724
Y2.762 Z0.3717
X19.4198 Y4.7341 Z0.2338
X19.7467 Z0.211
X19.7463 Y4.5543 Z0.1984
Y4.5508 Z0.1983
X19.7362 Y-1.2391 F100.
X19.7363 Y-1.2425
X19.7365 Y-1.2541
X19.7368 Y-1.2602
X19.7373 Y-1.266
X19.4406
X19.441 Y-1.2606
X19.4413 Y-1.2543
X19.4416 Y-1.2428
X19.4417 Y-1.2389
X19.4198 Y4.7341
X19.7467
X19.7463 Y4.5508
X19.7462 Y4.548 Z0.1984
X19.7459 Y4.5452 Z0.1986
X19.7454 Y4.5425 Z0.199
X19.7448 Y4.5398 Z0.1995
X19.744 Y4.5372 Z0.2002
X19.7431 Y4.5347 Z0.2011
X19.7421 Y4.5322 Z0.2021
X19.741 Y4.5299 Z0.2032
X19.7398 Y4.5277 Z0.2045
X19.7386 Y4.5257 Z0.2059
X19.7373 Y4.5237 Z0.2075
X19.7359 Y4.522 Z0.2092
X19.7345 Y4.5203 Z0.211
X19.7332 Y4.5188 Z0.2129
X19.7318 Y4.5174 Z0.215
X19.7305 Y4.5162 Z0.2171
X19.7293 Y4.515 Z0.2193
X19.7281 Y4.514 Z0.2217
X19.7269 Y4.5132 Z0.2241
X19.7259 Y4.5124 Z0.2266
X19.725 Y4.5118 Z0.2291
X19.7241 Y4.5112 Z0.2318
X19.7234 Y4.5107 Z0.2344
X19.7228 Y4.5104 Z0.2371
X19.7223 Y4.5101 Z0.2399
X19.722 Y4.5099 Z0.2427
X19.7218 Y4.5098 Z0.2455
X19.7217 Y4.5097 Z0.2483
G0 Z0.8483
X18.0481 Y1.6789
Z0.5435
G1 Z0.4216 F50.
Y1.6786 Z0.4163
Y1.6778 Z0.411
Y1.6764 Z0.4058
Y1.6744 Z0.4008
Y1.6719 Z0.3961
Y1.6689 Z0.3916
Y1.6655 Z0.3875
Y1.6616 Z0.3838
Y1.6574 Z0.3805
X18.0482 Y1.6528 Z0.3777
Y1.648 Z0.3754
Y1.643 Z0.3736
Y1.6377 Z0.3724
Y1.6324 Z0.3717
X18.0499 Y1.1673 Z0.3392
G2 X18.0393 Y1.1501 Z0.3377 I-0.019 J-0.0001
G1 X18.0355 Y1.1483 Z0.3374
G2 X18.0082 Y1.1654 Z0.3347 I-0.0084 J0.017
G1 X18.0109 Y2.1056 Z0.269
G2 X18.0465 Z0.2651 I0.0178 J-0.0001
G1 X18.0499 Y1.1673 Z0.1995
G2 X18.0441 Y1.1535 Z0.1984 I-0.019 J-0.0001
G1 X18.0428 Y1.1524 Z0.1983
X18.0414 Y1.1514
X18.0393 Y1.1501 F100.
X18.0355 Y1.1483
G2 X18.0082 Y1.1654 I-0.0084 J0.017
G1 X18.0109 Y2.1056
G2 X18.0465 I0.0178 J-0.0001
G1 X18.0499 Y1.1673
G2 X18.0414 Y1.1514 I-0.019 J-0.0001
G3 X17.9711 Y0.994 I0.0882 J-0.1338
G2 X17.9359 Y0.8254 I-0.2464 J-0.0366
G1 X17.9315 Y0.8181
G2 X17.8712 Y0.8179 I-0.0302 J0.0181
G3 X17.8563 Y0.8409 I-0.3913 J-0.2374
X17.8401 Y0.8631 I-0.4639 J-0.321
G2 X17.8274 Y0.9008 I0.0491 J0.0376
G1 X17.838 Y4.4902
G2 X17.9008 Y4.5529 I0.0628 J-0.0002
G1 X18.1549
G2 X18.2178 Y4.4902 I0. J-0.0629
G1 X18.2302 Y1.0945
G2 X18.169 Y1.0091 I-0.0897 J-0.0003
G3 X17.9359 Y0.8254 I0.1396 J-0.4167
X17.9675 Y0.6371 I0.122 J-0.0763
G2 X18.0502 Y0.465 I-0.1396 J-0.1729
G1 X18.0564 Y-1.2398
Y-1.2421
X18.0567 Y-1.2536
X18.0568 Y-1.2578
X18.0572 Y-1.2656
X18.0573 Y-1.266
X17.7464
X17.7468 Y-1.259
X17.747 Y-1.2536
X17.7473 Y-1.2421
Y-1.2397
X17.7527 Y0.5927
X17.7526 Y0.5979
X17.7524 Y0.6036
X17.7521 Y0.6094
X17.7516 Y0.6151
X17.7512 Y0.6189
X17.7511 Y0.6205
X17.7503 Y0.6263
X17.7488 Y0.6362
X17.7473 Y0.644
X17.746 Y0.6497
X17.7446 Y0.6555
X17.7431 Y0.6613
X17.7414 Y0.667
X17.7396 Y0.6728
X17.7376 Y0.6785
X17.7355 Y0.6843
X17.7328 Y0.6909
X17.7296 Y0.6984
X17.7269 Y0.7041
X17.7249 Y0.7082
X17.7223 Y0.7131
X17.7192 Y0.7189
X17.7158 Y0.7247
X17.7123 Y0.7304
X17.7091 Y0.7354
X17.7063 Y0.7395
X17.7021 Y0.7453
X17.6964 Y0.7527
X17.6936 Y0.7563
X17.6907 Y0.7597
X17.6848 Y0.7664
X17.6794 Y0.7722
X17.6746 Y0.777
X17.6688 Y0.7824
X17.6621 Y0.7884
X17.6551 Y0.7942
X17.648 Y0.7997
X17.6459 Y0.8013
X17.6576 Y4.7341
X18.398
X18.4123 Y0.8513
X18.3135 Y0.8509
X18.3115
X18.2999 Y0.8507
X18.2952 Y0.8505
X18.2905 Y0.8502
X18.2812 Y0.8493
X18.2755 Y0.8487
X18.2732 Y0.8483
X18.2692 Y0.8477
X18.2634 Y0.8467
X18.2576 Y0.8456
X18.2519 Y0.8444
X18.2461 Y0.843
X18.2403 Y0.8415
X18.2346 Y0.8398
X18.2288 Y0.838
X18.223 Y0.836
X18.2173 Y0.8339
X18.2115 Y0.8316
X18.2057 Y0.8292
X18.2017 Y0.8274
X18.1993 Y0.8263
X18.1935 Y0.8234
X18.1843 Y0.8186
X18.1771 Y0.8146
X18.1719 Y0.8114
X18.1667 Y0.808
X18.1615 Y0.8045
X18.1583 Y0.8023
X18.1572 Y0.8015
X18.1538 Y0.799
X18.148 Y0.7945
X18.1422 Y0.7898
X18.1365 Y0.7848
X18.1329 Y0.7816
X18.1316 Y0.7803
X18.1281 Y0.777
X18.1228 Y0.7716
X18.1177 Y0.7662
X18.1129 Y0.7608
X18.1103 Y0.7577
X18.1096 Y0.757
X18.107 Y0.7538
X18.1025 Y0.748
X18.0983 Y0.7422
X18.0943 Y0.7365
X18.0911 Y0.7317
X18.0887 Y0.7278
X18.0853 Y0.7221
X18.0809 Y0.7144
X18.0774 Y0.7076
X18.0746 Y0.7019
X18.0719 Y0.6961
X18.0695 Y0.6904
X18.0673 Y0.6849
X18.0654 Y0.6798
X18.0634 Y0.674
X18.0613 Y0.6676
X18.0595 Y0.6615
X18.0579 Y0.6558
X18.0565 Y0.65
X18.0552 Y0.6442
X18.0541 Y0.6385
X18.0531 Y0.6327
X18.0522 Y0.627
X18.0515 Y0.6212
X18.0509 Y0.6154
X18.0504 Y0.6097
X18.05 Y0.6039
X18.0498 Y0.5981
X18.0497 Y0.5927
X18.0498 Y0.5581
Y0.558
X18.0502 Y0.465
X18.05 Y0.4622 Z0.1984
X18.0497 Y0.4594 Z0.1986
X18.0493 Y0.4567 Z0.199
X18.0487 Y0.454 Z0.1995
X18.0479 Y0.4514 Z0.2002
X18.047 Y0.4489 Z0.2011
X18.046 Y0.4464 Z0.2021
X18.045 Y0.4441 Z0.2032
X18.0438 Y0.4419 Z0.2045
X18.0425 Y0.4399 Z0.2059
X18.0412 Y0.4379 Z0.2075
X18.0399 Y0.4361 Z0.2092
X18.0385 Y0.4345 Z0.211
X18.0372 Y0.4329 Z0.2129
X18.0358 Y0.4316 Z0.215
X18.0345 Y0.4303 Z0.2171
X18.0333 Y0.4292 Z0.2193
X18.0321 Y0.4282 Z0.2217
X18.031 Y0.4273 Z0.2241
X18.0299 Y0.4265 Z0.2266
X18.029 Y0.4259 Z0.2291
X18.0282 Y0.4253 Z0.2318
X18.0275 Y0.4249 Z0.2344
X18.0269 Y0.4245 Z0.2371
X18.0264 Y0.4242 Z0.2399
X18.0261 Y0.424 Z0.2427
X18.0259 Y0.4239 Z0.2455
X18.0258 Y0.4238 Z0.2483
G0 Z0.8483
X16.1865 Y1.9232
Z0.5435
G1 Z0.4216 F50.
Y1.9235 Z0.4163
Y1.9244 Z0.411
Y1.9258 Z0.4058
Y1.9278 Z0.4008
Y1.9303 Z0.3961
Y1.9332 Z0.3916
Y1.9367 Z0.3875
Y1.9405 Z0.3838
Y1.9448 Z0.3805
Y1.9493 Z0.3777
Y1.9542 Z0.3754
Y1.9592 Z0.3736
Y1.9644 Z0.3724
Y1.9698 Z0.3717
X16.1848 Y4.3538 Z0.205
G2 X16.2041 Y4.3731 Z0.2029 I0.0193 J0.
G1 X16.2158 Z0.2021
G2 X16.2351 Y4.3537 Z0.2 I0. J-0.0193
G1 X16.235 Y4.3313 Z0.1984
Y4.3278 Z0.1983
X16.2255 Y1.1059 F100.
G2 X16.1871 I-0.0192 J0.0001
G1 X16.1848 Y4.3538
G2 X16.2041 Y4.3731 I0.0193 J0.
G1 X16.2158
G2 X16.2351 Y4.3537 I0. J-0.0193
G1 X16.235 Y4.3278
G3 X16.3246 Y4.1926 I0.1463 J-0.0004
G2 X16.4142 Y4.0573 I-0.0566 J-0.1348
G1 X16.4054 Y1.0698
G2 X16.3428 Y0.9425 I-0.1616 J0.0005
G3 X16.2322 Y0.8166 I0.2715 J-0.3499
G2 X16.1712 Y0.8165 I-0.0305 J0.0178
G3 X16.0811 Y0.9256 I-0.3859 J-0.2268
G1 X16.0755 Y0.9302
X16.0698 Y0.9346
G2 X16.0071 Y1.0657 I0.1058 J0.1312
G1 X16.0047 Y4.4892
G2 X16.0685 Y4.5531 I0.0638 J0.
G1 X16.3519
G2 X16.4155 Y4.4892 I0. J-0.0636
G1 X16.4142 Y4.0573
G3 X16.5043 Y3.9213 I0.1471 J-0.0004
G2 X16.5944 Y3.7853 I-0.057 J-0.1356
G1 X16.5857 Y0.8524
X16.5805 Y0.8518
X16.5748 Y0.851
X16.569 Y0.8501
X16.5632 Y0.849
X16.5575 Y0.8479
X16.5532 Y0.8469
X16.5505 Y0.8462
X16.5447 Y0.8447
X16.5359 Y0.8422
X16.5286 Y0.8398
X16.5229 Y0.8378
X16.5171 Y0.8356
X16.5113 Y0.8332
X16.5037 Y0.8298
X16.4944 Y0.8252
X16.4886 Y0.8223
X16.4865 Y0.8211
X16.4825 Y0.8188
X16.4767 Y0.8154
X16.4709 Y0.8117
X16.4652 Y0.8078
X16.4602 Y0.8044
X16.4562 Y0.8013
X16.4503 Y0.7968
X16.4429 Y0.7906
X16.4364 Y0.7848
X16.4308 Y0.7795
X16.425 Y0.7736
X16.4191 Y0.7672
X16.414 Y0.7614
X16.4098 Y0.7563
X16.4058 Y0.7511
X16.4019 Y0.7459
X16.3983 Y0.7407
X16.3948 Y0.7355
X16.3927 Y0.7324
X16.392 Y0.7312
X16.39 Y0.7278
X16.3866 Y0.722
X16.3834 Y0.7163
X16.3804 Y0.7105
X16.3766 Y0.7025
X16.3722 Y0.6922
X16.3698 Y0.6864
X16.3693 Y0.6852
X16.3681 Y0.6817
X16.3661 Y0.6759
X16.3642 Y0.6702
X16.3625 Y0.6644
X16.361 Y0.6586
X16.3596 Y0.6529
X16.3583 Y0.6471
X16.3572 Y0.6413
X16.3562 Y0.6356
X16.3553 Y0.6298
X16.3545 Y0.6241
X16.3539 Y0.6183
X16.3533 Y0.6097
X16.3529 Y0.5982
X16.3528 Y0.5935
X16.3473 Y-1.239
X16.3474 Y-1.2427
X16.3477 Y-1.2542
X16.348 Y-1.2605
X16.3484 Y-1.266
X16.0514
X16.0518 Y-1.2599
X16.0521 Y-1.254
X16.0524 Y-1.2424
Y-1.2393
X16.0512 Y0.5932
X16.0511 Y0.5962
X16.051 Y0.602
X16.0507 Y0.6078
X16.0503 Y0.6135
X16.0498 Y0.6193
X16.0491 Y0.625
X16.0483 Y0.6308
X16.0474 Y0.6366
X16.0464 Y0.6423
X16.0452 Y0.6481
X16.0439 Y0.6539
X16.0424 Y0.6596
X16.0408 Y0.6654
X16.039 Y0.6712
X16.0371 Y0.677
X16.0351 Y0.6827
X16.0329 Y0.6884
X16.0306 Y0.6942
X16.028 Y0.7
X16.0253 Y0.7057
X16.0218 Y0.7127
X16.0174 Y0.7209
X16.0141 Y0.7267
X16.012 Y0.73
X16.0091 Y0.7346
X16.0052 Y0.7403
X16.0012 Y0.7461
X15.9968 Y0.7518
X15.994 Y0.7555
X15.9926 Y0.7571
X15.9899 Y0.7605
X15.9856 Y0.7654
X15.9811 Y0.7704
X15.9763 Y0.7753
X15.9727 Y0.779
X15.9702 Y0.7814
X15.9662 Y0.785
X15.9608 Y0.7898
X15.9554 Y0.7944
X15.9499 Y0.7987
X15.9469 Y0.801
X15.9462 Y0.8016
X15.943 Y0.8039
X15.9372 Y0.8079
X15.9314 Y0.8117
X15.9257 Y0.8153
X15.9197 Y0.8188
X15.9136 Y0.8222
X15.9078 Y0.8252
X15.9024 Y0.8278
X15.8968 Y0.8304
X15.8911 Y0.8328
X15.8853 Y0.8352
X15.8795 Y0.8373
X15.8738 Y0.8393
X15.868 Y0.8412
X15.8622 Y0.8429
X15.8565 Y0.8445
X15.8518 Y0.8457
X15.8482 Y0.8465
X15.8424 Y0.8477
X15.8345 Y0.8492
X15.8276 Y0.8502
X15.8262 Y0.8504
X15.8235 Y4.7341
X16.5972
X16.5944 Y3.7853
X16.5943 Y3.7825 Z0.1984
X16.5939 Y3.7797 Z0.1986
X16.5935 Y3.777 Z0.199
X16.5928 Y3.7743 Z0.1995
X16.5921 Y3.7717 Z0.2002
X16.5912 Y3.7692 Z0.2011
X16.5902 Y3.7667 Z0.2021
X16.5891 Y3.7644 Z0.2032
X16.5879 Y3.7622 Z0.2045
X16.5866 Y3.7602 Z0.2059
X16.5853 Y3.7583 Z0.2075
X16.584 Y3.7565 Z0.2092
X16.5826 Y3.7548 Z0.211
X16.5812 Y3.7533 Z0.2129
X16.5799 Y3.7519 Z0.215
X16.5786 Y3.7507 Z0.2171
X16.5773 Y3.7496 Z0.2193
X16.5761 Y3.7486 Z0.2217
X16.575 Y3.7477 Z0.2241
X16.5739 Y3.7469 Z0.2266
X16.573 Y3.7463 Z0.2291
X16.5722 Y3.7457 Z0.2318
X16.5714 Y3.7453 Z0.2344
X16.5709 Y3.7449 Z0.2371
X16.5704 Y3.7446 Z0.2399
X16.57 Y3.7444 Z0.2427
X16.5698 Y3.7443 Z0.2455
Z0.2483
G0 Z0.8483
X14.337 Y1.9409
Z0.5435
G1 Z0.4216 F50.
Y1.9411 Z0.4163
Y1.942 Z0.411
Y1.9434 Z0.4058
Y1.9454 Z0.4008
Y1.9479 Z0.3961
X14.3369 Y1.9509 Z0.3916
Y1.9543 Z0.3875
Y1.9582 Z0.3838
Y1.9624 Z0.3805
Y1.9669 Z0.3777
Y1.9718 Z0.3754
Y1.9768 Z0.3736
Y1.9821 Z0.3724
Y1.9874 Z0.3717
X14.3353 Y4.338 Z0.2074
G2 X14.3703 Y4.3731 Z0.2035 I0.035 J0.
G1 X14.3714 Z0.2034
G2 X14.4064 Y4.338 Z0.1996 I0. J-0.035
G1 Y4.321 Z0.1984
Y4.3175 Z0.1983
X14.4086 Y1.1755 F100.
G2 X14.3575 Y1.1443 I-0.035 J0.
G1 X14.3565 Y1.1448
G2 X14.3375 Y1.1759 I0.016 J0.0311
G1 X14.3353 Y4.338
G2 X14.3703 Y4.3731 I0.035 J0.
G1 X14.3714
G2 X14.4064 Y4.338 I0. J-0.035
G1 Y4.3175
G3 X14.4965 Y4.1826 I0.1463 J0.0001
G2 X14.5866 Y4.0476 I-0.0562 J-0.135
G1 X14.5888 Y0.9441
G2 X14.5673 Y0.8878 I-0.0844 J-0.0001
G3 X14.5137 Y0.8146 I0.3456 J-0.309
G2 X14.4531 Y0.8148 I-0.0303 J0.0179
G3 X14.2202 Y1.0082 I-0.3813 J-0.2222
G2 X14.1575 Y1.0972 I0.032 J0.0891
G1 X14.1552 Y4.4892
G2 X14.219 Y4.5531 I0.0638 J0.
G1 X14.5224
G2 X14.5863 Y4.4892 I0. J-0.0639
G1 X14.5866 Y4.0476
G3 X14.6772 Y3.912 I0.1471 J0.0001
G2 X14.7678 Y3.7763 I-0.0565 J-0.1358
G1 X14.7699 Y0.8203
X14.769 Y0.8199
X14.7632 Y0.8166
X14.7575 Y0.8131
X14.7517 Y0.8094
X14.7459 Y0.8055
X14.7423 Y0.803
X14.7409 Y0.8019
X14.7376 Y0.7995
X14.7326 Y0.7956
X14.7275 Y0.7914
X14.7225 Y0.7871
X14.7182 Y0.7833
X14.7148 Y0.78
X14.7109 Y0.7762
X14.7067 Y0.7719
X14.7027 Y0.7676
X14.6988 Y0.7633
X14.6957 Y0.7597
X14.6933 Y0.7568
X14.6898 Y0.7525
X14.6855 Y0.7467
X14.6813 Y0.7409
X14.6774 Y0.7352
X14.6751 Y0.7316
X14.6743 Y0.7303
X14.6723 Y0.7271
X14.6693 Y0.722
X14.6664 Y0.7169
X14.6637 Y0.7118
X14.661 Y0.7064
X14.6582 Y0.7006
X14.6557 Y0.6948
X14.6533 Y0.6891
X14.6518 Y0.6853
X14.6511 Y0.6835
X14.6491 Y0.6778
X14.6459 Y0.668
X14.6436 Y0.6602
X14.6421 Y0.6545
X14.6408 Y0.6487
X14.6396 Y0.643
X14.6385 Y0.6372
X14.6375 Y0.6314
X14.6367 Y0.6257
X14.636 Y0.6199
X14.6355 Y0.6141
X14.6351 Y0.6084
X14.6348 Y0.6026
X14.6346 Y0.5969
X14.6345 Y0.593
X14.6358 Y-1.2395
X14.6359 Y-1.2423
X14.6361 Y-1.2538
X14.6364 Y-1.2595
X14.6368 Y-1.266
X14.3323
X14.3327 Y-1.2599
X14.333 Y-1.254
X14.3332 Y-1.2424
X14.3333 Y-1.2393
X14.332 Y0.5932
X14.3319 Y0.5962
X14.3318 Y0.602
X14.3315 Y0.6078
X14.3311 Y0.6135
X14.3306 Y0.6193
X14.33 Y0.6251
X14.3292 Y0.6308
X14.3283 Y0.6366
X14.3272 Y0.6423
X14.326 Y0.6481
X14.3247 Y0.6539
X14.3232 Y0.6596
X14.3218 Y0.6647
X14.3205 Y0.6692
X14.3186 Y0.675
X14.3162 Y0.682
X14.3137 Y0.6885
X14.3114 Y0.6942
X14.3089 Y0.7
X14.3062 Y0.7057
X14.3028 Y0.7124
X14.2988 Y0.7198
X14.2955 Y0.7256
X14.2931 Y0.7296
X14.2899 Y0.7346
X14.2861 Y0.7403
X14.282 Y0.7461
X14.2776 Y0.7519
X14.275 Y0.7553
X14.2741 Y0.7563
X14.2715 Y0.7595
X14.267 Y0.7647
X14.2623 Y0.77
X14.2573 Y0.7752
X14.2537 Y0.7788
X14.2516 Y0.7808
X14.2478 Y0.7843
X14.2422 Y0.7893
X14.2364 Y0.7942
X14.2305 Y0.7989
X14.2247 Y0.8032
X14.2189 Y0.8073
X14.2131 Y0.8111
X14.2074 Y0.8148
X14.2012 Y0.8184
X14.1946 Y0.8221
X14.1888 Y0.8251
X14.1839 Y0.8275
X14.1785 Y0.83
X14.1728 Y0.8325
X14.167 Y0.8348
X14.1612 Y0.837
X14.1555 Y0.839
X14.1497 Y0.8409
X14.1439 Y0.8427
X14.1382 Y0.8442
X14.1332 Y0.8455
X14.1292 Y0.8464
X14.1234 Y0.8477
X14.1159 Y0.8491
X14.1093 Y0.8501
X14.1035 Y0.8509
X14.0978 Y0.8515
X14.092 Y0.852
X14.0837 Y0.8525
X14.0722 Y0.8528
X14.0689
X13.9767
X13.974 Y4.7341
X14.7671
X14.7678 Y3.7763
X14.7677 Y3.7735 Z0.1984
X14.7673 Y3.7707 Z0.1986
X14.7669 Y3.768 Z0.199
X14.7663 Y3.7653 Z0.1995
X14.7655 Y3.7627 Z0.2002
X14.7646 Y3.7601 Z0.2011
X14.7636 Y3.7577 Z0.2021
X14.7625 Y3.7554 Z0.2032
X14.7614 Y3.7532 Z0.2045
X14.7601 Y3.7512 Z0.2059
X14.7588 Y3.7492 Z0.2075
X14.7575 Y3.7474 Z0.2092
X14.7561 Y3.7458 Z0.211
X14.7547 Y3.7442 Z0.2129
X14.7534 Y3.7429 Z0.215
X14.7521 Y3.7416 Z0.2171
X14.7508 Y3.7405 Z0.2193
X14.7496 Y3.7395 Z0.2217
X14.7485 Y3.7386 Z0.2241
X14.7475 Y3.7379 Z0.2266
X14.7465 Y3.7372 Z0.2291
X14.7457 Y3.7366 Z0.2318
X14.745 Y3.7362 Z0.2344
X14.7444 Y3.7358 Z0.2371
X14.7439 Y3.7355 Z0.2399
X14.7436 Y3.7353 Z0.2427
X14.7434 Y3.7352 Z0.2455
X14.7433 Z0.2483
G0 Z0.8483
X12.9421 Y1.0876
Z0.5435
G1 Z0.4216 F50.
Y1.0873 Z0.4163
Y1.0865 Z0.411
Y1.085 Z0.4058
Y1.0831 Z0.4008
Y1.0806 Z0.3961
Y1.0776 Z0.3916
Y1.0742 Z0.3875
Y1.0703 Z0.3838
Y1.0661 Z0.3805
Y1.0615 Z0.3777
Y1.0567 Z0.3754
Y1.0516 Z0.3736
Y1.0464 Z0.3724
Y1.0411 Z0.3717
X12.9437 Y-1.2395 Z0.2123
Y-1.2423 Z0.2121
X12.944 Y-1.2538 Z0.2113
X12.9443 Y-1.2595 Z0.2109
X12.9447 Y-1.266 Z0.2104
X12.773 Z0.1984
X12.7695 Z0.1983
X12.6336 F100.
X12.634 Y-1.2583
X12.6342 Y-1.2534
G3 X12.6344 Y-1.2403 I-0.9189 J0.0236
G1 X12.6772 Y4.7341
X12.9395
X12.9437 Y-1.2395
Y-1.2423
X12.944 Y-1.2538
X12.9443 Y-1.2595
X12.9447 Y-1.266
X12.7695
X12.7667 Y-1.2658 Z0.1984
X12.7639 Y-1.2655 Z0.1986
X12.7612 Y-1.265 Z0.199
X12.7585 Y-1.2644 Z0.1995
X12.7559 Y-1.2637 Z0.2002
X12.7534 Y-1.2628 Z0.2011
X12.7509 Y-1.2618 Z0.2021
X12.7486 Y-1.2607 Z0.2032
X12.7464 Y-1.2595 Z0.2045
X12.7444 Y-1.2582 Z0.2059
X12.7424 Y-1.2569 Z0.2075
X12.7406 Y-1.2556 Z0.2092
X12.739 Y-1.2542 Z0.211
X12.7375 Y-1.2529 Z0.2129
X12.7361 Y-1.2515 Z0.215
X12.7348 Y-1.2502 Z0.2171
X12.7337 Y-1.249 Z0.2193
X12.7327 Y-1.2478 Z0.2217
X12.7318 Y-1.2466 Z0.2241
X12.7311 Y-1.2456 Z0.2266
X12.7304 Y-1.2447 Z0.2291
X12.7299 Y-1.2438 Z0.2318
X12.7294 Y-1.2431 Z0.2344
X12.729 Y-1.2425 Z0.2371
X12.7288 Y-1.242 Z0.2399
X12.7286 Y-1.2417 Z0.2427
X12.7284 Y-1.2415 Z0.2455
Y-1.2414 Z0.2483
G0 Z0.8483
X11.1275 Y2.0053
Z0.5435
G1 Z0.4216 F50.
Y2.0056 Z0.4163
Y2.0065 Z0.411
X11.1274 Y2.0079 Z0.4058
Y2.0098 Z0.4008
Y2.0123 Z0.3961
Y2.0153 Z0.3916
Y2.0187 Z0.3875
Y2.0226 Z0.3838
Y2.0268 Z0.3805
X11.1273 Y2.0314 Z0.3777
Y2.0362 Z0.3754
Y2.0413 Z0.3736
Y2.0465 Z0.3724
X11.1272 Y2.0518 Z0.3717
X11.1158 Y4.3093 Z0.2139
G2 X11.1793 Y4.3731 Z0.2069 I0.0635 J0.0003
G1 X11.1825 Z0.2067
G2 X11.2458 Y4.3093 Z0.1997 I0. J-0.0633
G1 X11.2457 Y4.2911 Z0.1984
X11.2456 Y4.2876 Z0.1983
X11.2233 Y1.1706 F100.
G2 X11.205 Y1.1401 I-0.035 J0.0003
G3 X11.1862 Y1.1294 I0.2338 J-0.4317
G2 X11.1317 Y1.16 I-0.0185 J0.0308
G1 X11.1158 Y4.3093
G2 X11.1793 Y4.3731 I0.0635 J0.0003
G1 X11.1825
G2 X11.2458 Y4.3093 I0. J-0.0633
G1 X11.2456 Y4.2876
G3 X11.3347 Y4.152 I0.1462 J-0.001
G2 X11.4237 Y4.0163 I-0.0572 J-0.1346
G1 X11.4028 Y1.098
G2 X11.3396 Y1.005 I-0.1011 J0.0007
G3 X11.2073 Y0.9223 I0.1688 J-0.4172
X11.1121 Y0.7986 I0.2892 J-0.3212
G2 X11.0544 I-0.0289 J0.0148
G3 X10.9838 Y0.8977 I-0.3763 J-0.1934
G2 X10.9527 Y0.975 I0.0818 J0.0778
G1 X10.9349 Y4.4893
G2 X10.9984 Y4.5531 I0.0635 J0.0003
G1 X11.3638
G2 X11.4271 Y4.4893 I0. J-0.0633
G1 X11.4237 Y4.0163
G3 X11.5132 Y3.8799 I0.1471 J-0.0011
G2 X11.6027 Y3.7435 I-0.0575 J-0.1353
G1 X11.5821 Y0.8551
X11.5091 Y0.8556
X11.5065
X11.4949 Y0.8554
X11.4869 Y0.8551
X11.4811 Y0.8546
X11.4754 Y0.8541
X11.4696 Y0.8534
X11.4638 Y0.8526
X11.458 Y0.8516
X11.4523 Y0.8505
X11.4465 Y0.8493
X11.4395 Y0.8476
X11.4311 Y0.8453
X11.4254 Y0.8436
X11.4222 Y0.8426
X11.4177 Y0.841
X11.4119 Y0.8389
X11.4061 Y0.8367
X11.4004 Y0.8342
X11.3946 Y0.8317
X11.3888 Y0.8289
X11.3829 Y0.8259
X11.377 Y0.8227
X11.3711 Y0.8194
X11.3655 Y0.8159
X11.3598 Y0.8122
X11.3542 Y0.8084
X11.3486 Y0.8043
X11.3431 Y0.8001
X11.3373 Y0.7955
X11.3313 Y0.7903
X11.325 Y0.7845
X11.3185 Y0.7782
X11.3127 Y0.7722
X11.3077 Y0.7666
X11.3028 Y0.7608
X11.2981 Y0.7549
X11.294 Y0.7494
X11.2904 Y0.7444
X11.287 Y0.7394
X11.2837 Y0.7344
X11.2817 Y0.7311
X11.2808 Y0.7296
X11.2786 Y0.726
X11.2754 Y0.7202
X11.2723 Y0.7145
X11.2695 Y0.7087
X11.2668 Y0.7031
X11.2645 Y0.6976
X11.2621 Y0.6919
X11.2597 Y0.6858
X11.2576 Y0.6799
X11.2557 Y0.6741
X11.254 Y0.6683
X11.2524 Y0.6626
X11.2509 Y0.6568
X11.2496 Y0.6511
X11.2484 Y0.6453
X11.2473 Y0.6395
X11.2464 Y0.6338
X11.2456 Y0.628
X11.245 Y0.6222
X11.2444 Y0.6165
X11.2439 Y0.6084
X11.2436 Y0.5968
Y0.594
X11.2305 Y-1.2269
Y-1.2274
Y-1.2389
Y-1.2432
X11.2309 Y-1.2548
X11.2313 Y-1.2613
X11.2316 Y-1.266
X10.9315
X10.9319 Y-1.2609
X10.9323 Y-1.2545
X10.9326 Y-1.243
Y-1.2387
X10.9234 Y0.5937
X10.9233 Y0.5972
X10.923 Y0.6081
X10.9224 Y0.6165
X10.9218 Y0.6229
X10.9211 Y0.6289
X10.9203 Y0.6347
X10.9193 Y0.6405
X10.9182 Y0.6462
X10.917 Y0.652
X10.9156 Y0.6577
X10.9141 Y0.6635
X10.9124 Y0.6693
X10.9106 Y0.675
X10.9087 Y0.6808
X10.9058 Y0.6886
X10.9017 Y0.6984
X10.8992 Y0.7041
X10.8984 Y0.7059
X10.8966 Y0.7096
X10.8936 Y0.7154
X10.8905 Y0.7211
X10.8872 Y0.7269
X10.8833 Y0.7332
X10.8789 Y0.7401
X10.8749 Y0.7459
X10.8715 Y0.7505
X10.8679 Y0.7552
X10.864 Y0.7601
X10.8599 Y0.7649
X10.8557 Y0.7697
X10.8526 Y0.773
X10.8508 Y0.7749
X10.8475 Y0.7783
X10.8426 Y0.783
X10.8377 Y0.7875
X10.8329 Y0.7918
X10.8289 Y0.7952
X10.8258 Y0.7977
X10.8201 Y0.8021
X10.8116 Y0.8082
G3 X10.803 Y0.814 I-0.0763 J-0.1053
G1 X10.7941 Y0.8194
X10.7883 Y0.8227
X10.7856 Y0.8242
X10.7814 Y0.8263
X10.7756 Y0.8292
X10.7724 Y0.8307
X10.7526 Y4.7341
X11.6098
X11.6027 Y3.7435
X11.6026 Y3.7407 Z0.1984
X11.6022 Y3.738 Z0.1986
X11.6018 Y3.7352 Z0.199
X11.6011 Y3.7326 Z0.1995
X11.6003 Y3.73 Z0.2002
X11.5994 Y3.7274 Z0.2011
X11.5984 Y3.725 Z0.2021
X11.5973 Y3.7227 Z0.2032
X11.5961 Y3.7205 Z0.2045
X11.5948 Y3.7185 Z0.2059
X11.5935 Y3.7166 Z0.2075
X11.5922 Y3.7148 Z0.2092
X11.5908 Y3.7131 Z0.211
X11.5894 Y3.7116 Z0.2129
X11.5881 Y3.7102 Z0.215
X11.5868 Y3.709 Z0.2171
X11.5855 Y3.7079 Z0.2193
X11.5843 Y3.7069 Z0.2217
X11.5831 Y3.706 Z0.2241
X11.5821 Y3.7053 Z0.2266
X11.5812 Y3.7046 Z0.2291
X11.5803 Y3.7041 Z0.2318
X11.5796 Y3.7036 Z0.2344
X11.579 Y3.7033 Z0.2371
X11.5785 Y3.703 Z0.2399
X11.5782 Y3.7028 Z0.2427
X11.578 Y3.7027 Z0.2455
X11.5779 Y3.7026 Z0.2483
G0 Z0.8483
X9.322 Y3.6775
Z0.5435
G1 Z0.4216 F50.
Y3.6772 Z0.4163
Y3.6763 Z0.411
Y3.6749 Z0.4058
Y3.673 Z0.4008
X9.3221 Y3.6705 Z0.3961
Y3.6675 Z0.3916
Y3.6641 Z0.3875
Y3.6602 Z0.3838
Y3.656 Z0.3805
Y3.6514 Z0.3777
X9.3222 Y3.6466 Z0.3754
Y3.6415 Z0.3736
Y3.6363 Z0.3724
X9.3223 Y3.631 Z0.3717
X9.3347 Y1.1684 Z0.1995
G2 X9.3313 Y1.1527 Z0.1984 I-0.0365 J-0.0002
G1 X9.3305 Y1.1512 Z0.1983
X9.3296 Y1.1497
G2 X9.2803 Y1.1364 I-0.0314 J0.0186 F100.
G1 X9.2792 Y1.137
G2 X9.2613 Y1.1675 I0.0171 J0.0306
G1 X9.253 Y4.3244
G2 X9.3187 Y4.3246 I0.0329 J0.0001
G1 X9.3347 Y1.1684
G2 X9.3296 Y1.1497 I-0.0365 J-0.0002
G3 X9.3013 Y1.0371 I0.1763 J-0.1042
G2 X9.2023 Y0.9764 I-0.0664 J-0.0027
G3 X9.1801 Y0.9874 I-0.1209 J-0.2155
X9.1437 Y1.0026 I-0.5156 J-1.1832
G2 X9.0815 Y1.0942 I0.0367 J0.0919
G1 X9.0726 Y4.4903
G2 X9.135 Y4.5529 I0.0624 J0.0002
G1 X9.4349
G2 X9.4979 Y4.4902 I0. J-0.063
G1 X9.5157 Y0.9863
G2 X9.4822 Y0.9065 I-0.1106 J-0.0006
G3 X9.4155 Y0.8238 I0.309 J-0.3172
G2 X9.3543 Y0.8242 I-0.0305 J0.0191
G3 X9.2929 Y0.9044 I-0.4062 J-0.2476
X9.215 Y0.9687 I-0.3063 J-0.2911
X9.2023 Y0.9764 I-0.1335 J-0.2078
X9.0542 Y0.9255 I-0.0514 J-0.0916
G2 X8.9006 Y0.9563 I-0.0736 J0.031
G1 X8.8908 Y4.7341
X9.6779
X9.6976 Y0.8334
X9.6928 Y0.8315
X9.6849 Y0.8281
X9.6792 Y0.8255
X9.6756 Y0.8238
X9.6709 Y0.8215
X9.6651 Y0.8184
X9.6593 Y0.8151
X9.6536 Y0.8117
X9.6482 Y0.8083
X9.6433 Y0.805
X9.6375 Y0.8009
X9.6309 Y0.796
X9.6273 Y0.7932
X9.6238 Y0.7903
X9.6161 Y0.7837
X9.6104 Y0.7784
X9.6065 Y0.7746
X9.601 Y0.7689
X9.594 Y0.7612
X9.5882 Y0.7544
X9.5837 Y0.7487
X9.5794 Y0.743
X9.5753 Y0.7371
X9.5714 Y0.7313
X9.5678 Y0.7256
X9.5644 Y0.7198
X9.5612 Y0.714
X9.5593 Y0.7106
X9.5587 Y0.7094
X9.5571 Y0.7063
X9.5546 Y0.7011
X9.5523 Y0.6959
X9.55 Y0.6907
X9.5478 Y0.6852
X9.5456 Y0.6795
X9.5436 Y0.6737
X9.5417 Y0.6679
X9.5393 Y0.6597
X9.5366 Y0.649
X9.5347 Y0.6403
X9.5335 Y0.6338
X9.5325 Y0.6276
X9.5318 Y0.6218
X9.5311 Y0.6161
X9.5306 Y0.6103
X9.5302 Y0.6045
X9.53 Y0.5988
X9.5299 Y0.593
Y0.5814
Y0.5809
X9.5391 Y-1.24
Y-1.242
X9.5393 Y-1.2535
X9.5396 Y-1.2586
X9.54 Y-1.266
X9.2418
X9.2422 Y-1.2604
X9.2426 Y-1.2542
X9.2428 Y-1.2427
X9.2429 Y-1.239
X9.2381 Y0.5934
X9.238 Y0.5983
X9.2375 Y0.6098
X9.2369 Y0.6184
X9.2363 Y0.6242
X9.2355 Y0.6299
X9.2347 Y0.6357
X9.2336 Y0.6415
X9.2325 Y0.6472
X9.2312 Y0.653
X9.2298 Y0.6588
X9.2282 Y0.6645
X9.2265 Y0.6703
X9.2247 Y0.6761
X9.2227 Y0.6818
X9.2204 Y0.6878
X9.2179 Y0.694
X9.2155 Y0.6998
X9.213 Y0.7051
X9.2103 Y0.7106
X9.2073 Y0.7164
X9.2041 Y0.7222
X9.2007 Y0.7279
X9.1977 Y0.7329
X9.195 Y0.7371
X9.191 Y0.7429
X9.1856 Y0.7502
X9.1828 Y0.7539
X9.1799 Y0.7576
X9.1737 Y0.7649
X9.1685 Y0.7707
X9.1646 Y0.7748
X9.1589 Y0.7805
X9.1513 Y0.7875
X9.1447 Y0.7933
X9.1392 Y0.7977
X9.1334 Y0.8022
X9.1274 Y0.8065
X9.1215 Y0.8105
X9.1157 Y0.8142
X9.1098 Y0.8178
X9.1037 Y0.8213
X9.0979 Y0.8244
X9.0923 Y0.8273
X9.0867 Y0.8299
X9.081 Y0.8324
X9.0754 Y0.8348
X9.0696 Y0.837
X9.0638 Y0.8391
X9.058 Y0.8411
X9.0516 Y0.8431
X9.0443 Y0.8451
X9.0386 Y0.8466
X9.0342 Y0.8475
X9.0292 Y0.8486
X9.0234 Y0.8497
X9.0177 Y0.8506
X9.0119 Y0.8515
X9.0061 Y0.8522
X9.0004 Y0.8527
X8.9946 Y0.8532
X8.9888 Y0.8535
X8.9825 Y0.8536
X8.9709 Y0.8537
X8.9705
X8.9701
X8.9009 Y0.8535
X8.9006 Y0.9563
X8.9008 Y0.9591 Z0.1984
X8.9011 Y0.9619 Z0.1986
X8.9016 Y0.9646 Z0.199
X8.9022 Y0.9673 Z0.1995
X8.9029 Y0.9699 Z0.2002
X8.9038 Y0.9724 Z0.2011
X8.9048 Y0.9749 Z0.2021
X8.9059 Y0.9772 Z0.2032
X8.9071 Y0.9794 Z0.2045
X8.9083 Y0.9814 Z0.2059
X8.9096 Y0.9834 Z0.2075
X8.9109 Y0.9852 Z0.2092
X8.9123 Y0.9868 Z0.211
X8.9137 Y0.9884 Z0.2129
X8.915 Y0.9898 Z0.215
X8.9163 Y0.991 Z0.2171
X8.9176 Y0.9921 Z0.2193
X8.9188 Y0.9931 Z0.2217
X8.9199 Y0.994 Z0.2241
X8.9209 Y0.9948 Z0.2266
X8.9218 Y0.9954 Z0.2291
X8.9227 Y0.996 Z0.2318
X8.9234 Y0.9964 Z0.2344
X8.924 Y0.9968 Z0.2371
X8.9245 Y0.9971 Z0.2399
X8.9248 Y0.9973 Z0.2427
X8.925 Y0.9974 Z0.2455
X8.9251 Y0.9975 Z0.2483
G0 Z0.8483
X7.8166 Y1.0931
Z0.5435
G1 Z0.4216 F50.
Y1.0929 Z0.4163
Y1.092 Z0.411
Y1.0906 Z0.4058
Y1.0886 Z0.4008
Y1.0861 Z0.3961
Y1.0831 Z0.3916
Y1.0797 Z0.3875
Y1.0758 Z0.3838
Y1.0716 Z0.3805
Y1.0671 Z0.3777
X7.8167 Y1.0622 Z0.3754
Y1.0572 Z0.3736
Y1.0519 Z0.3724
Y1.0466 Z0.3717
X7.8227 Y-1.2397 Z0.2119
Y-1.2422 Z0.2117
X7.823 Y-1.2537 Z0.2109
X7.8232 Y-1.259 Z0.2105
X7.8236 Y-1.266 Z0.21
X7.6574 Z0.1984
X7.654 Z0.1983
X7.5247 F100.
X7.5251 Y-1.2601
X7.5254 Y-1.2541
X7.5257 Y-1.2426
X7.5258 Y-1.2392
X7.5164 Y4.7341
X7.807
X7.8227 Y-1.2397
Y-1.2422
X7.823 Y-1.2537
X7.8232 Y-1.259
X7.8236 Y-1.266
X7.654
X7.6512 Y-1.2658 Z0.1984
X7.6484 Y-1.2655 Z0.1986
X7.6456 Y-1.265 Z0.199
X7.643 Y-1.2644 Z0.1995
X7.6404 Y-1.2637 Z0.2002
X7.6378 Y-1.2628 Z0.2011
X7.6354 Y-1.2618 Z0.2021
X7.6331 Y-1.2607 Z0.2032
X7.6309 Y-1.2595 Z0.2045
X7.6288 Y-1.2582 Z0.2059
X7.6269 Y-1.2569 Z0.2075
X7.6251 Y-1.2556 Z0.2092
X7.6235 Y-1.2542 Z0.211
X7.6219 Y-1.2529 Z0.2129
X7.6206 Y-1.2515 Z0.215
X7.6193 Y-1.2502 Z0.2171
X7.6182 Y-1.249 Z0.2193
X7.6172 Y-1.2478 Z0.2217
X7.6163 Y-1.2466 Z0.2241
X7.6156 Y-1.2456 Z0.2266
X7.6149 Y-1.2447 Z0.2291
X7.6144 Y-1.2438 Z0.2318
X7.6139 Y-1.2431 Z0.2344
X7.6135 Y-1.2425 Z0.2371
X7.6132 Y-1.242 Z0.2399
X7.613 Y-1.2417 Z0.2427
X7.6129 Y-1.2415 Z0.2455
Y-1.2414 Z0.2483
G0 Z0.8483
X6.0682 Y1.9232
Z0.5435
G1 Z0.4216 F50.
Y1.9235 Z0.4163
Y1.9243 Z0.411
Y1.9257 Z0.4058
Y1.9277 Z0.4008
Y1.9302 Z0.3961
Y1.9332 Z0.3916
Y1.9366 Z0.3875
Y1.9405 Z0.3838
Y1.9447 Z0.3805
X6.0681 Y1.9493 Z0.3777
Y1.9541 Z0.3754
Y1.9592 Z0.3736
Y1.9644 Z0.3724
Y1.9697 Z0.3717
X6.0606 Y4.3469 Z0.2055
G2 X6.0866 Y4.3731 Z0.2026 I0.026 J0.0001
G1 X6.0888 Z0.2025
G2 X6.1148 Y4.3471 Z0.1996 I0. J-0.026
G1 Y4.3295 Z0.1984
Y4.326 Z0.1983
X6.1198 Y1.1653 F100.
G2 X6.1091 Y1.148 I-0.0193 J0.
G3 X6.0988 Y1.1427 I0.2221 J-0.4467
G2 X6.0706 Y1.1597 I-0.0089 J0.0171
G1 X6.0606 Y4.3469
G2 X6.0866 Y4.3731 I0.026 J0.0001
G1 X6.0888
G2 X6.1148 Y4.3471 I0. J-0.026
G1 Y4.326
G3 X6.2051 Y4.1911 I0.1462 J0.0002
G2 X6.2953 Y4.0563 I-0.056 J-0.1351
G1 X6.2999 Y1.096
G2 X6.2371 Y1.0072 I-0.094 J-0.0001
G3 X6.0126 Y0.8275 I0.1448 J-0.411
G2 X5.9497 I-0.0315 J0.0197
G3 X5.9113 Y0.8798 I-0.3758 J-0.2357
G2 X5.8913 Y0.934 I0.0645 J0.0545
G1 X5.8802 Y4.4892
G2 X5.9438 Y4.5531 I0.0636 J0.0002
G1 X6.2306
G2 X6.2946 Y4.4892 I0. J-0.064
G1 X6.2953 Y4.0563
G3 X6.386 Y3.9207 I0.1471 J0.0002
G2 X6.4767 Y3.7851 I-0.0563 J-0.1358
G1 X6.4813 Y0.852
X6.3864 Y0.8518
X6.382 Y0.8517
X6.3704 Y0.8513
X6.3619 Y0.8507
X6.3561 Y0.8502
X6.35 Y0.8494
X6.3436 Y0.8484
X6.3349 Y0.8468
X6.324 Y0.8444
X6.3157 Y0.8423
X6.31 Y0.8406
X6.3042 Y0.8388
X6.2984 Y0.8368
X6.2927 Y0.8347
X6.2869 Y0.8324
X6.2811 Y0.83
X6.2754 Y0.8274
X6.2719 Y0.8257
X6.2707 Y0.8251
X6.2675 Y0.8235
X6.2623 Y0.8208
X6.2571 Y0.818
X6.252 Y0.815
X6.245 Y0.8106
X6.2363 Y0.8048
X6.2306 Y0.8007
X6.2278 Y0.7986
X6.2236 Y0.7953
X6.2182 Y0.7909
X6.2128 Y0.7862
X6.2073 Y0.7813
X6.2043 Y0.7784
X6.2036 Y0.7777
X6.2006 Y0.7747
X6.1954 Y0.7693
X6.1905 Y0.7639
X6.1858 Y0.7584
X6.1827 Y0.7547
X6.181 Y0.7526
X6.1784 Y0.7492
X6.1749 Y0.7445
X6.1716 Y0.7397
X6.1684 Y0.735
X6.1643 Y0.7286
X6.1595 Y0.7205
X6.1562 Y0.7146
X6.1545 Y0.7113
X6.1522 Y0.7067
X6.1494 Y0.701
X6.1468 Y0.6952
X6.1444 Y0.6894
X6.1422 Y0.6837
X6.1401 Y0.6779
X6.1381 Y0.6722
X6.1363 Y0.6664
X6.1351 Y0.6622
X6.1344 Y0.6597
X6.133 Y0.654
X6.1309 Y0.645
X6.1295 Y0.6376
X6.1285 Y0.6318
X6.1277 Y0.626
X6.127 Y0.6203
X6.1264 Y0.6145
X6.126 Y0.6088
X6.1256 Y0.603
X6.1255 Y0.5972
X6.1254 Y0.5929
X6.1283 Y-1.2396
Y-1.2422
X6.1286 Y-1.2538
X6.1288 Y-1.2593
X6.1292 Y-1.266
X5.8403
X5.8407 Y-1.2605
X5.8411 Y-1.2543
X5.8414 Y-1.2428
Y-1.239
X5.8357 Y0.5935
X5.8356 Y0.5981
X5.8351 Y0.6096
X5.8345 Y0.6182
X5.8339 Y0.624
X5.8332 Y0.6297
X5.8323 Y0.6355
X5.8313 Y0.6413
X5.8301 Y0.647
X5.8289 Y0.6528
X5.8275 Y0.6585
X5.8259 Y0.6643
X5.8242 Y0.6701
X5.8224 Y0.6758
X5.8204 Y0.6816
X5.8179 Y0.6882
X5.8149 Y0.6956
X5.8124 Y0.7013
X5.8105 Y0.7055
X5.8081 Y0.7104
X5.8051 Y0.7162
X5.8019 Y0.7219
X5.7986 Y0.7277
X5.7952 Y0.7331
X5.792 Y0.7381
X5.788 Y0.7439
X5.7832 Y0.7504
X5.7804 Y0.7541
X5.7775 Y0.7577
X5.7707 Y0.7657
X5.7656 Y0.7715
X5.7623 Y0.7749
X5.7566 Y0.7806
X5.7483 Y0.7882
X5.7418 Y0.7939
X5.737 Y0.7978
X5.7312 Y0.8022
X5.7245 Y0.8071
X5.7183 Y0.8112
X5.7128 Y0.8147
X5.7107 Y0.8161
X5.6984 Y4.7341
X6.4752
X6.4767 Y3.7851
X6.4765 Y3.7823 Z0.1984
X6.4762 Y3.7795 Z0.1986
X6.4758 Y3.7768 Z0.199
X6.4752 Y3.7741 Z0.1995
X6.4744 Y3.7715 Z0.2002
X6.4735 Y3.7689 Z0.2011
X6.4725 Y3.7665 Z0.2021
X6.4714 Y3.7642 Z0.2032
X6.4703 Y3.762 Z0.2045
X6.469 Y3.7599 Z0.2059
X6.4677 Y3.758 Z0.2075
X6.4664 Y3.7562 Z0.2092
X6.465 Y3.7546 Z0.211
X6.4636 Y3.753 Z0.2129
X6.4623 Y3.7517 Z0.215
X6.461 Y3.7504 Z0.2171
X6.4597 Y3.7493 Z0.2193
X6.4585 Y3.7483 Z0.2217
X6.4574 Y3.7474 Z0.2241
X6.4564 Y3.7466 Z0.2266
X6.4555 Y3.746 Z0.2291
X6.4546 Y3.7454 Z0.2318
X6.4539 Y3.745 Z0.2344
X6.4533 Y3.7446 Z0.2371
X6.4528 Y3.7443 Z0.2399
X6.4525 Y3.7441 Z0.2427
X6.4523 Y3.744 Z0.2455
X6.4522 Z0.2483
G0 Z0.8483
X4.2119 Y1.9398
Z0.5435
G1 Z0.4216 F50.
Y1.94 Z0.4163
Y1.9409 Z0.411
Y1.9423 Z0.4058
Y1.9443 Z0.4008
Y1.9468 Z0.3961
Y1.9498 Z0.3916
Y1.9532 Z0.3875
Y1.9571 Z0.3838
Y1.9613 Z0.3805
X4.2118 Y1.9658 Z0.3777
Y1.9707 Z0.3754
Y1.9757 Z0.3736
Y1.981 Z0.3724
Y1.9863 Z0.3717
X4.2023 Y4.3379 Z0.2073
G2 X4.2374 Y4.3731 Z0.2034 I0.035 J0.0001
G1 X4.2377
G2 X4.2728 Y4.3381 Z0.1996 I0. J-0.035
G1 Y4.3214 Z0.1984
Y4.3179 Z0.1983
X4.2828 Y1.1276 F100.
G2 X4.23 Y1.1003 I-0.0334 J-0.0001
G1 X4.2261 Y1.103
G2 X4.2152 Y1.1241 I0.0151 J0.0212
G1 X4.2023 Y4.3379
G2 X4.2374 Y4.3731 I0.035 J0.0001
G1 X4.2377
G2 X4.2728 Y4.3381 I0. J-0.035
G1 Y4.3179
G3 X4.3632 Y4.1832 I0.1462 J0.0005
G2 X4.4537 Y4.0485 I-0.0558 J-0.1352
G1 X4.4631 Y1.0615
G2 X4.4017 Y0.9288 I-0.173 J-0.0005
G3 X4.3514 Y0.8792 I0.2999 J-0.3549
X4.3097 Y0.8222 I0.3105 J-0.2707
G2 X4.2476 Y0.8224 I-0.031 J0.0188
G3 X4.2018 Y0.8862 I-0.4153 J-0.2495
X4.1455 Y0.9409 I-0.3116 J-0.2642
X4.123 Y0.9567 I-0.1331 J-0.1662
X4.0994 Y0.9709 I-2.1889 J-3.6046
G2 X4.0354 Y1.0833 I0.0676 J0.1129
G1 X4.0217 Y4.4892
G2 X4.0853 Y4.5531 I0.0636 J0.0003
G1 X4.3882
G2 X4.4523 Y4.4891 I0. J-0.0641
G1 X4.4537 Y4.0485
G3 X4.5446 Y3.913 I0.1471 J0.0005
G2 X4.6355 Y3.7776 I-0.0561 J-0.1359
G1 X4.6447 Y0.8479
X4.6443 Y0.8478
X4.6438 Y0.8477
X4.6329 Y0.8457
X4.6245 Y0.8439
X4.6187 Y0.8424
X4.613 Y0.8408
X4.6072 Y0.8391
X4.6014 Y0.8372
X4.5957 Y0.8352
X4.5899 Y0.833
X4.5841 Y0.8306
X4.5792 Y0.8285
X4.575 Y0.8265
X4.5692 Y0.8237
X4.5618 Y0.8199
X4.5553 Y0.8163
X4.5495 Y0.8128
X4.5434 Y0.809
X4.5371 Y0.8047
X4.5312 Y0.8005
X4.5257 Y0.7963
X4.5202 Y0.792
X4.5148 Y0.7874
X4.5105 Y0.7836
X4.5075 Y0.7809
X4.5038 Y0.7773
X4.4993 Y0.7728
X4.4951 Y0.7683
X4.491 Y0.7639
X4.4879 Y0.7603
X4.4857 Y0.7577
X4.4823 Y0.7536
X4.4778 Y0.7478
X4.4736 Y0.742
X4.4696 Y0.7363
X4.4672 Y0.7327
X4.4663 Y0.7314
X4.4643 Y0.7282
X4.4613 Y0.7231
X4.4583 Y0.718
X4.4556 Y0.7129
X4.4528 Y0.7075
X4.45 Y0.7017
X4.4474 Y0.6959
X4.4449 Y0.6902
X4.4435 Y0.6867
X4.4431 Y0.6856
X4.441 Y0.6799
X4.4374 Y0.6695
X4.435 Y0.6613
X4.4334 Y0.6556
X4.432 Y0.6498
X4.4307 Y0.6441
X4.4296 Y0.6383
X4.4286 Y0.6325
X4.4277 Y0.6268
X4.427 Y0.621
X4.4264 Y0.6152
X4.4259 Y0.6095
X4.4256 Y0.6037
X4.4254 Y0.598
X4.4253 Y0.5927
X4.4257 Y0.4659
X4.431 Y-1.2398
X4.4311 Y-1.2421
X4.4313 Y-1.2536
X4.4315 Y-1.259
X4.432 Y-1.266
X4.1364
X4.1368 Y-1.2607
X4.1372 Y-1.2544
X4.1375 Y-1.2428
Y-1.2388
X4.1302 Y0.5936
X4.1301 Y0.5978
X4.1297 Y0.6093
X4.1294 Y0.6142
X4.1289 Y0.619
X4.128 Y0.6272
X4.1273 Y0.6329
X4.1267 Y0.6363
X4.1259 Y0.6409
X4.1248 Y0.6466
X4.1236 Y0.6524
X4.1222 Y0.6582
X4.1206 Y0.6639
X4.119 Y0.6697
X4.1171 Y0.6755
X4.1152 Y0.6812
X4.1131 Y0.687
X4.1108 Y0.6927
X4.1084 Y0.6985
X4.1057 Y0.7043
X4.1029 Y0.71
X4.1 Y0.7158
X4.0969 Y0.7216
X4.0935 Y0.7273
X4.0893 Y0.7342
X4.0841 Y0.742
X4.08 Y0.7477
X4.0773 Y0.7514
X4.0739 Y0.7558
X4.0697 Y0.761
X4.0653 Y0.7661
X4.0607 Y0.7712
X4.0577 Y0.7744
X4.0565 Y0.7757
X4.0533 Y0.7788
X4.0481 Y0.7838
X4.043 Y0.7885
X4.0378 Y0.793
X4.0339 Y0.7962
X4.0313 Y0.7983
X4.0256 Y0.8026
X4.0167 Y0.809
G3 X4.0079 Y0.8147 I-0.0755 J-0.1058
G1 X3.9993 Y0.8199
X3.9935 Y0.8232
X3.9906 Y0.8247
X3.9862 Y0.8269
X3.9805 Y0.8297
X3.9747 Y0.8323
X3.9689 Y0.8348
X3.9632 Y0.8371
X3.9574 Y0.8392
X3.9516 Y0.8412
X3.9458 Y0.843
X3.9416 Y0.8443
X3.9388 Y0.8451
X3.9331 Y0.8465
X3.9243 Y0.8486
X3.917 Y0.85
X3.9112 Y0.851
X3.9055 Y0.8519
X3.8997 Y0.8526
X3.8939 Y0.8532
X3.8882 Y0.8536
X3.8824 Y0.854
X3.8766 Y0.8542
X3.8714 Y0.8543
X3.8553 Y0.8542
X3.8397 Y4.7341
X4.6325
X4.6355 Y3.7776
X4.6354 Y3.7748 Z0.1984
X4.6351 Y3.772 Z0.1986
X4.6346 Y3.7693 Z0.199
X4.634 Y3.7666 Z0.1995
X4.6333 Y3.764 Z0.2002
X4.6324 Y3.7614 Z0.2011
X4.6314 Y3.759 Z0.2021
X4.6303 Y3.7567 Z0.2032
X4.6291 Y3.7545 Z0.2045
X4.6279 Y3.7524 Z0.2059
X4.6266 Y3.7505 Z0.2075
X4.6252 Y3.7487 Z0.2092
X4.6239 Y3.7471 Z0.211
X4.6225 Y3.7455 Z0.2129
X4.6212 Y3.7441 Z0.215
X4.6199 Y3.7429 Z0.2171
X4.6186 Y3.7418 Z0.2193
X4.6174 Y3.7408 Z0.2217
X4.6163 Y3.7399 Z0.2241
X4.6153 Y3.7391 Z0.2266
X4.6143 Y3.7385 Z0.2291
X4.6135 Y3.7379 Z0.2318
X4.6128 Y3.7374 Z0.2344
X4.6122 Y3.7371 Z0.2371
X4.6117 Y3.7368 Z0.2399
X4.6114 Y3.7366 Z0.2427
X4.6112 Y3.7365 Z0.2455
X4.6111 Y3.7364 Z0.2483
G0 Z0.8483
X2.4591 Y3.6943
Z0.5435
G1 Z0.4216 F50.
Y3.694 Z0.4163
Y3.6931 Z0.411
Y3.6917 Z0.4058
X2.4592 Y3.6898 Z0.4008
Y3.6873 Z0.3961
Y3.6843 Z0.3916
Y3.6809 Z0.3875
Y3.677 Z0.3838
Y3.6728 Z0.3805
Y3.6682 Z0.3777
X2.4593 Y3.6634 Z0.3754
Y3.6583 Z0.3736
Y3.6531 Z0.3724
Y3.6478 Z0.3717
X2.4692 Y1.1782 Z0.199
X2.4691 Y1.1751 Z0.1988
X2.4686 Y1.1721 Z0.1986
X2.4677 Y1.1692 Z0.1984
X2.467 Y1.1676 Z0.1983
X2.4663 Y1.166
G2 X2.4321 Y1.1545 I-0.0231 J0.0121 F100.
G1 X2.4232 Y1.1586
G2 X2.4078 Y1.1824 I0.0106 J0.0238
G1 X2.4067 Y4.3298
G2 X2.4566 Y4.33 I0.025 J0.
G1 X2.4692 Y1.1782
G2 X2.4663 Y1.166 I-0.026 J-0.0001
G3 X2.4598 Y1.055 I0.12 J-0.0627
G2 X2.3764 Y0.9815 I-0.0554 J-0.0212
G3 X2.2896 Y1.0165 I-0.2052 J-0.3834
G2 X2.2278 Y1.0981 I0.023 J0.0817
G1 X2.2266 Y4.4903
G2 X2.2892 Y4.5529 I0.0626 J0.
G1 X2.5731
G2 X2.636 Y4.4902 I0. J-0.0629
G1 X2.6504 Y0.9057
G2 X2.6368 Y0.8669 I-0.0618 J-0.0002
G3 X2.605 Y0.8216 I0.3517 J-0.281
G2 X2.544 Y0.822 I-0.0304 J0.0188
G3 X2.3764 Y0.9815 I-0.3727 J-0.2239
X2.2136 Y0.9284 I-0.056 J-0.1046
G2 X2.0467 Y0.9666 I-0.0791 J0.0382
G1 X2.0453 Y4.7341
X2.8162
X2.8319 Y0.8038
X2.8292 Y0.8019
X2.8265 Y0.7999
X2.8222 Y0.7967
X2.8166 Y0.7922
X2.8108 Y0.7873
X2.8049 Y0.7821
X2.7992 Y0.7766
X2.7936 Y0.771
X2.7883 Y0.7653
X2.7833 Y0.7597
X2.7804 Y0.7562
X2.7794 Y0.7551
X2.7769 Y0.7519
X2.7729 Y0.7468
X2.7691 Y0.7416
X2.7655 Y0.7364
X2.7618 Y0.7306
X2.7578 Y0.7242
X2.7545 Y0.7185
X2.7516 Y0.7133
X2.7488 Y0.7078
X2.746 Y0.7021
X2.7433 Y0.6963
X2.7408 Y0.6906
X2.7378 Y0.6829
X2.7344 Y0.6734
X2.7325 Y0.6676
X2.7319 Y0.6656
X2.7308 Y0.6617
X2.7292 Y0.656
X2.7278 Y0.6502
X2.7265 Y0.6444
X2.7254 Y0.6387
X2.7244 Y0.6329
X2.7235 Y0.6272
X2.7227 Y0.6214
X2.7221 Y0.6156
X2.7216 Y0.6099
X2.7213 Y0.6041
X2.721 Y0.5983
X2.7209 Y0.5927
X2.721 Y0.5697
Y0.5695
X2.7282 Y-1.2399
X2.7283 Y-1.2421
X2.7285 Y-1.2536
X2.7287 Y-1.2588
X2.7292 Y-1.266
X2.4268
X2.4272 Y-1.2598
X2.4275 Y-1.2539
X2.4277 Y-1.2424
X2.4278 Y-1.2393
X2.4271 Y0.5931
Y0.5964
X2.4269 Y0.6022
X2.4267 Y0.6079
X2.4263 Y0.6137
X2.4257 Y0.6194
X2.4251 Y0.6252
X2.4243 Y0.631
X2.4233 Y0.6367
X2.4223 Y0.6425
X2.4211 Y0.6483
X2.4198 Y0.654
X2.4183 Y0.6598
X2.4172 Y0.6638
X2.4165 Y0.6662
X2.4147 Y0.672
X2.4116 Y0.6812
X2.4088 Y0.6886
X2.4064 Y0.6944
X2.4039 Y0.7001
X2.4011 Y0.7059
X2.3981 Y0.7119
X2.3948 Y0.7182
X2.3915 Y0.7239
X2.3884 Y0.7292
X2.3849 Y0.7347
X2.381 Y0.7405
X2.3768 Y0.7463
X2.3723 Y0.7523
X2.3676 Y0.7581
X2.3628 Y0.7638
X2.3577 Y0.7695
X2.3523 Y0.7751
X2.3489 Y0.7785
X2.3476 Y0.7798
X2.3441 Y0.7831
X2.3383 Y0.7883
X2.3326 Y0.7932
X2.3268 Y0.7978
X2.3209 Y0.8023
X2.3148 Y0.8066
X2.3091 Y0.8105
X2.3036 Y0.814
X2.2971 Y0.8178
X2.2896 Y0.822
X2.2838 Y0.825
X2.2798 Y0.827
X2.2749 Y0.8293
X2.2691 Y0.8318
X2.2633 Y0.8342
X2.2576 Y0.8364
X2.2518 Y0.8385
X2.246 Y0.8404
X2.2403 Y0.8422
X2.2345 Y0.8438
X2.2289 Y0.8452
X2.2236 Y0.8465
X2.2178 Y0.8477
X2.2116 Y0.8488
X2.2056 Y0.8498
X2.1999 Y0.8506
X2.1941 Y0.8513
X2.1883 Y0.8518
X2.1799 Y0.8523
X2.1684 Y0.8526
X2.1647 Y0.8527
X2.0467 Y0.8526
Y0.9666
X2.0468 Y0.9694 Z0.1984
X2.0471 Y0.9721 Z0.1986
X2.0476 Y0.9749 Z0.199
X2.0482 Y0.9776 Z0.1995
X2.049 Y0.9802 Z0.2002
X2.0498 Y0.9827 Z0.2011
X2.0508 Y0.9851 Z0.2021
X2.0519 Y0.9874 Z0.2032
X2.0531 Y0.9896 Z0.2045
X2.0544 Y0.9917 Z0.2059
X2.0557 Y0.9936 Z0.2075
X2.057 Y0.9954 Z0.2092
X2.0584 Y0.9971 Z0.211
X2.0597 Y0.9986 Z0.2129
X2.0611 Y1. Z0.215
X2.0624 Y1.0012 Z0.2171
X2.0636 Y1.0023 Z0.2193
X2.0648 Y1.0033 Z0.2217
X2.066 Y1.0042 Z0.2241
X2.067 Y1.005 Z0.2266
X2.0679 Y1.0056 Z0.2291
X2.0688 Y1.0062 Z0.2318
X2.0695 Y1.0066 Z0.2344
X2.0701 Y1.007 Z0.2371
X2.0706 Y1.0073 Z0.2399
X2.0709 Y1.0075 Z0.2427
X2.0711 Y1.0076 Z0.2455
X2.0712 Z0.2483
G0 Z0.8483
X0.3473 Y4.3731
Z0.2483
G1 X0.3476 Z0.2427 F100.
X0.3486 Z0.2371
X0.3501 Z0.2318
X0.3522 Z0.2266
X0.355 Z0.2217
X0.3582 Z0.2171
X0.3619 Z0.2129
X0.3661 Z0.2092
X0.3707 Z0.2059
X0.3756 Z0.2032
X0.3808 Z0.2011
X0.3862 Z0.1995
X0.3917 Z0.1986
X0.3973 Z0.1983
X0.5458
X0.609
G2 X0.6729 Y4.3092 I0. J-0.0639
G1 X0.6747 Y-0.8411
G2 X0.6109 Y-0.905 I-0.0638 J0.
G1 X0.5459
X0.3492
X0.3436 Z0.1986
X0.3381 Z0.1995
X0.3327 Z0.2011
X0.3276 Z0.2032
X0.3226 Z0.2059
X0.3181 Z0.2092
X0.3139 Z0.2129
X0.3102 Z0.2171
X0.3069 Z0.2217
X0.3042 Z0.2266
X0.3021 Z0.2318
X0.3005 Z0.2371
X0.2996 Z0.2427
X0.2992 Z0.2483
G0 Z0.8483
X0.3473 Y4.5531
Z0.2483
G1 X0.3476 Z0.2427 F100.
X0.3486 Z0.2371
X0.3501 Z0.2318
X0.3522 Z0.2266
X0.355 Z0.2217
X0.3582 Z0.2171
X0.3619 Z0.2129
X0.3661 Z0.2092
X0.3707 Z0.2059
X0.3756 Z0.2032
X0.3808 Z0.2011
X0.3862 Z0.1995
X0.3917 Z0.1986
X0.3973 Z0.1983
X0.5459
X0.789
G2 X0.8529 Y4.4892 I0. J-0.0639
G1 X0.8548 Y-1.0211
G2 X0.7909 Y-1.085 I-0.0638 J0.
G1 X0.5458
X0.3492
X0.3436 Z0.1986
X0.3381 Z0.1995
X0.3327 Z0.2011
X0.3275 Z0.2032
X0.3226 Z0.2059
X0.3181 Z0.2092
X0.3139 Z0.2129
X0.3101 Z0.2171
X0.3069 Z0.2217
X0.3042 Z0.2266
X0.302 Z0.2318
X0.3005 Z0.2371
X0.2995 Z0.2427
X0.2992 Z0.2483
G0 Z0.8483
X0.3473 Y4.7032
Z0.2433
G1 X0.3476 Y4.7033 Z0.2382 F100.
X0.3484 Y4.7034 Z0.2333
X0.3498 Y4.7036 Z0.2284
X0.3517 Y4.7039 Z0.2238
X0.3541 Y4.7043 Z0.2193
X0.357 Y4.7048 Z0.2152
X0.3603 Y4.7053 Z0.2115
X0.364 Y4.7059 Z0.2081
X0.3681 Y4.7065 Z0.2052
X0.3725 Y4.7072 Z0.2027
X0.3771 Y4.7079 Z0.2008
X0.3819 Y4.7087 Z0.1994
X0.3868 Y4.7095 Z0.1986
X0.3917 Y4.7103 Z0.1983
X0.538 Y4.7334
X0.5419 Y4.7339
X0.5459 Y4.7341
X1.0338
X1.0359 Y-1.2394
Y-1.2423
X1.0362 Y-1.2538
X1.0364 Y-1.2596
X1.0368 Y-1.266
X0.5458
X0.5419 Y-1.2658
X0.538 Y-1.2653
X0.3438 Y-1.2346
X0.3383 Y-1.2337 Z0.1986
X0.3328 Y-1.2328 Z0.1995
X0.3275 Y-1.232 Z0.2011
X0.3224 Y-1.2312 Z0.2032
X0.3176 Y-1.2304 Z0.2059
X0.313 Y-1.2297 Z0.2092
X0.3089 Y-1.2291 Z0.2129
X0.3052 Y-1.2285 Z0.2171
X0.302 Y-1.228 Z0.2217
X0.2993 Y-1.2275 Z0.2266
X0.2972 Y-1.2272 Z0.2318
X0.2957 Y-1.227 Z0.2371
X0.2948 Y-1.2268 Z0.2427
X0.2945 Z0.2483
G0 Z1.2483
M5
G53 G0 Z0.

(POCKET2 4)
M1
T16 M6
S24000 M3
G17 G90 G94
G55
G0 X0.481 Y4.8904
G43 Z1.2483 H16
G0 Z0.2195
G1 X0.4812 Z0.2162 F100.
X0.482 Y4.8905 Z0.213
X0.4833 Y4.8907 Z0.2099
X0.485 Y4.891 Z0.207
X0.4871 Y4.8914 Z0.2045
X0.4896 Y4.8918 Z0.2023
X0.4925 Y4.8922 Z0.2006
X0.4955 Y4.8927 Z0.1993
X0.4987 Y4.8932 Z0.1985
X0.502 Y4.8937 Z0.1983
X0.6918 Y4.9238
X0.6954 Y4.9241
X1.1756
X1.1778 Y-1.237
Y-1.2374
Y-1.2378
X1.1779 Y-1.2455
Y-1.2475
X1.1783 Y-1.2552
X1.1785 Y-1.2581
X1.1792 Y-1.2659
X1.1796 Y-1.2689
X1.1807 Y-1.2767
X1.1812 Y-1.2793
X1.1827 Y-1.287
X1.1832 Y-1.2895
X1.1851 Y-1.2973
X1.1857 Y-1.2995
X1.1875 Y-1.3059
X1.188 Y-1.3077
X1.1884 Y-1.3091
X1.1889 Y-1.3106
X1.1916 Y-1.3184
X1.1927 Y-1.3212
X1.1958 Y-1.329
X1.1964 Y-1.3303
X1.1979 Y-1.3338
X1.199 Y-1.3362
X1.201 Y-1.3404
X1.2019 Y-1.342
X1.2059 Y-1.3498
X1.2068 Y-1.3514
X1.2084 Y-1.3543
X1.2094 Y-1.3559
X1.2123 Y-1.3608
X1.2136 Y-1.3628
X1.2184 Y-1.37
X1.2204 Y-1.3729
X1.2266 Y-1.3812
X1.2285 Y-1.3835
G3 X1.2356 Y-1.3918 I0.3553 J0.2947
G1 X1.2375 Y-1.3939
G3 X1.2458 Y-1.4025 I0.2417 J0.2249
G1 X1.2475 Y-1.4042
X1.2505 Y-1.4071
X1.2518 Y-1.4082
X1.2573 Y-1.4132
X1.2587 Y-1.4144
X1.2609 Y-1.4162
X1.2627 Y-1.4176
X1.2704 Y-1.4236
X1.2731 Y-1.4256
X1.2809 Y-1.4309
X1.2824 Y-1.4318
X1.286 Y-1.4342
X1.2884 Y-1.4357
X1.2925 Y-1.438
X1.294 Y-1.4389
X1.3018 Y-1.443
X1.304 Y-1.4442
X1.3065 Y-1.4454
X1.3068 Y-1.4456
X1.3072 Y-1.4457
X1.3124 Y-1.4482
X1.3151 Y-1.4493
X1.3228 Y-1.4526
X1.3258 Y-1.4537
X1.3336 Y-1.4564
X1.3362 Y-1.4573
X1.344 Y-1.4596
X1.3465 Y-1.4603
X1.3543 Y-1.4623
X1.3568 Y-1.4628
X1.3646 Y-1.4644
X1.3676 Y-1.465
X1.3757 Y-1.4662
X1.3787 Y-1.4666
X1.3862 Y-1.4673
X1.3885 Y-1.4675
X1.3963 Y-1.468
X1.3986 Y-1.4681
X1.4064 Y-1.4682
X1.4068
X1.4072
X1.4076
X2.0527 Y-1.468
X2.0531
X2.0608 Y-1.4679
X2.0625
X2.0703 Y-1.4676
X2.0735 Y-1.4674
X2.0825 Y-1.4666
X2.0856 Y-1.4663
X2.0921 Y-1.4653
X2.0941 Y-1.465
X2.1019 Y-1.4636
X2.1044 Y-1.4631
X2.1122 Y-1.4614
X2.1152 Y-1.4606
X2.1229 Y-1.4585
X2.1255 Y-1.4577
X2.1302 Y-1.4561
X2.1306 Y-1.456
X2.131 Y-1.4559
X2.1341 Y-1.4548
X2.1362 Y-1.454
X2.144 Y-1.451
X2.1467 Y-1.4499
X2.1549 Y-1.4462
X2.1575 Y-1.445
X2.1648 Y-1.4413
X2.1674 Y-1.4399
X2.1745 Y-1.4358
X2.1774 Y-1.4341
X2.1858 Y-1.4287
X2.1883 Y-1.4269
G3 X2.1966 Y-1.4209 I-0.3183 J0.4431
G1 X2.1989 Y-1.419
G3 X2.2072 Y-1.4122 I-0.3542 J0.4371
G1 X2.2094 Y-1.4102
G3 X2.2178 Y-1.4024 I-0.3067 J0.3365
G1 X2.2198 Y-1.4004
X2.2258 Y-1.3941
X2.2267 Y-1.3931
X2.2286 Y-1.3911
X2.2301 Y-1.3893
X2.2349 Y-1.3835
X2.2363 Y-1.3819
X2.2392 Y-1.378
X2.2401 Y-1.3768
X2.243 Y-1.3729
X2.2445 Y-1.3708
X2.2497 Y-1.363
X2.2514 Y-1.3603
X2.256 Y-1.3525
X2.2571 Y-1.3506
X2.26 Y-1.3454
X2.2612 Y-1.343
G3 X2.2665 Y-1.3317 I-0.3295 J0.1619
G1 X2.2676 Y-1.3292
X2.2705 Y-1.3221
X2.2717 Y-1.3191
X2.2746 Y-1.3107
X2.2755 Y-1.3077
X2.2778 Y-1.2999
X2.2784 Y-1.2974
X2.2803 Y-1.2896
X2.2806 Y-1.2882
X2.2814 Y-1.2847
X2.2818 Y-1.2829
X2.2825 Y-1.2786
X2.2828 Y-1.2767
X2.284 Y-1.269
X2.2844 Y-1.2659
X2.2851 Y-1.2581
X2.2853 Y-1.2553
X2.2857 Y-1.2476
Y-1.2456
X2.2859 Y-1.2378
Y-1.2374
Y-1.237
X2.2852 Y0.5879
Y0.5882
Y0.5885
X2.2851 Y0.5963
X2.2849 Y0.6006
X2.2846 Y0.6045
X2.2842 Y0.6084
X2.2836 Y0.6123
X2.2829 Y0.6158
X2.2823 Y0.6189
X2.2815 Y0.6221
X2.2806 Y0.6253
X2.28 Y0.6276
X2.2795 Y0.629
X2.2786 Y0.6317
X2.2771 Y0.6356
X2.2756 Y0.6394
X2.2738 Y0.6433
X2.272 Y0.647
X2.2701 Y0.6505
X2.268 Y0.6541
X2.2658 Y0.6576
X2.2629 Y0.6617
X2.2594 Y0.6663
X2.2568 Y0.6695
X2.2551 Y0.6715
X2.2533 Y0.6734
X2.2515 Y0.6754
X2.2502 Y0.6767
X2.2494 Y0.6774
X2.2481 Y0.6786
X2.2462 Y0.6804
X2.2442 Y0.6821
X2.2423 Y0.6838
X2.2394 Y0.686
X2.2355 Y0.6889
X2.233 Y0.6907
X2.2318 Y0.6915
X2.2296 Y0.6929
X2.2263 Y0.6949
X2.223 Y0.6967
X2.2197 Y0.6984
X2.2161 Y0.7001
X2.2122 Y0.7018
X2.2083 Y0.7034
X2.2044 Y0.7047
X2.2007 Y0.7059
X2.1971 Y0.7069
X2.1932 Y0.7078
X2.189 Y0.7087
X2.185 Y0.7094
X2.1811 Y0.7099
X2.1772 Y0.7103
X2.1733 Y0.7106
X2.1694 Y0.7107
X2.1538 Y0.7108
X2.1537
X1.9049 Y0.7107
X1.9034 Y4.9241
X2.9573
X2.9742 Y0.7086
X2.9723 Y0.7085
X2.9684 Y0.7082
X2.9645 Y0.7077
X2.9607 Y0.7071
X2.9568 Y0.7063
X2.9529 Y0.7054
X2.949 Y0.7044
X2.9451 Y0.7033
X2.9412 Y0.7019
X2.9373 Y0.7005
X2.9334 Y0.6989
X2.9296 Y0.6971
X2.9265 Y0.6956
X2.9243 Y0.6944
X2.9218 Y0.693
X2.919 Y0.6913
X2.9162 Y0.6896
X2.9135 Y0.6877
X2.9108 Y0.6857
X2.9081 Y0.6837
X2.9055 Y0.6816
X2.9029 Y0.6794
X2.9003 Y0.6771
X2.8978 Y0.6746
X2.8953 Y0.6721
X2.8928 Y0.6694
X2.8905 Y0.6667
X2.8883 Y0.6641
X2.8864 Y0.6616
X2.8848 Y0.6594
X2.8832 Y0.6571
X2.8817 Y0.6549
X2.88 Y0.6521
X2.8781 Y0.6488
X2.8762 Y0.6453
X2.8742 Y0.6414
X2.8725 Y0.6375
X2.8709 Y0.6336
X2.8694 Y0.6297
X2.8681 Y0.6259
X2.867 Y0.6219
X2.8659 Y0.6177
X2.8651 Y0.6138
X2.8644 Y0.61
X2.8638 Y0.6063
X2.8634 Y0.6025
X2.8631 Y0.5987
X2.8629 Y0.5948
X2.8628 Y0.5915
X2.8701 Y-1.2372
Y-1.2376
X2.8702 Y-1.2453
Y-1.2471
X2.8706 Y-1.2548
X2.8707 Y-1.2578
X2.8714 Y-1.2656
X2.8717 Y-1.268
X2.8724 Y-1.2731
X2.8726 Y-1.2745
X2.873 Y-1.2772
X2.8733 Y-1.2787
X2.8747 Y-1.2864
X2.8752 Y-1.289
X2.877 Y-1.2967
X2.8777 Y-1.2996
X2.8799 Y-1.3074
X2.8809 Y-1.3104
X2.8835 Y-1.3181
X2.8844 Y-1.3207
X2.8875 Y-1.3285
X2.8886 Y-1.3311
X2.8921 Y-1.3389
X2.8933 Y-1.3415
X2.8973 Y-1.3492
X2.8988 Y-1.352
X2.9033 Y-1.3597
X2.905 Y-1.3625
X2.9101 Y-1.3703
X2.9118 Y-1.3728
G3 X2.9179 Y-1.381 I0.4916 J0.3573
G1 X2.9198 Y-1.3834
G3 X2.9266 Y-1.3916 I0.4343 J0.3555
G1 X2.9286 Y-1.3938
G3 X2.9366 Y-1.4023 I0.2959 J0.2713
G1 X2.9386 Y-1.4042
X2.9449 Y-1.4102
X2.9461 Y-1.4113
X2.9481 Y-1.4131
X2.9497 Y-1.4145
X2.9554 Y-1.4192
X2.9573 Y-1.4207
G3 X2.9661 Y-1.4272 I0.1697 J0.2181
G1 X2.9683 Y-1.4288
X2.9761 Y-1.4339
X2.9788 Y-1.4356
X2.9865 Y-1.4402
X2.9886 Y-1.4413
X2.9944 Y-1.4444
X2.9965 Y-1.4455
G3 X3.0074 Y-1.4505 I0.1521 J0.3137
G1 X3.0101 Y-1.4517
X3.0181 Y-1.4549
X3.021 Y-1.4559
X3.0285 Y-1.4585
X3.0314 Y-1.4594
X3.0392 Y-1.4616
X3.0417 Y-1.4623
X3.0495 Y-1.4641
X3.0513 Y-1.4645
X3.057 Y-1.4657
X3.0602 Y-1.4662
X3.07 Y-1.4677
X3.0733 Y-1.4681
X3.0811 Y-1.4688
X3.0838 Y-1.469
X3.0915 Y-1.4693
X3.0935 Y-1.4694
X3.1013
X3.1016
X3.1019
X3.1022
X3.7628 Y-1.4668
X3.7631
X3.7709 Y-1.4667
X3.7725
X3.7803 Y-1.4664
X3.7834 Y-1.4662
X3.7912 Y-1.4655
X3.7938 Y-1.4652
X3.8016 Y-1.4641
X3.8041 Y-1.4638
X3.8118 Y-1.4624
X3.8144 Y-1.4618
X3.8222 Y-1.4601
X3.8253 Y-1.4593
X3.8339 Y-1.4569
X3.837 Y-1.4559
X3.8439 Y-1.4536
X3.8462 Y-1.4527
X3.854 Y-1.4497
X3.8558 Y-1.4489
X3.8613 Y-1.4466
X3.8639 Y-1.4454
G3 X3.8747 Y-1.44 I-0.1818 J0.3765
G1 X3.8773 Y-1.4386
X3.8821 Y-1.4358
X3.8824 Y-1.4357
X3.8827 Y-1.4355
X3.8857 Y-1.4338
X3.8881 Y-1.4323
X3.8959 Y-1.4272
X3.8976 Y-1.426
X3.899 Y-1.4251
X3.9002 Y-1.4242
X3.9066 Y-1.4194
X3.9087 Y-1.4178
G3 X3.9172 Y-1.4108 I-0.2336 J0.2906
G1 X3.9193 Y-1.4089
G3 X3.9277 Y-1.4011 I-0.2917 J0.3199
G1 X3.9298 Y-1.399
G3 X3.9382 Y-1.39 I-0.2838 J0.2745
G1 X3.9401 Y-1.3878
X3.9437 Y-1.3835
X3.9447 Y-1.3823
X3.9488 Y-1.377
X3.9502 Y-1.3752
X3.952 Y-1.3727
X3.953 Y-1.3713
X3.9584 Y-1.3635
X3.9593 Y-1.362
X3.96 Y-1.361
X3.9609 Y-1.3596
X3.9649 Y-1.3529
X3.9662 Y-1.3507
X3.9699 Y-1.3439
X3.9714 Y-1.341
X3.9755 Y-1.3322
X3.9768 Y-1.3293
G3 X3.9809 Y-1.3193 I-0.2998 J0.1278
G1 X3.9816 Y-1.3173
X3.9839 Y-1.3106
X3.9847 Y-1.3083
X3.987 Y-1.3005
X3.9877 Y-1.298
X3.9897 Y-1.2903
X3.9902 Y-1.288
X3.9914 Y-1.2824
Y-1.282
X3.9915 Y-1.2817
X3.9916 Y-1.2813
X3.992 Y-1.2791
X3.9924 Y-1.2768
X3.9936 Y-1.269
X3.9939 Y-1.2666
X3.9947 Y-1.2588
X3.995 Y-1.2557
X3.9954 Y-1.248
X3.9955 Y-1.2458
X3.9956 Y-1.238
Y-1.2376
Y-1.2372
Y-1.2367
X3.9883 Y0.5959
X3.9882 Y0.599
X3.9879 Y0.6029
X3.9876 Y0.6067
X3.9871 Y0.6106
X3.9865 Y0.6145
X3.9858 Y0.6184
X3.9849 Y0.6223
X3.9839 Y0.6262
X3.9829 Y0.6295
X3.9819 Y0.6324
X3.981 Y0.635
X3.9801 Y0.6375
X3.9791 Y0.64
X3.978 Y0.6424
X3.9765 Y0.6456
X3.9746 Y0.6495
X3.9724 Y0.6534
X3.9701 Y0.6572
X3.9681 Y0.6602
X3.9667 Y0.6624
X3.9649 Y0.6649
X3.9627 Y0.6677
X3.9604 Y0.6705
X3.9579 Y0.6733
X3.9551 Y0.6763
X3.952 Y0.6794
X3.949 Y0.6822
X3.9461 Y0.6847
X3.9433 Y0.687
X3.9405 Y0.6892
X3.938 Y0.691
X3.9359 Y0.6924
X3.9329 Y0.6943
X3.929 Y0.6967
X3.9251 Y0.6988
X3.9212 Y0.7008
X3.918 Y0.7023
X3.9155 Y0.7033
X3.913 Y0.7043
X3.9105 Y0.7053
X3.9079 Y0.7062
X3.9051 Y0.7071
X3.9018 Y0.7081
X3.8979 Y0.7091
X3.894 Y0.7099
X3.8901 Y0.7107
X3.8863 Y0.7113
X3.8824 Y0.7118
X3.8785 Y0.7121
X3.8746 Y0.7123
X3.8712 Y0.7124
X3.714 Y0.7118
X3.6971 Y4.9241
X4.7738
X4.787 Y0.7095
X4.6873 Y0.7092
X4.6869
X4.6865
X4.6861
X4.6797 Y0.7091
X4.6763 Y0.7089
X4.6749 Y0.7088
X4.6722 Y0.7085
X4.6684 Y0.708
X4.6645 Y0.7074
X4.6606 Y0.7066
X4.6567 Y0.7057
X4.6528 Y0.7047
X4.6489 Y0.7035
X4.645 Y0.7021
X4.6411 Y0.7006
X4.6373 Y0.699
X4.6334 Y0.6972
X4.6295 Y0.6952
X4.6254 Y0.6929
X4.6212 Y0.6903
X4.6173 Y0.6877
X4.6138 Y0.6851
X4.6103 Y0.6823
X4.6068 Y0.6794
X4.604 Y0.6768
X4.6017 Y0.6746
X4.5995 Y0.6723
X4.5975 Y0.6701
X4.5951 Y0.6673
X4.5924 Y0.664
X4.5897 Y0.6604
X4.587 Y0.6565
X4.5844 Y0.6526
X4.5821 Y0.6485
X4.58 Y0.6446
X4.5781 Y0.6408
X4.5765 Y0.637
X4.5749 Y0.6332
X4.5735 Y0.6293
X4.5723 Y0.6255
X4.5712 Y0.6216
X4.5702 Y0.6177
X4.5694 Y0.6138
X4.5687 Y0.6099
X4.5681 Y0.606
X4.5677 Y0.6022
X4.5674 Y0.5969
X4.5672 Y0.5892
Y0.5877
X4.5729 Y-1.2372
Y-1.2374
Y-1.2376
X4.573 Y-1.2454
Y-1.2472
X4.5734 Y-1.2549
X4.5736 Y-1.258
X4.5743 Y-1.2659
X4.5746 Y-1.2688
X4.5757 Y-1.2764
X4.5761 Y-1.2788
X4.5776 Y-1.2866
X4.5781 Y-1.2891
X4.5799 Y-1.2969
X4.5806 Y-1.2997
X4.5828 Y-1.3074
X4.5836 Y-1.3101
X4.5849 Y-1.3138
X4.585 Y-1.3141
X4.5851 Y-1.3145
X4.5865 Y-1.3185
X4.5874 Y-1.3209
X4.5905 Y-1.3286
X4.5916 Y-1.3312
X4.5951 Y-1.339
X4.5963 Y-1.3416
X4.6003 Y-1.3494
X4.6016 Y-1.3517
X4.6051 Y-1.3579
X4.6062 Y-1.3597
X4.6072 Y-1.3613
X4.608 Y-1.3626
X4.6132 Y-1.3704
X4.6151 Y-1.3731
X4.6208 Y-1.3809
X4.6228 Y-1.3834
G3 X4.6297 Y-1.3916 I0.4234 J0.3476
G1 X4.6317 Y-1.3939
G3 X4.6397 Y-1.4023 I0.295 J0.272
G1 X4.6417 Y-1.4043
X4.6471 Y-1.4093
X4.6482 Y-1.4104
X4.6512 Y-1.4131
X4.6529 Y-1.4145
X4.6576 Y-1.4184
X4.6593 Y-1.4197
X4.6643 Y-1.4236
X4.6654 Y-1.4244
X4.6682 Y-1.4264
X4.6703 Y-1.4279
X4.6789 Y-1.4337
X4.6817 Y-1.4354
X4.6887 Y-1.4395
X4.6909 Y-1.4408
X4.6979 Y-1.4444
X4.7006 Y-1.4458
X4.7092 Y-1.4498
X4.712 Y-1.451
X4.7197 Y-1.4542
X4.7227 Y-1.4553
X4.7305 Y-1.458
X4.7333 Y-1.4588
X4.7411 Y-1.4611
X4.7436 Y-1.4618
X4.7514 Y-1.4636
X4.754 Y-1.4642
X4.7622 Y-1.4658
X4.7649 Y-1.4662
X4.7722 Y-1.4673
X4.7753 Y-1.4677
X4.7831 Y-1.4684
X4.7857 Y-1.4686
X4.7934 Y-1.469
X4.7955
X4.8033 Y-1.4691
X4.8036 Y-1.4692
X4.8039
X4.8043
X5.4727 Y-1.4671
X5.4744 Y-1.467
X5.4822 Y-1.4668
X5.485 Y-1.4666
X5.4928 Y-1.466
X5.4952 Y-1.4658
X5.503 Y-1.4648
X5.5055 Y-1.4644
X5.5133 Y-1.4632
X5.5162 Y-1.4626
X5.524 Y-1.4609
X5.527 Y-1.4602
G3 X5.5394 Y-1.4567 I-0.088 J0.3378
G1 X5.5419 Y-1.4559
X5.5462 Y-1.4544
X5.5476 Y-1.4539
X5.5554 Y-1.451
X5.558 Y-1.4499
X5.5659 Y-1.4465
X5.5687 Y-1.4452
X5.5764 Y-1.4414
X5.5792 Y-1.4399
X5.587 Y-1.4356
X5.5897 Y-1.4339
X5.5975 Y-1.429
X5.5992 Y-1.4278
X5.6027 Y-1.4254
X5.6045 Y-1.4242
X5.6087 Y-1.4211
X5.6103 Y-1.4198
X5.6161 Y-1.4152
X5.6173 Y-1.4142
X5.6193 Y-1.4126
X5.621 Y-1.4111
X5.6277 Y-1.405
X5.6287 Y-1.4041
X5.6297 Y-1.4031
X5.6314 Y-1.4014
G3 X5.64 Y-1.3925 I-0.2594 J0.2591
G1 X5.6418 Y-1.3905
G3 X5.6504 Y-1.3804 I-0.2667 J0.2334
G1 X5.6521 Y-1.3781
X5.6559 Y-1.373
X5.6569 Y-1.3716
X5.661 Y-1.3658
X5.6621 Y-1.364
X5.6634 Y-1.3621
X5.6642 Y-1.3607
X5.6689 Y-1.3529
X5.6699 Y-1.3512
X5.6717 Y-1.348
X5.6726 Y-1.3463
X5.675 Y-1.3418
X5.6759 Y-1.3399
X5.6796 Y-1.3321
X5.6809 Y-1.3293
X5.684 Y-1.3215
X5.6852 Y-1.3186
X5.6879 Y-1.3108
X5.6887 Y-1.3082
X5.691 Y-1.3004
X5.6915 Y-1.2988
X5.6928 Y-1.2939
X5.6934 Y-1.2912
G3 X5.6958 Y-1.2798 I-0.429 J0.095
G1 X5.6963 Y-1.2768
X5.6975 Y-1.269
X5.6978 Y-1.2664
X5.6986 Y-1.2586
X5.6989 Y-1.2557
X5.6993 Y-1.2479
X5.6994 Y-1.2458
X5.6995 Y-1.238
Y-1.2376
Y-1.2372
Y-1.2368
X5.6938 Y0.5881
Y0.5882
X5.6937 Y0.596
X5.6936 Y0.5994
X5.6934 Y0.6032
X5.693 Y0.6071
X5.6925 Y0.611
X5.6919 Y0.6149
X5.6911 Y0.6188
X5.6902 Y0.6227
X5.6891 Y0.6265
X5.688 Y0.6304
X5.6866 Y0.6343
X5.6851 Y0.6382
X5.6835 Y0.6421
X5.682 Y0.6452
X5.6809 Y0.6475
X5.6796 Y0.65
X5.678 Y0.6528
X5.6764 Y0.6555
X5.6747 Y0.6582
X5.6728 Y0.661
X5.6707 Y0.664
X5.6684 Y0.667
X5.666 Y0.67
X5.6639 Y0.6724
X5.6623 Y0.6742
X5.6599 Y0.6766
X5.6569 Y0.6796
X5.6538 Y0.6824
X5.6508 Y0.685
X5.6478 Y0.6874
X5.6449 Y0.6896
X5.6423 Y0.6914
X5.6398 Y0.6931
X5.6373 Y0.6946
X5.6349 Y0.6961
X5.6317 Y0.6978
X5.6278 Y0.6998
X5.624 Y0.7017
X5.6201 Y0.7033
X5.6167 Y0.7046
X5.6139 Y0.7056
X5.61 Y0.7069
X5.6051 Y0.7083
X5.6006 Y0.7093
X5.5967 Y0.7101
X5.5929 Y0.7107
X5.589 Y0.7112
X5.5851 Y0.7116
X5.5812 Y0.7119
X5.5778 Y0.712
X5.5739
X5.5736
X5.5734
X5.5697
X5.5559 Y4.9241
X6.6168
X6.6234 Y0.7103
X6.3896 Y0.7099
X6.3892
X6.3888
X6.3811 Y0.7098
X6.3768 Y0.7096
X6.3735 Y0.7093
X6.3702 Y0.7089
X6.3669 Y0.7085
X6.3647 Y0.7081
X6.3635 Y0.7079
X6.3609 Y0.7074
X6.357 Y0.7065
X6.3531 Y0.7054
X6.3492 Y0.7043
X6.3454 Y0.7029
X6.3415 Y0.7015
X6.3376 Y0.6998
X6.3337 Y0.698
X6.3298 Y0.696
X6.3259 Y0.6938
X6.322 Y0.6914
X6.3181 Y0.6889
X6.3146 Y0.6864
