(LOWER SHAPING)
(T13 D=0.2362 CR=0. TAPER=45DEG - ZMIN=0.3116 - CHAMFER MILL)
(T15 D=0.5 CR=0. - ZMIN=0.2126 - FLAT END MILL)
(T16 D=0.2362 CR=0. - ZMIN=0.2126 - FLAT END MILL)
(T17 D=0.4724 CR=0. - ZMIN=-0.585 - FLAT END MILL)
(T18 D=0.9843 CR=0. TAPER=45DEG - ZMIN=-0.635 - DOVETAIL MILL)
(T20 D=0.0625 CR=0. - ZMIN=0.2626 - FLAT END MILL)
G90 G94 G91.1 G40 G49 G17
G20
G53 G0 Z0.

(POCKET2 5)
T15 M6
S10000 M3
G17 G90 G94
G55
G0 X22.8406 Y1.9414
G43 Z1.2626 H15
G0 Z0.5578
G1 Z0.4359 F50.
Y1.9417 Z0.4306 F100.
Y1.9425 Z0.4253
Y1.9439 Z0.4201
Y1.9459 Z0.4151
Y1.9484 Z0.4104
Y1.9514 Z0.4059
X22.8405 Y1.9548 Z0.4018
Y1.9587 Z0.3981
Y1.9629 Z0.3948
X22.8404 Y1.9675 Z0.392
Y1.9723 Z0.3897
X22.8403 Y1.9773 Z0.3879
Y1.9826 Z0.3867
X22.8402 Y1.9879 Z0.386
X22.8189 Y4.3377 Z0.2217
G2 X22.8539 Y4.3731 Z0.2179 I0.035 J0.0003
G1 X22.8552 Z0.2178
G2 X22.8903 Y4.3381 Z0.2139 I0. J-0.035
G1 Y4.3209 Z0.2127
Y4.3174 Z0.2126
X22.8925 Y1.1627
G2 X22.8648 Y1.1454 I-0.0193 J0.
G1 X22.8587 Y1.1483
G2 X22.8477 Y1.1655 I0.0082 J0.0174
G1 X22.8189 Y4.3377
G2 X22.8539 Y4.3731 I0.035 J0.0003
G1 X22.8552
G2 X22.8903 Y4.3381 I0. J-0.035
G1 Y4.3174
G3 X22.9804 Y4.1825 I0.1463 J0.0001
G2 X23.0705 Y4.0476 I-0.0562 J-0.135
G1 X23.0727 Y0.8896
G2 X23.0597 Y0.8512 I-0.0631 J0.
G3 X23.0333 Y0.8127 I0.3622 J-0.277
G2 X22.9715 Y0.813 I-0.0308 J0.0188
G3 X22.7318 Y1.0057 I-0.3784 J-0.2255
G2 X22.6683 Y1.0927 I0.0292 J0.0879
G1 X22.6375 Y4.4894
G2 X22.7007 Y4.5531 I0.0632 J0.0006
G1 X23.0062
G2 X23.0702 Y4.4892 I0. J-0.0639
G1 X23.0705 Y4.0476
G3 X23.1611 Y3.9119 I0.1471 J0.0001
G2 X23.2517 Y3.7762 I-0.0565 J-0.1358
G1 X23.2538 Y0.7909
X23.2533 Y0.7906
X23.253 Y0.7903
X23.2509 Y0.7887
X23.2475 Y0.7861
X23.2428 Y0.7822
X23.238 Y0.7781
X23.2332 Y0.7738
X23.2292 Y0.77
X23.2257 Y0.7666
X23.2219 Y0.7627
X23.2176 Y0.7581
X23.2136 Y0.7536
X23.2097 Y0.7491
X23.2068 Y0.7456
X23.2049 Y0.7431
X23.2018 Y0.739
X23.1976 Y0.7333
X23.1936 Y0.7275
X23.1898 Y0.7217
X23.1872 Y0.7175
X23.1855 Y0.7148
X23.1823 Y0.709
X23.1776 Y0.7002
X23.174 Y0.6929
X23.1714 Y0.6871
X23.169 Y0.6814
X23.1667 Y0.6756
X23.1646 Y0.6699
X23.1626 Y0.6642
X23.1608 Y0.6584
X23.1591 Y0.6526
X23.1576 Y0.6468
X23.1562 Y0.641
X23.1549 Y0.6353
X23.1538 Y0.6295
X23.1528 Y0.6238
X23.1519 Y0.618
X23.1512 Y0.6122
X23.1506 Y0.6065
X23.15 Y0.5979
X23.1496 Y0.5863
X23.1495 Y0.5815
X23.1508 Y-1.2394
Y-1.2422
X23.1511 Y-1.2538
X23.1513 Y-1.2594
X23.1518 Y-1.2659
X22.8682
X22.8686 Y-1.2615
X22.8689 Y-1.255
X22.8693 Y-1.2435
X22.8694 Y-1.239
X22.8693 Y-1.2274
Y-1.227
Y-1.2266
X22.8529 Y0.5828
Y0.5833
Y0.5838
X22.8527 Y0.5953
X22.8524 Y0.602
X22.852 Y0.6078
X22.8515 Y0.6136
X22.8508 Y0.6193
X22.8499 Y0.6261
X22.8486 Y0.634
X22.8475 Y0.6397
X22.8467 Y0.6434
X22.8456 Y0.6482
X22.8441 Y0.6539
X22.8425 Y0.6597
X22.8408 Y0.6654
X22.8389 Y0.6712
X22.8368 Y0.677
X22.8346 Y0.6827
X22.8323 Y0.6885
X22.8295 Y0.6947
X22.8264 Y0.7013
X22.8235 Y0.7071
X22.8209 Y0.712
X22.8179 Y0.7173
X22.8145 Y0.7231
X22.8108 Y0.7288
X22.807 Y0.7346
X22.8042 Y0.7386
X22.8026 Y0.7408
X22.8 Y0.7443
X22.7964 Y0.7489
X22.7926 Y0.7536
X22.7886 Y0.7582
X22.7846 Y0.7627
X22.7807 Y0.7669
X22.7749 Y0.7727
X22.7671 Y0.78
X22.7613 Y0.7852
X22.7575 Y0.7883
X22.7527 Y0.7921
X22.747 Y0.7965
X22.7411 Y0.8007
X22.7352 Y0.8047
X22.7294 Y0.8084
X22.7237 Y0.8118
X22.718 Y0.815
X22.7123 Y0.818
X22.7066 Y0.8209
X22.7009 Y0.8236
X22.6951 Y0.8262
X22.6893 Y0.8286
X22.6835 Y0.8308
X22.6777 Y0.8329
X22.672 Y0.8348
X22.6662 Y0.8365
X22.6604 Y0.8382
X22.6547 Y0.8396
X22.6489 Y0.841
X22.6431 Y0.8422
X22.6374 Y0.8433
X22.6316 Y0.8442
X22.6258 Y0.845
X22.6201 Y0.8457
X22.6143 Y0.8462
X22.6085 Y0.8466
X22.6028 Y0.8469
X22.597 Y0.8471
X22.5923
X22.4896 Y0.8462
X22.4543 Y4.7341
X23.251
X23.2517 Y3.7762
X23.2515 Y3.7734 Z0.2127
X23.2512 Y3.7706 Z0.2129
X23.2507 Y3.7679 Z0.2133
X23.2501 Y3.7652 Z0.2138
X23.2494 Y3.7626 Z0.2145
X23.2485 Y3.7601 Z0.2154
X23.2475 Y3.7576 Z0.2164
X23.2464 Y3.7553 Z0.2175
X23.2452 Y3.7531 Z0.2188
X23.244 Y3.7511 Z0.2203
X23.2427 Y3.7491 Z0.2218
X23.2413 Y3.7473 Z0.2235
X23.24 Y3.7457 Z0.2253
X23.2386 Y3.7442 Z0.2272
X23.2373 Y3.7428 Z0.2293
X23.2359 Y3.7415 Z0.2314
X23.2347 Y3.7404 Z0.2337
X23.2335 Y3.7394 Z0.236
X23.2324 Y3.7385 Z0.2384
X23.2313 Y3.7378 Z0.2409
X23.2304 Y3.7371 Z0.2435
X23.2296 Y3.7366 Z0.2461
X23.2288 Y3.7361 Z0.2488
X23.2282 Y3.7357 Z0.2515
X23.2278 Y3.7355 Z0.2542
X23.2274 Y3.7353 Z0.257
X23.2272 Y3.7351 Z0.2598
Z0.2626
G0 Z0.8626
X24.6741 Y1.9218
Z0.5578
G1 Z0.4359 F50.
Y1.9221 Z0.4306 F100.
Y1.923 Z0.4253
Y1.9244 Z0.4201
Y1.9264 Z0.4151
Y1.9289 Z0.4104
Y1.9318 Z0.4059
Y1.9353 Z0.4018
Y1.9391 Z0.3981
Y1.9434 Z0.3948
Y1.9479 Z0.392
Y1.9528 Z0.3897
Y1.9578 Z0.3879
Y1.963 Z0.3867
Y1.9684 Z0.386
X24.6725 Y4.3538 Z0.2192
G2 X24.6917 Y4.3731 Z0.2171 I0.0193 J0.
G1 X24.7025 Z0.2164
G2 X24.7218 Y4.3538 Z0.2142 I0. J-0.0193
G1 X24.7217 Y4.3319 Z0.2127
Y4.3284 Z0.2126
X24.7138 Y1.0792
G2 X24.6823 Y1.0644 I-0.0193 J0.
G1 X24.6818 Y1.0648
G2 X24.6747 Y1.0797 I0.0122 J0.0149
G1 X24.6725 Y4.3538
G2 X24.6917 Y4.3731 I0.0193 J0.
G1 X24.7025
G2 X24.7218 Y4.3538 I0. J-0.0193
G1 X24.7217 Y4.3284
G3 X24.8114 Y4.1932 I0.1463 J-0.0004
G2 X24.9011 Y4.0579 I-0.0566 J-0.1349
G1 X24.8937 Y1.0577
G2 X24.8313 Y0.9278 I-0.1672 J0.0004
G3 X24.7291 Y0.8104 I0.2757 J-0.3432
G2 X24.6676 I-0.0307 J0.0184
G3 X24.5577 Y0.9335 I-0.3746 J-0.2242
G2 X24.4947 Y1.06 I0.0959 J0.1266
G1 X24.4924 Y4.4892
G2 X24.5562 Y4.5531 I0.0638 J0.
G1 X24.8384
G2 X24.9021 Y4.4893 I0. J-0.0637
G1 X24.9011 Y4.0579
G3 X24.9912 Y3.922 I0.1471 J-0.0004
G2 X25.0814 Y3.786 I-0.0569 J-0.1356
G1 X25.0742 Y0.8419
X25.0712 Y0.8415
X25.0655 Y0.8406
X25.0597 Y0.8396
X25.0539 Y0.8385
X25.0482 Y0.8372
X25.0424 Y0.8358
X25.0375 Y0.8345
X25.0335 Y0.8333
X25.0277 Y0.8315
X25.0202 Y0.8289
X25.0135 Y0.8265
X25.0078 Y0.8242
X25.002 Y0.8217
X24.9962 Y0.819
X24.9896 Y0.8157
X24.982 Y0.8117
X24.9762 Y0.8085
X24.9723 Y0.8061
X24.9674 Y0.803
X24.9616 Y0.7992
X24.9559 Y0.7952
X24.9501 Y0.7909
X24.9465 Y0.7882
X24.9452 Y0.7871
X24.9419 Y0.7845
X24.9368 Y0.7802
X24.9318 Y0.7756
X24.9267 Y0.7708
X24.923 Y0.7672
X24.9206 Y0.7648
X24.917 Y0.7609
X24.9121 Y0.7555
X24.9076 Y0.7502
X24.9032 Y0.7448
X24.9008 Y0.7417
X24.9002 Y0.7409
X24.8978 Y0.7376
X24.8937 Y0.7319
X24.8898 Y0.7261
X24.8862 Y0.7203
X24.8828 Y0.7146
X24.8796 Y0.709
X24.8765 Y0.7032
X24.8736 Y0.6974
X24.8708 Y0.6915
X24.8683 Y0.6858
X24.8659 Y0.68
X24.8637 Y0.6742
X24.8617 Y0.6685
X24.8598 Y0.6627
X24.858 Y0.6569
X24.8564 Y0.6512
X24.8555 Y0.6476
X24.8551 Y0.6463
X24.8538 Y0.6405
X24.8518 Y0.6304
X24.8504 Y0.6224
X24.8496 Y0.6166
X24.849 Y0.6108
X24.8484 Y0.6051
X24.8479 Y0.5968
X24.8476 Y0.5852
Y0.5819
X24.8431 Y-1.239
X24.8432 Y-1.2426
X24.8434 Y-1.2541
X24.8437 Y-1.2602
X24.8442 Y-1.2659
X24.5499
X24.5503 Y-1.2598
X24.5506 Y-1.2539
X24.5509 Y-1.2424
Y-1.2392
X24.5496 Y0.5817
Y0.5858
X24.5492 Y0.5973
X24.5486 Y0.6058
X24.5481 Y0.6116
X24.5474 Y0.6174
X24.5465 Y0.6231
X24.5453 Y0.6305
X24.5434 Y0.6395
X24.5421 Y0.6452
X24.5415 Y0.6478
X24.5404 Y0.652
X24.5387 Y0.6577
X24.5369 Y0.6635
X24.535 Y0.6692
X24.5329 Y0.675
X24.5306 Y0.6808
X24.5282 Y0.6865
X24.5257 Y0.6923
X24.5231 Y0.6976
X24.5206 Y0.7026
X24.5176 Y0.7083
X24.5138 Y0.7149
X24.5101 Y0.7211
X24.5064 Y0.7268
X24.5025 Y0.7326
X24.4983 Y0.7384
X24.4939 Y0.7442
X24.4892 Y0.7499
X24.4842 Y0.7557
X24.479 Y0.7615
X24.4755 Y0.7651
X24.474 Y0.7666
X24.4705 Y0.7701
X24.4648 Y0.7754
X24.4591 Y0.7805
X24.4532 Y0.7854
X24.4473 Y0.79
X24.4415 Y0.7943
X24.4358 Y0.7983
X24.43 Y0.8021
X24.4244 Y0.8056
X24.419 Y0.8088
X24.4132 Y0.812
X24.4071 Y0.8152
X24.4012 Y0.8182
X24.3954 Y0.8208
X24.3896 Y0.8233
X24.3839 Y0.8256
X24.3759 Y0.8285
X24.3657 Y0.8319
X24.3599 Y0.8336
X24.3586 Y0.834
X24.355 Y0.8349
X24.3492 Y0.8364
X24.3435 Y0.8377
X24.3377 Y0.8388
X24.3319 Y0.8398
X24.3262 Y0.8407
X24.3204 Y0.8415
X24.3146 Y0.8421
X24.3143
X24.3139 Y0.8422
X24.3112 Y4.7341
X25.0837
X25.0814 Y3.786
X25.0812 Y3.7832 Z0.2127
X25.0809 Y3.7804 Z0.2129
X25.0805 Y3.7777 Z0.2133
X25.0798 Y3.775 Z0.2138
X25.0791 Y3.7724 Z0.2145
X25.0782 Y3.7699 Z0.2154
X25.0772 Y3.7675 Z0.2164
X25.0761 Y3.7651 Z0.2175
X25.0749 Y3.763 Z0.2188
X25.0736 Y3.7609 Z0.2203
X25.0723 Y3.759 Z0.2218
X25.071 Y3.7572 Z0.2235
X25.0696 Y3.7555 Z0.2253
X25.0682 Y3.754 Z0.2272
X25.0669 Y3.7526 Z0.2293
X25.0656 Y3.7514 Z0.2314
X25.0643 Y3.7503 Z0.2337
X25.0631 Y3.7493 Z0.236
X25.062 Y3.7484 Z0.2384
X25.061 Y3.7476 Z0.2409
X25.06 Y3.747 Z0.2435
X25.0592 Y3.7464 Z0.2461
X25.0585 Y3.746 Z0.2488
X25.0579 Y3.7456 Z0.2515
X25.0574 Y3.7453 Z0.2542
X25.0571 Y3.7451 Z0.257
X25.0569 Y3.745 Z0.2598
X25.0568 Z0.2626
G0 Z0.8626
X26.5024 Y1.9432
Z0.5578
G1 Z0.4359 F50.
Y1.9435 Z0.4306 F100.
Y1.9443 Z0.4253
Y1.9457 Z0.4201
Y1.9477 Z0.4151
Y1.9502 Z0.4104
Y1.9532 Z0.4059
X26.5025 Y1.9566 Z0.4018
Y1.9605 Z0.3981
Y1.9647 Z0.3948
Y1.9693 Z0.392
Y1.9741 Z0.3897
Y1.9791 Z0.3879
Y1.9844 Z0.3867
Y1.9897 Z0.386
X26.5083 Y4.3381 Z0.2218
G2 X26.5433 Y4.3731 Z0.218 I0.035 J-0.0001
G1 X26.5455 Z0.2178
G2 X26.5805 Y4.3375 Z0.2139 I0. J-0.035
G1 X26.5803 Y4.3199 Z0.2127
X26.5802 Y4.3164 Z0.2126
X26.5373 Y1.3883
G2 X26.5011 Y1.3886 I-0.0181 J0.0003
G1 X26.5083 Y4.3381
G2 X26.5433 Y4.3731 I0.035 J-0.0001
G1 X26.5455
G2 X26.5805 Y4.3375 I0. J-0.035
G1 X26.5802 Y4.3164
G3 X26.6682 Y4.1801 I0.1462 J-0.0021
G2 X26.7563 Y4.0438 I-0.0582 J-0.1342
G1 X26.713 Y1.0918
G2 X26.6485 Y0.9976 I-0.1033 J0.0015
G3 X26.4323 Y0.8085 I0.1645 J-0.4062
G2 X26.3713 Y0.8081 I-0.0306 J0.0175
G3 X26.3344 Y0.8608 I-0.3504 J-0.2064
G2 X26.3199 Y0.9012 I0.0486 J0.0403
G1 X26.3286 Y4.4892
G2 X26.3927 Y4.5531 I0.0641 J-0.0002
G1 X26.7001
G2 X26.7628 Y4.4894 I0. J-0.0627
G1 X26.7563 Y4.0438
G3 X26.8448 Y3.9068 I0.147 J-0.0022
G2 X26.9333 Y3.7697 I-0.0585 J-0.1349
G1 X26.8904 Y0.8481
X26.8172 Y0.8492
X26.8129
X26.8072 Y0.8491
X26.8014 Y0.8488
X26.7956 Y0.8485
X26.7899 Y0.848
X26.7841 Y0.8474
X26.7783 Y0.8466
X26.7726 Y0.8457
X26.7668 Y0.8447
X26.761 Y0.8435
X26.7553 Y0.8423
X26.7495 Y0.8408
X26.7437 Y0.8393
X26.7379 Y0.8375
X26.7322 Y0.8357
X26.7264 Y0.8337
X26.7204 Y0.8314
X26.7142 Y0.8289
X26.7084 Y0.8264
X26.7031 Y0.8239
X26.6976 Y0.8212
X26.6918 Y0.8182
X26.686 Y0.815
X26.6803 Y0.8116
X26.6753 Y0.8086
X26.6712 Y0.8059
X26.6654 Y0.8019
X26.658 Y0.7965
X26.6543 Y0.7937
X26.6507 Y0.7907
X26.6434 Y0.7846
X26.6377 Y0.7795
X26.6334 Y0.7754
X26.6277 Y0.7696
X26.6209 Y0.7622
X26.6151 Y0.7556
X26.6105 Y0.7498
X26.6061 Y0.7441
X26.6019 Y0.7383
X26.598 Y0.7325
X26.5943 Y0.7268
X26.5908 Y0.721
X26.5875 Y0.7152
X26.5843 Y0.7093
X26.5812 Y0.7032
X26.5785 Y0.6974
X26.5761 Y0.692
X26.5738 Y0.6864
X26.5715 Y0.6806
X26.5694 Y0.6749
X26.5675 Y0.6691
X26.5654 Y0.6622
X26.5631 Y0.654
X26.5617 Y0.6482
X26.5609 Y0.6448
X26.56 Y0.6403
X26.5589 Y0.6345
X26.5579 Y0.6288
X26.5571 Y0.623
X26.5564 Y0.6173
X26.5558 Y0.6115
X26.5554 Y0.6057
X26.5551 Y0.6
X26.5549 Y0.595
X26.5282 Y-1.2259
G3 Y-1.2392 I0.793 J-0.0078
G1 X26.5283 Y-1.2443
X26.5287 Y-1.2558
X26.5292 Y-1.2624
X26.5295 Y-1.2659
X26.2474
X26.2478 Y-1.259
X26.248 Y-1.2536
X26.2483 Y-1.2421
Y-1.2396
X26.2528 Y0.5813
X26.2527 Y0.5842
X26.2526 Y0.59
X26.2524 Y0.5957
X26.252 Y0.6015
X26.2515 Y0.6072
X26.2509 Y0.613
X26.2501 Y0.6188
X26.2492 Y0.6245
X26.2482 Y0.6303
X26.2471 Y0.6361
X26.2458 Y0.6418
X26.2443 Y0.6476
X26.2427 Y0.6533
X26.241 Y0.6591
X26.2392 Y0.6649
X26.2371 Y0.6706
X26.2348 Y0.6769
X26.232 Y0.6836
X26.2295 Y0.6893
X26.2273 Y0.6941
X26.2247 Y0.6995
X26.2216 Y0.7052
X26.2184 Y0.711
X26.2151 Y0.7167
X26.2119 Y0.7218
X26.209 Y0.7262
X26.205 Y0.732
X26.1998 Y0.7391
X26.197 Y0.7428
X26.194 Y0.7464
X26.1877 Y0.7539
X26.1826 Y0.7596
X26.1787 Y0.7637
X26.1729 Y0.7693
X26.1653 Y0.7763
X26.1587 Y0.7821
X26.1531 Y0.7866
X26.1474 Y0.7909
X26.1414 Y0.7952
X26.1386 Y0.7972
X26.1482 Y4.7341
X26.9474
X26.9333 Y3.7697
X26.9331 Y3.7669 Z0.2127
X26.9327 Y3.7641 Z0.2129
X26.9322 Y3.7614 Z0.2133
X26.9315 Y3.7587 Z0.2138
X26.9308 Y3.7561 Z0.2145
X26.9298 Y3.7536 Z0.2154
X26.9288 Y3.7512 Z0.2164
X26.9277 Y3.7489 Z0.2175
X26.9264 Y3.7468 Z0.2188
X26.9252 Y3.7447 Z0.2203
X26.9238 Y3.7428 Z0.2218
X26.9225 Y3.741 Z0.2235
X26.9211 Y3.7394 Z0.2253
X26.9197 Y3.7379 Z0.2272
X26.9183 Y3.7365 Z0.2293
X26.917 Y3.7353 Z0.2314
X26.9157 Y3.7342 Z0.2337
X26.9145 Y3.7332 Z0.236
X26.9134 Y3.7324 Z0.2384
X26.9123 Y3.7316 Z0.2409
X26.9114 Y3.731 Z0.2435
X26.9105 Y3.7304 Z0.2461
X26.9098 Y3.73 Z0.2488
X26.9092 Y3.7296 Z0.2515
X26.9087 Y3.7293 Z0.2542
X26.9084 Y3.7291 Z0.257
X26.9082 Y3.729 Z0.2598
X26.9081 Z0.2626
G0 Z0.8626
X28.25 Y1.0785
Z0.5578
G1 Z0.4359 F50.
Y1.0782 Z0.4306 F100.
Y1.0774 Z0.4253
Y1.0759 Z0.4201
Y1.074 Z0.4151
Y1.0715 Z0.4104
Y1.0685 Z0.4059
Y1.0651 Z0.4018
Y1.0612 Z0.3981
Y1.057 Z0.3948
Y1.0524 Z0.392
Y1.0476 Z0.3897
Y1.0425 Z0.3879
Y1.0373 Z0.3867
Y1.032 Z0.386
X28.2484 Y-1.2392 Z0.2272
Y-1.2423 Z0.227
X28.2487 Y-1.2539 Z0.2262
X28.249 Y-1.2598 Z0.2258
X28.2494 Y-1.2659 Z0.2254
X28.0685 Z0.2127
X28.065 Z0.2126
X27.9188
X27.9192 Y-1.2571
X27.9193 Y-1.2528
X27.9204 Y-1.1836
X28.0071 Y4.7341
X28.2525
X28.2485 Y-1.1025
X28.2484 Y-1.2392
Y-1.2423
X28.2487 Y-1.2539
X28.249 Y-1.2598
X28.2494 Y-1.2659
X28.065
X28.0622 Y-1.2657 Z0.2127
X28.0594 Y-1.2654 Z0.2129
X28.0567 Y-1.265 Z0.2133
X28.054 Y-1.2644 Z0.2138
X28.0514 Y-1.2636 Z0.2145
X28.0489 Y-1.2627 Z0.2154
X28.0465 Y-1.2617 Z0.2164
X28.0442 Y-1.2606 Z0.2175
X28.042 Y-1.2594 Z0.2188
X28.0399 Y-1.2582 Z0.2203
X28.038 Y-1.2569 Z0.2218
X28.0362 Y-1.2555 Z0.2235
X28.0345 Y-1.2542 Z0.2253
X28.033 Y-1.2528 Z0.2272
X28.0316 Y-1.2515 Z0.2293
X28.0304 Y-1.2502 Z0.2314
X28.0293 Y-1.2489 Z0.2337
X28.0283 Y-1.2477 Z0.236
X28.0274 Y-1.2466 Z0.2384
X28.0266 Y-1.2455 Z0.2409
X28.026 Y-1.2446 Z0.2435
X28.0254 Y-1.2438 Z0.2461
X28.0249 Y-1.2431 Z0.2488
X28.0246 Y-1.2425 Z0.2515
X28.0243 Y-1.242 Z0.2542
X28.0241 Y-1.2416 Z0.257
X28.024 Y-1.2414 Z0.2598
X28.0239 Z0.2626
G0 Z0.8626
X29.6966 Y2.0095
Z0.5578
G1 Z0.4359 F50.
Y2.0098 Z0.4306 F100.
Y2.0106 Z0.4253
Y2.012 Z0.4201
Y2.014 Z0.4151
Y2.0165 Z0.4104
Y2.0195 Z0.4059
Y2.0229 Z0.4018
Y2.0268 Z0.3981
Y2.031 Z0.3948
Y2.0356 Z0.392
Y2.0404 Z0.3897
Y2.0455 Z0.3879
Y2.0507 Z0.3867
Y2.056 Z0.386
X29.6982 Y4.3092 Z0.2285
G2 X29.7621 Y4.3731 Z0.2215 I0.0639 J0.
G1 X29.7679 Z0.2211
G2 X29.8304 Y4.3095 Z0.2141 I0. J-0.0625
G1 X29.8301 Y4.2894 Z0.2127
X29.83 Y4.2859 Z0.2126
X29.7753 Y1.1528
G2 X29.72 Y1.1216 I-0.0369 J0.0006
G1 X29.7139 Y1.125
G2 X29.696 Y1.1556 I0.0172 J0.0306
G1 X29.6982 Y4.3092
G2 X29.7621 Y4.3731 I0.0639 J0.
G1 X29.7679
G2 X29.8304 Y4.3095 I0. J-0.0625
G1 X29.83 Y4.2859
G3 X29.9176 Y4.1493 I0.1462 J-0.0026
G2 X30.0053 Y4.0128 I-0.0586 J-0.134
G1 X29.9524 Y0.9862
G2 X29.9186 Y0.9075 I-0.1129 J0.002
G3 X29.88 Y0.865 I0.344 J-0.3512
X29.8472 Y0.818 I0.3152 J-0.2544
G2 X29.7849 Y0.8171 I-0.0314 J0.0187
G3 X29.6957 Y0.9199 I-0.3836 J-0.2429
X29.5793 Y0.9905 I-0.276 J-0.324
G2 X29.516 Y1.0844 I0.038 J0.0939
G1 X29.5183 Y4.4892
G2 X29.5823 Y4.5531 I0.0639 J0.
G1 X29.9511
G2 X30.0136 Y4.4895 I0. J-0.0625
G1 X30.0053 Y4.0128
G3 X30.0934 Y3.8755 I0.147 J-0.0026
G2 X30.1815 Y3.7382 I-0.0589 J-0.1347
G1 X30.1308 Y0.8327
X30.1279 Y0.8315
X30.1221 Y0.8291
X30.1185 Y0.8275
X30.1169 Y0.8268
X30.1111 Y0.824
X30.1011 Y0.8189
X30.0936 Y0.8147
X30.0886 Y0.8117
X30.0835 Y0.8085
X30.0785 Y0.8051
X30.0752 Y0.8029
X30.0738 Y0.8019
X30.0702 Y0.7993
X30.0644 Y0.7949
X30.0587 Y0.7902
X30.0529 Y0.7853
X30.0494 Y0.7821
X30.0481 Y0.781
X30.0447 Y0.7777
X30.0393 Y0.7724
X30.0342 Y0.767
X30.0294 Y0.7616
X30.0266 Y0.7585
X30.026 Y0.7577
X30.0233 Y0.7545
X30.0187 Y0.7487
X30.0144 Y0.7429
X30.0104 Y0.7372
X30.0072 Y0.7325
X30.005 Y0.729
X30.0015 Y0.7233
X29.9969 Y0.7153
X29.9933 Y0.7084
X29.9904 Y0.7026
X29.9877 Y0.6968
X29.9852 Y0.6911
X29.9832 Y0.6861
X29.9816 Y0.682
X29.9795 Y0.6763
X29.9771 Y0.6688
X29.9751 Y0.6622
X29.9735 Y0.6565
X29.972 Y0.6507
X29.9707 Y0.645
X29.9695 Y0.6392
X29.9685 Y0.6334
X29.9676 Y0.6277
X29.9668 Y0.6219
X29.9662 Y0.6161
X29.9657 Y0.6104
X29.9653 Y0.6046
X29.965 Y0.5989
X29.9649 Y0.5954
X29.9332 Y-1.2255
X29.9331 Y-1.2279
Y-1.2394
X29.9333 Y-1.2447
X29.9337 Y-1.2563
X29.9342 Y-1.2631
X29.9345 Y-1.2659
X29.6691
X29.6695 Y-1.2594
X29.6698 Y-1.2537
X29.6701 Y-1.2422
Y-1.2394
X29.6714 Y0.5815
X29.6713 Y0.5863
X29.6709 Y0.5979
X29.6703 Y0.6065
X29.6697 Y0.6122
X29.6689 Y0.618
X29.6681 Y0.6238
X29.6668 Y0.6311
X29.6649 Y0.6401
X29.6636 Y0.6458
X29.6629 Y0.6484
X29.6618 Y0.6526
X29.6601 Y0.6583
X29.6583 Y0.6641
X29.6563 Y0.6699
X29.6542 Y0.6756
X29.6519 Y0.6814
X29.6494 Y0.6872
X29.6468 Y0.6929
X29.6443 Y0.6981
X29.642 Y0.7027
X29.6389 Y0.7084
X29.6349 Y0.7154
X29.6311 Y0.7216
X29.6276 Y0.7271
X29.6236 Y0.7329
X29.6192 Y0.7389
X29.6146 Y0.7448
X29.6099 Y0.7506
X29.6048 Y0.7563
X29.5995 Y0.7621
X29.5963 Y0.7655
X29.5952 Y0.7665
X29.5919 Y0.7698
X29.5861 Y0.7752
X29.5801 Y0.7804
X29.574 Y0.7855
X29.5681 Y0.7901
X29.5626 Y0.7942
X29.557 Y0.7981
X29.5514 Y0.8017
X29.5454 Y0.8055
X29.539 Y0.8092
X29.5332 Y0.8124
X29.5281 Y0.815
X29.5226 Y0.8177
X29.5169 Y0.8203
X29.5111 Y0.8228
X29.5053 Y0.8251
X29.4995 Y0.8273
X29.4938 Y0.8293
X29.4876 Y0.8312
X29.481 Y0.8332
X29.4724 Y0.8354
X29.4617 Y0.8377
X29.4534 Y0.8393
X29.4476 Y0.8401
X29.4419 Y0.8409
X29.4361 Y0.8415
X29.4275 Y0.8421
X29.4159 Y0.8426
X29.4108 Y0.8427
X29.3348
X29.3375 Y4.7341
X30.1989
X30.1815 Y3.7382
X30.1813 Y3.7354 Z0.2127
X30.1809 Y3.7326 Z0.2129
X30.1804 Y3.7299 Z0.2133
X30.1798 Y3.7272 Z0.2138
X30.179 Y3.7246 Z0.2145
X30.178 Y3.7221 Z0.2154
X30.177 Y3.7197 Z0.2164
X30.1759 Y3.7174 Z0.2175
X30.1746 Y3.7152 Z0.2188
X30.1733 Y3.7132 Z0.2203
X30.172 Y3.7113 Z0.2218
X30.1706 Y3.7095 Z0.2235
X30.1692 Y3.7079 Z0.2253
X30.1679 Y3.7064 Z0.2272
X30.1665 Y3.705 Z0.2293
X30.1652 Y3.7038 Z0.2314
X30.1639 Y3.7027 Z0.2337
X30.1627 Y3.7017 Z0.236
X30.1615 Y3.7009 Z0.2384
X30.1605 Y3.7001 Z0.2409
X30.1595 Y3.6995 Z0.2435
X30.1587 Y3.6989 Z0.2461
X30.158 Y3.6985 Z0.2488
X30.1574 Y3.6981 Z0.2515
X30.1569 Y3.6979 Z0.2542
X30.1565 Y3.6977 Z0.257
X30.1563 Y3.6975 Z0.2598
Z0.2626
G0 Z0.8626
X31.7089 Y3.634
Z0.5578
G1 Z0.4359 F50.
Y3.6337 Z0.4306 F100.
Y3.6328 Z0.4253
X31.7088 Y3.6314 Z0.4201
Y3.6294 Z0.4151
Y3.6269 Z0.4104
X31.7087 Y3.624 Z0.4059
Y3.6205 Z0.4018
X31.7086 Y3.6167 Z0.3981
X31.7085 Y3.6124 Z0.3948
X31.7084 Y3.6079 Z0.392
X31.7083 Y3.603 Z0.3897
Y3.598 Z0.3879
X31.7082 Y3.5928 Z0.3867
X31.7081 Y3.5875 Z0.386
X31.6659 Y1.1688 Z0.2169
G2 X31.6474 Y1.1385 Z0.2143 I-0.035 J0.0006
G3 X31.6276 Y1.1276 Z0.2127 I0.3198 J-0.5972
G1 X31.6269 Y1.1271
X31.6246 Y1.1259 Z0.2126
G2 X31.5736 Y1.1585 I-0.0155 J0.032
G1 X31.6287 Y4.3184
G2 X31.7208 Y4.3168 I0.046 J-0.0008
G1 X31.666 Y1.1754
X31.6659 Y1.1688
G2 X31.6474 Y1.1385 I-0.035 J0.0006
G3 X31.6269 Y1.1271 I0.3198 J-0.5972
G1 X31.6246 Y1.1259
G3 X31.5257 Y1.0297 I0.0953 J-0.1968
G2 X31.3919 Y1.0635 I-0.0629 J0.0326
G1 X31.4517 Y4.4901
G2 X31.5156 Y4.5529 I0.0639 J-0.0011
G1 X31.8426
G2 X31.9039 Y4.4906 I0. J-0.0613
G1 X31.8446 Y1.0927
G2 X31.7808 Y1.002 I-0.0988 J0.0017
G3 X31.6391 Y0.9134 I0.1519 J-0.4007
X31.5406 Y0.7784 I0.3098 J-0.3294
G2 X31.4854 Y0.7773 I-0.0279 J0.0133
G3 X31.4553 Y0.8272 I-0.4376 J-0.2302
X31.419 Y0.8728 I-0.3416 J-0.2348
G2 X31.3899 Y0.9495 I0.0815 J0.0748
G1 X31.3919 Y1.0635
G3 X31.3037 Y1.2009 I-0.1472 J0.0026
G2 X31.2155 Y1.3384 I0.059 J0.1349
G1 X31.2747 Y4.7341
X32.0893
X32.0215 Y0.8491
X31.9508 Y0.8503
X31.9502
X31.9496
X31.9381 Y0.8504
X31.9295 Y0.8502
X31.9204 Y0.8497
X31.9146 Y0.8492
X31.9122 Y0.849
X31.9082 Y0.8485
X31.9024 Y0.8478
X31.8966 Y0.8468
X31.8909 Y0.8458
X31.8851 Y0.8446
X31.8793 Y0.8433
X31.8736 Y0.8419
X31.8678 Y0.8403
X31.862 Y0.8386
X31.8563 Y0.8367
X31.8505 Y0.8346
X31.8447 Y0.8325
X31.839 Y0.8301
X31.8332 Y0.8276
X31.8274 Y0.8249
X31.8216 Y0.8221
X31.8159 Y0.819
X31.8101 Y0.8158
X31.8043 Y0.8124
X31.7986 Y0.8088
X31.7944 Y0.806
X31.7917 Y0.8042
X31.7859 Y0.7999
X31.777 Y0.7931
X31.7734 Y0.7903
X31.7699 Y0.7873
X31.7646 Y0.7826
X31.7588 Y0.7771
X31.7526 Y0.7709
X31.7472 Y0.7651
X31.7425 Y0.7598
X31.7396 Y0.7563
X31.7367 Y0.7527
X31.7298 Y0.7438
X31.7256 Y0.7379
X31.7239 Y0.7354
X31.7212 Y0.7313
X31.7176 Y0.7255
X31.7142 Y0.7197
X31.711 Y0.714
X31.7079 Y0.708
X31.7049 Y0.7019
X31.7022 Y0.6961
X31.6999 Y0.6907
X31.6976 Y0.6851
X31.6955 Y0.6794
X31.6934 Y0.6736
X31.6916 Y0.6679
X31.6898 Y0.6621
X31.6883 Y0.6563
X31.6868 Y0.6506
X31.6855 Y0.6448
X31.6844 Y0.639
X31.6833 Y0.6333
X31.6824 Y0.6275
X31.6817 Y0.6217
X31.6811 Y0.6162
X31.6806 Y0.6107
X31.6802 Y0.605
X31.6799 Y0.5989
X31.6798 Y0.5954
X31.648 Y-1.2255
Y-1.2279
Y-1.2395
X31.6481 Y-1.2448
X31.6486 Y-1.2564
X31.6491 Y-1.2632
X31.6494 Y-1.2659
X31.3209
X31.3214 Y-1.2568
X31.3215 Y-1.2531
X31.3533 Y0.5678
Y0.5711
X31.3532 Y0.5827
X31.3528 Y0.591
X31.3524 Y0.5967
X31.3519 Y0.6025
X31.3512 Y0.6083
X31.3507 Y0.6122
X31.3504 Y0.6144
X31.3494 Y0.6202
X31.3476 Y0.6295
X31.3458 Y0.6371
X31.3444 Y0.6428
X31.3427 Y0.6486
X31.341 Y0.6544
X31.339 Y0.6601
X31.337 Y0.6659
X31.3348 Y0.6716
X31.3324 Y0.6774
X31.3302 Y0.6825
X31.3281 Y0.6868
X31.3253 Y0.6926
X31.3215 Y0.6998
X31.3179 Y0.7062
X31.3144 Y0.712
X31.3105 Y0.718
X31.3062 Y0.7243
X31.302 Y0.7302
X31.2978 Y0.7357
X31.2934 Y0.7412
X31.2887 Y0.7467
X31.285 Y0.7509
X31.2823 Y0.7537
X31.2787 Y0.7574
X31.2741 Y0.762
X31.2695 Y0.7663
X31.265 Y0.7704
X31.2615 Y0.7735
X31.2591 Y0.7755
X31.2551 Y0.7787
X31.2493 Y0.7832
X31.2435 Y0.7874
X31.2378 Y0.7913
X31.234 Y0.7938
X31.2322 Y0.795
X31.2265 Y0.7984
X31.2167 Y0.8039
X31.2089 Y0.808
X31.2062 Y0.8093
X31.2155 Y1.3384
X31.2157 Y1.3412 Z0.2127
X31.216 Y1.344 Z0.2129
X31.2165 Y1.3467 Z0.2133
X31.2172 Y1.3493 Z0.2138
X31.218 Y1.3519 Z0.2145
X31.2189 Y1.3545 Z0.2154
X31.22 Y1.3569 Z0.2164
X31.2211 Y1.3591 Z0.2175
X31.2223 Y1.3613 Z0.2188
X31.2236 Y1.3634 Z0.2203
X31.225 Y1.3653 Z0.2218
X31.2263 Y1.367 Z0.2235
X31.2277 Y1.3687 Z0.2253
X31.2291 Y1.3702 Z0.2272
X31.2305 Y1.3715 Z0.2293
X31.2318 Y1.3727 Z0.2314
X31.2331 Y1.3738 Z0.2337
X31.2343 Y1.3748 Z0.236
X31.2354 Y1.3757 Z0.2384
X31.2365 Y1.3764 Z0.2409
X31.2374 Y1.3771 Z0.2435
X31.2383 Y1.3776 Z0.2461
X31.239 Y1.378 Z0.2488
X31.2396 Y1.3784 Z0.2515
X31.2401 Y1.3787 Z0.2542
X31.2404 Y1.3789 Z0.257
X31.2406 Y1.379 Z0.2598
X31.2407 Z0.2626
G0 Z0.8626
X33.3567 Y1.095
Z0.5578
G1 Z0.4359 F50.
Y1.0947 Z0.4306 F100.
Y1.0938 Z0.4253
Y1.0924 Z0.4201
X33.3566 Y1.0904 Z0.4151
Y1.088 Z0.4104
Y1.085 Z0.4059
Y1.0815 Z0.4018
Y1.0777 Z0.3981
Y1.0735 Z0.3948
Y1.0689 Z0.392
Y1.0641 Z0.3897
Y1.059 Z0.3879
Y1.0538 Z0.3867
X33.3565 Y1.0485 Z0.386
X33.3506 Y-1.239 Z0.2261
Y-1.2426 Z0.2258
X33.3509 Y-1.2541 Z0.225
X33.3512 Y-1.2603 Z0.2246
X33.3516 Y-1.2659 Z0.2242
X33.1872 Z0.2127
X33.1837 Z0.2126
X33.0537
X33.0541 Y-1.2567
X33.0542 Y-1.2531
X33.1587 Y4.7341
X33.3662
X33.3509 Y-1.1189
X33.3506 Y-1.239
Y-1.2426
X33.3509 Y-1.2541
X33.3512 Y-1.2603
X33.3516 Y-1.2659
X33.1837
X33.1809 Y-1.2657 Z0.2127
X33.1782 Y-1.2654 Z0.2129
X33.1754 Y-1.265 Z0.2133
X33.1727 Y-1.2644 Z0.2138
X33.1701 Y-1.2636 Z0.2145
X33.1676 Y-1.2627 Z0.2154
X33.1652 Y-1.2617 Z0.2164
X33.1629 Y-1.2606 Z0.2175
X33.1607 Y-1.2594 Z0.2188
X33.1586 Y-1.2582 Z0.2203
X33.1567 Y-1.2569 Z0.2218
X33.1549 Y-1.2555 Z0.2235
X33.1532 Y-1.2542 Z0.2253
X33.1517 Y-1.2528 Z0.2272
X33.1503 Y-1.2515 Z0.2293
X33.1491 Y-1.2502 Z0.2314
X33.148 Y-1.2489 Z0.2337
X33.147 Y-1.2477 Z0.236
X33.1461 Y-1.2466 Z0.2384
X33.1453 Y-1.2455 Z0.2409
X33.1447 Y-1.2446 Z0.2435
X33.1441 Y-1.2438 Z0.2461
X33.1437 Y-1.2431 Z0.2488
X33.1433 Y-1.2425 Z0.2515
X33.143 Y-1.242 Z0.2542
X33.1428 Y-1.2416 Z0.257
X33.1427 Y-1.2414 Z0.2598
Z0.2626
G0 Z0.8626
X34.7699 Y2.0108
Z0.5578
G1 Z0.4359 F50.
Y2.0111 Z0.4306 F100.
Y2.0119 Z0.4253
Y2.0133 Z0.4201
Y2.0153 Z0.4151
Y2.0178 Z0.4104
Y2.0208 Z0.4059
Y2.0242 Z0.4018
Y2.0281 Z0.3981
Y2.0323 Z0.3948
Y2.0369 Z0.392
X34.77 Y2.0417 Z0.3897
Y2.0467 Z0.3879
Y2.052 Z0.3867
Y2.0573 Z0.386
X34.7759 Y4.3262 Z0.2274
G2 X34.823 Y4.3731 Z0.2222 I0.0471 J-0.0001
G1 X34.8528 Z0.2201
G2 X34.8998 Y4.3252 Z0.2149 I0. J-0.0471
G1 X34.8993 Y4.2936 Z0.2127
X34.8992 Y4.2902 Z0.2126
X34.8429 Y1.158
G2 X34.791 Y1.1279 I-0.035 J0.0006
G1 X34.7862 Y1.1305
G2 X34.7677 Y1.1615 I0.0165 J0.0309
G1 X34.7759 Y4.3262
G2 X34.823 Y4.3731 I0.0471 J-0.0001
G1 X34.8528
G2 X34.8998 Y4.3252 I0. J-0.0471
G1 X34.8992 Y4.2902
G3 X34.9868 Y4.1536 I0.1462 J-0.0026
G2 X35.0743 Y4.017 I-0.0587 J-0.134
G1 X35.0193 Y0.959
G2 X34.9906 Y0.8858 I-0.1129 J0.002
G3 X34.9606 Y0.8486 I0.3632 J-0.3245
X34.9348 Y0.8085 I0.3197 J-0.2336
G2 X34.8739 Y0.8078 I-0.0306 J0.0172
G3 X34.7779 Y0.9204 I-0.371 J-0.2189
X34.6499 Y0.9948 I-0.2855 J-0.3441
G2 X34.5875 Y1.0853 I0.034 J0.0903
G1 X34.5964 Y4.4892
G2 X34.6604 Y4.5531 I0.0641 J-0.0002
G1 X35.0203
G2 X35.0828 Y4.4895 I0. J-0.0625
G1 X35.0743 Y4.017
G3 X35.1624 Y3.8796 I0.147 J-0.0026
G2 X35.2504 Y3.7423 I-0.059 J-0.1347
G1 X35.1979 Y0.8211
X35.1974 Y0.8209
X35.197 Y0.8206
X35.1912 Y0.8175
X35.1854 Y0.8142
X35.1797 Y0.8106
X35.1746 Y0.8074
X35.1704 Y0.8045
X35.1646 Y0.8003
X35.1573 Y0.7948
X35.1537 Y0.792
X35.1502 Y0.7891
X35.1434 Y0.783
X35.1377 Y0.7777
X35.133 Y0.773
X35.1275 Y0.7673
X35.1214 Y0.7604
X35.1156 Y0.7535
X35.1102 Y0.7466
X35.106 Y0.7408
X35.1028 Y0.7362
X35.0994 Y0.731
X35.0958 Y0.7253
X35.0924 Y0.7195
X35.0893 Y0.7137
X35.0869 Y0.7093
X35.0853 Y0.7061
X35.0826 Y0.7004
X35.0789 Y0.692
X35.076 Y0.6849
X35.0738 Y0.6792
X35.0718 Y0.6734
X35.0699 Y0.6676
X35.0682 Y0.6619
X35.0667 Y0.6561
X35.0652 Y0.6503
X35.0639 Y0.6446
X35.0628 Y0.6391
X35.0619 Y0.6338
X35.061 Y0.628
X35.0602 Y0.6218
X35.0595 Y0.6158
X35.059 Y0.61
X35.0586 Y0.6042
X35.0584 Y0.5985
X35.0583 Y0.5955
X35.0256 Y-1.2254
Y-1.228
Y-1.2395
X35.0257 Y-1.2449
X35.0262 Y-1.2565
X35.0267 Y-1.2633
X35.0269 Y-1.2659
X34.7495
X34.75 Y-1.259
X34.7502 Y-1.2536
X34.7504 Y-1.2421
X34.7505 Y-1.2396
X34.7552 Y0.5813
Y0.5843
X34.7551 Y0.59
X34.7548 Y0.5958
X34.7545 Y0.6015
X34.7542 Y0.605
X34.7541 Y0.6062
X34.7534 Y0.612
X34.752 Y0.6223
X34.7507 Y0.6304
X34.7495 Y0.6361
X34.7482 Y0.6419
X34.7468 Y0.6477
X34.7452 Y0.6534
X34.7435 Y0.6592
X34.7416 Y0.6649
X34.7396 Y0.6707
X34.7367 Y0.6781
X34.7329 Y0.6871
X34.7304 Y0.6928
X34.7291 Y0.6954
X34.7271 Y0.6995
X34.724 Y0.7053
X34.7208 Y0.7111
X34.7174 Y0.7168
X34.7138 Y0.7226
X34.7099 Y0.7285
X34.7058 Y0.7343
X34.7016 Y0.7399
X34.6988 Y0.7435
X34.6959 Y0.7471
X34.6886 Y0.7556
X34.6834 Y0.7613
X34.6805 Y0.7643
X34.6769 Y0.7679
X34.6726 Y0.772
X34.6682 Y0.7759
X34.6639 Y0.7797
X34.6595 Y0.7834
X34.6549 Y0.787
X34.6492 Y0.7914
X34.6422 Y0.7963
X34.6359 Y0.8005
X34.6304 Y0.804
X34.6246 Y0.8074
X34.6186 Y0.8107
X34.6127 Y0.8138
X34.607 Y0.8166
X34.6012 Y0.8193
X34.5954 Y0.8217
X34.5897 Y0.8241
X34.5839 Y0.8262
X34.5781 Y0.8283
X34.5724 Y0.8301
X34.5658 Y0.8321
X34.5585 Y0.834
X34.5527 Y0.8354
X34.5485 Y0.8363
X34.5435 Y0.8373
X34.5378 Y0.8383
X34.532 Y0.8392
X34.5262 Y0.84
X34.5205 Y0.8406
X34.5147 Y0.8411
X34.5089 Y0.8415
X34.5031 Y0.8417
X34.4981 Y0.8418
X34.4058 Y0.8421
X34.416 Y4.7341
X35.2682
X35.2504 Y3.7423
X35.2502 Y3.7395 Z0.2127
X35.2498 Y3.7367 Z0.2129
X35.2493 Y3.734 Z0.2133
X35.2487 Y3.7313 Z0.2138
X35.2479 Y3.7287 Z0.2145
X35.2469 Y3.7262 Z0.2154
X35.2459 Y3.7238 Z0.2164
X35.2447 Y3.7215 Z0.2175
X35.2435 Y3.7193 Z0.2188
X35.2422 Y3.7173 Z0.2203
X35.2409 Y3.7154 Z0.2218
X35.2395 Y3.7136 Z0.2235
X35.2381 Y3.712 Z0.2253
X35.2367 Y3.7105 Z0.2272
X35.2354 Y3.7091 Z0.2293
X35.234 Y3.7079 Z0.2314
X35.2328 Y3.7068 Z0.2337
X35.2315 Y3.7058 Z0.236
X35.2304 Y3.705 Z0.2384
X35.2294 Y3.7042 Z0.2409
X35.2284 Y3.7036 Z0.2435
X35.2276 Y3.703 Z0.2461
X35.2268 Y3.7026 Z0.2488
X35.2262 Y3.7022 Z0.2515
X35.2258 Y3.702 Z0.2542
X35.2254 Y3.7018 Z0.257
X35.2252 Y3.7017 Z0.2598
X35.2251 Y3.7016 Z0.2626
G0 Z0.8626
X36.6118 Y1.7353
Z0.5578
G1 Z0.4359 F50.
Y1.7355 Z0.4306 F100.
Y1.7364 Z0.4253
Y1.7378 Z0.4201
Y1.7398 Z0.4151
X36.6119 Y1.7423 Z0.4104
Y1.7452 Z0.4059
X36.612 Y1.7487 Z0.4018
X36.6121 Y1.7525 Z0.3981
Y1.7568 Z0.3948
X36.6122 Y1.7613 Z0.392
X36.6123 Y1.7662 Z0.3897
X36.6124 Y1.7712 Z0.3879
X36.6125 Y1.7764 Z0.3867
X36.6126 Y1.7818 Z0.386
X36.6135 Y1.835 Z0.3823
G2 X36.6479 Y1.8345 Z0.3786 I0.0172 J-0.0003
G1 X36.6405 Y1.0889 Z0.3264
G2 X36.6335 Y1.0748 Z0.3253 I-0.0183 J0.0002
G1 X36.6299 Y1.0719 Z0.325
G2 X36.6001 Y1.0864 Z0.3221 I-0.0115 J0.0143
G1 X36.6135 Y1.835 Z0.2697
G2 X36.6479 Y1.8345 Z0.2659 I0.0172 J-0.0003
G1 X36.6405 Y1.0889 Z0.2138
G2 X36.6341 Y1.0752 Z0.2127 I-0.0183 J0.0002
G1 X36.6335 Y1.0748
X36.6314 Y1.073 Z0.2126
X36.6299 Y1.0719
G2 X36.6001 Y1.0864 I-0.0115 J0.0143
G1 X36.6135 Y1.835
G2 X36.6479 Y1.8345 I0.0172 J-0.0003
G1 X36.6405 Y1.09
Y1.0889
G2 X36.6335 Y1.0748 I-0.0183 J0.0002
G1 X36.6314 Y1.073
G3 X36.5932 Y0.9659 I0.0674 J-0.0844
G2 X36.4953 Y0.9079 I-0.0586 J-0.0126
G3 X36.4782 Y0.922 I-0.2862 J-0.3304
G2 X36.4194 Y1.0459 I0.0953 J0.1211
G1 X36.4813 Y4.4901
G2 X36.5453 Y4.5529 I0.064 J-0.0012
G1 X36.7925
G2 X36.8543 Y4.4905 I0. J-0.0618
G1 X36.8202 Y1.0649
G2 X36.7583 Y0.9435 I-0.1528 J0.0015
G3 X36.6393 Y0.8127 I0.2692 J-0.3643
G2 X36.5781 Y0.8118 I-0.0309 J0.0184
G3 X36.4953 Y0.9079 I-0.369 J-0.2343
X36.3615 Y0.8988 I-0.0623 J-0.072
G2 X36.2364 Y0.9472 I-0.0537 J0.0472
G1 X36.3045 Y4.7341
X37.0379
X36.9992 Y0.8465
X36.9977 Y0.8464
X36.9919 Y0.8459
X36.9861 Y0.8452
X36.9804 Y0.8445
X36.9746 Y0.8435
X36.9688 Y0.8425
X36.9631 Y0.8413
X36.9573 Y0.84
X36.9515 Y0.8385
X36.9458 Y0.8369
X36.94 Y0.8351
X36.9338 Y0.8331
X36.9272 Y0.8307
X36.9215 Y0.8285
X36.9165 Y0.8264
X36.9111 Y0.8241
X36.9054 Y0.8214
X36.8996 Y0.8185
X36.8938 Y0.8154
X36.8878 Y0.812
X36.8817 Y0.8083
X36.8759 Y0.8047
X36.8705 Y0.8011
X36.8654 Y0.7974
X36.8603 Y0.7936
X36.8553 Y0.7897
X36.8503 Y0.7855
X36.847 Y0.7827
X36.8456 Y0.7814
X36.8421 Y0.7783
X36.8367 Y0.7731
X36.8316 Y0.768
X36.8268 Y0.7629
X36.8238 Y0.7596
X36.8224 Y0.758
X36.8197 Y0.7548
X36.8156 Y0.7498
X36.8117 Y0.7448
X36.808 Y0.7398
X36.8042 Y0.7345
X36.8005 Y0.729
X36.7969 Y0.7232
X36.7933 Y0.7172
X36.79 Y0.7114
X36.787 Y0.7056
X36.7842 Y0.6998
X36.7815 Y0.6941
X36.779 Y0.6884
X36.7767 Y0.6829
X36.7745 Y0.6771
X36.7724 Y0.6711
X36.7705 Y0.6653
X36.7688 Y0.6595
X36.7672 Y0.6537
X36.7657 Y0.648
X36.7644 Y0.6422
X36.7632 Y0.6365
X36.7622 Y0.6307
X36.7613 Y0.6249
X36.7605 Y0.6192
X36.7598 Y0.6134
X36.7593 Y0.6076
X36.7589 Y0.6019
X36.7587 Y0.5953
X36.7585 Y0.5838
X36.7584 Y0.5834
Y0.5829
X36.7404 Y-1.2265
Y-1.227
Y-1.2274
Y-1.239
X36.7405 Y-1.2435
X36.7409 Y-1.2551
X36.7412 Y-1.2615
X36.7416 Y-1.2659
X36.4327
X36.4331 Y-1.2567
X36.4332 Y-1.2532
X36.4659 Y0.5678
X36.466 Y0.5714
X36.4658 Y0.583
X36.4655 Y0.5914
X36.465 Y0.5971
X36.4645 Y0.6029
X36.4638 Y0.6087
X36.463 Y0.6144
X36.462 Y0.6202
X36.4609 Y0.626
X36.4597 Y0.6317
X36.4587 Y0.636
X36.458 Y0.6388
X36.4564 Y0.6446
X36.4538 Y0.6533
X36.4514 Y0.6605
X36.4494 Y0.6663
X36.4471 Y0.6721
X36.4447 Y0.6778
X36.4413 Y0.6852
X36.4369 Y0.6942
X36.4339 Y0.7
X36.4325 Y0.7025
X36.4301 Y0.7066
X36.4266 Y0.7124
X36.4228 Y0.7182
X36.4189 Y0.7239
X36.4156 Y0.7286
X36.4129 Y0.7322
X36.4083 Y0.7381
X36.4016 Y0.746
X36.3958 Y0.7524
X36.3909 Y0.7575
X36.385 Y0.7633
X36.3779 Y0.7697
X36.3721 Y0.7747
X36.3676 Y0.7784
X36.3626 Y0.7823
X36.3569 Y0.7865
X36.3511 Y0.7905
X36.3452 Y0.7943
X36.3394 Y0.7979
X36.3337 Y0.8012
X36.3279 Y0.8044
X36.3221 Y0.8074
X36.3164 Y0.8101
X36.3106 Y0.8128
X36.3046 Y0.8153
X36.2983 Y0.8178
X36.2924 Y0.82
X36.2869 Y0.8218
X36.2814 Y0.8236
X36.2758 Y0.8252
X36.2702 Y0.8267
X36.2644 Y0.8281
X36.2587 Y0.8293
X36.2529 Y0.8305
X36.2471 Y0.8314
X36.2414 Y0.8323
X36.2356 Y0.833
X36.2343 Y0.8332
X36.2364 Y0.9472
X36.2366 Y0.95 Z0.2127
X36.2369 Y0.9528 Z0.2129
X36.2375 Y0.9555 Z0.2133
X36.2381 Y0.9582 Z0.2138
X36.2389 Y0.9608 Z0.2145
X36.2399 Y0.9633 Z0.2154
X36.2409 Y0.9657 Z0.2164
X36.242 Y0.968 Z0.2175
X36.2433 Y0.9702 Z0.2188
X36.2446 Y0.9722 Z0.2203
X36.2459 Y0.9741 Z0.2218
X36.2473 Y0.9759 Z0.2235
X36.2487 Y0.9775 Z0.2253
X36.25 Y0.979 Z0.2272
X36.2514 Y0.9804 Z0.2293
X36.2527 Y0.9816 Z0.2314
X36.254 Y0.9827 Z0.2337
X36.2552 Y0.9837 Z0.236
X36.2564 Y0.9845 Z0.2384
X36.2574 Y0.9853 Z0.2409
X36.2584 Y0.9859 Z0.2435
X36.2592 Y0.9865 Z0.2461
X36.2599 Y0.9869 Z0.2488
X36.2605 Y0.9873 Z0.2515
X36.261 Y0.9875 Z0.2542
X36.2614 Y0.9877 Z0.257
X36.2616 Y0.9878 Z0.2598
Y0.9879 Z0.2626
G0 Z0.8626
X38.4583 Y3.6698
Z0.5578
G1 Z0.4359 F50.
Y3.6695 Z0.4306 F100.
Y3.6687 Z0.4253
Y3.6673 Z0.4201
Y3.6653 Z0.4151
Y3.6628 Z0.4104
Y3.6598 Z0.4059
X38.4582 Y3.6564 Z0.4018
Y3.6525 Z0.3981
Y3.6483 Z0.3948
X38.4581 Y3.6437 Z0.392
Y3.6389 Z0.3897
Y3.6339 Z0.3879
X38.458 Y3.6286 Z0.3867
Y3.6233 Z0.386
X38.4386 Y1.1586 Z0.2137
G2 X38.4337 Y1.1458 Z0.2127 I-0.0193 J0.0002
G1 X38.4325 Y1.1446 Z0.2126
X38.4311 Y1.1435
X38.4297 Y1.1424
X38.4281 Y1.1415
X38.4197 Y1.1372
G2 X38.3916 Y1.1545 I-0.0088 J0.0171
G1 X38.4232 Y4.334
G2 X38.4636 Y4.3337 I0.0202 J-0.0002
G1 X38.4386 Y1.1586
G2 X38.4311 Y1.1435 I-0.0193 J0.0002
G3 X38.3684 Y0.9871 I0.1018 J-0.1316
G2 X38.3339 Y0.8221 I-0.2391 J-0.036
G1 X38.3306 Y0.8168
G2 X38.2688 Y0.8162 I-0.0311 J0.0188
G3 X38.2303 Y0.8678 I-0.3478 J-0.2194
G1 X38.2301 Y0.868
X38.2298 Y0.8682
G2 X38.2092 Y0.9237 I0.0621 J0.0546
G1 X38.2447 Y4.4902
G2 X38.3081 Y4.5529 I0.0634 J-0.0006
G1 X38.5828
G2 X38.6448 Y4.4904 I0. J-0.062
G1 X38.6181 Y1.0891
G2 X38.5557 Y1.0009 I-0.0947 J0.0007
G3 X38.3339 Y0.8221 I0.1499 J-0.413
X38.3647 Y0.634 I0.1217 J-0.0767
G2 X38.4458 Y0.4615 I-0.1393 J-0.1708
G1 X38.4326 Y-1.2268
Y-1.2273
X38.4325 Y-1.2388
X38.4326 Y-1.2432
X38.4329 Y-1.2548
X38.4333 Y-1.2613
X38.4337 Y-1.2659
X38.1382
X38.1386 Y-1.2578
X38.1388 Y-1.2531
X38.139 Y-1.2416
Y-1.2411
Y-1.2406
X38.157 Y0.5688
Y0.5692
Y0.5696
X38.1571 Y0.5811
X38.1569 Y0.5876
X38.1567 Y0.5933
X38.1563 Y0.5991
X38.1558 Y0.6049
X38.1551 Y0.6106
X38.1543 Y0.6164
X38.1534 Y0.6221
X38.1524 Y0.6279
X38.1512 Y0.6337
X38.1499 Y0.6394
X38.1484 Y0.6452
X38.1468 Y0.651
X38.1451 Y0.6567
X38.1432 Y0.6625
X38.1411 Y0.6682
X38.1389 Y0.674
X38.1371 Y0.6786
X38.1356 Y0.6821
X38.133 Y0.6879
X38.129 Y0.6959
X38.1254 Y0.7028
X38.1222 Y0.7086
X38.1188 Y0.7144
X38.1152 Y0.7201
X38.1129 Y0.7235
X38.1121 Y0.7247
X38.1099 Y0.7279
X38.1062 Y0.7331
X38.1022 Y0.7383
X38.0981 Y0.7435
X38.0942 Y0.7481
X38.0905 Y0.7523
X38.0851 Y0.7581
X38.0778 Y0.7655
X38.0719 Y0.771
X38.0677 Y0.7747
X38.0631 Y0.7786
X38.0581 Y0.7827
X38.053 Y0.7866
X38.0479 Y0.7903
X38.0447 Y0.7926
X38.0433 Y0.7936
X38.0397 Y0.7959
X38.0339 Y0.7996
X38.0282 Y0.8031
X38.0268 Y0.8038
X38.0659 Y4.7341
X38.8279
X38.7974 Y0.8457
X38.7091 Y0.8464
X38.7036 Y0.8463
X38.692 Y0.8459
X38.6834 Y0.8453
X38.6776 Y0.8447
X38.6719 Y0.844
X38.6661 Y0.8432
X38.6603 Y0.8422
X38.6545 Y0.8411
X38.6488 Y0.8398
X38.643 Y0.8384
X38.6372 Y0.8369
X38.6315 Y0.8352
X38.6257 Y0.8334
X38.6199 Y0.8314
X38.6141 Y0.8293
X38.6084 Y0.827
X38.6026 Y0.8246
X38.5969 Y0.822
X38.5911 Y0.8192
X38.5853 Y0.8162
X38.5793 Y0.8129
X38.5729 Y0.8092
X38.567 Y0.8056
X38.5615 Y0.802
X38.556 Y0.7982
X38.5506 Y0.7942
X38.5454 Y0.7902
X38.5406 Y0.7863
X38.5348 Y0.7813
X38.5281 Y0.7752
X38.5221 Y0.7694
X38.5169 Y0.764
X38.5111 Y0.7575
X38.5048 Y0.75
X38.5002 Y0.7442
X38.4972 Y0.7402
X38.4937 Y0.7353
X38.4898 Y0.7296
X38.4861 Y0.7238
X38.4826 Y0.718
X38.4803 Y0.7141
X38.4792 Y0.7121
X38.4762 Y0.7064
X38.4715 Y0.6969
X38.468 Y0.6892
X38.4656 Y0.6835
X38.4634 Y0.6777
X38.4613 Y0.6719
X38.459 Y0.6651
X38.4567 Y0.6573
X38.4551 Y0.6515
X38.4542 Y0.6478
X38.4531 Y0.6431
X38.4519 Y0.6374
X38.4508 Y0.6316
X38.4498 Y0.6258
X38.449 Y0.6201
X38.4483 Y0.6143
X38.4478 Y0.6085
X38.4473 Y0.6028
X38.447 Y0.5956
G3 X38.4468 Y0.5826 I1.0668 J-0.0259
G1 X38.4458 Y0.4615
X38.4456 Y0.4587 Z0.2127
X38.4453 Y0.4559 Z0.2129
X38.4448 Y0.4532 Z0.2133
X38.4442 Y0.4505 Z0.2138
X38.4434 Y0.4479 Z0.2145
X38.4425 Y0.4454 Z0.2154
X38.4415 Y0.443 Z0.2164
X38.4404 Y0.4407 Z0.2175
X38.4392 Y0.4385 Z0.2188
X38.4379 Y0.4365 Z0.2203
X38.4366 Y0.4345 Z0.2218
X38.4352 Y0.4328 Z0.2235
X38.4338 Y0.4311 Z0.2253
X38.4325 Y0.4296 Z0.2272
X38.4311 Y0.4282 Z0.2293
X38.4298 Y0.427 Z0.2314
X38.4285 Y0.4259 Z0.2337
X38.4273 Y0.4249 Z0.236
X38.4262 Y0.424 Z0.2384
X38.4252 Y0.4233 Z0.2409
X38.4242 Y0.4226 Z0.2435
X38.4234 Y0.4221 Z0.2461
X38.4227 Y0.4216 Z0.2488
X38.4221 Y0.4213 Z0.2515
X38.4216 Y0.421 Z0.2542
X38.4212 Y0.4208 Z0.257
X38.421 Y0.4207 Z0.2598
Y0.4206 Z0.2626
G0 Z0.8626
X40.1338 Y1.088
Z0.5578
G1 Z0.4359 F50.
Y1.0877 Z0.4306 F100.
Y1.0868 Z0.4253
Y1.0854 Z0.4201
Y1.0834 Z0.4151
Y1.0809 Z0.4104
Y1.078 Z0.4059
Y1.0745 Z0.4018
X40.1339 Y1.0707 Z0.3981
Y1.0664 Z0.3948
Y1.0619 Z0.392
Y1.057 Z0.3897
Y1.052 Z0.3879
Y1.0468 Z0.3867
Y1.0414 Z0.386
X40.1367 Y-1.2395 Z0.2266
Y-1.2422 Z0.2264
X40.137 Y-1.2537 Z0.2256
X40.1372 Y-1.2593 Z0.2252
X40.1376 Y-1.2659 Z0.2247
X39.9662 Z0.2127
X39.9627 Z0.2126
X39.8271
X39.8275 Y-1.2581
X39.8277 Y-1.2533
G3 X39.8279 Y-1.2403 I-1.0654 J0.0259
G1 X39.8749 Y4.7341
X40.1294
X40.1365 Y-1.1117
X40.1367 Y-1.2395
Y-1.2422
X40.137 Y-1.2537
X40.1372 Y-1.2593
X40.1376 Y-1.2659
X39.9627
X39.9599 Y-1.2657 Z0.2127
X39.9572 Y-1.2654 Z0.2129
X39.9544 Y-1.265 Z0.2133
X39.9517 Y-1.2644 Z0.2138
X39.9491 Y-1.2636 Z0.2145
X39.9466 Y-1.2627 Z0.2154
X39.9442 Y-1.2617 Z0.2164
X39.9419 Y-1.2606 Z0.2175
X39.9397 Y-1.2594 Z0.2188
X39.9376 Y-1.2582 Z0.2203
X39.9357 Y-1.2569 Z0.2218
X39.9339 Y-1.2555 Z0.2235
X39.9322 Y-1.2542 Z0.2253
X39.9307 Y-1.2528 Z0.2272
X39.9293 Y-1.2515 Z0.2293
X39.9281 Y-1.2502 Z0.2314
X39.927 Y-1.2489 Z0.2337
X39.926 Y-1.2477 Z0.236
X39.9251 Y-1.2466 Z0.2384
X39.9243 Y-1.2455 Z0.2409
X39.9237 Y-1.2446 Z0.2435
X39.9231 Y-1.2438 Z0.2461
X39.9227 Y-1.2431 Z0.2488
X39.9223 Y-1.2425 Z0.2515
X39.922 Y-1.242 Z0.2542
X39.9218 Y-1.2416 Z0.257
X39.9217 Y-1.2414 Z0.2598
Z0.2626
G0 Z0.8626
X41.5497 Y1.9844
Z0.5578
G1 Z0.4359 F50.
Y1.9847 Z0.4306 F100.
Y1.9856 Z0.4253
Y1.987 Z0.4201
Y1.989 Z0.4151
Y1.9914 Z0.4104
Y1.9944 Z0.4059
Y1.9979 Z0.4018
X41.5496 Y2.0017 Z0.3981
Y2.0059 Z0.3948
Y2.0105 Z0.392
Y2.0153 Z0.3897
Y2.0204 Z0.3879
Y2.0256 Z0.3867
Y2.0309 Z0.386
X41.5468 Y4.326 Z0.2256
G2 X41.5939 Y4.3731 Z0.2204 I0.0471 J0.0001
G1 X41.6066 Z0.2195
G2 X41.6536 Y4.3258 Z0.2143 I0. J-0.0471
G1 X41.6535 Y4.3029 Z0.2127
Y4.2994 Z0.2126
X41.6348 Y1.1528
G2 X41.5802 Y1.1216 I-0.0364 J0.0002
G3 X41.5689 Y1.1279 I-0.2463 J-0.4247
G2 X41.5507 Y1.1586 I0.0168 J0.0308
G1 X41.5468 Y4.326
G2 X41.5939 Y4.3731 I0.0471 J0.0001
G1 X41.6066
G2 X41.6536 Y4.3258 I0. J-0.0471
G1 X41.6535 Y4.2994
G3 X41.7427 Y4.1639 I0.1462 J-0.0009
G2 X41.8319 Y4.0283 I-0.0571 J-0.1347
G1 X41.8136 Y0.958
G2 X41.7844 Y0.8828 I-0.1129 J0.0007
G3 X41.7483 Y0.8377 I0.3441 J-0.3121
X41.7185 Y0.7883 I0.3357 J-0.2358
G2 X41.6607 Y0.7882 I-0.0289 J0.0148
G3 X41.4341 Y0.9929 I-0.3847 J-0.1981
G2 X41.3708 Y1.0859 I0.0368 J0.0932
G1 X41.3666 Y4.4892
G2 X41.4304 Y4.5531 I0.0638 J0.0001
G1 X41.7712
G2 X41.8346 Y4.4893 I0. J-0.0634
G1 X41.8319 Y4.0283
G3 X41.9215 Y3.8921 I0.1471 J-0.0009
G2 X42.0112 Y3.7558 I-0.0574 J-0.1354
G1 X41.9938 Y0.8181
X41.9937
X41.9886 Y0.8154
X41.9834 Y0.8126
X41.9783 Y0.8096
X41.9751 Y0.8077
X41.9739 Y0.807
X41.9704 Y0.8048
X41.9646 Y0.801
X41.9588 Y0.797
X41.953 Y0.7927
X41.9485 Y0.7892
X41.9451 Y0.7864
X41.9393 Y0.7814
X41.9311 Y0.774
X41.9251 Y0.7682
X41.9212 Y0.7641
X41.9172 Y0.7598
X41.9132 Y0.7553
X41.9094 Y0.7508
X41.9058 Y0.7463
X41.9031 Y0.7428
X41.9012 Y0.7402
X41.8982 Y0.7361
X41.8942 Y0.7303
X41.8905 Y0.7246
X41.8869 Y0.7188
X41.8841 Y0.714
X41.882 Y0.7102
X41.879 Y0.7045
X41.8752 Y0.6968
X41.8721 Y0.69
X41.8697 Y0.6842
X41.8674 Y0.6785
X41.8652 Y0.6727
X41.8625 Y0.6645
X41.8594 Y0.6538
X41.8571 Y0.6452
X41.8557 Y0.6386
X41.8545 Y0.6324
X41.8535 Y0.6266
X41.8526 Y0.6208
X41.8519 Y0.6151
X41.8513 Y0.6093
X41.8508 Y0.6036
X41.8504 Y0.5959
X41.8502 Y0.5844
Y0.5824
X41.8394 Y-1.227
Y-1.2273
Y-1.2388
X41.8395 Y-1.243
X41.8398 Y-1.2545
X41.8401 Y-1.261
X41.8405 Y-1.2659
X41.5313
X41.5317 Y-1.2599
X41.532 Y-1.2539
X41.5323 Y-1.2424
Y-1.2391
X41.5301 Y0.5818
Y0.5856
X41.5297 Y0.5972
X41.5292 Y0.6056
X41.5286 Y0.6114
X41.5279 Y0.6171
X41.5271 Y0.6229
X41.5261 Y0.6287
X41.5251 Y0.6344
X41.5238 Y0.6405
X41.5222 Y0.647
X41.5207 Y0.6529
X41.5191 Y0.6584
X41.5174 Y0.6638
X41.5156 Y0.6692
X41.5136 Y0.6748
X41.5113 Y0.6805
X41.5089 Y0.6863
X41.5064 Y0.6921
X41.5034 Y0.6982
X41.5001 Y0.7048
X41.497 Y0.7106
X41.4941 Y0.7155
X41.4908 Y0.7209
X41.4872 Y0.7267
X41.4832 Y0.7324
X41.4791 Y0.7382
X41.4766 Y0.7416
X41.4757 Y0.7427
X41.4732 Y0.7459
X41.4689 Y0.7511
X41.4644 Y0.7563
X41.4596 Y0.7615
X41.456 Y0.7654
X41.4535 Y0.7679
X41.4497 Y0.7715
X41.4446 Y0.7763
X41.4395 Y0.7808
X41.4344 Y0.785
X41.4312 Y0.7877
X41.4298 Y0.7887
X41.4263 Y0.7914
X41.4205 Y0.7956
X41.4147 Y0.7996
X41.409 Y0.8033
X41.4039 Y0.8064
X41.3997 Y0.8089
X41.3939 Y0.8121
X41.3867 Y0.8159
X41.3801 Y0.8191
X41.3744 Y0.8217
X41.3686 Y0.8242
X41.3628 Y0.8264
X41.3556 Y0.829
X41.347 Y0.8319
X41.3412 Y0.8336
X41.3383 Y0.8344
X41.334 Y0.8356
X41.3282 Y0.837
X41.3224 Y0.8382
X41.3167 Y0.8393
X41.3109 Y0.8403
X41.3051 Y0.8412
X41.2994 Y0.8419
X41.2936 Y0.8425
X41.285 Y0.8431
X41.2735 Y0.8435
X41.2687
X41.1901 Y0.8434
X41.1853 Y4.7341
X42.017
X42.0112 Y3.7558
X42.0111 Y3.753 Z0.2127
X42.0107 Y3.7502 Z0.2129
X42.0103 Y3.7475 Z0.2133
X42.0096 Y3.7448 Z0.2138
X42.0089 Y3.7422 Z0.2145
X42.008 Y3.7397 Z0.2154
X42.0069 Y3.7372 Z0.2164
X42.0058 Y3.7349 Z0.2175
X42.0046 Y3.7328 Z0.2188
X42.0034 Y3.7307 Z0.2203
X42.002 Y3.7288 Z0.2218
X42.0007 Y3.727 Z0.2235
X41.9993 Y3.7253 Z0.2253
X41.998 Y3.7238 Z0.2272
X41.9966 Y3.7225 Z0.2293
X41.9953 Y3.7212 Z0.2314
X41.994 Y3.7201 Z0.2337
X41.9928 Y3.7191 Z0.236
X41.9917 Y3.7182 Z0.2384
X41.9906 Y3.7175 Z0.2409
X41.9897 Y3.7168 Z0.2435
X41.9889 Y3.7163 Z0.2461
X41.9882 Y3.7158 Z0.2488
X41.9875 Y3.7155 Z0.2515
X41.9871 Y3.7152 Z0.2542
X41.9867 Y3.715 Z0.257
X41.9865 Y3.7149 Z0.2598
Y3.7148 Z0.2626
G0 Z0.8626
X43.5367 Y3.6286
Z0.5578
G1 Z0.4359 F50.
Y3.6284 Z0.4306 F100.
Y3.6275 Z0.4253
Y3.6261 Z0.4201
Y3.6241 Z0.4151
Y3.6216 Z0.4104
Y3.6186 Z0.4059
X43.5366 Y3.6152 Z0.4018
Y3.6114 Z0.3981
Y3.6071 Z0.3948
Y3.6026 Z0.392
X43.5365 Y3.5977 Z0.3897
Y3.5927 Z0.3879
Y3.5874 Z0.3867
Y3.5821 Z0.386
X43.5224 Y1.1496 Z0.2159
G2 X43.5091 Y1.127 Z0.214 I-0.026 J0.0001
G1 X43.5015 Y1.1227 Z0.2134
G2 X43.4922 Y1.1194 Z0.2127 I-0.0131 J0.0225
G1 X43.4905 Y1.1192 Z0.2126
X43.4887 Y1.1191
G2 X43.4624 Y1.1453 I-0.0003 J0.026
G1 X43.4813 Y4.3267
G2 X43.5407 Y4.3264 I0.0297 J-0.0002
G1 X43.5224 Y1.1496
G2 X43.5091 Y1.127 I-0.026 J0.0001
G1 X43.5015 Y1.1227
G2 X43.4887 Y1.1191 I-0.0131 J0.0225
G3 X43.3938 Y1.0557 I0.0011 J-0.1045
G2 X43.282 Y1.0789 I-0.0536 J0.0229
G1 X43.3022 Y4.4902
G2 X43.3653 Y4.5529 I0.063 J-0.0004
G1 X43.6596
G2 X43.7217 Y4.4904 I0. J-0.0622
G1 X43.7021 Y1.0849
G2 X43.6393 Y0.9908 I-0.1028 J0.0006
G3 X43.5227 Y0.9175 I0.1669 J-0.3949
X43.4348 Y0.8116 I0.2945 J-0.3341
G2 X43.374 Y0.8113 I-0.0305 J0.0182
G3 X43.3131 Y0.8893 I-0.3634 J-0.2211
G2 X43.2813 Y0.9676 I0.0788 J0.0776
G1 X43.282 Y1.0789
G3 X43.1922 Y1.2153 I-0.1472 J0.0009
G2 X43.1024 Y1.3517 I0.0574 J0.1355
G1 X43.1225 Y4.7341
X43.9043
X43.8819 Y0.8451
X43.8189 Y0.8455
X43.8163
X43.8047 Y0.8453
X43.7967 Y0.845
X43.7909 Y0.8445
X43.7852 Y0.844
X43.7794 Y0.8433
X43.7736 Y0.8424
X43.7679 Y0.8415
X43.7621 Y0.8404
X43.7563 Y0.8391
X43.7506 Y0.8378
X43.7448 Y0.8362
X43.739 Y0.8346
X43.7333 Y0.8328
X43.7299 Y0.8317
X43.7291 Y0.8314
X43.7259 Y0.8303
X43.7206 Y0.8283
X43.7153 Y0.8262
X43.71 Y0.824
X43.7044 Y0.8215
X43.6987 Y0.8187
X43.6929 Y0.8158
X43.6871 Y0.8127
X43.683 Y0.8104
X43.6806 Y0.8089
X43.6748 Y0.8053
X43.6657 Y0.7993
G3 X43.6576 Y0.7935 I0.0717 J-0.1084
G1 X43.6505 Y0.788
X43.6448 Y0.7832
X43.6403 Y0.7793
X43.6342 Y0.7736
X43.6265 Y0.766
X43.6208 Y0.7599
X43.6169 Y0.7556
X43.6122 Y0.7498
X43.6065 Y0.7427
G3 X43.6007 Y0.7347 I0.1022 J-0.0804
G1 X43.5948 Y0.7259
X43.5911 Y0.7201
X43.5895 Y0.7174
X43.5871 Y0.7131
X43.584 Y0.7074
X43.581 Y0.7016
X43.5782 Y0.6958
X43.5748 Y0.6881
X43.5708 Y0.6783
X43.5686 Y0.6725
X43.568 Y0.6708
X43.5667 Y0.667
X43.5649 Y0.6613
X43.5632 Y0.6555
X43.5617 Y0.6497
X43.5603 Y0.644
X43.559 Y0.6382
X43.5579 Y0.6324
X43.5569 Y0.6267
X43.5561 Y0.6209
X43.5553 Y0.6152
X43.5547 Y0.6094
X43.5543 Y0.6036
X43.5539 Y0.5959
X43.5536 Y0.5844
Y0.5824
Y0.5792
X43.5432 Y-1.227
Y-1.2273
X43.5431 Y-1.2388
X43.5432 Y-1.243
X43.5435 Y-1.2545
X43.5439 Y-1.261
X43.5442 Y-1.2659
X43.2465
X43.2469 Y-1.2584
X43.2471 Y-1.2534
G3 X43.2474 Y-1.2401 I-0.9291 J0.0241
G1 X43.2581 Y0.5808
Y0.5858
X43.2579 Y0.5915
X43.2576 Y0.5973
X43.2571 Y0.6031
X43.2563 Y0.6113
X43.2548 Y0.6219
X43.2538 Y0.6276
X43.2537 Y0.6285
X43.253 Y0.6319
X43.2517 Y0.6376
X43.2504 Y0.6434
X43.2489 Y0.6492
X43.2472 Y0.6549
X43.2454 Y0.6607
X43.2435 Y0.6665
X43.2414 Y0.6722
X43.2392 Y0.6778
X43.237 Y0.6831
X43.2346 Y0.6884
X43.2321 Y0.6937
X43.2306 Y0.6968
X43.2302 Y0.6977
X43.2284 Y0.701
X43.2253 Y0.7068
X43.222 Y0.7126
X43.2185 Y0.7183
X43.2145 Y0.7245
X43.2101 Y0.731
X43.2059 Y0.7367
X43.202 Y0.7417
X43.1982 Y0.7464
X43.1945 Y0.7507
X43.1907 Y0.755
X43.1867 Y0.7593
X43.1833 Y0.7629
X43.1803 Y0.7658
X43.1767 Y0.7693
X43.1724 Y0.7733
X43.1681 Y0.7771
X43.1638 Y0.7807
X43.1591 Y0.7845
X43.154 Y0.7884
X43.1483 Y0.7926
X43.1418 Y0.797
X43.1357 Y0.801
X43.1299 Y0.8044
X43.1242 Y0.8077
X43.1184 Y0.8108
X43.115 Y0.8126
X43.114 Y0.8131
X43.1108 Y0.8146
X43.1056 Y0.8171
X43.1003 Y0.8194
X43.0993 Y0.8199
X43.1024 Y1.3517
X43.1026 Y1.3545 Z0.2127
X43.1029 Y1.3573 Z0.2129
X43.1034 Y1.3601 Z0.2133
X43.104 Y1.3627 Z0.2138
X43.1048 Y1.3653 Z0.2145
X43.1057 Y1.3678 Z0.2154
X43.1067 Y1.3703 Z0.2164
X43.1078 Y1.3726 Z0.2175
X43.109 Y1.3748 Z0.2188
X43.1103 Y1.3768 Z0.2203
X43.1116 Y1.3787 Z0.2218
X43.113 Y1.3805 Z0.2235
X43.1143 Y1.3822 Z0.2253
X43.1157 Y1.3837 Z0.2272
X43.117 Y1.3851 Z0.2293
X43.1184 Y1.3863 Z0.2314
X43.1196 Y1.3874 Z0.2337
X43.1208 Y1.3884 Z0.236
X43.122 Y1.3893 Z0.2384
X43.123 Y1.39 Z0.2409
X43.1239 Y1.3907 Z0.2435
X43.1248 Y1.3912 Z0.2461
X43.1255 Y1.3917 Z0.2488
X43.1261 Y1.392 Z0.2515
X43.1266 Y1.3923 Z0.2542
X43.1269 Y1.3925 Z0.257
X43.1271 Y1.3926 Z0.2598
X43.1272 Y1.3927 Z0.2626
G0 Z0.8626
X45.6127 Y-0.9049
Z0.2626
G1 X45.6124 Z0.257 F100.
X45.6114 Z0.2515
X45.6099 Z0.2461
X45.6078 Z0.2409
X45.605 Z0.236
X45.6018 Z0.2314
X45.5981 Z0.2272
X45.5939 Z0.2235
X45.5893 Z0.2203
X45.5844 Z0.2175
X45.5792 Z0.2154
X45.5738 Z0.2138
X45.5683 Z0.2129
X45.5627 Z0.2126
X45.4141
X45.3768
G2 X45.3134 Y-0.8411 I0. J0.0634
G1 X45.3431 Y4.3091
G2 X45.4074 Y4.3731 I0.0643 J-0.0004
G1 X45.4142
X45.6108
X45.6164 Z0.2129
X45.6219 Z0.2138
X45.6273 Z0.2154
X45.6325 Z0.2175
X45.6374 Z0.2203
X45.6419 Z0.2235
X45.6461 Z0.2272
X45.6499 Z0.2314
X45.6531 Z0.236
X45.6558 Z0.2409
X45.658 Z0.2461
X45.6595 Z0.2515
X45.6605 Z0.257
X45.6608 Z0.2626
G0 Z0.8626
X45.6127 Y-1.0849
Z0.2626
G1 X45.6124 Z0.257 F100.
X45.6114 Z0.2515
X45.6099 Z0.2461
X45.6078 Z0.2409
X45.605 Z0.236
X45.6018 Z0.2314
X45.5981 Z0.2272
X45.5939 Z0.2235
X45.5893 Z0.2203
X45.5844 Z0.2175
X45.5792 Z0.2154
X45.5738 Z0.2138
X45.5683 Z0.2129
X45.5627 Z0.2126
X45.4141
X45.1958
G2 X45.1324 Y-1.0211 I0. J0.0634
G1 X45.1641 Y4.4891
G2 X45.2284 Y4.5531 I0.0643 J-0.0004
G1 X45.4141
X45.6107
X45.6163 Z0.2129
X45.6219 Z0.2138
X45.6273 Z0.2154
X45.6324 Z0.2175
X45.6373 Z0.2203
X45.6419 Z0.2235
X45.6461 Z0.2272
X45.6498 Z0.2314
X45.6531 Z0.236
X45.6558 Z0.2409
X45.6579 Z0.2461
X45.6595 Z0.2515
X45.6604 Z0.257
X45.6607 Z0.2626
G0 Z0.8626
X45.6127 Y-1.2351
Z0.2576
G1 X45.6124 Z0.2526 F100.
X45.6116 Y-1.2353 Z0.2476
X45.6102 Y-1.2355 Z0.2427
X45.6083 Y-1.2358 Z0.2381
X45.6059 Y-1.2362 Z0.2337
X45.603 Y-1.2366 Z0.2295
X45.5997 Y-1.2371 Z0.2258
X45.596 Y-1.2377 Z0.2224
X45.5919 Y-1.2384 Z0.2195
X45.5875 Y-1.2391 Z0.217
X45.5829 Y-1.2398 Z0.2151
X45.5781 Y-1.2406 Z0.2137
X45.5732 Y-1.2413 Z0.2129
X45.5683 Y-1.2421 Z0.2126
X45.422 Y-1.2653
X45.4181 Y-1.2657
X45.4142 Y-1.2659
X44.9492
X44.9497 Y-1.2584
X44.9499 Y-1.2534
G3 X44.9501 Y-1.2401 I-0.8996 J0.0235
G1 X44.9845 Y4.7341
X45.4142
X45.4181 Y4.7339
X45.422 Y4.7335
X45.6162 Y4.7027
X45.6217 Y4.7018 Z0.2129
X45.6272 Y4.701 Z0.2138
X45.6325 Y4.7001 Z0.2154
X45.6376 Y4.6993 Z0.2175
X45.6424 Y4.6986 Z0.2203
X45.647 Y4.6978 Z0.2235
X45.6511 Y4.6972 Z0.2272
X45.6548 Y4.6966 Z0.2314
X45.658 Y4.6961 Z0.236
X45.6607 Y4.6957 Z0.2409
X45.6628 Y4.6953 Z0.2461
X45.6643 Y4.6951 Z0.2515
X45.6652 Y4.6949 Z0.257
X45.6656 Z0.2626
G0 Z0.8626
X21.0936 Y2.7016
Z0.5578
G1 Z0.4359 F50.
Y2.7018 Z0.4306 F100.
Y2.7027 Z0.4253
Y2.7041 Z0.4201
X21.0935 Y2.7061 Z0.4151
Y2.7086 Z0.4104
X21.0934 Y2.7115 Z0.4059
Y2.715 Z0.4018
X21.0933 Y2.7188 Z0.3981
X21.0932 Y2.7231 Z0.3948
X21.0931 Y2.7276 Z0.392
X21.093 Y2.7325 Z0.3897
Y2.7375 Z0.3879
X21.0929 Y2.7427 Z0.3867
X21.0928 Y2.7481 Z0.386
X21.0553 Y4.7341 Z0.2471
X21.374 Z0.2249
X21.3756 Y4.5604 Z0.2127
X21.3757 Y4.557 Z0.2126
X21.4283 Y-1.2405
Y-1.241
Y-1.2416
X21.4285 Y-1.2531
X21.4287 Y-1.2578
X21.4291 Y-1.2659
X21.1663
X21.1666 Y-1.2628
X21.167 Y-1.2566
X21.1675 Y-1.2451
X21.1677 Y-1.2395
Y-1.228
Y-1.2253
X21.0584 Y4.5722
X21.0553 Y4.7341
X21.374
X21.3757 Y4.557
X21.3755 Y4.5542 Z0.2127
X21.3752 Y4.5514 Z0.2129
X21.3748 Y4.5486 Z0.2133
X21.3742 Y4.546 Z0.2138
X21.3735 Y4.5433 Z0.2145
X21.3726 Y4.5408 Z0.2154
X21.3716 Y4.5384 Z0.2164
X21.3706 Y4.5361 Z0.2175
X21.3694 Y4.5339 Z0.2188
X21.3682 Y4.5318 Z0.2203
X21.3669 Y4.5298 Z0.2218
X21.3655 Y4.528 Z0.2235
X21.3642 Y4.5264 Z0.2253
X21.3629 Y4.5248 Z0.2272
X21.3615 Y4.5234 Z0.2293
X21.3602 Y4.5222 Z0.2314
X21.359 Y4.521 Z0.2337
X21.3578 Y4.52 Z0.236
X21.3567 Y4.5191 Z0.2384
X21.3556 Y4.5184 Z0.2409
X21.3547 Y4.5177 Z0.2435
X21.3539 Y4.5171 Z0.2461
X21.3532 Y4.5167 Z0.2488
X21.3526 Y4.5163 Z0.2515
X21.3521 Y4.516 Z0.2542
X21.3518 Y4.5158 Z0.257
X21.3516 Y4.5157 Z0.2598
X21.3515 Z0.2626
G0 Z0.8626
X19.8095 Y3.6206
Z0.5578
G1 Z0.4359 F50.
Y3.6203 Z0.4306 F100.
Y3.6195 Z0.4253
Y3.6181 Z0.4201
X19.8096 Y3.6161 Z0.4151
Y3.6136 Z0.4104
X19.8097 Y3.6106 Z0.4059
Y3.6072 Z0.4018
X19.8098 Y3.6033 Z0.3981
X19.8099 Y3.5991 Z0.3948
X19.81 Y3.5945 Z0.392
X19.8101 Y3.5897 Z0.3897
X19.8102 Y3.5847 Z0.3879
X19.8103 Y3.5794 Z0.3867
X19.8104 Y3.5741 Z0.386
X19.8571 Y1.0958 Z0.2127
X19.8572 Y1.0923 Z0.2126
X19.8576 Y1.0673
G2 X19.798 Y0.9674 I-0.1099 J-0.0021
G3 X19.7097 Y0.908 I0.2086 J-0.4053
X19.6383 Y0.8292 I0.2768 J-0.3226
G2 X19.5734 Y0.8294 I-0.0324 J0.0227
G3 X19.5475 Y0.8635 I-0.4018 J-0.2777
X19.5185 Y0.8951 I-0.3344 J-0.2774
G2 X19.4857 Y0.9743 I0.0778 J0.0787
G1 X19.5022 Y4.4903
G2 X19.5652 Y4.5529 I0.063 J-0.0003
G1 X19.729
G2 X19.7931 Y4.4901 I0. J-0.0641
G1 X19.8568 Y1.1121
X19.8572 Y1.0923
G3 X19.9468 Y0.9754 I0.1241 J0.0023
G2 X19.9417 Y0.8282 I-0.0211 J-0.073
G1 X19.9371 Y0.8271
X19.9313 Y0.8256
X19.9241 Y0.8235
X19.9154 Y0.8208
X19.9096 Y0.8188
X19.9068 Y0.8177
X19.9025 Y0.8161
X19.8967 Y0.8137
X19.891 Y0.8111
X19.8852 Y0.8084
X19.8774 Y0.8045
X19.8676 Y0.799
X19.8619 Y0.7957
X19.8601 Y0.7946
X19.8563 Y0.7921
X19.8506 Y0.7882
X19.8448 Y0.7841
X19.839 Y0.7798
X19.8348 Y0.7765
X19.8322 Y0.7743
X19.8286 Y0.7713
X19.8242 Y0.7673
X19.8197 Y0.7632
X19.8153 Y0.7589
X19.8115 Y0.7551
X19.8084 Y0.7518
X19.8046 Y0.7476
X19.8002 Y0.7426
X19.796 Y0.7375
X19.792 Y0.7324
X19.7895 Y0.7292
X19.7885 Y0.7278
X19.786 Y0.7242
X19.782 Y0.7185
X19.7783 Y0.7127
X19.7748 Y0.7069
X19.7715 Y0.7012
X19.7685 Y0.6956
X19.7655 Y0.6899
X19.7627 Y0.684
X19.7601 Y0.6781
X19.7576 Y0.6724
X19.7554 Y0.6666
X19.7533 Y0.6608
X19.7513 Y0.6551
X19.7495 Y0.6493
X19.7478 Y0.6435
X19.7463 Y0.6378
X19.7452 Y0.633
X19.7443 Y0.6292
X19.7432 Y0.6234
X19.7418 Y0.6157
X19.7408 Y0.609
X19.7401 Y0.6032
X19.7395 Y0.5974
X19.7391 Y0.5917
X19.7387 Y0.5832
X19.7385 Y0.5717
X19.7386 Y0.5676
X19.7729 Y-1.2533
X19.773 Y-1.2566
X19.7734 Y-1.2659
X19.4594
X19.4598 Y-1.2586
X19.46 Y-1.2535
X19.4603 Y-1.2419
Y-1.2399
X19.4689 Y0.581
X19.4688 Y0.5852
X19.4686 Y0.591
X19.4684 Y0.5968
X19.4679 Y0.6025
X19.4674 Y0.6083
X19.4667 Y0.614
X19.4659 Y0.6198
X19.465 Y0.6256
X19.4639 Y0.6313
X19.4627 Y0.6371
X19.4613 Y0.6429
X19.4599 Y0.6486
X19.4582 Y0.6544
X19.4565 Y0.6602
X19.4545 Y0.6659
X19.4525 Y0.6717
X19.4509 Y0.6759
X19.4498 Y0.6787
X19.4473 Y0.6844
X19.4433 Y0.6932
X19.4397 Y0.7005
X19.4366 Y0.7063
X19.4333 Y0.712
X19.4299 Y0.7178
X19.4276 Y0.7214
X19.4266 Y0.7229
X19.4244 Y0.7262
X19.421 Y0.7312
X19.4173 Y0.7362
X19.4135 Y0.7412
X19.4095 Y0.7462
X19.4052 Y0.7513
X19.4 Y0.757
X19.3938 Y0.7635
X19.388 Y0.7692
X19.3827 Y0.7742
X19.376 Y0.78
X19.3678 Y0.7866
X19.362 Y0.791
X19.3586 Y0.7934
X19.3541 Y0.7965
X19.3483 Y0.8003
X19.3425 Y0.8039
X19.3368 Y0.8072
X19.332 Y0.8099
X19.3282 Y0.8119
X19.3225 Y0.8147
X19.3147 Y0.8183
X19.3079 Y0.8212
X19.3038 Y0.8229
X19.3222 Y4.7341
X19.9697
X20.0432 Y0.8353
X19.9956 Y0.8344
X19.9917 Y0.8343
X19.9802 Y0.8337
X19.9717 Y0.833
X19.966 Y0.8324
X19.9602 Y0.8316
X19.9544 Y0.8307
X19.9486 Y0.8296
X19.9429 Y0.8284
X19.9423 Y0.8283
X19.9417 Y0.8282
X19.939 Y0.8277 Z0.2127
X19.9362 Y0.8274 Z0.2129
X19.9334 Y0.8273 Z0.2133
X19.9307 Y0.8274 Z0.2138
X19.928 Y0.8275 Z0.2145
X19.9253 Y0.8279 Z0.2154
X19.9227 Y0.8283 Z0.2164
X19.9202 Y0.8289 Z0.2175
X19.9178 Y0.8296 Z0.2188
X19.9156 Y0.8304 Z0.2203
X19.9134 Y0.8313 Z0.2218
X19.9114 Y0.8322 Z0.2235
X19.9095 Y0.8332 Z0.2253
X19.9077 Y0.8342 Z0.2272
X19.906 Y0.8352 Z0.2293
X19.9045 Y0.8362 Z0.2314
X19.9032 Y0.8372 Z0.2337
X19.902 Y0.8382 Z0.236
X19.9009 Y0.8391 Z0.2384
X19.8999 Y0.8399 Z0.2409
X19.8991 Y0.8407 Z0.2435
X19.8983 Y0.8414 Z0.2461
X19.8977 Y0.842 Z0.2488
X19.8973 Y0.8425 Z0.2515
X19.8969 Y0.8429 Z0.2542
X19.8966 Y0.8432 Z0.257
X19.8965 Y0.8434 Z0.2598
X19.8964 Z0.2626
G0 Z0.8626
X17.7695 Y2.0059
Z0.5578
G1 Z0.4359 F50.
Y2.0062 Z0.4306 F100.
Y2.007 Z0.4253
Y2.0085 Z0.4201
Y2.0104 Z0.4151
Y2.0129 Z0.4104
Y2.0159 Z0.4059
Y2.0193 Z0.4018
Y2.0232 Z0.3981
Y2.0274 Z0.3948
Y2.032 Z0.392
Y2.0368 Z0.3897
X17.7694 Y2.0419 Z0.3879
Y2.0471 Z0.3867
Y2.0524 Z0.386
X17.7627 Y4.3259 Z0.2271
G2 X17.8097 Y4.3731 Z0.2219 I0.0471 J0.0001
G1 X17.8368 Z0.22
G2 X17.8838 Y4.3258 Z0.2148 I0. J-0.0471
G1 X17.8837 Y4.2958 Z0.2127
Y4.2923 Z0.2126
X17.8688 Y1.1385
G2 X17.815 Y1.109 I-0.0351 J0.0002
G3 X17.7954 Y1.1209 I-0.3437 J-0.5438
G2 X17.7721 Y1.1614 I0.0237 J0.0406
G1 X17.7627 Y4.3122
Y4.3259
G2 X17.8097 Y4.3731 I0.0471 J0.0001
G1 X17.8368
G2 X17.8838 Y4.3258 I0. J-0.0471
G1 X17.8837 Y4.2923
G3 X17.973 Y4.1569 I0.1462 J-0.0007
G2 X18.0624 Y4.0214 I-0.0569 J-0.1347
G1 X18.0481 Y0.9881
G2 X18.0128 Y0.9067 I-0.1129 J0.0005
G3 X17.9663 Y0.8554 I0.3207 J-0.3385
X17.9282 Y0.7976 I0.3311 J-0.2589
G2 X17.8688 Y0.7974 I-0.0297 J0.0162
G3 X17.6559 Y0.9899 I-0.3849 J-0.2117
G2 X17.5923 Y1.0853 I0.0402 J0.0957
G1 X17.5822 Y4.4893
G2 X17.6458 Y4.5531 I0.0636 J0.0002
G1 X18.0011
G2 X18.0646 Y4.4893 I0. J-0.0635
G1 X18.0624 Y4.0214
G3 X18.1522 Y3.8853 I0.1471 J-0.0007
G2 X18.2421 Y3.7491 I-0.0572 J-0.1355
G1 X18.2284 Y0.8303
X18.2238 Y0.8287
X18.2181 Y0.8265
X18.2123 Y0.8241
X18.2066 Y0.8216
X18.2008 Y0.8188
X18.1939 Y0.8153
X18.1858 Y0.8109
X18.1801 Y0.8076
X18.1766 Y0.8054
X18.1719 Y0.8024
X18.1662 Y0.7985
X18.1604 Y0.7944
X18.1546 Y0.79
X18.1511 Y0.7872
X18.1497 Y0.7861
X18.1465 Y0.7834
X18.1414 Y0.779
X18.1363 Y0.7743
X18.1312 Y0.7694
X18.1277 Y0.7658
X18.1256 Y0.7636
X18.122 Y0.7597
X18.117 Y0.754
X18.1122 Y0.7483
X18.1077 Y0.7424
X18.1034 Y0.7366
X18.0994 Y0.7309
X18.0956 Y0.7251
X18.092 Y0.7193
X18.0883 Y0.7129
X18.0844 Y0.7059
X18.0815 Y0.7001
X18.0793 Y0.6956
X18.077 Y0.6905
X18.0745 Y0.6848
X18.0722 Y0.679
X18.07 Y0.6732
X18.068 Y0.6675
X18.0662 Y0.6617
X18.0645 Y0.6559
X18.0629 Y0.6502
X18.0615 Y0.6443
X18.0601 Y0.6383
X18.059 Y0.6325
X18.058 Y0.627
X18.0572 Y0.6214
X18.0564 Y0.6156
X18.0558 Y0.6098
X18.0553 Y0.6041
X18.0549 Y0.5961
X18.0546 Y0.5846
Y0.5822
X18.046 Y-1.2387
X18.0461 Y-1.2428
X18.0464 Y-1.2544
X18.0467 Y-1.2608
X18.0471 Y-1.2659
X17.7472
X17.7476 Y-1.2604
X17.7479 Y-1.2542
X17.7482 Y-1.2427
Y-1.2389
X17.7428 Y0.582
Y0.5851
X17.7425 Y0.5966
X17.742 Y0.6049
X17.7415 Y0.6106
X17.7408 Y0.6164
X17.74 Y0.6221
X17.7392 Y0.6276
X17.7383 Y0.6327
X17.7371 Y0.6385
X17.7356 Y0.6449
X17.7341 Y0.651
X17.7325 Y0.6567
X17.7308 Y0.6625
X17.7289 Y0.6683
X17.7268 Y0.674
X17.7246 Y0.6798
X17.7223 Y0.6855
X17.7198 Y0.6913
X17.7175 Y0.6961
X17.7157 Y0.7
X17.7127 Y0.7058
X17.7085 Y0.7134
X17.7046 Y0.72
X17.7011 Y0.7255
X17.6973 Y0.7313
X17.693 Y0.7373
X17.6886 Y0.7432
X17.684 Y0.7489
X17.6792 Y0.7547
X17.674 Y0.7605
X17.6707 Y0.7641
X17.6693 Y0.7655
X17.6658 Y0.7689
X17.6603 Y0.7743
X17.6545 Y0.7795
X17.6485 Y0.7846
X17.6426 Y0.7894
X17.6369 Y0.7937
X17.6311 Y0.7978
X17.6253 Y0.8017
X17.6201 Y0.8051
X17.6153 Y0.808
X17.6095 Y0.8113
X17.6028 Y0.815
X17.5965 Y0.8181
X17.5907 Y0.8208
X17.585 Y0.8234
X17.5792 Y0.8258
X17.5723 Y0.8284
X17.5644 Y0.8311
X17.5586 Y0.833
X17.555 Y0.8341
X17.5503 Y0.8354
X17.5446 Y0.8368
X17.5388 Y0.8382
X17.533 Y0.8394
X17.5273 Y0.8405
X17.5215 Y0.8414
X17.5157 Y0.8422
X17.51 Y0.8429
X17.5042 Y0.8434
X17.4984 Y0.8438
X17.4927 Y0.8441
X17.4869 Y0.8443
X17.483
X17.412 Y0.8441
X17.4004 Y4.7341
X18.2467
X18.2421 Y3.7491
X18.2419 Y3.7463 Z0.2127
X18.2416 Y3.7435 Z0.2129
X18.2411 Y3.7408 Z0.2133
X18.2405 Y3.7381 Z0.2138
X18.2397 Y3.7355 Z0.2145
X18.2388 Y3.733 Z0.2154
X18.2378 Y3.7306 Z0.2164
X18.2367 Y3.7283 Z0.2175
X18.2355 Y3.7261 Z0.2188
X18.2343 Y3.724 Z0.2203
X18.2329 Y3.7221 Z0.2218
X18.2316 Y3.7203 Z0.2235
X18.2302 Y3.7186 Z0.2253
X18.2289 Y3.7171 Z0.2272
X18.2275 Y3.7158 Z0.2293
X18.2262 Y3.7145 Z0.2314
X18.2249 Y3.7134 Z0.2337
X18.2237 Y3.7124 Z0.236
X18.2226 Y3.7115 Z0.2384
X18.2216 Y3.7108 Z0.2409
X18.2206 Y3.7101 Z0.2435
X18.2198 Y3.7096 Z0.2461
X18.2191 Y3.7091 Z0.2488
X18.2185 Y3.7088 Z0.2515
X18.218 Y3.7085 Z0.2542
X18.2177 Y3.7083 Z0.257
X18.2175 Y3.7082 Z0.2598
X18.2174 Y3.7081 Z0.2626
G0 Z0.8626
X15.9832 Y2.8038
Z0.5578
G1 Z0.4359 F50.
Y2.8041 Z0.4306 F100.
Y2.8049 Z0.4253
X15.9831 Y2.8063 Z0.4201
Y2.8083 Z0.4151
X15.983 Y2.8108 Z0.4104
Y2.8138 Z0.4059
X15.9829 Y2.8172 Z0.4018
X15.9828 Y2.8211 Z0.3981
Y2.8253 Z0.3948
X15.9827 Y2.8299 Z0.392
X15.9826 Y2.8347 Z0.3897
X15.9825 Y2.8397 Z0.3879
X15.9824 Y2.845 Z0.3867
X15.9823 Y2.8503 Z0.386
X15.9454 Y4.7341 Z0.2543
X16.3323 Z0.2272
X16.3329 Y4.5263 Z0.2127
Y4.5228 Z0.2126
X16.35 Y-1.2397
Y-1.2421
X16.3503 Y-1.2536
X16.3505 Y-1.2589
X16.3509 Y-1.2659
X16.0606
X16.0608 Y-1.2636
X16.0613 Y-1.2568
X16.0618 Y-1.2452
X16.0619 Y-1.2395
X16.062 Y-1.228
X16.0619 Y-1.2252
X15.9493 Y4.5382
X15.9454 Y4.7341
X16.3323
X16.3329 Y4.5228
X16.3328 Y4.52 Z0.2127
X16.3325 Y4.5173 Z0.2129
X16.332 Y4.5145 Z0.2133
X16.3314 Y4.5119 Z0.2138
X16.3307 Y4.5092 Z0.2145
X16.3298 Y4.5067 Z0.2154
X16.3288 Y4.5043 Z0.2164
X16.3277 Y4.502 Z0.2175
X16.3265 Y4.4998 Z0.2188
X16.3253 Y4.4977 Z0.2203
X16.324 Y4.4958 Z0.2218
X16.3226 Y4.494 Z0.2235
X16.3213 Y4.4923 Z0.2253
X16.3199 Y4.4908 Z0.2272
X16.3186 Y4.4894 Z0.2293
X16.3173 Y4.4882 Z0.2314
X16.316 Y4.487 Z0.2337
X16.3148 Y4.486 Z0.236
X16.3137 Y4.4852 Z0.2384
X16.3127 Y4.4844 Z0.2409
X16.3117 Y4.4837 Z0.2435
X16.3109 Y4.4832 Z0.2461
X16.3102 Y4.4827 Z0.2488
X16.3096 Y4.4823 Z0.2515
X16.3091 Y4.4821 Z0.2542
X16.3088 Y4.4819 Z0.257
X16.3086 Y4.4817 Z0.2598
X16.3085 Z0.2626
G0 Z0.8626
X14.5732 Y1.8837
Z0.5578
G1 Z0.4359 F50.
Y1.884 Z0.4306 F100.
Y1.8849 Z0.4253
Y1.8863 Z0.4201
Y1.8883 Z0.4151
Y1.8908 Z0.4104
Y1.8937 Z0.4059
X14.5731 Y1.8972 Z0.4018
Y1.901 Z0.3981
Y1.9053 Z0.3948
Y1.9098 Z0.392
Y1.9147 Z0.3897
Y1.9197 Z0.3879
Y1.9249 Z0.3867
Y1.9303 Z0.386
X14.5708 Y2.7288 Z0.3302
G2 X14.6071 Y2.7293 Z0.3262 I0.0182 J0.0001
G1 X14.6379 Y1.1552 Z0.2161
G2 X14.6235 Y1.1314 Z0.2141 I-0.026 J-0.0005
G1 X14.618 Y1.1286 Z0.2137
X14.6131 Y1.1261 Z0.2133
X14.6094 Y1.1246 Z0.213
X14.6055 Y1.1236 Z0.2127
X14.6037 Y1.1234 Z0.2126
X14.602 Y1.1233
G2 X14.5752 Y1.1493 I-0.0007 J0.026
G1 X14.5708 Y2.7288
G2 X14.6071 Y2.7293 I0.0182 J0.0001
G1 X14.6379 Y1.1584
Y1.1552
G2 X14.6235 Y1.1314 I-0.026 J-0.0005
G1 X14.618 Y1.1286
X14.6131 Y1.1261
G2 X14.602 Y1.1233 I-0.0118 J0.0232
G3 X14.5009 Y1.0743 I0.0038 J-0.1365
G2 X14.3953 Y1.1125 I-0.0459 J0.0383
G1 X14.3859 Y4.4904
G2 X14.4483 Y4.5529 I0.0624 J0.0002
G1 X14.6887
G2 X14.7528 Y4.49 I0. J-0.0641
G1 X14.8195 Y1.0775
G2 X14.7592 Y0.9929 I-0.0871 J-0.0017
G3 X14.5387 Y0.8302 I0.1331 J-0.411
G2 X14.4738 Y0.8309 I-0.0322 J0.0227
G3 X14.4266 Y0.8894 I-0.3627 J-0.2441
G2 X14.3957 Y0.9658 I0.0798 J0.0767
G1 X14.3953 Y1.1125
G3 X14.3043 Y1.2481 I-0.1472 J-0.0004
G2 X14.2134 Y1.3838 I0.0562 J0.136
G1 X14.204 Y4.7341
X14.9292
X15.0054 Y0.8363
X14.897 Y0.8342
X14.8946 Y0.8341
X14.8831 Y0.8337
X14.8751 Y0.8331
X14.8693 Y0.8326
X14.8636 Y0.8319
X14.8578 Y0.831
X14.852 Y0.8301
X14.8463 Y0.829
X14.8405 Y0.8277
X14.8347 Y0.8263
X14.8269 Y0.8242
X14.817 Y0.8212
X14.8113 Y0.8193
X14.8096 Y0.8187
X14.8059 Y0.8173
X14.8001 Y0.815
X14.7944 Y0.8126
X14.7886 Y0.81
X14.7829 Y0.8073
X14.7773 Y0.8044
X14.7715 Y0.8013
X14.7656 Y0.7979
X14.7597 Y0.7943
X14.754 Y0.7906
X14.7482 Y0.7866
X14.7424 Y0.7825
X14.7374 Y0.7786
X14.7331 Y0.7752
X14.7273 Y0.7702
X14.7201 Y0.7637
X14.7141 Y0.7579
X14.7092 Y0.7529
X14.7034 Y0.7465
X14.6967 Y0.7386
X14.692 Y0.7328
X14.6893 Y0.7292
X14.6859 Y0.7245
X14.6819 Y0.7187
X14.6782 Y0.713
X14.6747 Y0.7072
X14.6723 Y0.7032
X14.671 Y0.7009
X14.668 Y0.6952
X14.6633 Y0.6859
X14.6598 Y0.6784
X14.6574 Y0.6726
X14.6551 Y0.6669
X14.653 Y0.6611
X14.6507 Y0.6544
X14.6484 Y0.6468
X14.6468 Y0.6411
X14.6458 Y0.6371
X14.6446 Y0.6323
X14.6434 Y0.6265
X14.6422 Y0.6208
X14.6413 Y0.615
X14.6404 Y0.6092
X14.6397 Y0.6035
X14.6391 Y0.5977
X14.6386 Y0.5919
X14.6382 Y0.5834
X14.6381 Y0.5719
Y0.5675
X14.6737 Y-1.2534
X14.6738 Y-1.2565
X14.6742 Y-1.2659
X14.372
X14.3725 Y-1.26
X14.3727 Y-1.2542
X14.373 Y-1.2426
X14.3731 Y-1.2389
X14.368 Y0.582
X14.3679 Y0.5851
X14.3676 Y0.5967
X14.3671 Y0.6049
X14.3666 Y0.6107
X14.366 Y0.6164
X14.3652 Y0.6222
X14.3643 Y0.628
X14.3632 Y0.6337
X14.362 Y0.6395
X14.3607 Y0.6453
X14.3593 Y0.651
X14.3576 Y0.6568
X14.3559 Y0.6625
X14.354 Y0.6683
X14.352 Y0.6741
X14.3498 Y0.6798
X14.3474 Y0.6856
X14.3449 Y0.6914
X14.3422 Y0.6971
X14.3393 Y0.7029
X14.3363 Y0.7087
X14.333 Y0.7144
X14.331 Y0.7179
X14.3303 Y0.719
X14.3283 Y0.7222
X14.325 Y0.7274
X14.3215 Y0.7326
X14.3178 Y0.7378
X14.3137 Y0.7432
X14.3092 Y0.7489
X14.3043 Y0.7547
X14.2991 Y0.7605
X14.2933 Y0.7665
X14.287 Y0.7727
X14.2808 Y0.7785
X14.2746 Y0.7838
X14.2688 Y0.7885
X14.2635 Y0.7926
X14.2579 Y0.7966
X14.2522 Y0.8006
X14.2464 Y0.8043
X14.2406 Y0.8079
X14.2348 Y0.8112
X14.229 Y0.8143
X14.2233 Y0.8173
X14.2175 Y0.82
X14.2149 Y0.8212
X14.2134 Y1.3838
X14.2135 Y1.3866 Z0.2127
X14.2138 Y1.3893 Z0.2129
X14.2143 Y1.3921 Z0.2133
X14.2149 Y1.3948 Z0.2138
X14.2156 Y1.3974 Z0.2145
X14.2165 Y1.3999 Z0.2154
X14.2175 Y1.4023 Z0.2164
X14.2186 Y1.4046 Z0.2175
X14.2198 Y1.4068 Z0.2188
X14.221 Y1.4089 Z0.2203
X14.2223 Y1.4108 Z0.2218
X14.2237 Y1.4126 Z0.2235
X14.225 Y1.4143 Z0.2253
X14.2264 Y1.4158 Z0.2272
X14.2277 Y1.4172 Z0.2293
X14.229 Y1.4184 Z0.2314
X14.2303 Y1.4196 Z0.2337
X14.2315 Y1.4206 Z0.236
X14.2326 Y1.4214 Z0.2384
X14.2336 Y1.4222 Z0.2409
X14.2346 Y1.4229 Z0.2435
X14.2354 Y1.4234 Z0.2461
X14.2361 Y1.4239 Z0.2488
X14.2367 Y1.4243 Z0.2515
X14.2372 Y1.4245 Z0.2542
X14.2375 Y1.4247 Z0.257
X14.2377 Y1.4249 Z0.2598
X14.2378 Z0.2626
G0 Z0.8626
X12.9845 Y3.0674
Z0.5578
G1 Z0.4359 F50.
Y3.0671 Z0.4306 F100.
Y3.0662 Z0.4253
Y3.0648 Z0.4201
Y3.0628 Z0.4151
Y3.0603 Z0.4104
X12.9846 Y3.0574 Z0.4059
Y3.0539 Z0.4018
Y3.0501 Z0.3981
Y3.0458 Z0.3948
Y3.0413 Z0.392
Y3.0364 Z0.3897
Y3.0314 Z0.3879
Y3.0262 Z0.3867
X12.9847 Y3.0209 Z0.386
X12.9902 Y1.0508 Z0.2483
G2 X12.9295 Y0.9216 Z0.238 I-0.1671 J-0.0005
G3 X12.8386 Y0.8185 Z0.2283 I0.2792 J-0.3379
G2 X12.7765 Z0.2232 I-0.0311 J0.0199
G3 X12.7343 Y0.8743 Z0.2183 I-0.3751 J-0.2401
X12.6836 Y0.9225 Z0.2134 I-0.3125 J-0.2778
G1 X12.6765 Y0.9285 Z0.2127
X12.6752 Y0.9297 Z0.2126
X12.6739 Y0.9309
G2 X12.6226 Y1.0506 I0.1117 J0.1187
G1 X12.6431 Y4.4902
G2 X12.7061 Y4.5529 I0.0631 J-0.0004
G1 X12.9177
G2 X12.9806 Y4.4903 I0. J-0.0628
G1 X12.9902 Y1.0508
G2 X12.9295 Y0.9216 I-0.1671 J-0.0005
G3 X12.8386 Y0.8185 I0.2792 J-0.3379
G2 X12.7765 I-0.0311 J0.0199
G3 X12.7343 Y0.8743 I-0.3751 J-0.2401
X12.6836 Y0.9225 I-0.3125 J-0.2778
G2 X12.6739 Y0.9309 I0.1021 J0.1271
G3 X12.5507 Y0.9395 I-0.0669 J-0.071
G2 X12.4411 Y0.9965 I-0.0401 J0.0567
G1 X12.4633 Y4.7341
X13.1611
X13.1719 Y0.8388
X13.1684 Y0.8382
X13.1575 Y0.8362
X13.1489 Y0.8342
X13.1424 Y0.8325
X13.1363 Y0.8308
X13.1305 Y0.829
X13.1248 Y0.827
X13.119 Y0.8249
X13.1132 Y0.8227
X13.1075 Y0.8203
X13.1009 Y0.8173
X13.0937 Y0.8138
X13.0879 Y0.8108
X13.0836 Y0.8085
X13.0786 Y0.8056
X13.0728 Y0.802
X13.0671 Y0.7983
X13.0613 Y0.7944
X13.0573 Y0.7915
X13.055 Y0.7898
X13.0515 Y0.7871
X13.0469 Y0.7835
X13.0423 Y0.7796
X13.0377 Y0.7756
X13.0333 Y0.7717
X13.0293 Y0.7678
X13.0235 Y0.7619
X13.016 Y0.7537
X13.0109 Y0.7479
X13.0082 Y0.7445
X13.0046 Y0.74
X13.0003 Y0.7342
X12.9963 Y0.7284
X12.9924 Y0.7227
X12.9902 Y0.7192
X12.9896 Y0.7182
X12.9877 Y0.715
X12.9846 Y0.7098
X12.9818 Y0.7046
X12.979 Y0.6994
X12.9763 Y0.6939
X12.9737 Y0.6881
X12.9712 Y0.6823
X12.9688 Y0.6766
X12.9673 Y0.6726
X12.9665 Y0.6706
X12.9646 Y0.6648
X12.9616 Y0.6554
X12.9594 Y0.6478
X12.958 Y0.642
X12.9567 Y0.6362
X12.9555 Y0.6305
X12.9545 Y0.6247
X12.9536 Y0.6189
X12.9528 Y0.6132
X12.9522 Y0.6074
X12.9517 Y0.6017
X12.9513 Y0.5959
X12.951 Y0.5901
X12.9509 Y0.5844
Y0.5813
X12.956 Y-1.2397
Y-1.2421
X12.9563 Y-1.2536
X12.9565 Y-1.2589
X12.9569 Y-1.2659
X12.6534
X12.6539 Y-1.2584
X12.6541 Y-1.2534
G3 X12.6543 Y-1.2401 I-0.8433 J0.0225
G1 X12.6651 Y0.5808
X12.665 Y0.5865
X12.6648 Y0.5936
X12.6644 Y0.5994
X12.664 Y0.6038
X12.6635 Y0.6088
X12.6628 Y0.6146
X12.662 Y0.6204
X12.661 Y0.6261
X12.6599 Y0.6319
X12.6587 Y0.6376
X12.6573 Y0.6434
X12.6558 Y0.6492
X12.6542 Y0.6549
X12.6524 Y0.6607
X12.6504 Y0.6665
X12.6483 Y0.6722
X12.6458 Y0.6785
X12.643 Y0.6852
X12.6404 Y0.691
X12.6381 Y0.6958
X12.6354 Y0.701
X12.6323 Y0.7068
X12.6289 Y0.7126
X12.6254 Y0.7183
X12.6224 Y0.7232
X12.6198 Y0.727
X12.6156 Y0.7329
X12.6099 Y0.7405
X12.6071 Y0.7441
X12.6041 Y0.7476
X12.5983 Y0.7543
X12.593 Y0.76
X12.5882 Y0.7649
X12.5825 Y0.7704
X12.5757 Y0.7765
X12.5689 Y0.7822
X12.5619 Y0.7877
X12.5561 Y0.792
X12.5515 Y0.7952
X12.5464 Y0.7986
X12.5406 Y0.8022
X12.5348 Y0.8056
X12.5291 Y0.8089
X12.5247 Y0.8112
X12.5218 Y0.8127
X12.5161 Y0.8154
X12.5074 Y0.8193
X12.5002 Y0.8223
X12.4944 Y0.8245
X12.4887 Y0.8265
X12.4829 Y0.8284
X12.4771 Y0.8301
X12.4714 Y0.8317
X12.4656 Y0.8332
X12.4598 Y0.8345
X12.4552 Y0.8355
X12.4517 Y0.8361
X12.4459 Y0.8371
X12.4402 Y0.8379
X12.4411 Y0.9965
X12.4413 Y0.9993 Z0.2127
X12.4416 Y1.0021 Z0.2129
X12.4421 Y1.0049 Z0.2133
X12.4428 Y1.0075 Z0.2138
X12.4435 Y1.0101 Z0.2145
X12.4444 Y1.0127 Z0.2154
X12.4454 Y1.0151 Z0.2164
X12.4465 Y1.0174 Z0.2175
X12.4477 Y1.0196 Z0.2188
X12.449 Y1.0216 Z0.2203
X12.4503 Y1.0235 Z0.2218
X12.4517 Y1.0253 Z0.2235
X12.4531 Y1.027 Z0.2253
X12.4544 Y1.0285 Z0.2272
X12.4558 Y1.0299 Z0.2293
X12.4571 Y1.0311 Z0.2314
X12.4584 Y1.0322 Z0.2337
X12.4596 Y1.0332 Z0.236
X12.4607 Y1.0341 Z0.2384
X12.4617 Y1.0348 Z0.2409
X12.4627 Y1.0355 Z0.2435
X12.4635 Y1.036 Z0.2461
X12.4642 Y1.0365 Z0.2488
X12.4648 Y1.0368 Z0.2515
X12.4653 Y1.0371 Z0.2542
X12.4656 Y1.0373 Z0.257
X12.4658 Y1.0374 Z0.2598
X12.4659 Y1.0375 Z0.2626
G0 Z0.8626
X10.9405 Y1.9398
Z0.5578
G1 Z0.4359 F50.
Y1.9401 Z0.4306 F100.
Y1.9409 Z0.4253
Y1.9424 Z0.4201
Y1.9443 Z0.4151
Y1.9468 Z0.4104
Y1.9498 Z0.4059
Y1.9532 Z0.4018
Y1.9571 Z0.3981
Y1.9613 Z0.3948
Y1.9659 Z0.392
Y1.9707 Z0.3897
Y1.9758 Z0.3879
Y1.981 Z0.3867
Y1.9863 Z0.386
X10.9434 Y4.3381 Z0.2216
G2 X10.9784 Y4.3731 Z0.2177 I0.035 J0.
G1 X10.9786
G2 X11.0136 Y4.3378 Z0.2139 I0. J-0.035
G1 X11.0135 Y4.3213 Z0.2127
Y4.3178 Z0.2126
X10.9948 Y1.1599
G2 X10.957 Y1.1368 I-0.026 J0.0002
G1 X10.9539 Y1.1383
G2 X10.9395 Y1.1617 I0.0116 J0.0233
G1 X10.9434 Y4.3379
Y4.3381
G2 X10.9784 Y4.3731 I0.035 J0.
G1 X10.9786
G2 X11.0136 Y4.3378 I0. J-0.035
G1 X11.0135 Y4.3178
G3 X11.1027 Y4.1822 I0.1462 J-0.0009
G2 X11.1919 Y4.0467 I-0.057 J-0.1347
G1 X11.1731 Y0.8865
G2 X11.1605 Y0.849 I-0.0631 J0.0004
G3 X11.141 Y0.8207 I0.3201 J-0.2404
X11.1238 Y0.7908 I0.417 J-0.2603
G2 X11.0658 Y0.7905 I-0.0291 J0.0154
G3 X10.8215 Y0.9991 I-0.3968 J-0.2172
G2 X10.7594 Y1.087 I0.031 J0.0878
G1 X10.7636 Y4.4892
G2 X10.8275 Y4.5531 I0.064 J-0.0001
G1 X11.1311
G2 X11.1945 Y4.4893 I0. J-0.0634
G1 X11.1919 Y4.0467
G3 X11.2816 Y3.9104 I0.1471 J-0.0009
G2 X11.3713 Y3.7741 I-0.0574 J-0.1354
G1 X11.3536 Y0.79
X11.3514 Y0.7883
X11.3457 Y0.7836
X11.3424 Y0.7808
X11.3385 Y0.7773
X11.3341 Y0.7732
X11.3297 Y0.7688
X11.3253 Y0.7643
X11.3218 Y0.7605
X11.319 Y0.7574
X11.3142 Y0.7517
X11.3075 Y0.7433
X11.3045 Y0.7394
X11.3017 Y0.7355
X11.297 Y0.7285
X11.2932 Y0.7227
X11.2905 Y0.7182
X11.2876 Y0.713
X11.2844 Y0.7073
X11.2814 Y0.7015
X11.2787 Y0.6958
X11.2758 Y0.6894
X11.2729 Y0.6826
X11.2707 Y0.6768
X11.269 Y0.6721
X11.2672 Y0.6669
X11.2654 Y0.6612
X11.2637 Y0.6554
X11.2622 Y0.6496
X11.2608 Y0.6439
X11.2595 Y0.6381
X11.2584 Y0.6324
X11.2574 Y0.6266
X11.2566 Y0.6208
X11.2559 Y0.6151
X11.2553 Y0.6093
X11.2548 Y0.6035
X11.2544 Y0.5959
X11.2542 Y0.5844
X11.2541 Y0.5824
X11.2434 Y-1.227
Y-1.2273
Y-1.2388
Y-1.243
X11.2437 Y-1.2545
X11.2441 Y-1.261
X11.2445 Y-1.2659
X10.9338
X10.9343 Y-1.2593
X10.9345 Y-1.2537
X10.9348 Y-1.2422
Y-1.2395
X10.937 Y0.5815
X10.9369 Y0.5865
X10.9365 Y0.5981
X10.9359 Y0.6067
X10.9353 Y0.6124
X10.9345 Y0.6182
X10.9337 Y0.624
X10.9329 Y0.6283
X10.9324 Y0.6312
X10.9312 Y0.637
X10.9292 Y0.6456
X10.9273 Y0.6528
X10.9256 Y0.6586
X10.9238 Y0.6643
X10.9218 Y0.6701
X10.9197 Y0.6758
X10.9174 Y0.6816
X10.9149 Y0.6874
X10.9123 Y0.6931
X10.9105 Y0.6969
X10.9095 Y0.6988
X10.9065 Y0.7046
X10.9011 Y0.7143
G3 X10.8953 Y0.7236 I-0.1134 J-0.0635
G1 X10.8892 Y0.7327
X10.8851 Y0.7384
X10.8832 Y0.7409
X10.88 Y0.7449
X10.8755 Y0.7504
X10.8704 Y0.7562
X10.8649 Y0.7622
X10.8593 Y0.7678
X10.8538 Y0.7731
X10.8482 Y0.7781
X10.8427 Y0.7829
X10.8389 Y0.7859
X10.837 Y0.7874
X10.8336 Y0.79
X10.8288 Y0.7935
X10.824 Y0.7969
X10.8192 Y0.8001
X10.8128 Y0.8042
X10.8047 Y0.8089
X10.7989 Y0.8122
X10.7954 Y0.8139
X10.7908 Y0.8162
X10.7851 Y0.8189
X10.7793 Y0.8215
X10.7735 Y0.8239
X10.7678 Y0.8261
X10.762 Y0.8282
X10.7562 Y0.8301
X10.7505 Y0.8319
X10.7461 Y0.8331
X10.7432 Y0.8339
X10.7374 Y0.8353
X10.7288 Y0.8372
X10.7216 Y0.8386
X10.7158 Y0.8395
X10.7101 Y0.8404
X10.7043 Y0.841
X10.6985 Y0.8416
X10.6928 Y0.842
X10.687 Y0.8423
X10.6812 Y0.8424
X10.6778 Y0.8425
X10.5781 Y0.8426
X10.5829 Y4.7341
X11.377
X11.3713 Y3.7741
X11.3711 Y3.7713 Z0.2127
X11.3708 Y3.7686 Z0.2129
X11.3703 Y3.7658 Z0.2133
X11.3697 Y3.7632 Z0.2138
X11.3689 Y3.7605 Z0.2145
X11.368 Y3.758 Z0.2154
X11.367 Y3.7556 Z0.2164
X11.3659 Y3.7533 Z0.2175
X11.3647 Y3.7511 Z0.2188
X11.3634 Y3.7491 Z0.2203
X11.3621 Y3.7471 Z0.2218
X11.3607 Y3.7454 Z0.2235
X11.3594 Y3.7437 Z0.2253
X11.358 Y3.7422 Z0.2272
X11.3566 Y3.7408 Z0.2293
X11.3553 Y3.7396 Z0.2314
X11.3541 Y3.7385 Z0.2337
X11.3529 Y3.7375 Z0.236
X11.3517 Y3.7366 Z0.2384
X11.3507 Y3.7359 Z0.2409
X11.3497 Y3.7352 Z0.2435
X11.3489 Y3.7347 Z0.2461
X11.3482 Y3.7342 Z0.2488
X11.3476 Y3.7338 Z0.2515
X11.3471 Y3.7336 Z0.2542
X11.3468 Y3.7334 Z0.257
X11.3466 Y3.7332 Z0.2598
X11.3465 Z0.2626
G0 Z0.8626
X9.5518 Y1.0967
Z0.5578
G1 Z0.4359 F50.
Y1.0964 Z0.4306 F100.
Y1.0955 Z0.4253
Y1.0941 Z0.4201
Y1.0922 Z0.4151
Y1.0897 Z0.4104
Y1.0867 Z0.4059
Y1.0833 Z0.4018
Y1.0794 Z0.3981
Y1.0752 Z0.3948
Y1.0706 Z0.392
Y1.0658 Z0.3897
Y1.0607 Z0.3879
Y1.0555 Z0.3867
X9.5517 Y1.0502 Z0.386
X9.5489 Y-1.2391 Z0.226
X9.549 Y-1.2424 Z0.2257
X9.5493 Y-1.2539 Z0.2249
X9.5495 Y-1.2599 Z0.2245
X9.55 Y-1.2659 Z0.2241
X9.3873 Z0.2127
X9.3838 Z0.2126
X9.257
X9.2575 Y-1.2586
X9.2577 Y-1.2534
X9.2579 Y-1.2419
Y-1.2399
X9.2871 Y4.7341
X9.5562
X9.5491 Y-1.1209
X9.5489 Y-1.2391
X9.549 Y-1.2424
X9.5493 Y-1.2539
X9.5495 Y-1.2599
X9.55 Y-1.2659
X9.3838
X9.381 Y-1.2657 Z0.2127
X9.3782 Y-1.2654 Z0.2129
X9.3755 Y-1.265 Z0.2133
X9.3728 Y-1.2644 Z0.2138
X9.3702 Y-1.2636 Z0.2145
X9.3677 Y-1.2627 Z0.2154
X9.3652 Y-1.2617 Z0.2164
X9.3629 Y-1.2606 Z0.2175
X9.3607 Y-1.2594 Z0.2188
X9.3587 Y-1.2582 Z0.2203
X9.3568 Y-1.2569 Z0.2218
X9.355 Y-1.2555 Z0.2235
X9.3533 Y-1.2542 Z0.2253
X9.3518 Y-1.2528 Z0.2272
X9.3504 Y-1.2515 Z0.2293
X9.3491 Y-1.2502 Z0.2314
X9.348 Y-1.2489 Z0.2337
X9.347 Y-1.2477 Z0.236
X9.3462 Y-1.2466 Z0.2384
X9.3454 Y-1.2455 Z0.2409
X9.3447 Y-1.2446 Z0.2435
X9.3442 Y-1.2438 Z0.2461
X9.3437 Y-1.2431 Z0.2488
X9.3434 Y-1.2425 Z0.2515
X9.3431 Y-1.242 Z0.2542
X9.3429 Y-1.2416 Z0.257
X9.3428 Y-1.2414 Z0.2598
X9.3427 Z0.2626
G0 Z0.8626
X7.7603 Y1.9469
Z0.5578
G1 Z0.4359 F50.
Y1.9472 Z0.4306 F100.
Y1.9481 Z0.4253
Y1.9495 Z0.4201
Y1.9515 Z0.4151
Y1.9539 Z0.4104
Y1.9569 Z0.4059
Y1.9604 Z0.4018
Y1.9642 Z0.3981
Y1.9685 Z0.3948
Y1.973 Z0.392
Y1.9778 Z0.3897
Y1.9829 Z0.3879
Y1.9881 Z0.3867
Y1.9934 Z0.386
X7.7632 Y4.3471 Z0.2215
G2 X7.7892 Y4.3731 Z0.2186 I0.026 J0.
G1 X7.807 Z0.2174
G2 X7.8331 Y4.3469 Z0.2145 I0. J-0.026
G1 X7.8329 Y4.3215 Z0.2127
Y4.318 Z0.2126
X7.8174 Y1.1478
G2 X7.8043 Y1.1253 I-0.026 J0.0001
G1 X7.7983 Y1.1219
G2 X7.7593 Y1.1445 I-0.013 J0.0225
G1 X7.7632 Y4.3471
G2 X7.7892 Y4.3731 I0.026 J0.
G1 X7.807
G2 X7.8331 Y4.3469 I0. J-0.026
G1 X7.8329 Y4.318
G3 X7.9223 Y4.1826 I0.1462 J-0.0007
G2 X8.0116 Y4.0471 I-0.0569 J-0.1347
G1 X7.9971 Y1.0855
G2 X7.934 Y0.9892 I-0.1058 J0.0005
G3 X7.8222 Y0.9188 I0.1812 J-0.4117
X7.7364 Y0.8184 I0.2784 J-0.3244
G2 X7.6736 Y0.8179 I-0.0316 J0.0194
G3 X7.6451 Y0.8578 I-0.3995 J-0.2545
X7.6124 Y0.8944 I-0.3269 J-0.2595
G2 X7.5791 Y0.9746 I0.0796 J0.0801
G1 X7.5834 Y4.4892
G2 X7.6473 Y4.5531 I0.064 J-0.0001
G1 X7.9503
G2 X8.0138 Y4.4893 I0. J-0.0635
G1 X8.0116 Y4.0471
G3 X8.1014 Y3.9109 I0.1471 J-0.0007
G2 X8.1913 Y3.7747 I-0.0572 J-0.1355
G1 X8.177 Y0.8449
X8.1175 Y0.8451
G3 X8.1044 I-0.0005 J-0.9562
G1 X8.0971 Y0.8448
X8.0913 Y0.8444
X8.0856 Y0.8439
X8.0798 Y0.8433
X8.074 Y0.8426
X8.0683 Y0.8417
X8.0625 Y0.8407
X8.0567 Y0.8395
X8.051 Y0.8382
X8.0452 Y0.8368
X8.0394 Y0.8352
X8.0337 Y0.8335
X8.03 Y0.8323
X8.0285 Y0.8318
X8.0227 Y0.8298
X8.0127 Y0.8259
X8.0048 Y0.8226
X7.999 Y0.82
X7.9933 Y0.8171
X7.9875 Y0.8141
X7.9829 Y0.8116
X7.9794 Y0.8096
X7.9736 Y0.806
X7.9655 Y0.8008
G3 X7.9574 Y0.7951 I0.0706 J-0.1092
G1 X7.949 Y0.7887
X7.9433 Y0.7841
X7.9401 Y0.7814
X7.9362 Y0.7779
X7.9317 Y0.7737
X7.9272 Y0.7694
X7.9227 Y0.7648
X7.9192 Y0.7611
X7.9167 Y0.7583
X7.9118 Y0.7526
X7.9048 Y0.7438
X7.9019 Y0.7401
X7.8991 Y0.7362
X7.8946 Y0.7296
X7.8908 Y0.7239
X7.8877 Y0.7189
X7.8846 Y0.7135
X7.8814 Y0.7077
X7.8784 Y0.702
X7.8756 Y0.6962
X7.873 Y0.6904
X7.8705 Y0.6846
X7.8682 Y0.6789
X7.866 Y0.6731
X7.8641 Y0.6674
X7.8622 Y0.6616
X7.8605 Y0.6559
X7.859 Y0.6501
X7.8575 Y0.6443
X7.8563 Y0.6386
X7.8551 Y0.6328
X7.8541 Y0.627
X7.8532 Y0.6213
X7.8525 Y0.6155
X7.8519 Y0.6097
X7.8514 Y0.604
X7.851 Y0.5961
X7.8507 Y0.5846
Y0.5822
X7.8418 Y-1.2387
Y-1.2429
X7.8422 Y-1.2544
X7.8425 Y-1.2608
X7.8429 Y-1.2659
X7.5575
X7.5579 Y-1.2593
X7.5582 Y-1.2537
X7.5584 Y-1.2422
X7.5585 Y-1.2395
X7.5607 Y0.5815
X7.5606 Y0.5866
X7.5602 Y0.5981
X7.5595 Y0.6067
X7.5589 Y0.6125
X7.5582 Y0.6182
X7.5573 Y0.624
X7.5563 Y0.6298
X7.5552 Y0.6355
X7.5539 Y0.6413
X7.5525 Y0.647
X7.5511 Y0.6524
X7.5496 Y0.6575
X7.5478 Y0.6632
X7.5456 Y0.6697
X7.5433 Y0.6759
X7.541 Y0.6816
X7.5386 Y0.6874
X7.5359 Y0.6931
X7.5325 Y0.7002
X7.5281 Y0.7085
X7.5248 Y0.7142
X7.5229 Y0.7174
X7.5201 Y0.722
X7.5163 Y0.7277
X7.5123 Y0.7335
X7.5081 Y0.7393
X7.5051 Y0.7431
X7.5035 Y0.7451
X7.5007 Y0.7485
X7.4967 Y0.7533
X7.4924 Y0.758
X7.4879 Y0.7628
X7.4842 Y0.7667
X7.4812 Y0.7696
X7.4772 Y0.7733
X7.4722 Y0.7779
X7.4672 Y0.7821
X7.4622 Y0.7862
X7.4589 Y0.7888
X7.4573 Y0.79
X7.4537 Y0.7926
X7.448 Y0.7967
X7.4422 Y0.8006
X7.4364 Y0.8042
X7.4312 Y0.8073
X7.4265 Y0.81
X7.4208 Y0.813
X7.4139 Y0.8165
X7.4076 Y0.8195
X7.4018 Y0.822
X7.3979 Y0.8236
X7.4027 Y4.7341
X8.196
X8.1913 Y3.7747
X8.1911 Y3.772 Z0.2127
X8.1908 Y3.7692 Z0.2129
X8.1903 Y3.7664 Z0.2133
X8.1897 Y3.7638 Z0.2138
X8.1889 Y3.7612 Z0.2145
X8.188 Y3.7586 Z0.2154
X8.187 Y3.7562 Z0.2164
X8.1859 Y3.7539 Z0.2175
X8.1847 Y3.7517 Z0.2188
X8.1834 Y3.7497 Z0.2203
X8.1821 Y3.7477 Z0.2218
X8.1808 Y3.746 Z0.2235
X8.1794 Y3.7443 Z0.2253
X8.178 Y3.7428 Z0.2272
X8.1767 Y3.7414 Z0.2293
X8.1754 Y3.7402 Z0.2314
X8.1741 Y3.7391 Z0.2337
X8.1729 Y3.7381 Z0.236
X8.1718 Y3.7372 Z0.2384
X8.1707 Y3.7364 Z0.2409
X8.1698 Y3.7358 Z0.2435
X8.1689 Y3.7352 Z0.2461
X8.1682 Y3.7348 Z0.2488
X8.1676 Y3.7344 Z0.2515
X8.1672 Y3.7341 Z0.2542
X8.1668 Y3.734 Z0.257
X8.1666 Y3.7338 Z0.2598
X8.1665 Z0.2626
G0 Z0.8626
X5.8798 Y1.9414
Z0.5578
G1 Z0.4359 F50.
Y1.9417 Z0.4306 F100.
Y1.9425 Z0.4253
Y1.9439 Z0.4201
Y1.9459 Z0.4151
Y1.9484 Z0.4104
Y1.9514 Z0.4059
Y1.9548 Z0.4018
Y1.9587 Z0.3981
Y1.9629 Z0.3948
Y1.9675 Z0.392
Y1.9723 Z0.3897
Y1.9773 Z0.3879
Y1.9826 Z0.3867
Y1.9879 Z0.386
X5.8827 Y4.3471 Z0.2211
G2 X5.9088 Y4.3731 Z0.2182 I0.026 J0.
G1 X5.9229 Z0.2172
G2 X5.949 Y4.347 Z0.2144 I0. J-0.026
G1 X5.9489 Y4.3234 Z0.2127
Y4.3199 Z0.2126
X5.9451 Y1.1446
G2 X5.9062 Y1.122 I-0.026 J0.
G1 X5.9023 Y1.1242
G3 X5.8925 Y1.1296 I-0.2424 J-0.427
G2 X5.8788 Y1.1526 I0.0123 J0.0229
G1 X5.8827 Y4.3396
Y4.3471
G2 X5.9088 Y4.3731 I0.026 J0.
G1 X5.9229
G2 X5.949 Y4.347 I0. J-0.026
G1 X5.9489 Y4.3199
G3 X6.0388 Y4.1848 I0.1463 J-0.0002
G2 X6.1286 Y4.0497 I-0.0564 J-0.1349
G1 X6.1248 Y0.9698
G2 X6.0927 Y0.891 I-0.1129 J0.0001
G3 X6.0619 Y0.8556 I0.2985 J-0.2913
X6.0349 Y0.8172 I0.387 J-0.3007
G2 X5.9721 I-0.0314 J0.0199
G3 X5.8809 Y0.9215 I-0.3817 J-0.2418
X5.7619 Y0.9922 I-0.2754 J-0.3281
G2 X5.6987 Y1.0849 I0.0363 J0.0925
G1 X5.7029 Y4.4892
G2 X5.7669 Y4.5531 I0.064 J-0.0001
G1 X6.0654
G2 X6.1291 Y4.4892 I0. J-0.0638
G1 X6.1286 Y4.0497
G3 X6.2189 Y3.9139 I0.1471 J-0.0002
G2 X6.3093 Y3.778 I-0.0567 J-0.1357
G1 X6.3057 Y0.8222
X6.3038 Y0.8214
X6.298 Y0.8187
X6.2917 Y0.8156
X6.2848 Y0.812
X6.2791 Y0.8088
X6.2744 Y0.8061
X6.2692 Y0.8028
X6.2634 Y0.799
X6.2576 Y0.795
X6.2519 Y0.7908
X6.2485 Y0.7882
X6.2476 Y0.7875
X6.2444 Y0.7849
X6.2392 Y0.7805
X6.2338 Y0.7758
X6.2286 Y0.7708
X6.2249 Y0.7673
X6.2228 Y0.7651
X6.2192 Y0.7614
X6.2142 Y0.7559
X6.2095 Y0.7504
X6.2051 Y0.745
X6.2026 Y0.7419
X6.2022 Y0.7413
X6.1999 Y0.7382
X6.1957 Y0.7324
X6.1918 Y0.7266
X6.1881 Y0.7209
X6.1846 Y0.7151
X6.1814 Y0.7094
X6.1783 Y0.7037
X6.1754 Y0.6979
X6.1726 Y0.6921
X6.17 Y0.6863
X6.1676 Y0.6805
X6.1654 Y0.6748
X6.1633 Y0.669
X6.1614 Y0.6632
X6.1596 Y0.6575
X6.158 Y0.6517
X6.1571 Y0.6484
X6.1568 Y0.6475
X6.1555 Y0.6417
X6.1533 Y0.6311
X6.1519 Y0.6229
X6.1511 Y0.6171
X6.1504 Y0.6114
X6.1498 Y0.6056
X6.1493 Y0.5972
X6.1489 Y0.5856
Y0.5818
X6.1466 Y-1.2391
X6.1467 Y-1.2424
X6.1469 Y-1.2539
X6.1472 Y-1.2599
X6.1476 Y-1.2659
X5.8556
X5.856 Y-1.2593
X5.8563 Y-1.2537
X5.8565 Y-1.2422
X5.8566 Y-1.2395
X5.8588 Y0.5815
X5.8587 Y0.5866
X5.8583 Y0.5981
X5.8576 Y0.6067
X5.857 Y0.6125
X5.8563 Y0.6182
X5.8554 Y0.624
X5.8544 Y0.6298
X5.8533 Y0.6355
X5.852 Y0.6413
X5.8506 Y0.647
X5.8491 Y0.6528
X5.8474 Y0.6586
X5.8455 Y0.6643
X5.8436 Y0.6701
X5.841 Y0.6768
X5.838 Y0.6844
X5.8355 Y0.6901
X5.8336 Y0.6941
X5.8312 Y0.6989
X5.8283 Y0.7047
X5.8251 Y0.7104
X5.8217 Y0.7162
X5.8184 Y0.7217
X5.815 Y0.7268
X5.811 Y0.7326
X5.8064 Y0.739
X5.8036 Y0.7427
X5.8006 Y0.7463
X5.7937 Y0.7544
X5.7886 Y0.7601
X5.7854 Y0.7635
X5.7817 Y0.7672
X5.7776 Y0.7712
X5.7734 Y0.7751
X5.7692 Y0.7788
X5.7648 Y0.7825
X5.7601 Y0.7863
X5.7544 Y0.7907
X5.7475 Y0.7957
X5.7414 Y0.7999
X5.7359 Y0.8033
X5.7302 Y0.8068
X5.7241 Y0.8103
X5.7181 Y0.8134
X5.7124 Y0.8163
X5.7066 Y0.819
X5.7008 Y0.8216
X5.6951 Y0.824
X5.6893 Y0.8262
X5.6835 Y0.8282
X5.6778 Y0.8302
X5.672 Y0.8319
X5.6663 Y0.8335
X5.6605 Y0.835
X5.6547 Y0.8364
X5.6489 Y0.8376
X5.6431 Y0.8386
X5.6374 Y0.8396
X5.6316 Y0.8404
X5.6258 Y0.841
X5.6201 Y0.8416
X5.6143 Y0.842
X5.6085 Y0.8423
X5.6028 Y0.8424
X5.5913 Y0.8425
X5.5908
X5.5174 Y0.8426
X5.5222 Y4.7341
X6.3104
X6.3093 Y3.778
X6.3091 Y3.7752 Z0.2127
X6.3088 Y3.7724 Z0.2129
X6.3083 Y3.7697 Z0.2133
X6.3077 Y3.767 Z0.2138
X6.307 Y3.7644 Z0.2145
X6.3061 Y3.7619 Z0.2154
X6.3051 Y3.7595 Z0.2164
X6.304 Y3.7571 Z0.2175
X6.3028 Y3.755 Z0.2188
X6.3015 Y3.7529 Z0.2203
X6.3002 Y3.751 Z0.2218
X6.2989 Y3.7492 Z0.2235
X6.2975 Y3.7475 Z0.2253
X6.2961 Y3.746 Z0.2272
X6.2948 Y3.7446 Z0.2293
X6.2935 Y3.7434 Z0.2314
X6.2922 Y3.7423 Z0.2337
X6.291 Y3.7413 Z0.236
X6.2899 Y3.7404 Z0.2384
X6.2889 Y3.7396 Z0.2409
X6.2879 Y3.739 Z0.2435
X6.2871 Y3.7384 Z0.2461
X6.2864 Y3.738 Z0.2488
X6.2858 Y3.7376 Z0.2515
X6.2853 Y3.7373 Z0.2542
X6.285 Y3.7371 Z0.257
X6.2848 Y3.737 Z0.2598
X6.2847 Z0.2626
G0 Z0.8626
X4.4454 Y1.0853
Z0.5578
G1 Z0.4359 F50.
Y1.085 Z0.4306 F100.
Y1.0842 Z0.4253
Y1.0827 Z0.4201
Y1.0808 Z0.4151
Y1.0783 Z0.4104
Y1.0753 Z0.4059
Y1.0719 Z0.4018
Y1.068 Z0.3981
Y1.0638 Z0.3948
Y1.0592 Z0.392
Y1.0544 Z0.3897
Y1.0493 Z0.3879
Y1.0441 Z0.3867
Y1.0388 Z0.386
X4.4426 Y-1.2391 Z0.2268
Y-1.2424 Z0.2265
X4.4429 Y-1.2539 Z0.2257
X4.4432 Y-1.26 Z0.2253
X4.4436 Y-1.2659 Z0.2249
X4.2696 Z0.2127
X4.2661 Z0.2126
X4.1279
X4.1283 Y-1.2586
X4.1285 Y-1.2535
X4.1287 Y-1.242
X4.1288 Y-1.2399
X4.1569 Y4.7341
X4.4499
X4.4428 Y-1.1096
X4.4426 Y-1.2391
Y-1.2424
X4.4429 Y-1.2539
X4.4432 Y-1.26
X4.4436 Y-1.2659
X4.2661
X4.2633 Y-1.2657 Z0.2127
X4.2605 Y-1.2654 Z0.2129
X4.2578 Y-1.265 Z0.2133
X4.2551 Y-1.2644 Z0.2138
X4.2525 Y-1.2636 Z0.2145
X4.2499 Y-1.2627 Z0.2154
X4.2475 Y-1.2617 Z0.2164
X4.2452 Y-1.2606 Z0.2175
X4.243 Y-1.2594 Z0.2188
X4.241 Y-1.2582 Z0.2203
X4.239 Y-1.2569 Z0.2218
X4.2372 Y-1.2555 Z0.2235
X4.2356 Y-1.2542 Z0.2253
X4.2341 Y-1.2528 Z0.2272
X4.2327 Y-1.2515 Z0.2293
X4.2314 Y-1.2502 Z0.2314
X4.2303 Y-1.2489 Z0.2337
X4.2293 Y-1.2477 Z0.236
X4.2284 Y-1.2466 Z0.2384
X4.2277 Y-1.2455 Z0.2409
X4.227 Y-1.2446 Z0.2435
X4.2265 Y-1.2438 Z0.2461
X4.226 Y-1.2431 Z0.2488
X4.2256 Y-1.2425 Z0.2515
X4.2254 Y-1.242 Z0.2542
X4.2252 Y-1.2416 Z0.257
X4.225 Y-1.2414 Z0.2598
Z0.2626
G0 Z0.8626
X2.7005 Y1.9254
Z0.5578
G1 Z0.4359 F50.
Y1.9256 Z0.4306 F100.
Y1.9265 Z0.4253
Y1.9279 Z0.4201
Y1.9299 Z0.4151
Y1.9324 Z0.4104
Y1.9353 Z0.4059
Y1.9388 Z0.4018
Y1.9426 Z0.3981
Y1.9469 Z0.3948
Y1.9514 Z0.392
Y1.9563 Z0.3897
Y1.9613 Z0.3879
X2.7006 Y1.9665 Z0.3867
Y1.9719 Z0.386
X2.7047 Y4.3539 Z0.2195
G2 X2.724 Y4.3731 Z0.2174 I0.0193 J0.
G1 X2.7371 Z0.2165
G2 X2.7564 Y4.3537 Z0.2143 I0. J-0.0193
G1 X2.7563 Y4.3306 Z0.2127
X2.7562 Y4.3272 Z0.2126
X2.7413 Y1.156
G2 X2.7308 Y1.139 I-0.0193 J0.0001
G1 X2.7272 Y1.1371
G2 X2.6991 Y1.1543 I-0.0088 J0.0171
G1 X2.7047 Y4.3539
G2 X2.724 Y4.3731 I0.0193 J0.
G1 X2.7371
G2 X2.7564 Y4.3537 I0. J-0.0193
G1 X2.7562 Y4.3272
G3 X2.8456 Y4.1917 I0.1462 J-0.0007
G2 X2.935 Y4.0563 I-0.0569 J-0.1347
G1 X2.921 Y1.0889
G2 X2.8581 Y0.9984 I-0.0972 J0.0005
G3 X2.7271 Y0.9219 I0.1607 J-0.4256
X2.6296 Y0.8056 I0.2768 J-0.3312
G2 X2.5687 I-0.0304 J0.0175
G3 X2.5327 Y0.8579 I-0.3471 J-0.2003
G2 X2.5187 Y0.8977 I0.049 J0.0397
G1 X2.525 Y4.4892
G2 X2.589 Y4.5531 I0.064 J-0.0001
G1 X2.8735
G2 X2.937 Y4.4893 I0. J-0.0635
G1 X2.935 Y4.0563
G3 X3.0248 Y3.9201 I0.1471 J-0.0007
G2 X3.1147 Y3.784 I-0.0572 J-0.1355
G1 X3.1008 Y0.8446
X3.019 Y0.845
X3.0184
X3.0178
X3.0062 Y0.8449
X2.9993 Y0.8447
X2.9935 Y0.8444
X2.9878 Y0.8439
X2.982 Y0.8433
X2.9762 Y0.8426
X2.9705 Y0.8418
X2.9647 Y0.8408
X2.9589 Y0.8397
X2.9532 Y0.8384
X2.9474 Y0.837
X2.9416 Y0.8355
X2.9358 Y0.8338
X2.9321 Y0.8326
X2.9303 Y0.832
X2.9245 Y0.83
X2.9147 Y0.8263
X2.907 Y0.8231
X2.9012 Y0.8205
X2.8955 Y0.8177
X2.8897 Y0.8147
X2.8848 Y0.8121
X2.8809 Y0.8098
X2.8751 Y0.8063
X2.8675 Y0.8015
G3 X2.8593 Y0.7958 I0.0701 J-0.1095
G1 X2.8504 Y0.7891
X2.8447 Y0.7845
X2.842 Y0.7822
X2.8383 Y0.7789
X2.8335 Y0.7745
X2.8287 Y0.7699
X2.8239 Y0.7651
X2.8205 Y0.7615
X2.8186 Y0.7594
X2.8156 Y0.756
X2.8116 Y0.7513
X2.8078 Y0.7466
X2.8041 Y0.7419
X2.8004 Y0.7368
X2.7965 Y0.7312
X2.7927 Y0.7255
X2.7889 Y0.7195
X2.7855 Y0.7136
X2.7823 Y0.7079
X2.7793 Y0.7021
X2.7765 Y0.6963
X2.7742 Y0.6914
X2.7724 Y0.6872
X2.77 Y0.6815
X2.7672 Y0.6741
X2.7649 Y0.6675
X2.763 Y0.6618
X2.7613 Y0.656
X2.7598 Y0.6502
X2.7584 Y0.6445
X2.7571 Y0.6387
X2.7559 Y0.6329
X2.7549 Y0.6272
X2.754 Y0.6214
X2.7533 Y0.6157
X2.7527 Y0.6099
X2.7522 Y0.6041
X2.7517 Y0.5962
X2.7515 Y0.5847
X2.7514 Y0.5822
X2.7429 Y-1.2387
Y-1.2428
X2.7432 Y-1.2543
X2.7436 Y-1.2608
X2.7439 Y-1.2659
X2.4445
Y-1.2654
X2.4449 Y-1.258
X2.4451 Y-1.2536
X2.4453 Y-1.2421
X2.4454 Y-1.2395
X2.4485 Y0.5814
X2.4484 Y0.5868
X2.448 Y0.5983
X2.4474 Y0.6069
X2.4467 Y0.6127
X2.446 Y0.6185
X2.4451 Y0.6242
X2.4438 Y0.6316
X2.4419 Y0.6405
X2.4405 Y0.6463
X2.4399 Y0.6489
X2.4387 Y0.653
X2.437 Y0.6588
X2.4351 Y0.6646
X2.4332 Y0.6703
X2.431 Y0.6761
X2.4287 Y0.6819
X2.4262 Y0.6876
X2.4236 Y0.6934
X2.4211 Y0.6984
X2.4189 Y0.7027
X2.4158 Y0.7085
X2.4116 Y0.7157
X2.4078 Y0.722
X2.4043 Y0.7273
X2.4006 Y0.7327
X2.3967 Y0.738
X2.3944 Y0.7411
X2.3937 Y0.7419
X2.3911 Y0.7453
X2.3863 Y0.751
X2.3812 Y0.7568
X2.3758 Y0.7626
X2.3727 Y0.7658
X2.372 Y0.7665
X2.3688 Y0.7696
X2.363 Y0.7749
X2.3573 Y0.78
X2.3515 Y0.7848
X2.3482 Y0.7875
X2.3473 Y0.7881
X2.3443 Y0.7904
X2.3389 Y0.7943
X2.3384 Y0.7947
X2.338 Y0.795
X2.3375 Y0.7953
X2.3444 Y4.7341
X3.1192
X3.1147 Y3.784
X3.1145 Y3.7812 Z0.2127
X3.1142 Y3.7784 Z0.2129
X3.1137 Y3.7757 Z0.2133
X3.1131 Y3.773 Z0.2138
X3.1123 Y3.7704 Z0.2145
X3.1114 Y3.7679 Z0.2154
X3.1104 Y3.7654 Z0.2164
X3.1093 Y3.7631 Z0.2175
X3.1081 Y3.7609 Z0.2188
X3.1068 Y3.7589 Z0.2203
X3.1055 Y3.757 Z0.2218
X3.1042 Y3.7552 Z0.2235
X3.1028 Y3.7535 Z0.2253
X3.1014 Y3.752 Z0.2272
X3.1001 Y3.7506 Z0.2293
X3.0988 Y3.7494 Z0.2314
X3.0975 Y3.7483 Z0.2337
X3.0963 Y3.7473 Z0.236
X3.0952 Y3.7464 Z0.2384
X3.0941 Y3.7457 Z0.2409
X3.0932 Y3.745 Z0.2435
X3.0924 Y3.7445 Z0.2461
X3.0916 Y3.744 Z0.2488
X3.0911 Y3.7436 Z0.2515
X3.0906 Y3.7434 Z0.2542
X3.0902 Y3.7432 Z0.257
X3.09 Y3.743 Z0.2598
Z0.2626
G0 Z0.8626
X0.3473 Y4.3731
Z0.2626
G1 X0.3476 Z0.257 F100.
X0.3486 Z0.2515
X0.3501 Z0.2461
X0.3522 Z0.2409
X0.355 Z0.236
X0.3582 Z0.2314
X0.3619 Z0.2272
X0.3661 Z0.2235
X0.3707 Z0.2203
X0.3756 Z0.2175
X0.3808 Z0.2154
X0.3862 Z0.2138
X0.3917 Z0.2129
X0.3973 Z0.2126
X0.5458
X0.6236
G2 X0.6874 Y4.3092 I0. J-0.0637
G1 X0.6784 Y-0.841
G2 X0.6144 Y-0.9049 I-0.064 J0.0001
G1 X0.5459
X0.3493
X0.3437 Z0.2129
X0.3381 Z0.2138
X0.3327 Z0.2154
X0.3276 Z0.2175
X0.3227 Z0.2203
X0.3181 Z0.2235
X0.3139 Z0.2272
X0.3102 Z0.2314
X0.3069 Z0.236
X0.3042 Z0.2409
X0.3021 Z0.2461
X0.3005 Z0.2515
X0.2996 Z0.257
X0.2993 Z0.2626
G0 Z0.8626
X0.3473 Y4.5531
Z0.2626
G1 X0.3476 Z0.257 F100.
X0.3486 Z0.2515
X0.3501 Z0.2461
X0.3522 Z0.2409
X0.355 Z0.236
X0.3582 Z0.2314
X0.3619 Z0.2272
X0.3661 Z0.2235
X0.3707 Z0.2203
X0.3756 Z0.2175
X0.3808 Z0.2154
X0.3862 Z0.2138
X0.3917 Z0.2129
X0.3973 Z0.2126
X0.5459
X0.8039
G2 X0.8677 Y4.4892 I0. J-0.0637
G1 X0.8581 Y-1.021
G2 X0.7941 Y-1.0849 I-0.064 J0.0001
G1 X0.5459
X0.3493
X0.3437 Z0.2129
X0.3381 Z0.2138
X0.3327 Z0.2154
X0.3276 Z0.2175
X0.3226 Z0.2203
X0.3181 Z0.2235
X0.3139 Z0.2272
X0.3102 Z0.2314
X0.3069 Z0.236
X0.3042 Z0.2409
X0.3021 Z0.2461
X0.3005 Z0.2515
X0.2996 Z0.257
X0.2993 Z0.2626
G0 Z0.8626
X0.3473 Y4.7033
Z0.2576
G1 X0.3476 Z0.2526 F100.
X0.3484 Y4.7034 Z0.2476
X0.3498 Y4.7037 Z0.2427
X0.3517 Y4.704 Z0.2381
X0.3541 Y4.7043 Z0.2337
X0.357 Y4.7048 Z0.2295
X0.3603 Y4.7053 Z0.2258
X0.364 Y4.7059 Z0.2224
X0.3681 Y4.7066 Z0.2195
X0.3725 Y4.7073 Z0.217
X0.3771 Y4.708 Z0.2151
X0.3819 Y4.7087 Z0.2137
X0.3868 Y4.7095 Z0.2129
X0.3917 Y4.7103 Z0.2126
X0.538 Y4.7335
X0.5419 Y4.7339
X0.5459 Y4.7341
X1.0491
X1.0387 Y-1.2391
Y-1.2425
X1.039 Y-1.254
X1.0393 Y-1.26
X1.0397 Y-1.2659
X0.5459
X0.5419 Y-1.2657
X0.538 Y-1.2653
X0.3438 Y-1.2345
X0.3383 Y-1.2337 Z0.2129
X0.3329 Y-1.2328 Z0.2138
X0.3275 Y-1.2319 Z0.2154
X0.3224 Y-1.2311 Z0.2175
X0.3176 Y-1.2304 Z0.2203
X0.3131 Y-1.2297 Z0.2235
X0.3089 Y-1.229 Z0.2272
X0.3052 Y-1.2284 Z0.2314
X0.302 Y-1.2279 Z0.236
X0.2994 Y-1.2275 Z0.2409
X0.2972 Y-1.2271 Z0.2461
X0.2957 Y-1.2269 Z0.2515
X0.2948 Y-1.2268 Z0.257
X0.2945 Y-1.2267 Z0.2626
G0 Z1.2626
M5
G53 G0 Z0.

(POCKET2 6)
M1
T16 M6
S24000 M3
G17 G90 G94
G55
G0 X0.481 Y4.8904
G43 Z1.2626 H16
G0 Z0.2339
G1 X0.4813 Z0.2305 F50.
X0.482 Y4.8906 Z0.2273
X0.4833 Y4.8908 Z0.2242
X0.485 Y4.891 Z0.2214
X0.4872 Y4.8914 Z0.2188
X0.4897 Y4.8918 Z0.2167
X0.4925 Y4.8922 Z0.2149
X0.4955 Y4.8927 Z0.2136
X0.4987 Y4.8932 Z0.2129
X0.502 Y4.8937 Z0.2126
X0.6919 Y4.9238
X0.6956 Y4.9241
X1.1913
X1.1806 Y-1.2368
Y-1.2372
Y-1.2375
Y-1.2378
X1.1807 Y-1.2456
X1.1808 Y-1.2476
X1.1812 Y-1.2554
X1.1814 Y-1.2583
X1.1821 Y-1.2661
X1.1825 Y-1.2689
X1.1837 Y-1.2767
X1.1842 Y-1.2796
G3 X1.1866 Y-1.2915 I0.4027 J0.0763
G1 X1.1872 Y-1.2941
X1.1885 Y-1.2987
X1.1888 Y-1.3001
X1.1911 Y-1.3079
X1.192 Y-1.3106
X1.1947 Y-1.3184
X1.1958 Y-1.3214
X1.199 Y-1.3291
X1.2002 Y-1.3319
X1.2038 Y-1.3396
X1.2048 Y-1.3415
X1.2073 Y-1.3465
X1.2084 Y-1.3485
X1.2099 Y-1.3513
X1.2107 Y-1.3527
X1.2154 Y-1.3604
X1.2164 Y-1.3621
X1.218 Y-1.3645
X1.219 Y-1.366
X1.2227 Y-1.3714
X1.2238 Y-1.373
X1.2279 Y-1.3785
X1.2296 Y-1.3807
G3 X1.2382 Y-1.3909 I0.2638 J0.2132
G1 X1.2407 Y-1.3937
X1.2485 Y-1.4018
X1.2512 Y-1.4043
X1.2589 Y-1.4114
X1.2608 Y-1.4131
G3 X1.2696 Y-1.4202 I0.1927 J0.2294
G1 X1.2714 Y-1.4216
X1.275 Y-1.4242
X1.2763 Y-1.4251
X1.2805 Y-1.428
X1.2825 Y-1.4294
X1.2903 Y-1.4344
X1.2931 Y-1.436
X1.3009 Y-1.4404
X1.3037 Y-1.4419
X1.3115 Y-1.4458
X1.3143 Y-1.447
X1.3221 Y-1.4504
X1.3247 Y-1.4514
X1.3324 Y-1.4543
X1.3338 Y-1.4548
X1.3365 Y-1.4558
X1.3384 Y-1.4564
X1.3434 Y-1.458
X1.3453 Y-1.4585
X1.3531 Y-1.4606
X1.3561 Y-1.4614
X1.3639 Y-1.4631
X1.3668 Y-1.4636
X1.3746 Y-1.4649
X1.377 Y-1.4653
X1.3848 Y-1.4662
X1.3866 Y-1.4664
X1.3882 Y-1.4666
X1.3885
X1.3888
X1.3892
X1.3953 Y-1.4671
X1.3979 Y-1.4673
X1.4057 Y-1.4675
X1.4074
X2.0759 Y-1.4687
X2.0776
X2.0854 Y-1.4684
X2.0883 Y-1.4683
X2.0961 Y-1.4677
X2.0985 Y-1.4675
X2.1063 Y-1.4665
X2.1088 Y-1.4662
X2.1165 Y-1.4649
X2.1194 Y-1.4644
X2.1272 Y-1.4627
X2.1302 Y-1.462
X2.138 Y-1.4599
X2.1406 Y-1.4591
G3 X2.1507 Y-1.4559 I-0.0912 J0.2995
G1 X2.1523 Y-1.4553
X2.1589 Y-1.4528
X2.1613 Y-1.4518
X2.1691 Y-1.4485
X2.1719 Y-1.4472
X2.1796 Y-1.4434
X2.1825 Y-1.442
X2.1902 Y-1.4376
X2.1922 Y-1.4365
X2.1948 Y-1.4349
X2.1961 Y-1.4341
X2.2012 Y-1.4308
X2.2033 Y-1.4294
G3 X2.2119 Y-1.4232 I-0.1921 J0.279
G1 X2.214 Y-1.4217
X2.2223 Y-1.415
X2.2251 Y-1.4126
G3 X2.2343 Y-1.4042 I-0.2782 J0.3133
G1 X2.2365 Y-1.402
X2.2439 Y-1.3942
X2.2465 Y-1.3914
X2.2533 Y-1.3833
X2.2555 Y-1.3805
X2.261 Y-1.3731
X2.2625 Y-1.371
G3 X2.2683 Y-1.3623 I-0.2456 J0.1687
G1 X2.2697 Y-1.3599
X2.2746 Y-1.3515
X2.2762 Y-1.3487
X2.2798 Y-1.3416
X2.281 Y-1.3391
X2.2846 Y-1.3314
X2.2857 Y-1.3288
X2.2888 Y-1.321
X2.2898 Y-1.3182
X2.2925 Y-1.3105
X2.2935 Y-1.3074
X2.296 Y-1.2984
X2.2968 Y-1.2953
X2.2983 Y-1.2888
X2.2987 Y-1.2867
X2.3002 Y-1.279
X2.3006 Y-1.2765
X2.3017 Y-1.2687
X2.3021 Y-1.2657
X2.3028 Y-1.2579
X2.303 Y-1.255
X2.3033 Y-1.2472
X2.3034 Y-1.2454
X2.3035 Y-1.2376
Y-1.2373
Y-1.237
X2.3067 Y0.5801
Y0.5803
Y0.5806
X2.3066 Y0.5844
X2.3065 Y0.5878
X2.3063 Y0.5917
X2.3059 Y0.5951
X2.3056 Y0.5981
X2.305 Y0.602
X2.3041 Y0.6068
X2.303 Y0.6111
X2.302 Y0.615
X2.3008 Y0.6189
X2.2995 Y0.6228
X2.298 Y0.6267
X2.2963 Y0.6306
X2.2945 Y0.6344
X2.2925 Y0.6383
X2.291 Y0.6409
X2.2902 Y0.6423
X2.2888 Y0.6446
X2.2868 Y0.6478
X2.2846 Y0.651
X2.2822 Y0.6542
X2.2793 Y0.6577
X2.276 Y0.6616
X2.2733 Y0.6645
X2.2712 Y0.6666
X2.2692 Y0.6685
X2.2671 Y0.6704
X2.2643 Y0.6728
X2.2606 Y0.6758
X2.2569 Y0.6786
X2.253 Y0.6812
X2.2491 Y0.6836
X2.2452 Y0.6859
X2.2413 Y0.6879
X2.2374 Y0.6897
X2.2335 Y0.6914
X2.2296 Y0.693
X2.2257 Y0.6943
X2.2218 Y0.6955
X2.218 Y0.6966
X2.2141 Y0.6975
X2.2102 Y0.6983
X2.2063 Y0.699
X2.2024 Y0.6995
X2.1985 Y0.6999
X2.1955 Y0.7001
X2.2028 Y4.9241
X3.262
X3.2421 Y0.7021
X3.0167 Y0.7031
X3.0164
X3.0161
X3.0083
X3.0039 Y0.7029
X3. Y0.7026
X2.9962 Y0.7021
X2.9923 Y0.7016
X2.9884 Y0.7009
X2.9846 Y0.7
X2.9807 Y0.699
X2.9768 Y0.6979
X2.9728 Y0.6966
X2.9689 Y0.6952
X2.9651 Y0.6936
X2.9612 Y0.6919
X2.9577 Y0.6902
X2.9547 Y0.6886
X2.9516 Y0.6869
X2.9486 Y0.685
X2.9462 Y0.6835
X2.9445 Y0.6824
X2.9417 Y0.6803
X2.9378 Y0.6774
X2.9349 Y0.675
X2.933 Y0.6733
X2.931 Y0.6715
X2.9289 Y0.6695
X2.927 Y0.6676
X2.9251 Y0.6656
X2.9233 Y0.6637
X2.9216 Y0.6617
X2.9193 Y0.6588
X2.9163 Y0.655
X2.9143 Y0.6522
X2.9132 Y0.6505
X2.9117 Y0.6482
X2.9098 Y0.6451
X2.908 Y0.6421
X2.9064 Y0.639
X2.9047 Y0.6355
X2.9029 Y0.6317
X2.9014 Y0.6278
X2.8999 Y0.6239
X2.8987 Y0.6201
X2.8976 Y0.6164
X2.8966 Y0.6125
X2.8957 Y0.6084
X2.895 Y0.6045
X2.8944 Y0.6006
X2.8939 Y0.5967
X2.8936 Y0.5928
X2.8934 Y0.5887
X2.8933 Y0.5809
Y0.5807
Y0.5805
X2.8848 Y-1.2366
Y-1.238
X2.8849 Y-1.2457
X2.885 Y-1.248
X2.8854 Y-1.2558
X2.8857 Y-1.2588
X2.8865 Y-1.2666
X2.8868 Y-1.2691
X2.8881 Y-1.2774
X2.8887 Y-1.2805
X2.8902 Y-1.2877
X2.8907 Y-1.2903
X2.8927 Y-1.298
X2.8934 Y-1.3006
X2.8958 Y-1.3083
X2.8964 Y-1.3104
X2.8984 Y-1.3161
X2.8991 Y-1.318
X2.8998 Y-1.3201
X2.9004 Y-1.3215
X2.9036 Y-1.3293
X2.9049 Y-1.3322
X2.9087 Y-1.3402
X2.9101 Y-1.343
X2.9142 Y-1.3505
X2.9155 Y-1.3527
X2.9192 Y-1.3589
X2.9201 Y-1.3603
X2.9211 Y-1.3619
X2.9221 Y-1.3635
X2.9275 Y-1.3713
X2.9284 Y-1.3726
X2.9298 Y-1.3746
X2.9312 Y-1.3763
X2.9357 Y-1.3821
X2.9367 Y-1.3833
X2.9399 Y-1.3872
X2.9418 Y-1.3893
G3 X2.9502 Y-1.3984 I0.2882 J0.2599
G1 X2.9523 Y-1.4005
G3 X2.9607 Y-1.4084 I0.3041 J0.3146
G1 X2.9628 Y-1.4103
G3 X2.9713 Y-1.4173 I0.2522 J0.2945
G1 X2.9735 Y-1.419
X2.9803 Y-1.4241
X2.9816 Y-1.425
X2.9825 Y-1.4257
X2.9841 Y-1.4268
X2.9919 Y-1.4318
X2.9943 Y-1.4334
X2.9978 Y-1.4354
X2.9981 Y-1.4356
X2.9984 Y-1.4358
X3.0027 Y-1.4382
X3.0052 Y-1.4395
G3 X3.0168 Y-1.4454 I0.1698 J0.3239
G1 X3.0194 Y-1.4465
X3.0243 Y-1.4487
X3.026 Y-1.4493
X3.0338 Y-1.4524
X3.0363 Y-1.4533
X3.0441 Y-1.456
X3.047 Y-1.4568
X3.0548 Y-1.459
X3.0578 Y-1.4598
X3.0655 Y-1.4616
X3.0681 Y-1.4621
X3.0759 Y-1.4635
X3.0783 Y-1.4639
X3.0861 Y-1.465
X3.0888 Y-1.4653
X3.0965 Y-1.466
X3.0997 Y-1.4662
X3.1075 Y-1.4665
X3.1091
X3.1169 Y-1.4666
X3.1172
X3.7545 Y-1.4696
X3.755
X3.7554
X3.7632 Y-1.4695
X3.7651
X3.7729 Y-1.4692
X3.7756 Y-1.469
X3.7834 Y-1.4683
X3.7865 Y-1.4679
X3.7943 Y-1.4668
X3.7956 Y-1.4666
X3.7992 Y-1.466
X3.8015 Y-1.4656
X3.8057 Y-1.4647
X3.8072 Y-1.4644
X3.8149 Y-1.4626
X3.8175 Y-1.4619
X3.8253 Y-1.4597
X3.8283 Y-1.4588
X3.8367 Y-1.4559
X3.8397 Y-1.4548
X3.8468 Y-1.4519
X3.8493 Y-1.4508
G3 X3.861 Y-1.4454 I-0.139 J0.3151
G1 X3.8633 Y-1.4442
X3.8683 Y-1.4416
X3.8701 Y-1.4405
X3.8779 Y-1.436
X3.8806 Y-1.4343
X3.8884 Y-1.4292
X3.8906 Y-1.4276
X3.895 Y-1.4244
X3.8961 Y-1.4236
X3.8995 Y-1.421
X3.9013 Y-1.4196
X3.9075 Y-1.4144
X3.9092 Y-1.413
X3.9107 Y-1.4116
X3.9119 Y-1.4105
X3.9187 Y-1.4042
X3.9212 Y-1.4016
X3.9285 Y-1.3938
X3.9309 Y-1.3911
X3.9374 Y-1.3834
X3.9393 Y-1.3809
G3 X3.9454 Y-1.3727 I-0.4525 J0.3401
G1 X3.9471 Y-1.3702
X3.9522 Y-1.3624
X3.9539 Y-1.3596
X3.9584 Y-1.3518
X3.9598 Y-1.3493
X3.9628 Y-1.3433
X3.963 Y-1.3431
X3.9631 Y-1.3428
X3.9632 Y-1.3425
X3.9641 Y-1.3407
X3.9651 Y-1.3387
X3.9685 Y-1.3309
X3.9696 Y-1.3283
X3.9727 Y-1.3206
X3.9736 Y-1.318
X3.9762 Y-1.3102
X3.9771 Y-1.3074
X3.9793 Y-1.2996
X3.9801 Y-1.2966
X3.9819 Y-1.2888
X3.9824 Y-1.2861
X3.9839 Y-1.2775
X3.9843 Y-1.2752
X3.9853 Y-1.2683
X3.9856 Y-1.2655
X3.9863 Y-1.2577
X3.9865 Y-1.2548
X3.9868 Y-1.247
Y-1.2451
X3.9869 Y-1.2296
Y-1.2294
X4.0159 Y4.9241
X4.592
X4.5845 Y-1.2368
Y-1.2372
Y-1.2375
Y-1.2378
X4.5846 Y-1.2456
X4.5847 Y-1.2476
X4.5851 Y-1.2554
X4.5853 Y-1.2582
X4.586 Y-1.266
X4.5864 Y-1.2689
X4.5876 Y-1.2767
X4.588 Y-1.2795
X4.5896 Y-1.2872
X4.5899 Y-1.2888
X4.5911 Y-1.2938
X4.5917 Y-1.2964
G3 X4.5949 Y-1.3078 I0.4204 J0.1143
G1 X4.5959 Y-1.3106
X4.5985 Y-1.3184
X4.5996 Y-1.3213
X4.6028 Y-1.3291
X4.604 Y-1.3318
X4.6076 Y-1.3396
X4.6087 Y-1.3417
X4.6118 Y-1.3476
X4.6127 Y-1.3494
X4.6138 Y-1.3513
X4.6145 Y-1.3526
X4.6192 Y-1.3604
X4.6202 Y-1.3621
X4.6223 Y-1.3653
X4.6234 Y-1.367
X4.6265 Y-1.3715
X4.6277 Y-1.3731
X4.6323 Y-1.3793
X4.6341 Y-1.3816
G3 X4.6428 Y-1.3918 I0.2743 J0.2243
G1 X4.6453 Y-1.3946
X4.653 Y-1.4024
X4.6556 Y-1.405
X4.6634 Y-1.4121
X4.6661 Y-1.4144
X4.6739 Y-1.4206
X4.6758 Y-1.4221
X4.6787 Y-1.4242
X4.68 Y-1.4252
X4.6848 Y-1.4285
X4.6868 Y-1.4298
X4.6936 Y-1.4342
X4.6965 Y-1.4359
X4.7052 Y-1.4408
X4.7081 Y-1.4424
X4.7159 Y-1.4462
X4.7187 Y-1.4475
X4.7265 Y-1.4508
X4.7291 Y-1.4518
G3 X4.74 Y-1.4558 I0.1111 J0.2873
G1 X4.7418 Y-1.4564
X4.7477 Y-1.4582
X4.7498 Y-1.4588
X4.7576 Y-1.4609
X4.7605 Y-1.4617
X4.7683 Y-1.4633
X4.7713 Y-1.4639
X4.779 Y-1.4652
X4.7815 Y-1.4655
X4.7893 Y-1.4664
X4.7918 Y-1.4667
X4.7995 Y-1.4673
X4.8023 Y-1.4674
X4.8101 Y-1.4677
X4.8118
X5.4802 Y-1.4685
X5.4804
X5.4882
X5.4898
X5.4976 Y-1.4682
X5.5007 Y-1.4681
X5.5085 Y-1.4674
X5.5108 Y-1.4672
X5.5174 Y-1.4664
X5.52 Y-1.466
X5.5289 Y-1.4645
X5.5317 Y-1.464
X5.5395 Y-1.4623
X5.5426 Y-1.4615
X5.5503 Y-1.4594
X5.553 Y-1.4586
X5.5608 Y-1.456
X5.5634 Y-1.4551
X5.5711 Y-1.4522
X5.5737 Y-1.4511
X5.5815 Y-1.4478
X5.5838 Y-1.4467
X5.5866 Y-1.4454
X5.5869 Y-1.4452
X5.5872 Y-1.4451
X5.5922 Y-1.4426
X5.5948 Y-1.4412
X5.6026 Y-1.4368
X5.6045 Y-1.4357
G3 X5.6133 Y-1.43 I-0.1475 J0.2409
G1 X5.6157 Y-1.4284
G3 X5.6241 Y-1.4224 I-0.2461 J0.35
G1 X5.6263 Y-1.4206
X5.6341 Y-1.4143
X5.6368 Y-1.412
X5.6448 Y-1.4047
X5.6475 Y-1.402
X5.6551 Y-1.3941
X5.6575 Y-1.3914
X5.664 Y-1.3837
X5.6654 Y-1.3821
X5.6667 Y-1.3804
X5.6677 Y-1.379
X5.6722 Y-1.3729
X5.6737 Y-1.3708
G3 X5.6794 Y-1.3623 I-0.294 J0.201
G1 X5.6808 Y-1.36
G3 X5.6872 Y-1.3489 I-0.3216 J0.1942
G1 X5.6885 Y-1.3464
X5.6912 Y-1.341
X5.6921 Y-1.3392
X5.6957 Y-1.3314
X5.6965 Y-1.3295
X5.698 Y-1.3258
X5.6985 Y-1.3246
X5.7001 Y-1.3205
X5.701 Y-1.3182
X5.7036 Y-1.3105
X5.7046 Y-1.3075
X5.7068 Y-1.2997
X5.7074 Y-1.2976
X5.7086 Y-1.2924
X5.709 Y-1.2908
X5.7096 Y-1.2882
X5.7098 Y-1.2868
X5.7113 Y-1.2791
X5.7118 Y-1.2765
X5.7129 Y-1.2688
X5.7133 Y-1.2657
X5.714 Y-1.2579
X5.7142 Y-1.2551
X5.7145 Y-1.2473
X5.7146 Y-1.2454
X5.7147 Y-1.2377
Y-1.2373
Y-1.237
X5.7169 Y0.5801
Y0.5805
Y0.5844
X5.7168 Y0.5876
X5.7165 Y0.5915
X5.7162 Y0.5954
X5.7157 Y0.5993
X5.7151 Y0.6031
X5.7143 Y0.607
X5.7134 Y0.6109
X5.7124 Y0.6148
X5.7112 Y0.6187
X5.7099 Y0.6226
X5.7086 Y0.626
X5.7073 Y0.629
X5.706 Y0.632
X5.7045 Y0.6351
X5.7033 Y0.6374
X5.7024 Y0.6392
X5.7008 Y0.642
X5.6984 Y0.6459
X5.6958 Y0.6498
X5.693 Y0.6536
X5.6907 Y0.6566
X5.6891 Y0.6586
X5.6869 Y0.6611
X5.6843 Y0.6639
X5.6814 Y0.6668
X5.6784 Y0.6697
X5.6758 Y0.672
X5.6737 Y0.6737
X5.6708 Y0.6761
X5.6669 Y0.6789
X5.663 Y0.6816
X5.6591 Y0.684
X5.6565 Y0.6855
X5.6552 Y0.6863
X5.6529 Y0.6874
X5.6497 Y0.689
X5.6464 Y0.6905
X5.6432 Y0.6919
X5.6397 Y0.6933
X5.6358 Y0.6946
X5.6319 Y0.6958
X5.628 Y0.6969
X5.6241 Y0.6978
X5.6202 Y0.6986
X5.6163 Y0.6992
X5.6125 Y0.6998
X5.6086 Y0.7002
X5.6047 Y0.7004
X5.6013 Y0.7005
X5.5974 Y0.7006
X5.5972
X5.597
X5.3762 Y0.7008
X5.3805 Y4.9241
X6.4526
X6.4525 Y4.9056
X6.4474 Y0.7016
X6.4131 Y0.7017
X6.4128
X6.4125
X6.4122
X6.4044 Y0.7015
X6.4004 Y0.7014
X6.3981 Y0.7012
X6.3956 Y0.7009
X6.3928 Y0.7006
X6.3901 Y0.7002
X6.3874 Y0.6997
X6.3841 Y0.699
X6.3802 Y0.6981
X6.3763 Y0.6971
X6.3724 Y0.6959
X6.3685 Y0.6945
X6.3646 Y0.6931
X6.3607 Y0.6914
X6.3569 Y0.6896
X6.3535 Y0.6879
X6.3507 Y0.6863
X6.348 Y0.6848
X6.3456 Y0.6833
X6.3431 Y0.6816
X6.3406 Y0.6799
X6.338 Y0.678
X6.3352 Y0.6759
X6.3325 Y0.6736
X6.3297 Y0.6712
X6.3272 Y0.6689
X6.325 Y0.6667
X6.3226 Y0.6642
X6.3201 Y0.6614
X6.3177 Y0.6586
X6.3155 Y0.6559
X6.3136 Y0.6534
X6.312 Y0.6511
X6.3105 Y0.6489
X6.309 Y0.6466
X6.3073 Y0.6439
X6.3055 Y0.6406
X6.3036 Y0.637
X6.3017 Y0.6331
X6.3 Y0.6292
X6.2984 Y0.6254
X6.297 Y0.6215
X6.2958 Y0.6176
X6.2947 Y0.6137
X6.2937 Y0.6098
X6.2931 Y0.6072
X6.2929 Y0.6059
X6.2925 Y0.6036
X6.292 Y0.6004
X6.2915 Y0.5972
X6.2912 Y0.594
X6.2909 Y0.5892
X6.2908 Y0.5815
Y0.5811
X6.2907 Y0.5807
Y0.5803
X6.2885 Y-1.2368
Y-1.2372
Y-1.2375
Y-1.2378
X6.2887 Y-1.2456
Y-1.2476
X6.2891 Y-1.2554
X6.2893 Y-1.2582
X6.2901 Y-1.266
X6.2904 Y-1.2689
X6.2916 Y-1.2767
X6.2919 Y-1.2788
X6.2928 Y-1.2831
X6.2931 Y-1.2847
X6.2938 Y-1.2881
X6.2942 Y-1.2897
X6.2961 Y-1.2975
X6.2967 Y-1.3
X6.299 Y-1.3078
X6.2999 Y-1.3107
X6.3028 Y-1.319
X6.3039 Y-1.322
X6.3069 Y-1.3292
X6.308 Y-1.3318
G3 X6.3133 Y-1.3429 I0.3702 J0.1679
G1 X6.3146 Y-1.3454
X6.3175 Y-1.3507
X6.3186 Y-1.3527
X6.3235 Y-1.3608
X6.3251 Y-1.3634
X6.3301 Y-1.3709
X6.3315 Y-1.3728
X6.3343 Y-1.3766
X6.3354 Y-1.378
X6.3385 Y-1.382
X6.3397 Y-1.3835
X6.3443 Y-1.3891
X6.3461 Y-1.391
G3 X6.3547 Y-1.4002 I0.2514 J0.2278
G1 X6.3567 Y-1.4023
G3 X6.3651 Y-1.41 I0.3306 J0.3458
G1 X6.3673 Y-1.412
G3 X6.3756 Y-1.4188 I0.3356 J0.3981
G1 X6.3779 Y-1.4206
G3 X6.3862 Y-1.4267 I0.278 J0.3712
G1 X6.3886 Y-1.4284
X6.3964 Y-1.4334
X6.3979 Y-1.4344
X6.3989 Y-1.435
X6.4003 Y-1.4358
X6.4071 Y-1.4397
X6.4097 Y-1.4411
X6.4175 Y-1.445
X6.4201 Y-1.4462
X6.4279 Y-1.4497
X6.4305 Y-1.4507
X6.4383 Y-1.4538
X6.4403 Y-1.4545
X6.444 Y-1.4558
X6.4444 Y-1.4559
X6.4447 Y-1.456
X6.4451 Y-1.4562
X6.4491 Y-1.4575
X6.4515 Y-1.4582
X6.4593 Y-1.4604
X6.4623 Y-1.4611
X6.4701 Y-1.4628
X6.4726 Y-1.4634
X6.4804 Y-1.4647
X6.4829 Y-1.4651
X6.4906 Y-1.4662
X6.4933 Y-1.4665
X6.5011 Y-1.4672
X6.5042 Y-1.4673
X6.512 Y-1.4676
X6.5136
X6.5214 Y-1.4677
X6.5217
X7.1824 Y-1.4685
X7.1826
X7.1904
X7.1921
X7.1998 Y-1.4682
X7.203 Y-1.468
X7.2107 Y-1.4674
X7.213 Y-1.4672
X7.2194 Y-1.4664
X7.2209 Y-1.4662
G3 X7.2313 Y-1.4644 I-0.0448 J0.2992
G1 X7.2339 Y-1.4639
X7.2417 Y-1.4622
X7.2448 Y-1.4614
X7.2525 Y-1.4593
X7.2553 Y-1.4585
X7.2631 Y-1.4559
X7.2657 Y-1.455
X7.2734 Y-1.452
X7.276 Y-1.451
X7.2838 Y-1.4476
X7.286 Y-1.4466
X7.2885 Y-1.4454
X7.2889 Y-1.4452
X7.2892 Y-1.445
X7.2945 Y-1.4424
X7.297 Y-1.441
X7.3048 Y-1.4366
X7.3068 Y-1.4354
