(UPPER SHAPING)
(T13 D=0.2362 CR=0. TAPER=45DEG - ZMIN=0.2932 - CHAMFER MILL)
(T14 D=0.125 CR=0. - ZMIN=0.2442 - FLAT END MILL)
(T15 D=0.5 CR=0. - ZMIN=0.1942 - FLAT END MILL)
(T16 D=0.2362 CR=0. - ZMIN=0.1942 - FLAT END MILL)
(T17 D=0.4724 CR=0. - ZMIN=-0.585 - FLAT END MILL)
(T18 D=0.9843 CR=0. TAPER=45DEG - ZMIN=-0.635 - DOVETAIL MILL)
G90 G94 G91.1 G40 G49 G17
G20
G53 G0 Z0.

(POCKET2 3)
T15 M6
S10000 M3
G17 G90 G94
G55
G0 X23.0456 Y1.9733
G43 Z1.2442 H15
G0 Z0.5395
G1 Z0.4176 F50.
Y1.9736 Z0.4122 F100.
Y1.9744 Z0.4069
Y1.9759 Z0.4018
Y1.9778 Z0.3968
X23.0457 Y1.9803 Z0.392
Y1.9833 Z0.3876
Y1.9867 Z0.3835
Y1.9906 Z0.3798
Y1.9948 Z0.3765
Y1.9994 Z0.3737
X23.0458 Y2.0042 Z0.3714
Y2.0093 Z0.3696
Y2.0145 Z0.3684
Y2.0198 Z0.3677
X23.0564 Y4.3382 Z0.2056
G2 X23.0914 Y4.3731 Z0.2017 I0.035 J-0.0002
G1 X23.1139 Z0.2002
G2 X23.1489 Y4.3379 Z0.1963 I0. J-0.035
G1 X23.1488 Y4.3101 Z0.1944
X23.1487 Y4.3066 Z0.1942
X23.1334 Y1.1643
G2 X23.1154 Y1.1338 I-0.035 J0.0002
G3 X23.1054 Y1.128 I0.2131 J-0.3816
X23.0954 Y1.1221 I0.7793 J-1.3127
G2 X23.0419 Y1.1525 I-0.0182 J0.0302
G1 X23.0564 Y4.3382
G2 X23.0914 Y4.3731 I0.035 J-0.0002
G1 X23.1139
G2 X23.1489 Y4.3379 I0. J-0.035
G1 X23.1487 Y4.3066
G3 X23.2381 Y4.1712 I0.1462 J-0.0007
G2 X23.3274 Y4.0357 I-0.0569 J-0.1347
G1 X23.313 Y1.0938
G2 X23.2496 Y0.9992 I-0.103 J0.0005
G3 X23.1305 Y0.9258 I0.1704 J-0.41
X23.0407 Y0.8186 I0.2802 J-0.3258
G2 X22.9788 Y0.8182 I-0.0311 J0.0183
G3 X22.942 Y0.8697 I-0.3618 J-0.2201
X22.8981 Y0.9154 I-0.3568 J-0.2982
G2 X22.8612 Y0.9994 I0.076 J0.0835
G1 X22.877 Y4.4892
G2 X22.9413 Y4.5531 I0.0642 J-0.0003
G1 X23.2662
G2 X23.3296 Y4.4893 I0. J-0.0635
G1 X23.3274 Y4.0357
G3 X23.4173 Y3.8995 I0.1471 J-0.0007
G2 X23.5071 Y3.7633 I-0.0572 J-0.1355
G1 X23.4929 Y0.8518
X23.4246 Y0.8521
X23.4224
X23.4108 Y0.852
X23.403 Y0.8516
X23.3972 Y0.8512
X23.3914 Y0.8507
X23.3857 Y0.85
X23.3799 Y0.8492
X23.374 Y0.8482
X23.3682 Y0.8471
X23.3625 Y0.8459
X23.3568 Y0.8446
X23.351 Y0.8431
X23.3453 Y0.8414
X23.3395 Y0.8396
X23.3337 Y0.8377
X23.328 Y0.8356
X23.3222 Y0.8334
X23.3164 Y0.831
X23.3108 Y0.8285
X23.3054 Y0.8259
X23.2996 Y0.823
X23.2935 Y0.8198
X23.2876 Y0.8164
X23.2818 Y0.8129
X23.2761 Y0.8092
X23.2703 Y0.8053
X23.2668 Y0.8029
X23.2656 Y0.802
X23.2624 Y0.7996
X23.2573 Y0.7956
X23.2521 Y0.7914
X23.2469 Y0.7869
X23.2427 Y0.7831
X23.2394 Y0.7801
X23.2356 Y0.7763
X23.2313 Y0.7719
X23.2272 Y0.7675
X23.2232 Y0.7631
X23.2202 Y0.7595
X23.2179 Y0.7568
X23.2146 Y0.7526
X23.2102 Y0.7469
X23.206 Y0.7411
X23.2021 Y0.7353
X23.1997 Y0.7316
X23.1987 Y0.7301
X23.1967 Y0.7268
X23.1938 Y0.7218
X23.191 Y0.7169
X23.1883 Y0.7119
X23.1856 Y0.7065
X23.1829 Y0.7008
X23.1803 Y0.695
X23.1779 Y0.6892
X23.1764 Y0.6853
X23.1755 Y0.6831
X23.1735 Y0.6774
X23.1705 Y0.668
X23.1682 Y0.6604
X23.1667 Y0.6546
X23.1654 Y0.6489
X23.1642 Y0.6431
X23.1631 Y0.6374
X23.1621 Y0.6316
X23.1613 Y0.6258
X23.1606 Y0.6201
X23.1601 Y0.6143
X23.1596 Y0.6085
X23.1593 Y0.6028
X23.1592 Y0.597
X23.1591 Y0.5938
X23.1502 Y-1.2387
Y-1.2428
X23.1505 Y-1.2544
X23.1509 Y-1.2608
X23.1513 Y-1.2659
X22.8535
X22.8539 Y-1.2586
X22.8541 Y-1.2535
X22.8543 Y-1.2419
X22.8544 Y-1.2399
X22.8626 Y0.581
G3 X22.8625 Y0.594 I-1.2023 J-0.0004
G1 X22.8622 Y0.6027
X22.8616 Y0.6114
X22.861 Y0.6172
X22.8607 Y0.6199
X22.8601 Y0.6242
X22.8592 Y0.63
X22.8582 Y0.6357
X22.8571 Y0.6415
X22.8558 Y0.6473
X22.8544 Y0.653
X22.8528 Y0.6588
X22.8511 Y0.6646
X22.8493 Y0.6703
X22.8473 Y0.6761
X22.8451 Y0.6819
X22.8428 Y0.6876
X22.8407 Y0.6924
X22.839 Y0.6964
X22.8362 Y0.7021
X22.8323 Y0.7098
X22.8287 Y0.7164
X22.8253 Y0.7222
X22.8217 Y0.728
X22.8179 Y0.7337
X22.8158 Y0.7369
X22.8153 Y0.7376
X22.813 Y0.7407
X22.809 Y0.7461
X22.8047 Y0.7515
X22.8002 Y0.757
X22.7965 Y0.7613
X22.7935 Y0.7646
X22.7899 Y0.7684
X22.7856 Y0.7727
X22.7814 Y0.7768
X22.7771 Y0.7807
X22.7735 Y0.784
X22.7704 Y0.7866
X22.766 Y0.7902
X22.7603 Y0.7947
X22.7542 Y0.7992
X22.7479 Y0.8036
X22.742 Y0.8075
X22.7365 Y0.8109
X22.731 Y0.8141
X22.7255 Y0.8171
X22.72 Y0.82
X22.7145 Y0.8227
X22.7087 Y0.8253
X22.7027 Y0.8279
X22.6968 Y0.8303
X22.691 Y0.8325
X22.6853 Y0.8345
X22.6795 Y0.8364
X22.6972 Y4.7341
X23.5118
X23.5071 Y3.7633
X23.5069 Y3.7605 Z0.1943
X23.5066 Y3.7578 Z0.1946
X23.5061 Y3.755 Z0.195
X23.5055 Y3.7524 Z0.1955
X23.5047 Y3.7498 Z0.1962
X23.5038 Y3.7472 Z0.1971
X23.5028 Y3.7448 Z0.1981
X23.5017 Y3.7425 Z0.1992
X23.5005 Y3.7403 Z0.2005
X23.4992 Y3.7383 Z0.2019
X23.4979 Y3.7363 Z0.2035
X23.4966 Y3.7346 Z0.2052
X23.4952 Y3.7329 Z0.207
X23.4938 Y3.7314 Z0.2089
X23.4925 Y3.73 Z0.2109
X23.4912 Y3.7288 Z0.2131
X23.4899 Y3.7277 Z0.2153
X23.4887 Y3.7267 Z0.2176
X23.4876 Y3.7258 Z0.2201
X23.4865 Y3.725 Z0.2226
X23.4856 Y3.7244 Z0.2251
X23.4848 Y3.7238 Z0.2277
X23.4841 Y3.7234 Z0.2304
X23.4835 Y3.723 Z0.2331
X23.483 Y3.7227 Z0.2359
X23.4826 Y3.7225 Z0.2386
X23.4824 Y3.7224 Z0.2414
Z0.2442
G0 Z0.8442
X24.8425 Y1.0935
Z0.5395
G1 Z0.4176 F50.
Y1.0932 Z0.4122 F100.
Y1.0923 Z0.4069
Y1.0909 Z0.4018
Y1.089 Z0.3968
Y1.0865 Z0.392
Y1.0835 Z0.3876
Y1.0801 Z0.3835
Y1.0762 Z0.3798
Y1.072 Z0.3765
Y1.0674 Z0.3737
Y1.0626 Z0.3714
X24.8424 Y1.0575 Z0.3696
Y1.0523 Z0.3684
Y1.047 Z0.3677
X24.8372 Y-1.239 Z0.2078
X24.8373 Y-1.2426 Z0.2076
X24.8376 Y-1.2541 Z0.2068
X24.8379 Y-1.2602 Z0.2064
X24.8383 Y-1.2659 Z0.206
X24.6724 Z0.1944
X24.6689 Z0.1942
X24.5388
X24.5392 Y-1.2586
X24.5395 Y-1.2535
X24.5397 Y-1.2419
Y-1.2399
X24.5689 Y4.7341
X24.8508
X24.8372 Y-1.239
X24.8373 Y-1.2426
X24.8376 Y-1.2541
X24.8379 Y-1.2602
X24.8383 Y-1.2659
X24.6689
X24.6661 Y-1.2657 Z0.1943
X24.6633 Y-1.2654 Z0.1946
X24.6606 Y-1.265 Z0.195
X24.6579 Y-1.2644 Z0.1955
X24.6553 Y-1.2636 Z0.1962
X24.6528 Y-1.2627 Z0.1971
X24.6504 Y-1.2617 Z0.1981
X24.6481 Y-1.2606 Z0.1992
X24.6459 Y-1.2594 Z0.2005
X24.6438 Y-1.2582 Z0.2019
X24.6419 Y-1.2569 Z0.2035
X24.6401 Y-1.2555 Z0.2052
X24.6384 Y-1.2542 Z0.207
X24.6369 Y-1.2528 Z0.2089
X24.6355 Y-1.2515 Z0.2109
X24.6343 Y-1.2502 Z0.2131
X24.6331 Y-1.2489 Z0.2153
X24.6321 Y-1.2477 Z0.2176
X24.6313 Y-1.2466 Z0.2201
X24.6305 Y-1.2455 Z0.2226
X24.6299 Y-1.2446 Z0.2251
X24.6293 Y-1.2438 Z0.2277
X24.6288 Y-1.2431 Z0.2304
X24.6285 Y-1.2425 Z0.2331
X24.6282 Y-1.242 Z0.2359
X24.628 Y-1.2416 Z0.2386
X24.6279 Y-1.2414 Z0.2414
X24.6278 Z0.2442
G0 Z0.8442
X26.2199 Y1.9386
Z0.5395
G1 Z0.4176 F50.
Y1.9389 Z0.4122 F100.
Y1.9398 Z0.4069
Y1.9412 Z0.4018
Y1.9431 Z0.3968
Y1.9456 Z0.392
Y1.9486 Z0.3876
Y1.952 Z0.3835
X26.22 Y1.9559 Z0.3798
Y1.9601 Z0.3765
Y1.9647 Z0.3737
Y1.9695 Z0.3714
Y1.9746 Z0.3696
Y1.9798 Z0.3684
Y1.9851 Z0.3677
X26.2254 Y4.3471 Z0.2025
G2 X26.2514 Y4.3731 Z0.1997 I0.026 J-0.0001
G1 X26.2637 Z0.1988
G2 X26.2897 Y4.3469 Z0.196 I0. J-0.026
G1 X26.2896 Y4.3243 Z0.1944
X26.2895 Y4.3208 Z0.1942
X26.2715 Y1.1916
G2 X26.236 Y1.1676 I-0.026 J0.0001
G1 X26.2347 Y1.168
G2 X26.2182 Y1.1923 I0.0095 J0.0242
G1 X26.2254 Y4.3471
G2 X26.2514 Y4.3731 I0.026 J-0.0001
G1 X26.2637
G2 X26.2897 Y4.3469 I0. J-0.026
G1 X26.2895 Y4.3208
G3 X26.3788 Y4.1852 I0.1462 J-0.0008
G2 X26.468 Y4.0497 I-0.057 J-0.1347
G1 X26.4496 Y0.8629
G2 X26.4435 Y0.8433 I-0.035 J0.0002
G1 X26.44 Y0.8381
G2 X26.3746 Y0.8378 I-0.0328 J0.022
G3 X26.2577 Y0.954 I-0.3622 J-0.2476
X26.1065 Y1.0196 I-0.2524 J-0.3743
G1 X26.1032 Y1.0203
X26.0999 Y1.0209
G2 X26.038 Y1.097 I0.0158 J0.076
G1 X26.0457 Y4.4892
G2 X26.1098 Y4.5531 I0.064 J-0.0001
G1 X26.4071
G2 X26.4705 Y4.4893 I0. J-0.0634
G1 X26.468 Y4.0497
G3 X26.5577 Y3.9135 I0.1471 J-0.0008
G2 X26.6474 Y3.7772 I-0.0573 J-0.1354
G1 X26.6302 Y0.7837
X26.628 Y0.7818
X26.6223 Y0.7763
X26.6186 Y0.7725
X26.6134 Y0.7668
X26.6066 Y0.759
X26.6037 Y0.7555
X26.6009 Y0.7519
X26.5961 Y0.7456
X26.592 Y0.7398
X26.5885 Y0.7346
X26.5851 Y0.7292
X26.5816 Y0.7234
X26.5784 Y0.7177
X26.5753 Y0.7119
X26.573 Y0.7074
X26.5714 Y0.7041
X26.5688 Y0.6984
X26.5653 Y0.6901
X26.5625 Y0.6831
X26.5605 Y0.6773
X26.5586 Y0.6715
X26.5568 Y0.6658
X26.5552 Y0.66
X26.5537 Y0.6543
X26.5524 Y0.6485
X26.5512 Y0.6427
X26.5497 Y0.6346
X26.5482 Y0.6242
X26.5475 Y0.6184
X26.5474 Y0.6173
X26.5471 Y0.6139
X26.5467 Y0.6082
X26.5465 Y0.6024
X26.5463 Y0.5966
Y0.5939
X26.5358 Y-1.227
Y-1.2273
X26.5357 Y-1.2388
X26.5358 Y-1.2429
X26.5361 Y-1.2545
X26.5364 Y-1.261
X26.5368 Y-1.2659
X26.2654
X26.2658 Y-1.259
X26.2661 Y-1.2536
X26.2663 Y-1.2421
Y-1.2396
X26.2705 Y0.5813
Y0.5817
Y0.5822
X26.2704 Y0.5937
X26.2702 Y0.6002
X26.2699 Y0.6059
X26.2695 Y0.6117
X26.2689 Y0.6174
X26.2682 Y0.6232
X26.2674 Y0.629
X26.2664 Y0.6347
X26.2653 Y0.6405
X26.2634 Y0.6489
X26.2606 Y0.6598
X26.258 Y0.6684
X26.2559 Y0.6748
X26.2537 Y0.6808
X26.2515 Y0.6866
X26.249 Y0.6924
X26.2465 Y0.6981
X26.2437 Y0.7039
X26.2408 Y0.7097
X26.2385 Y0.714
X26.2368 Y0.717
X26.2334 Y0.7228
X26.228 Y0.7313
G3 X26.2222 Y0.7398 I-0.1101 J-0.069
G1 X26.2161 Y0.7481
X26.2116 Y0.7538
X26.2089 Y0.757
X26.2055 Y0.761
X26.2013 Y0.7656
X26.1968 Y0.7703
X26.1922 Y0.7749
X26.1887 Y0.7784
X26.1863 Y0.7806
X26.1828 Y0.7837
X26.1782 Y0.7876
X26.1737 Y0.7914
X26.1691 Y0.795
X26.164 Y0.7988
X26.1585 Y0.8028
X26.1527 Y0.8066
X26.1467 Y0.8104
X26.1408 Y0.8139
X26.1351 Y0.8172
X26.1293 Y0.8202
X26.1235 Y0.8231
X26.1188 Y0.8253
X26.1152 Y0.827
X26.1095 Y0.8294
X26.1016 Y0.8325
X26.0947 Y0.835
X26.0889 Y0.8369
X26.0832 Y0.8386
X26.0774 Y0.8402
X26.0716 Y0.8417
X26.0659 Y0.843
X26.0601 Y0.8442
X26.0543 Y0.8453
X26.0485 Y0.8462
X26.0428 Y0.847
X26.037 Y0.8476
X26.0312 Y0.8482
X26.023 Y0.8487
X26.0114 Y0.849
X26.0082
X25.8564 Y0.8494
X25.8653 Y4.7341
X26.6529
X26.6474 Y3.7772
X26.6472 Y3.7744 Z0.1943
X26.6469 Y3.7716 Z0.1946
X26.6464 Y3.7689 Z0.195
X26.6458 Y3.7662 Z0.1955
X26.645 Y3.7636 Z0.1962
X26.6441 Y3.7611 Z0.1971
X26.6431 Y3.7587 Z0.1981
X26.642 Y3.7564 Z0.1992
X26.6408 Y3.7542 Z0.2005
X26.6395 Y3.7521 Z0.2019
X26.6382 Y3.7502 Z0.2035
X26.6369 Y3.7484 Z0.2052
X26.6355 Y3.7468 Z0.207
X26.6341 Y3.7453 Z0.2089
X26.6328 Y3.7439 Z0.2109
X26.6315 Y3.7426 Z0.2131
X26.6302 Y3.7415 Z0.2153
X26.629 Y3.7405 Z0.2176
X26.6279 Y3.7397 Z0.2201
X26.6268 Y3.7389 Z0.2226
X26.6259 Y3.7383 Z0.2251
X26.6251 Y3.7377 Z0.2277
X26.6243 Y3.7373 Z0.2304
X26.6237 Y3.7369 Z0.2331
X26.6233 Y3.7366 Z0.2359
X26.6229 Y3.7364 Z0.2386
X26.6227 Y3.7363 Z0.2414
Z0.2442
G0 Z0.8442
X28.0142 Y1.9982
Z0.5395
G1 Z0.4176 F50.
Y1.9985 Z0.4122 F100.
Y1.9994 Z0.4069
X28.0143 Y2.0008 Z0.4018
Y2.0027 Z0.3968
Y2.0052 Z0.392
Y2.0082 Z0.3876
Y2.0116 Z0.3835
Y2.0155 Z0.3798
X28.0144 Y2.0197 Z0.3765
Y2.0243 Z0.3737
Y2.0291 Z0.3714
Y2.0342 Z0.3696
X28.0145 Y2.0394 Z0.3684
Y2.0447 Z0.3677
X28.0276 Y4.3263 Z0.2082
G2 X28.0747 Y4.3731 Z0.203 I0.0471 J-0.0003
G1 X28.0965 Z0.2015
G2 X28.1436 Y4.3258 Z0.1963 I0. J-0.0471
G1 X28.1434 Y4.2983 Z0.1944
Y4.2948 Z0.1942
X28.1252 Y1.1246
G2 X28.05 Y1.0871 I-0.0471 J0.0003
G3 X28.03 Y1.1013 I-0.3142 J-0.4225
G2 X28.0093 Y1.1405 I0.0263 J0.039
G1 X28.0276 Y4.3263
G2 X28.0747 Y4.3731 I0.0471 J-0.0003
G1 X28.0965
G2 X28.1436 Y4.3258 I0. J-0.0471
G1 X28.1434 Y4.2948
G3 X28.2326 Y4.1593 I0.1462 J-0.0008
G2 X28.3219 Y4.0238 I-0.057 J-0.1347
G1 X28.3048 Y1.0712
G2 X28.2417 Y0.9466 I-0.1562 J0.0009
G3 X28.1218 Y0.8115 I0.2623 J-0.3537
G2 X28.0613 Y0.8111 I-0.0303 J0.0174
G3 X28.0041 Y0.8891 I-0.4209 J-0.2489
X27.9311 Y0.9526 I-0.2943 J-0.2645
X27.9126 Y0.9638 I-0.122 J-0.1808
G1 X27.8915 Y0.9752
G2 X27.8289 Y1.0806 I0.0564 J0.1047
G1 X27.8486 Y4.4891
G2 X27.9129 Y4.5531 I0.0643 J-0.0004
G1 X28.2611
G2 X28.3245 Y4.4893 I0. J-0.0634
G1 X28.3219 Y4.0238
G3 X28.4116 Y3.8875 I0.1471 J-0.0008
G2 X28.5013 Y3.7512 I-0.0573 J-0.1354
G1 X28.4846 Y0.8518
X28.48 Y0.8514
X28.4742 Y0.8507
X28.4666 Y0.8497
X28.4573 Y0.8482
X28.4515 Y0.8471
X28.4493 Y0.8466
X28.4454 Y0.8457
X28.4396 Y0.8443
X28.4338 Y0.8427
X28.4281 Y0.841
X28.4223 Y0.8392
X28.4165 Y0.8372
X28.4108 Y0.835
X28.405 Y0.8327
X28.3982 Y0.8297
X28.3905 Y0.8261
X28.3847 Y0.8233
X28.3809 Y0.8212
X28.3761 Y0.8186
X28.3704 Y0.8152
X28.3646 Y0.8116
X28.3588 Y0.8078
X28.3543 Y0.8047
X28.3511 Y0.8024
X28.3452 Y0.7979
X28.337 Y0.7912
X28.3303 Y0.7854
X28.3251 Y0.7806
X28.3193 Y0.7749
X28.3129 Y0.7682
X28.3078 Y0.7624
X28.3037 Y0.7575
X28.2997 Y0.7525
X28.2957 Y0.7474
X28.292 Y0.7423
X28.2885 Y0.7371
X28.2864 Y0.7339
X28.2856 Y0.7327
X28.2834 Y0.7292
X28.2799 Y0.7234
X28.2767 Y0.7177
X28.2736 Y0.7119
X28.2699 Y0.7044
X28.2657 Y0.6951
X28.2632 Y0.6893
X28.2624 Y0.6871
X28.2609 Y0.6831
X28.2588 Y0.6773
X28.2569 Y0.6715
X28.2551 Y0.6658
X28.2535 Y0.66
X28.252 Y0.6543
X28.2507 Y0.6485
X28.2495 Y0.6427
X28.2484 Y0.637
X28.2475 Y0.6312
X28.2467 Y0.6254
X28.246 Y0.6197
X28.2455 Y0.6139
X28.245 Y0.6082
X28.2448 Y0.6024
X28.2446 Y0.5966
Y0.5939
X28.2341 Y-1.227
Y-1.2273
X28.234 Y-1.2388
X28.2341 Y-1.243
X28.2344 Y-1.2545
X28.2348 Y-1.261
X28.2351 Y-1.2659
X27.9298
X27.9303 Y-1.2584
X27.9305 Y-1.2534
G3 X27.9307 Y-1.2401 I-0.8342 J0.0226
G1 X27.9412 Y0.5809
G3 X27.9411 Y0.5942 I-0.8784 J0.0005
G1 X27.9408 Y0.6017
X27.9405 Y0.6074
X27.94 Y0.6132
X27.9393 Y0.619
X27.9386 Y0.6247
X27.9377 Y0.6305
X27.9366 Y0.6362
X27.9355 Y0.642
X27.9345 Y0.6463
X27.9338 Y0.6491
X27.9323 Y0.6549
X27.9298 Y0.6636
X27.9275 Y0.6708
X27.9255 Y0.6766
X27.9233 Y0.6824
X27.921 Y0.6881
X27.9175 Y0.6959
X27.9129 Y0.7055
X27.9099 Y0.7112
X27.9089 Y0.7131
X27.9067 Y0.7169
X27.9033 Y0.7227
X27.8997 Y0.7285
X27.8959 Y0.7342
X27.8923 Y0.7393
X27.889 Y0.7438
X27.8845 Y0.7496
X27.8786 Y0.7566
X27.8729 Y0.7632
X27.8672 Y0.7692
X27.8614 Y0.775
X27.8554 Y0.7805
X27.8497 Y0.7855
X27.844 Y0.7902
X27.8388 Y0.7943
X27.834 Y0.7979
X27.8291 Y0.8013
X27.8242 Y0.8046
X27.8209 Y0.8068
X27.8191 Y0.808
X27.8153 Y0.8103
X27.8095 Y0.8136
X27.8037 Y0.8168
X27.798 Y0.8198
X27.7906 Y0.8234
X27.7814 Y0.8274
X27.7756 Y0.8298
X27.7732 Y0.8307
X27.7691 Y0.8322
X27.7634 Y0.8342
X27.7576 Y0.836
X27.7518 Y0.8377
X27.746 Y0.8393
X27.7403 Y0.8407
X27.7345 Y0.842
X27.7287 Y0.8431
X27.723 Y0.8441
X27.7172 Y0.845
X27.7114 Y0.8457
X27.7057 Y0.8463
X27.6971 Y0.8469
X27.6856 Y0.8474
X27.6812 Y0.8475
X27.6466 Y0.8477
X27.669 Y4.7341
X28.5069
X28.5013 Y3.7512
X28.5011 Y3.7484 Z0.1943
X28.5008 Y3.7456 Z0.1946
X28.5003 Y3.7429 Z0.195
X28.4997 Y3.7402 Z0.1955
X28.4989 Y3.7376 Z0.1962
X28.498 Y3.7351 Z0.1971
X28.497 Y3.7327 Z0.1981
X28.4959 Y3.7304 Z0.1992
X28.4947 Y3.7282 Z0.2005
X28.4934 Y3.7262 Z0.2019
X28.4921 Y3.7242 Z0.2035
X28.4907 Y3.7224 Z0.2052
X28.4894 Y3.7208 Z0.207
X28.488 Y3.7193 Z0.2089
X28.4867 Y3.7179 Z0.2109
X28.4853 Y3.7167 Z0.2131
X28.4841 Y3.7156 Z0.2153
X28.4829 Y3.7146 Z0.2176
X28.4817 Y3.7137 Z0.2201
X28.4807 Y3.7129 Z0.2226
X28.4798 Y3.7123 Z0.2251
X28.4789 Y3.7117 Z0.2277
X28.4782 Y3.7113 Z0.2304
X28.4776 Y3.7109 Z0.2331
X28.4771 Y3.7106 Z0.2359
X28.4768 Y3.7104 Z0.2386
X28.4766 Y3.7103 Z0.2414
X28.4765 Z0.2442
G0 Z0.8442
X29.9346 Y3.6861
Z0.5395
G1 Z0.4176 F50.
Y3.6858 Z0.4122 F100.
Y3.6849 Z0.4069
Y3.6835 Z0.4018
Y3.6815 Z0.3968
Y3.679 Z0.392
X29.9345 Y3.6761 Z0.3876
Y3.6726 Z0.3835
Y3.6688 Z0.3798
Y3.6645 Z0.3765
Y3.66 Z0.3737
Y3.6551 Z0.3714
Y3.6501 Z0.3696
Y3.6449 Z0.3684
Y3.6395 Z0.3677
X29.9284 Y1.1726 Z0.1952
G2 X29.9264 Y1.161 Z0.1944 I-0.035 J0.0001
G1 X29.9258 Y1.1594 Z0.1943
X29.9251 Y1.1578 Z0.1942
G2 X29.9096 Y1.1416 I-0.0317 J0.0149
G1 X29.9033 Y1.1382
X29.8969 Y1.1347
G2 X29.8426 Y1.167 I-0.0177 J0.032
G1 X29.8608 Y4.3219
G2 X29.9361 Y4.3216 I0.0377 J-0.0002
G1 X29.9284 Y1.1726
G2 X29.9251 Y1.1578 I-0.035 J0.0001
G3 X29.9112 Y1.0234 I0.1856 J-0.0872
G2 X29.8762 Y0.8929 I-0.1385 J-0.0328
G3 X29.817 Y0.8145 I0.3263 J-0.308
G2 X29.757 Y0.8143 I-0.0301 J0.0177
G3 X29.7307 Y0.8537 I-0.4402 J-0.2648
X29.7001 Y0.89 I-0.2875 J-0.2113
G1 X29.6963 Y0.8937
X29.6925 Y0.8974
G2 X29.6615 Y0.9748 I0.0797 J0.0768
G1 X29.6818 Y4.4902
G2 X29.7448 Y4.5529 I0.063 J-0.0004
G1 X30.0542
G2 X30.1166 Y4.4904 I0. J-0.0624
G1 X30.1083 Y1.0937
G2 X30.0468 Y1.0058 I-0.094 J0.0002
G3 X29.8762 Y0.8929 I0.1556 J-0.4208
X29.8707 Y0.6984 I0.1063 J-0.1003
G2 X29.9372 Y0.5156 I-0.2161 J-0.1821
G1 X29.9329 Y-1.239
Y-1.2426
X29.9332 Y-1.2541
X29.9335 Y-1.2602
X29.9339 Y-1.2659
X29.6272
X29.6276 Y-1.2584
X29.6278 Y-1.2534
G3 X29.628 Y-1.2401 I-0.8684 J0.0231
G1 X29.6385 Y0.5809
G3 X29.6384 Y0.5942 I-0.7475 J0.0015
G1 X29.6382 Y0.6017
X29.6378 Y0.6074
X29.6373 Y0.6132
X29.6366 Y0.619
X29.6359 Y0.6247
X29.635 Y0.6305
X29.6339 Y0.6362
X29.6328 Y0.642
X29.6311 Y0.6493
X29.6287 Y0.6581
X29.6271 Y0.6639
X29.6262 Y0.6666
X29.6248 Y0.6708
X29.6228 Y0.6766
X29.6206 Y0.6823
X29.6183 Y0.6881
X29.6158 Y0.6939
X29.6131 Y0.6996
X29.6103 Y0.7054
X29.6072 Y0.7112
X29.6054 Y0.7146
X29.6047 Y0.7157
X29.6029 Y0.7189
X29.5998 Y0.7241
X29.5965 Y0.7293
X29.593 Y0.7345
X29.5888 Y0.7404
X29.5839 Y0.747
X29.5793 Y0.7527
X29.5751 Y0.7577
X29.5694 Y0.764
X29.562 Y0.7716
X29.5562 Y0.7774
X29.5519 Y0.7813
X29.5462 Y0.7862
X29.5389 Y0.7921
X29.5351 Y0.7951
X29.5313 Y0.7979
X29.5232 Y0.8035
X29.5174 Y0.8073
X29.5139 Y0.8095
X29.5093 Y0.8122
X29.5035 Y0.8155
X29.4978 Y0.8186
X29.492 Y0.8214
X29.4854 Y0.8245
X29.4795 Y0.8271
X29.502 Y4.7341
X30.2983
X30.2888 Y0.8509
X30.207 Y0.8511
X30.2067
X30.1952
X30.19 Y0.851
X30.1843 Y0.8507
X30.1785 Y0.8504
X30.1727 Y0.8499
X30.168 Y0.8494
X30.1644 Y0.849
X30.1586 Y0.8481
X30.1507 Y0.8468
X30.1439 Y0.8455
X30.1381 Y0.8442
X30.1323 Y0.8428
X30.1266 Y0.8412
X30.1208 Y0.8395
X30.115 Y0.8377
X30.1093 Y0.8357
X30.1035 Y0.8335
X30.0968 Y0.8308
X30.0891 Y0.8274
X30.0834 Y0.8247
X30.0795 Y0.8228
X30.0747 Y0.8203
X30.0689 Y0.8171
X30.0631 Y0.8137
X30.0573 Y0.8101
X30.0524 Y0.8069
X30.0483 Y0.8041
X30.0425 Y0.7999
X30.0351 Y0.7941
X30.0315 Y0.7913
X30.0281 Y0.7884
X30.0215 Y0.7826
X30.0158 Y0.7771
X30.0108 Y0.7721
X30.0054 Y0.7664
X29.9996 Y0.7599
X29.9967 Y0.7564
X29.9939 Y0.7528
X29.9881 Y0.7453
X29.9839 Y0.7395
X29.9812 Y0.7355
X29.978 Y0.7306
X29.9745 Y0.7249
X29.9711 Y0.7191
X29.9679 Y0.7133
X29.9653 Y0.7083
X29.9632 Y0.7041
X29.9606 Y0.6983
X29.9574 Y0.6911
X29.9548 Y0.6845
X29.9526 Y0.6788
X29.9506 Y0.673
X29.9488 Y0.6672
X29.9471 Y0.6615
X29.9456 Y0.6557
X29.9441 Y0.6499
X29.9429 Y0.6442
X29.9414 Y0.6363
X29.9398 Y0.6263
X29.939 Y0.6205
X29.9389 Y0.619
X29.9385 Y0.6154
X29.9381 Y0.6096
X29.9377 Y0.6038
X29.9375 Y0.5981
X29.9374 Y0.5935
X29.9372 Y0.5156
X29.937 Y0.5128 Z0.1943
X29.9367 Y0.5101 Z0.1946
X29.9363 Y0.5073 Z0.195
X29.9356 Y0.5046 Z0.1955
X29.9349 Y0.502 Z0.1962
X29.934 Y0.4995 Z0.1971
X29.933 Y0.4971 Z0.1981
X29.9319 Y0.4948 Z0.1992
X29.9307 Y0.4926 Z0.2005
X29.9294 Y0.4905 Z0.2019
X29.9281 Y0.4886 Z0.2035
X29.9268 Y0.4868 Z0.2052
X29.9254 Y0.4852 Z0.207
X29.924 Y0.4836 Z0.2089
X29.9227 Y0.4823 Z0.2109
X29.9214 Y0.481 Z0.2131
X29.9201 Y0.4799 Z0.2153
X29.9189 Y0.4789 Z0.2176
X29.9178 Y0.478 Z0.2201
X29.9167 Y0.4773 Z0.2226
X29.9158 Y0.4766 Z0.2251
X29.915 Y0.4761 Z0.2277
X29.9143 Y0.4756 Z0.2304
X29.9137 Y0.4752 Z0.2331
X29.9132 Y0.475 Z0.2359
X29.9128 Y0.4748 Z0.2386
X29.9126 Y0.4747 Z0.2414
Y0.4746 Z0.2442
G0 Z0.8442
X31.314 Y2.7291
Z0.5395
G1 Z0.4176 F50.
Y2.7294 Z0.4122 F100.
Y2.7302 Z0.4069
Y2.7317 Z0.4018
Y2.7336 Z0.3968
X31.3141 Y2.7361 Z0.392
Y2.7391 Z0.3876
Y2.7425 Z0.3835
Y2.7464 Z0.3798
Y2.7506 Z0.3765
Y2.7552 Z0.3737
Y2.76 Z0.3714
Y2.7651 Z0.3696
Y2.7703 Z0.3684
Y2.7756 Z0.3677
X31.3189 Y4.7341 Z0.2308
X31.6544 Z0.2073
X31.6536 Y4.5493 Z0.1944
Y4.5458 Z0.1942
X31.6294 Y-1.2388
Y-1.2428
X31.6298 Y-1.2543
X31.6301 Y-1.2607
X31.6305 Y-1.2659
X31.3034
X31.3038 Y-1.259
X31.3041 Y-1.2536
X31.3043 Y-1.2421
Y-1.2396
X31.3189 Y4.7341
X31.6544
X31.6536 Y4.5458
X31.6535 Y4.543 Z0.1943
X31.6531 Y4.5402 Z0.1946
X31.6527 Y4.5375 Z0.195
X31.652 Y4.5348 Z0.1955
X31.6513 Y4.5322 Z0.1962
X31.6504 Y4.5297 Z0.1971
X31.6494 Y4.5273 Z0.1981
X31.6482 Y4.525 Z0.1992
X31.6471 Y4.5228 Z0.2005
X31.6458 Y4.5207 Z0.2019
X31.6445 Y4.5188 Z0.2035
X31.6431 Y4.517 Z0.2052
X31.6418 Y4.5154 Z0.207
X31.6404 Y4.5138 Z0.2089
X31.639 Y4.5125 Z0.2109
X31.6377 Y4.5112 Z0.2131
X31.6365 Y4.5101 Z0.2153
X31.6353 Y4.5091 Z0.2176
X31.6341 Y4.5082 Z0.2201
X31.6331 Y4.5075 Z0.2226
X31.6322 Y4.5068 Z0.2251
X31.6313 Y4.5063 Z0.2277
X31.6306 Y4.5058 Z0.2304
X31.63 Y4.5055 Z0.2331
X31.6295 Y4.5052 Z0.2359
X31.6292 Y4.505 Z0.2386
X31.629 Y4.5049 Z0.2414
X31.6289 Y4.5048 Z0.2442
G0 Z0.8442
X33.1258 Y3.6973
Z0.5395
G1 Z0.4176 F50.
Y3.697 Z0.4122 F100.
Y3.6962 Z0.4069
Y3.6948 Z0.4018
Y3.6928 Z0.3968
Y3.6903 Z0.392
Y3.6873 Z0.3876
Y3.6839 Z0.3835
Y3.68 Z0.3798
Y3.6758 Z0.3765
Y3.6712 Z0.3737
Y3.6664 Z0.3714
Y3.6614 Z0.3696
Y3.6561 Z0.3684
Y3.6508 Z0.3677
X33.1236 Y1.1749 Z0.1946
X33.1235 Y1.172 Z0.1944
X33.1234 Y1.1703 Z0.1943
X33.1231 Y1.1686 Z0.1942
G2 X33.0684 Y1.1413 I-0.0373 J0.0063
G3 X33.0512 Y1.1498 I-0.2383 J-0.4613
G2 X33.031 Y1.1816 I0.0149 J0.0317
G1 X33.0442 Y4.3199
G2 X33.1264 Y4.3197 I0.0411 J-0.0002
G1 X33.1236 Y1.1749
X33.1235 Y1.1717
X33.1231 Y1.1686
G3 X33.2094 Y1.0323 I0.1188 J-0.0202
G2 X33.2557 Y0.8779 I-0.0257 J-0.0919
G3 X33.2188 Y0.8279 I0.2988 J-0.2594
G2 X33.1562 Y0.8276 I-0.0314 J0.0197
G3 X32.912 Y1.0108 I-0.3682 J-0.2364
G2 X32.8506 Y1.0932 I0.024 J0.082
G1 X32.8648 Y4.4903
G2 X32.9278 Y4.5529 I0.0629 J-0.0003
G1 X33.244
G2 X33.3066 Y4.4903 I0. J-0.0625
G1 X33.3035 Y0.9727
G2 X33.2719 Y0.8954 I-0.1106 J0.0001
G3 X33.2557 Y0.8779 I0.2827 J-0.2769
X33.2592 Y0.6831 I0.11 J-0.0954
G2 X33.3305 Y0.5018 I-0.1941 J-0.181
G1 X33.329 Y-1.2392
X33.3291 Y-1.2424
X33.3293 Y-1.2539
X33.3295 Y-1.2581
X33.3298 Y-1.2633
X33.33 Y-1.2659
X33.0371
X33.0376 Y-1.2587
X33.0378 Y-1.2535
X33.038 Y-1.242
Y-1.2399
X33.0457 Y0.5811
G3 X33.0456 Y0.5939 I-0.9489 J0.0013
G1 X33.0454 Y0.601
X33.045 Y0.6068
X33.0445 Y0.6125
X33.0439 Y0.6183
X33.0432 Y0.624
X33.0423 Y0.6298
X33.0413 Y0.6356
X33.0402 Y0.6413
X33.0389 Y0.6471
X33.0375 Y0.6529
X33.0359 Y0.6586
X33.0342 Y0.6644
X33.0317 Y0.6723
X33.028 Y0.6822
X33.0258 Y0.6879
X33.0251 Y0.6895
X33.0235 Y0.6932
X33.0209 Y0.699
X33.0181 Y0.7047
X33.0151 Y0.7105
X33.011 Y0.7178
X33.0058 Y0.7265
X33.0021 Y0.7322
X33.0002 Y0.735
X32.9972 Y0.7393
X32.993 Y0.7451
X32.9885 Y0.7508
X32.9837 Y0.7566
X32.981 Y0.7598
X32.9803 Y0.7606
X32.9773 Y0.7638
X32.9719 Y0.7696
X32.9665 Y0.7749
X32.9611 Y0.78
X32.958 Y0.7828
X32.9573 Y0.7835
X32.9541 Y0.7863
X32.9483 Y0.791
X32.9425 Y0.7955
X32.9367 Y0.7998
X32.9325 Y0.8028
X32.9297 Y0.8046
X32.924 Y0.8083
X32.9152 Y0.8136
X32.9079 Y0.8176
X32.9021 Y0.8206
X32.8964 Y0.8234
X32.8906 Y0.826
X32.8869 Y0.8276
X32.8854 Y0.8283
X32.8797 Y0.8305
X32.8697 Y0.8342
X32.8617 Y0.8368
X32.856 Y0.8385
X32.8502 Y0.84
X32.8444 Y0.8414
X32.8387 Y0.8427
X32.8329 Y0.8438
X32.8271 Y0.8448
X32.8214 Y0.8457
X32.8156 Y0.8464
X32.8098 Y0.847
X32.8041 Y0.8475
X32.7983 Y0.8478
X32.7919 Y0.8481
X32.7804 Y0.8482
X32.78
X32.7796
X32.6684 Y0.8487
X32.6847 Y4.7341
X33.4879
X33.4845 Y0.8278
X33.4835 Y0.8273
X33.4777 Y0.8246
X33.4705 Y0.821
X33.4641 Y0.8175
X33.4583 Y0.8142
X33.4525 Y0.8107
X33.4468 Y0.807
X33.4433 Y0.8046
X33.442 Y0.8037
X33.4387 Y0.8014
X33.4336 Y0.7977
X33.4285 Y0.7937
X33.4234 Y0.7895
X33.4188 Y0.7856
X33.4149 Y0.782
X33.4091 Y0.7765
X33.4015 Y0.7687
X33.3961 Y0.7629
X33.3928 Y0.7591
X33.3889 Y0.7545
X33.3846 Y0.749
X33.3803 Y0.7432
X33.376 Y0.7372
X33.3721 Y0.7313
X33.3685 Y0.7255
X33.3651 Y0.7198
X33.3619 Y0.714
X33.3581 Y0.7066
X33.3537 Y0.6974
X33.3511 Y0.6916
X33.3501 Y0.6892
X33.3485 Y0.6852
X33.3463 Y0.6794
X33.3443 Y0.6737
X33.3424 Y0.6679
X33.3407 Y0.6621
X33.3391 Y0.6564
X33.3377 Y0.6506
X33.3364 Y0.6448
X33.3352 Y0.6391
X33.3342 Y0.6333
X33.3333 Y0.6275
X33.3325 Y0.6218
X33.3319 Y0.616
X33.3314 Y0.6103
X33.331 Y0.6045
X33.3308 Y0.5987
X33.3306 Y0.5933
Y0.5472
X33.3305 Y0.5018
X33.3304 Y0.499 Z0.1943
X33.3301 Y0.4963 Z0.1946
X33.3296 Y0.4935 Z0.195
X33.329 Y0.4908 Z0.1955
X33.3282 Y0.4882 Z0.1962
X33.3273 Y0.4857 Z0.1971
X33.3263 Y0.4833 Z0.1981
X33.3252 Y0.481 Z0.1992
X33.3241 Y0.4788 Z0.2005
X33.3228 Y0.4767 Z0.2019
X33.3215 Y0.4748 Z0.2035
X33.3201 Y0.473 Z0.2052
X33.3188 Y0.4714 Z0.207
X33.3174 Y0.4698 Z0.2089
X33.3161 Y0.4685 Z0.2109
X33.3148 Y0.4672 Z0.2131
X33.3135 Y0.4661 Z0.2153
X33.3123 Y0.4651 Z0.2176
X33.3112 Y0.4642 Z0.2201
X33.3101 Y0.4635 Z0.2226
X33.3092 Y0.4628 Z0.2251
X33.3084 Y0.4623 Z0.2277
X33.3077 Y0.4618 Z0.2304
X33.3071 Y0.4614 Z0.2331
X33.3066 Y0.4611 Z0.2359
X33.3063 Y0.4609 Z0.2386
X33.306 Y0.4608 Z0.2414
Z0.2442
G0 Z0.8442
X34.887 Y1.9865
Z0.5395
G1 Z0.4176 F50.
Y1.9868 Z0.4122 F100.
Y1.9877 Z0.4069
Y1.9891 Z0.4018
X34.8871 Y1.9911 Z0.3968
Y1.9935 Z0.392
Y1.9965 Z0.3876
Y2. Z0.3835
Y2.0038 Z0.3798
Y2.0081 Z0.3765
Y2.0126 Z0.3737
Y2.0175 Z0.3714
Y2.0225 Z0.3696
Y2.0277 Z0.3684
Y2.033 Z0.3677
X34.8891 Y4.3261 Z0.2074
G2 X34.9361 Y4.3731 Z0.2022 I0.0471 J0.
G1 X34.9503 Z0.2012
G2 X34.9973 Y4.3258 Z0.196 I0. J-0.0471
G1 Y4.3022 Z0.1944
X34.9972 Y4.2987 Z0.1942
X34.9841 Y1.156
G2 X34.9622 Y1.1164 I-0.0471 J0.0002
G3 X34.9505 Y1.1088 I0.253 J-0.4003
X34.939 Y1.101 I0.6993 J-1.0378
G2 X34.8863 Y1.1287 I-0.0191 J0.0277
G1 X34.8891 Y4.3261
G2 X34.9361 Y4.3731 I0.0471 J0.
G1 X34.9503
G2 X34.9973 Y4.3258 I0. J-0.0471
G1 X34.9972 Y4.2987
G3 X35.0867 Y4.1634 I0.1462 J-0.0006
G2 X35.1761 Y4.028 I-0.0568 J-0.1348
G1 X35.1638 Y1.089
G2 X35.1003 Y0.9878 I-0.1132 J0.0005
G3 X34.9093 Y0.8065 I0.1929 J-0.3945
G2 X34.8497 Y0.8063 I-0.0299 J0.0165
G3 X34.7577 Y0.9199 I-0.3801 J-0.2134
G2 X34.7062 Y1.0336 I0.0994 J0.1135
G1 X34.7092 Y4.4892
G2 X34.7732 Y4.5531 I0.0639 J-0.0001
G1 X35.1145
G2 X35.178 Y4.4893 I0. J-0.0635
G1 X35.1761 Y4.028
G3 X35.266 Y3.8919 I0.1471 J-0.0006
G2 X35.356 Y3.7557 I-0.0571 J-0.1355
G1 X35.3438 Y0.8516
X35.2942 Y0.8518
X35.2899
X35.2842 Y0.8516
X35.2784 Y0.8513
X35.2726 Y0.8509
X35.2648 Y0.8501
X35.2549 Y0.8487
X35.2491 Y0.8478
X35.2475 Y0.8475
X35.2438 Y0.8468
X35.238 Y0.8456
X35.2322 Y0.8443
X35.2265 Y0.8428
X35.2207 Y0.8411
X35.2149 Y0.8393
X35.2092 Y0.8374
X35.2034 Y0.8353
X35.1979 Y0.8332
X35.1926 Y0.831
X35.1873 Y0.8287
X35.182 Y0.8262
X35.1789 Y0.8247
X35.1779 Y0.8242
X35.1746 Y0.8225
X35.1688 Y0.8194
X35.163 Y0.8161
X35.1572 Y0.8126
X35.1511 Y0.8086
X35.1445 Y0.8042
X35.1388 Y0.8
X35.1338 Y0.7962
X35.1291 Y0.7924
X35.1248 Y0.7887
X35.1204 Y0.7849
X35.116 Y0.7809
X35.1125 Y0.7774
X35.1096 Y0.7746
X35.1062 Y0.7711
X35.1021 Y0.7667
X35.0983 Y0.7623
X35.0946 Y0.758
X35.0908 Y0.7534
X35.087 Y0.7485
X35.0828 Y0.7427
X35.0783 Y0.7361
X35.0742 Y0.7299
X35.0707 Y0.7241
X35.0672 Y0.718
X35.0638 Y0.7116
X35.0608 Y0.7057
X35.0582 Y0.7002
X35.0558 Y0.6948
X35.0535 Y0.6894
X35.0514 Y0.6838
X35.0492 Y0.678
X35.0473 Y0.6722
X35.0455 Y0.6665
X35.0438 Y0.6607
X35.0423 Y0.655
X35.0409 Y0.6491
X35.0396 Y0.643
X35.0385 Y0.6372
X35.0376 Y0.6316
X35.0368 Y0.6259
X35.0361 Y0.6203
X35.0356 Y0.6146
X35.0351 Y0.6088
X35.0348 Y0.6031
X35.0346 Y0.5973
X35.0345 Y0.5937
X35.0269 Y-1.2388
Y-1.2428
X35.0272 Y-1.2543
X35.0276 Y-1.2606
X35.028 Y-1.2659
X34.723
X34.7234 Y-1.2594
X34.7236 Y-1.2537
X34.7239 Y-1.2422
Y-1.2394
X34.7255 Y0.5815
Y0.5821
Y0.5936
X34.7253 Y0.5995
X34.725 Y0.6053
X34.7246 Y0.611
X34.7241 Y0.6168
X34.7234 Y0.6226
X34.7226 Y0.6283
X34.7217 Y0.6341
X34.7206 Y0.6398
X34.7188 Y0.6482
X34.716 Y0.6591
X34.7135 Y0.6677
X34.7114 Y0.6741
X34.7092 Y0.6802
X34.707 Y0.6859
X34.7046 Y0.6917
X34.7021 Y0.6975
X34.6994 Y0.7032
X34.6965 Y0.709
X34.6941 Y0.7135
X34.6924 Y0.7167
X34.689 Y0.7225
X34.6838 Y0.7308
G3 X34.6781 Y0.7393 I-0.1105 J-0.0685
G1 X34.6717 Y0.748
X34.6672 Y0.7537
X34.6649 Y0.7566
X34.6616 Y0.7604
X34.6572 Y0.7653
X34.6526 Y0.7702
X34.6478 Y0.7751
X34.6444 Y0.7784
X34.6425 Y0.7801
X34.6392 Y0.7832
X34.6343 Y0.7874
X34.6295 Y0.7914
X34.6247 Y0.7952
X34.6199 Y0.7989
X34.615 Y0.8024
X34.6093 Y0.8063
X34.6026 Y0.8106
X34.5963 Y0.8143
X34.5906 Y0.8176
X34.5848 Y0.8207
X34.579 Y0.8236
X34.5749 Y0.8255
X34.5726 Y0.8266
X34.5669 Y0.829
X34.5577 Y0.8327
X34.5502 Y0.8355
X34.5444 Y0.8374
X34.5386 Y0.8392
X34.5329 Y0.8408
X34.5271 Y0.8423
X34.525 Y0.8427
X34.5284 Y4.7341
X35.3601
X35.356 Y3.7557
X35.3558 Y3.7529 Z0.1943
X35.3555 Y3.7502 Z0.1946
X35.355 Y3.7474 Z0.195
X35.3544 Y3.7448 Z0.1955
X35.3536 Y3.7421 Z0.1962
X35.3527 Y3.7396 Z0.1971
X35.3517 Y3.7372 Z0.1981
X35.3506 Y3.7349 Z0.1992
X35.3494 Y3.7327 Z0.2005
X35.3481 Y3.7307 Z0.2019
X35.3468 Y3.7287 Z0.2035
X35.3455 Y3.7269 Z0.2052
X35.3441 Y3.7253 Z0.207
X35.3427 Y3.7238 Z0.2089
X35.3414 Y3.7224 Z0.2109
X35.3401 Y3.7212 Z0.2131
X35.3388 Y3.72 Z0.2153
X35.3376 Y3.7191 Z0.2176
X35.3365 Y3.7182 Z0.2201
X35.3354 Y3.7174 Z0.2226
X35.3345 Y3.7168 Z0.2251
X35.3337 Y3.7162 Z0.2277
X35.3329 Y3.7158 Z0.2304
X35.3324 Y3.7154 Z0.2331
X35.3319 Y3.7151 Z0.2359
X35.3315 Y3.7149 Z0.2386
X35.3313 Y3.7148 Z0.2414
Z0.2442
G0 Z0.8442
X36.7297 Y1.0767
Z0.5395
G1 Z0.4176 F50.
Y1.0764 Z0.4122 F100.
X36.7298 Y1.0755 Z0.4069
Y1.0741 Z0.4018
Y1.0722 Z0.3968
Y1.0697 Z0.392
Y1.0667 Z0.3876
Y1.0633 Z0.3835
Y1.0594 Z0.3798
X36.7299 Y1.0552 Z0.3765
Y1.0506 Z0.3737
Y1.0458 Z0.3714
Y1.0407 Z0.3696
X36.73 Y1.0355 Z0.3684
Y1.0302 Z0.3677
X36.7419 Y-1.24 Z0.209
Y-1.2419 Z0.2088
X36.7421 Y-1.2535 Z0.208
X36.7423 Y-1.2585 Z0.2077
X36.7428 Y-1.2659 Z0.2071
X36.5601 Z0.1944
X36.5566 Z0.1942
X36.4106
X36.4111 Y-1.2587
X36.4113 Y-1.2535
X36.4115 Y-1.242
Y-1.2399
X36.4366 Y4.7341
X36.7106
X36.7419 Y-1.24
Y-1.2419
X36.7421 Y-1.2535
X36.7423 Y-1.2585
X36.7428 Y-1.2659
X36.5566
X36.5538 Y-1.2657 Z0.1943
X36.5511 Y-1.2654 Z0.1946
X36.5483 Y-1.265 Z0.195
X36.5456 Y-1.2644 Z0.1955
X36.543 Y-1.2636 Z0.1962
X36.5405 Y-1.2627 Z0.1971
X36.5381 Y-1.2617 Z0.1981
X36.5358 Y-1.2606 Z0.1992
X36.5336 Y-1.2594 Z0.2005
X36.5315 Y-1.2582 Z0.2019
X36.5296 Y-1.2569 Z0.2035
X36.5278 Y-1.2555 Z0.2052
X36.5261 Y-1.2542 Z0.207
X36.5246 Y-1.2528 Z0.2089
X36.5232 Y-1.2515 Z0.2109
X36.522 Y-1.2502 Z0.2131
X36.5209 Y-1.2489 Z0.2153
X36.5199 Y-1.2477 Z0.2176
X36.519 Y-1.2466 Z0.2201
X36.5182 Y-1.2455 Z0.2226
X36.5176 Y-1.2446 Z0.2251
X36.517 Y-1.2438 Z0.2277
X36.5166 Y-1.2431 Z0.2304
X36.5162 Y-1.2425 Z0.2331
X36.5159 Y-1.242 Z0.2359
X36.5157 Y-1.2416 Z0.2386
X36.5156 Y-1.2414 Z0.2414
Z0.2442
G0 Z0.8442
X38.1091 Y2.0002
Z0.5395
G1 Z0.4176 F50.
Y2.0005 Z0.4122 F100.
Y2.0013 Z0.4069
Y2.0027 Z0.4018
X38.109 Y2.0047 Z0.3968
Y2.0072 Z0.392
Y2.0102 Z0.3876
Y2.0136 Z0.3835
Y2.0175 Z0.3798
Y2.0217 Z0.3765
X38.1089 Y2.0263 Z0.3737
Y2.0311 Z0.3714
Y2.0361 Z0.3696
Y2.0414 Z0.3684
X38.1088 Y2.0467 Z0.3677
X38.097 Y4.3097 Z0.2095
G2 X38.16 Y4.3731 Z0.2025 I0.0631 J0.0003
G1 X38.1604
G2 X38.2234 Y4.3097 Z0.1955 I0. J-0.0631
G1 Y4.2931 Z0.1944
X38.2233 Y4.2896 Z0.1942
X38.2092 Y1.1714
G2 X38.1543 Y1.1387 I-0.0373 J0.0002
G1 X38.1498 Y1.1411
G3 X38.1392 Y1.1467 I-0.232 J-0.4328
G2 X38.1133 Y1.1885 I0.0212 J0.042
G1 X38.097 Y4.3097
G2 X38.16 Y4.3731 I0.0631 J0.0003
G1 X38.1604
G2 X38.2234 Y4.3097 I0. J-0.0631
G1 X38.2233 Y4.2896
G3 X38.3127 Y4.1542 I0.1462 J-0.0007
G2 X38.4021 Y4.0188 I-0.0569 J-0.1347
G1 X38.3881 Y0.9377
G2 X38.3673 Y0.8826 I-0.0844 J0.0004
G3 X38.308 Y0.7961 I0.3403 J-0.2968
G2 X38.2505 I-0.0288 J0.0152
G3 X38.1642 Y0.9114 I-0.4101 J-0.2167
X38.046 Y0.9936 I-0.3056 J-0.3134
X38.0228 Y1.0028 I-0.0839 J-0.1772
G1 X37.9971 Y1.0113
G2 X37.9338 Y1.098 I0.0284 J0.0872
G1 X37.916 Y4.4893
G2 X37.9795 Y4.5531 I0.0635 J0.0003
G1 X38.3407
G2 X38.4042 Y4.4893 I0. J-0.0635
G1 X38.4021 Y4.0188
G3 X38.492 Y3.8826 I0.1471 J-0.0007
G2 X38.5819 Y3.7464 I-0.0572 J-0.1355
G1 X38.5686 Y0.817
X38.5643 Y0.8144
X38.5585 Y0.8108
X38.553 Y0.8072
X38.5478 Y0.8035
X38.542 Y0.7993
X38.5357 Y0.7944
X38.5289 Y0.7886
X38.5215 Y0.782
X38.5158 Y0.7765
X38.5116 Y0.7723
X38.5063 Y0.7666
X38.4999 Y0.7593
X38.497 Y0.7558
X38.4942 Y0.7522
X38.489 Y0.7453
X38.4849 Y0.7395
X38.4817 Y0.7349
X38.4784 Y0.7297
X38.4749 Y0.7239
X38.4716 Y0.7181
X38.4685 Y0.7124
X38.4661 Y0.7076
X38.4643 Y0.7039
X38.4617 Y0.6982
X38.4583 Y0.6904
X38.4556 Y0.6835
X38.4535 Y0.6778
X38.4516 Y0.672
X38.4498 Y0.6663
X38.4482 Y0.6605
X38.4467 Y0.6547
X38.4453 Y0.649
X38.4441 Y0.6432
X38.4426 Y0.6349
X38.441 Y0.624
X38.44 Y0.6153
X38.4395 Y0.6089
X38.4392 Y0.6029
X38.439 Y0.5971
Y0.5937
X38.4307 Y-1.2387
Y-1.2428
X38.431 Y-1.2544
X38.4314 Y-1.2608
X38.4318 Y-1.2659
X38.1279
X38.1283 Y-1.2609
X38.1286 Y-1.2544
X38.1289 Y-1.2429
X38.129 Y-1.2386
X38.1194 Y0.5938
X38.1193 Y0.5969
X38.1192 Y0.6026
X38.1189 Y0.6084
X38.1185 Y0.6142
X38.1179 Y0.6199
X38.1172 Y0.6257
X38.1164 Y0.6314
X38.1155 Y0.6372
X38.1144 Y0.643
X38.1132 Y0.6487
X38.1118 Y0.6545
X38.1103 Y0.6603
X38.1081 Y0.6679
X38.105 Y0.6775
X38.103 Y0.6832
X38.1022 Y0.6852
X38.1007 Y0.6891
X38.0983 Y0.6948
X38.0957 Y0.7006
X38.093 Y0.7064
X38.0903 Y0.7118
X38.0876 Y0.7168
X38.0848 Y0.7219
X38.0818 Y0.7269
X38.0798 Y0.7302
X38.0789 Y0.7316
X38.0766 Y0.7352
X38.0727 Y0.741
X38.0685 Y0.7467
X38.0641 Y0.7525
X38.0607 Y0.7568
X38.0584 Y0.7596
X38.0553 Y0.7632
X38.0514 Y0.7676
X38.0474 Y0.7719
X38.0431 Y0.7762
X38.0393 Y0.78
X38.0358 Y0.7832
X38.0316 Y0.787
X38.0266 Y0.7914
X38.0215 Y0.7956
X38.0164 Y0.7995
X38.0132 Y0.8019
X38.0118 Y0.803
X38.0082 Y0.8055
X38.0024 Y0.8094
X37.9967 Y0.8131
X37.9909 Y0.8166
X37.9851 Y0.8199
X37.9793 Y0.823
X37.9735 Y0.8259
X37.9678 Y0.8286
X37.962 Y0.8311
X37.9563 Y0.8335
X37.9505 Y0.8358
X37.9447 Y0.8379
X37.939 Y0.8398
X37.9332 Y0.8416
X37.9274 Y0.8432
X37.9217 Y0.8447
X37.9163 Y0.846
X37.9114 Y0.847
X37.9056 Y0.8481
X37.899 Y0.8492
X37.8928 Y0.8501
X37.8871 Y0.8508
X37.8813 Y0.8514
X37.8755 Y0.8518
X37.8676 Y0.8521
X37.8561 Y0.8523
X37.8538
X37.7541 Y0.8517
X37.7337 Y4.7341
X38.5864
X38.5819 Y3.7464
X38.5817 Y3.7437 Z0.1943
X38.5814 Y3.7409 Z0.1946
X38.5809 Y3.7381 Z0.195
X38.5803 Y3.7355 Z0.1955
X38.5795 Y3.7329 Z0.1962
X38.5786 Y3.7303 Z0.1971
X38.5776 Y3.7279 Z0.1981
X38.5765 Y3.7256 Z0.1992
X38.5753 Y3.7234 Z0.2005
X38.574 Y3.7214 Z0.2019
X38.5727 Y3.7194 Z0.2035
X38.5714 Y3.7177 Z0.2052
X38.57 Y3.716 Z0.207
X38.5686 Y3.7145 Z0.2089
X38.5673 Y3.7131 Z0.2109
X38.566 Y3.7119 Z0.2131
X38.5647 Y3.7108 Z0.2153
X38.5635 Y3.7098 Z0.2176
X38.5624 Y3.7089 Z0.2201
X38.5613 Y3.7081 Z0.2226
X38.5604 Y3.7075 Z0.2251
X38.5596 Y3.7069 Z0.2277
X38.5588 Y3.7065 Z0.2304
X38.5582 Y3.7061 Z0.2331
X38.5578 Y3.7058 Z0.2359
X38.5574 Y3.7056 Z0.2386
X38.5572 Y3.7055 Z0.2414
Z0.2442
G0 Z0.8442
X40.0416 Y3.5893
Z0.5395
G1 Z0.4176 F50.
Y3.589 Z0.4122 F100.
Y3.5881 Z0.4069
Y3.5867 Z0.4018
Y3.5848 Z0.3968
Y3.5823 Z0.392
Y3.5793 Z0.3876
Y3.5758 Z0.3835
Y3.572 Z0.3798
Y3.5678 Z0.3765
Y3.5632 Z0.3737
X40.0415 Y3.5584 Z0.3714
Y3.5533 Z0.3696
Y3.5481 Z0.3684
Y3.5428 Z0.3677
X40.0356 Y1.1082 Z0.1975
G2 X40.0253 Y1.0875 Z0.1958 I-0.026 J0.0001
G1 X40.0202 Y1.0836 Z0.1953
G3 X40.0117 Y1.077 Z0.1946 I0.2971 J-0.3912
G1 X40.0092 Y1.0752 Z0.1944
X40.0076 Y1.0744 Z0.1943
X40.0061 Y1.0736 Z0.1942
G2 X39.9795 Y1.0769 I-0.0106 J0.0238
G1 X39.9784 Y1.0777
G2 X39.9684 Y1.0984 I0.016 J0.0206
G1 X39.983 Y4.3263
G2 X40.0434 Y4.3261 I0.0302 J-0.0001
G1 X40.0356 Y1.1082
G2 X40.0253 Y1.0875 I-0.026 J0.0001
G1 X40.0202 Y1.0836
G3 X40.0117 Y1.077 I0.2971 J-0.3912
G1 X40.009 Y1.0751
X40.0061 Y1.0736
G3 X39.9676 Y0.9801 I0.0297 J-0.0669
G2 X39.885 Y0.9217 I-0.0485 J-0.019
G3 X39.8496 Y0.9492 I-0.2761 J-0.3193
G2 X39.7882 Y1.0671 I0.0814 J0.1173
G1 X39.8037 Y4.4903
G2 X39.8667 Y4.5529 I0.0629 J-0.0003
G1 X40.1614
G2 X40.2238 Y4.4904 I0. J-0.0624
G1 X40.2155 Y1.0733
G2 X40.1543 Y0.9584 I-0.1392 J0.0003
G3 X40.0846 Y0.9007 I0.2634 J-0.3895
X40.028 Y0.8303 I0.3007 J-0.2996
G2 X39.9651 Y0.8299 I-0.0315 J0.0202
G3 X39.9131 Y0.8951 I-0.3786 J-0.249
X39.885 Y0.9217 I-0.3042 J-0.2927
X39.7433 Y0.9023 I-0.0623 J-0.0721
G2 X39.6065 Y0.9439 I-0.0622 J0.0413
G1 X39.6237 Y4.7341
X40.4056
X40.3961 Y0.851
X40.3905 Y0.8509
G3 X40.3799 Y0.8504 I0.0017 J-0.13
G1 X40.3684 Y0.8493
X40.3598 Y0.8482
X40.354 Y0.8472
X40.3482 Y0.8462
X40.3424 Y0.8449
X40.3367 Y0.8436
X40.3309 Y0.8421
X40.3251 Y0.8405
X40.3194 Y0.8387
X40.3136 Y0.8368
X40.3078 Y0.8347
X40.3021 Y0.8325
X40.2963 Y0.8301
X40.2917 Y0.8281
X40.2882 Y0.8265
X40.2824 Y0.8236
X40.2744 Y0.8194
X40.2675 Y0.8155
X40.2618 Y0.8121
X40.256 Y0.8084
X40.2502 Y0.8045
X40.2444 Y0.8003
X40.2386 Y0.796
X40.2328 Y0.7913
X40.2271 Y0.7864
X40.223 Y0.7828
X40.2207 Y0.7806
X40.2171 Y0.7772
X40.2123 Y0.7723
X40.2077 Y0.7675
X40.2033 Y0.7626
X40.2004 Y0.7592
X40.1988 Y0.7574
X40.1958 Y0.7537
X40.1913 Y0.7479
X40.1871 Y0.7421
X40.1831 Y0.7364
X40.1804 Y0.7323
X40.1788 Y0.7299
X40.1754 Y0.7242
X40.1702 Y0.715
X40.1662 Y0.7075
X40.1635 Y0.7018
X40.1608 Y0.696
X40.1584 Y0.6903
X40.1566 Y0.686
X40.1555 Y0.6831
X40.1535 Y0.6774
X40.1506 Y0.6687
X40.1484 Y0.6614
X40.1469 Y0.6557
X40.1455 Y0.6499
X40.1442 Y0.6441
X40.1431 Y0.6384
X40.1421 Y0.6326
X40.1412 Y0.6269
X40.1405 Y0.6211
X40.1398 Y0.6153
X40.1394 Y0.6096
X40.139 Y0.6038
X40.1388 Y0.598
X40.1387 Y0.5935
Y0.5806
X40.1342 Y-1.239
X40.1343 Y-1.2426
X40.1346 Y-1.2541
X40.1349 Y-1.2602
X40.1353 Y-1.2659
X39.847
X39.8475 Y-1.2586
X39.8477 Y-1.2535
X39.8479 Y-1.2419
X39.848 Y-1.2399
X39.8562 Y0.581
G3 X39.8561 Y0.594 I-1.1579 J-0.0004
G1 X39.8559 Y0.6012
X39.8555 Y0.6069
X39.8551 Y0.6127
X39.8544 Y0.6185
X39.8537 Y0.6242
X39.8528 Y0.6299
X39.8518 Y0.6357
X39.8507 Y0.6415
X39.8494 Y0.6473
X39.848 Y0.653
X39.8464 Y0.6588
X39.8447 Y0.6646
X39.8428 Y0.6703
X39.8408 Y0.6761
X39.8387 Y0.6819
X39.8364 Y0.6876
X39.8332 Y0.6948
X39.8291 Y0.7035
X39.8263 Y0.7092
X39.8247 Y0.7121
X39.8223 Y0.7164
X39.8189 Y0.7222
X39.8153 Y0.728
X39.8115 Y0.7337
X39.8082 Y0.7385
X39.8054 Y0.7424
X39.8009 Y0.7483
X39.7947 Y0.7559
X39.7889 Y0.7625
X39.7836 Y0.7682
X39.7779 Y0.774
X39.7717 Y0.7798
X39.7659 Y0.785
X39.7605 Y0.7895
X39.7554 Y0.7936
X39.7505 Y0.7972
X39.7457 Y0.8008
X39.7408 Y0.8041
X39.7374 Y0.8063
X39.7356 Y0.8075
X39.7319 Y0.8098
X39.7261 Y0.8132
X39.7203 Y0.8164
X39.7146 Y0.8195
X39.7074 Y0.823
X39.6987 Y0.8269
X39.6929 Y0.8294
X39.69 Y0.8305
X39.6857 Y0.8321
X39.68 Y0.8341
X39.6742 Y0.836
X39.6684 Y0.8378
X39.6627 Y0.8393
X39.6569 Y0.8408
X39.6511 Y0.8421
X39.6454 Y0.8433
X39.6396 Y0.8443
X39.6338 Y0.8452
X39.628 Y0.846
X39.6223 Y0.8467
X39.6136 Y0.8473
X39.606 Y0.8477
X39.6065 Y0.9439
X39.6066 Y0.9467 Z0.1943
X39.607 Y0.9495 Z0.1946
X39.6074 Y0.9522 Z0.195
X39.6081 Y0.9549 Z0.1955
X39.6088 Y0.9575 Z0.1962
X39.6097 Y0.96 Z0.1971
X39.6107 Y0.9624 Z0.1981
X39.6118 Y0.9647 Z0.1992
X39.613 Y0.9669 Z0.2005
X39.6143 Y0.969 Z0.2019
X39.6156 Y0.9709 Z0.2035
X39.617 Y0.9727 Z0.2052
X39.6183 Y0.9743 Z0.207
X39.6197 Y0.9759 Z0.2089
X39.6211 Y0.9772 Z0.2109
X39.6224 Y0.9785 Z0.2131
X39.6236 Y0.9796 Z0.2153
X39.6248 Y0.9806 Z0.2176
X39.626 Y0.9815 Z0.2201
X39.627 Y0.9822 Z0.2226
X39.6279 Y0.9829 Z0.2251
X39.6288 Y0.9834 Z0.2277
X39.6295 Y0.9839 Z0.2304
X39.6301 Y0.9842 Z0.2331
X39.6306 Y0.9845 Z0.2359
X39.6309 Y0.9847 Z0.2386
X39.6311 Y0.9848 Z0.2414
X39.6312 Y0.9849 Z0.2442
G0 Z0.8442
X41.7874 Y1.974
Z0.5395
G1 Z0.4176 F50.
Y1.9743 Z0.4122 F100.
Y1.9752 Z0.4069
Y1.9766 Z0.4018
Y1.9785 Z0.3968
Y1.981 Z0.392
Y1.984 Z0.3876
Y1.9875 Z0.3835
Y1.9913 Z0.3798
Y1.9955 Z0.3765
Y2.0001 Z0.3737
X41.7875 Y2.0049 Z0.3714
Y2.01 Z0.3696
Y2.0152 Z0.3684
Y2.0205 Z0.3677
X41.7932 Y4.3381 Z0.2056
G2 X41.8282 Y4.3731 Z0.2018 I0.035 J-0.0001
G1 X41.851 Z0.2002
G2 X41.8861 Y4.3377 Z0.1963 I0. J-0.035
G1 X41.8858 Y4.3097 Z0.1944
Y4.3062 Z0.1942
X41.8575 Y1.1838
G2 X41.8378 Y1.1526 I-0.035 J0.0003
G1 X41.836 Y1.1517
G2 X41.7854 Y1.1832 I-0.0155 J0.0314
G1 X41.7932 Y4.3381
G2 X41.8282 Y4.3731 I0.035 J-0.0001
G1 X41.851
G2 X41.8861 Y4.3377 I0. J-0.035
G1 X41.8858 Y4.3062
G3 X41.9746 Y4.1704 I0.1462 J-0.0013
G2 X42.0633 Y4.0346 I-0.0575 J-0.1345
G1 X42.0367 Y1.0997
G2 X41.9738 Y1.0137 I-0.0913 J0.0008
G3 X41.8291 Y0.9347 I0.1407 J-0.4298
X41.7234 Y0.8082 I0.2733 J-0.3359
G2 X41.6636 Y0.8078 I-0.03 J0.0166
G3 X41.6236 Y0.8662 I-0.3896 J-0.2236
G2 X41.6048 Y0.9195 I0.0656 J0.0531
G1 X41.6135 Y4.4892
G2 X41.6776 Y4.5531 I0.0641 J-0.0002
G1 X42.0043
G2 X42.0675 Y4.4894 I0. J-0.0632
G1 X42.0633 Y4.0346
G3 X42.1526 Y3.8981 I0.1471 J-0.0013
G2 X42.2419 Y3.7615 I-0.0578 J-0.1352
G1 X42.2155 Y0.8529
X42.1121 Y0.8538
X42.1073
X42.0958 Y0.8535
X42.0872 Y0.8529
X42.0814 Y0.8524
X42.0756 Y0.8517
X42.0699 Y0.8509
X42.0615 Y0.8495
X42.0506 Y0.8472
X42.042 Y0.8451
X42.0356 Y0.8433
X42.0295 Y0.8415
X42.0237 Y0.8395
X42.0179 Y0.8375
X42.0122 Y0.8352
X42.0064 Y0.8328
X42.0006 Y0.8303
X41.9947 Y0.8275
X41.9887 Y0.8245
X41.983 Y0.8214
X41.9774 Y0.8182
X41.9718 Y0.8148
X41.966 Y0.8111
X41.9602 Y0.8072
X41.9545 Y0.8031
X41.9513 Y0.8007
X41.9505 Y0.8001
X41.9474 Y0.7977
X41.942 Y0.7933
X41.9366 Y0.7887
X41.9312 Y0.7838
X41.9274 Y0.7802
X41.9252 Y0.7779
X41.9216 Y0.7742
X41.9167 Y0.769
X41.912 Y0.7638
X41.9076 Y0.7586
X41.9051 Y0.7554
X41.9042 Y0.7543
X41.9016 Y0.7509
X41.8973 Y0.7452
X41.8933 Y0.7394
X41.8896 Y0.7336
X41.8864 Y0.7285
X41.8837 Y0.724
X41.8805 Y0.7183
X41.8768 Y0.7112
X41.8736 Y0.7048
X41.871 Y0.699
X41.8685 Y0.6933
X41.8662 Y0.6875
X41.8636 Y0.6803
X41.8607 Y0.6716
X41.8589 Y0.6658
X41.8581 Y0.663
X41.857 Y0.6587
X41.8556 Y0.6529
X41.8543 Y0.6472
X41.8532 Y0.6414
X41.8522 Y0.6356
X41.8513 Y0.6299
X41.8506 Y0.6241
X41.8499 Y0.6184
X41.8493 Y0.6099
X41.8489 Y0.5983
X41.8488 Y0.5943
X41.8322 Y-1.2266
Y-1.227
Y-1.2273
Y-1.2389
X41.8323 Y-1.2434
X41.8326 Y-1.2549
X41.833 Y-1.2614
X41.8333 Y-1.2659
X41.5353
X41.5358 Y-1.259
X41.536 Y-1.2536
X41.5362 Y-1.2421
X41.5363 Y-1.2396
X41.5407 Y0.5813
Y0.5817
Y0.5822
Y0.5937
X41.5405 Y0.6002
X41.5402 Y0.606
X41.5397 Y0.6117
X41.5391 Y0.6175
X41.5384 Y0.6233
X41.5376 Y0.629
X41.5366 Y0.6348
X41.5355 Y0.6405
X41.5347 Y0.6446
X41.5341 Y0.6471
X41.5327 Y0.6528
X41.5302 Y0.6619
X41.528 Y0.6694
X41.526 Y0.6751
X41.5239 Y0.6809
X41.5217 Y0.6866
X41.5194 Y0.6921
X41.5171 Y0.6972
X41.5147 Y0.7024
X41.5121 Y0.7075
X41.5105 Y0.7107
X41.5098 Y0.7119
X41.5079 Y0.7155
X41.5045 Y0.7212
X41.501 Y0.727
X41.4973 Y0.7328
X41.4935 Y0.7383
X41.4897 Y0.7436
X41.4853 Y0.7494
X41.4803 Y0.7556
X41.4745 Y0.7622
X41.468 Y0.7693
X41.4623 Y0.775
X41.4576 Y0.7795
X41.4519 Y0.7846
X41.445 Y0.7904
X41.4414 Y0.7934
X41.4377 Y0.7962
X41.4298 Y0.802
X41.424 Y0.8059
X41.4235 Y0.8062
X41.4331 Y4.7341
X42.2507
X42.2419 Y3.7615
X42.2417 Y3.7587 Z0.1943
X42.2414 Y3.7559 Z0.1946
X42.2409 Y3.7532 Z0.195
X42.2402 Y3.7505 Z0.1955
X42.2394 Y3.7479 Z0.1962
X42.2385 Y3.7454 Z0.1971
X42.2375 Y3.743 Z0.1981
X42.2364 Y3.7407 Z0.1992
X42.2352 Y3.7385 Z0.2005
X42.2339 Y3.7365 Z0.2019
X42.2326 Y3.7345 Z0.2035
X42.2312 Y3.7327 Z0.2052
X42.2299 Y3.7311 Z0.207
X42.2285 Y3.7296 Z0.2089
X42.2271 Y3.7282 Z0.2109
X42.2258 Y3.727 Z0.2131
X42.2245 Y3.7259 Z0.2153
X42.2233 Y3.7249 Z0.2176
X42.2222 Y3.724 Z0.2201
X42.2212 Y3.7233 Z0.2226
X42.2202 Y3.7226 Z0.2251
X42.2194 Y3.7221 Z0.2277
X42.2187 Y3.7216 Z0.2304
X42.2181 Y3.7213 Z0.2331
X42.2176 Y3.721 Z0.2359
X42.2172 Y3.7208 Z0.2386
X42.217 Y3.7207 Z0.2414
Y3.7206 Z0.2442
G0 Z0.8442
X43.524 Y1.0766
Z0.5395
G1 Z0.4176 F50.
Y1.0763 Z0.4122 F100.
Y1.0755 Z0.4069
Y1.074 Z0.4018
Y1.0721 Z0.3968
Y1.0696 Z0.392
Y1.0666 Z0.3876
X43.5241 Y1.0632 Z0.3835
Y1.0593 Z0.3798
Y1.0551 Z0.3765
Y1.0505 Z0.3737
X43.5242 Y1.0457 Z0.3714
Y1.0406 Z0.3696
X43.5243 Y1.0354 Z0.3684
Y1.0301 Z0.3677
X43.5405 Y-1.2402 Z0.2089
Y-1.2408
Y-1.2413
X43.5406 Y-1.2418 Z0.2088
X43.5408 Y-1.2533 Z0.208
X43.541 Y-1.2582 Z0.2077
X43.5414 Y-1.2659 Z0.2071
X43.3587 Z0.1944
X43.3552 Z0.1942
X43.2088
X43.2092 Y-1.2579
X43.2094 Y-1.2532
X43.2096 Y-1.2417
Y-1.2411
Y-1.2405
X43.2638 Y4.7341
X43.4978
X43.5405 Y-1.2402
G3 X43.5408 Y-1.2533 I0.8378 J0.0088
G1 X43.541 Y-1.2582
X43.5414 Y-1.2659
X43.3552
X43.3524 Y-1.2657 Z0.1943
X43.3496 Y-1.2654 Z0.1946
X43.3469 Y-1.265 Z0.195
X43.3442 Y-1.2644 Z0.1955
X43.3416 Y-1.2636 Z0.1962
X43.3391 Y-1.2627 Z0.1971
X43.3367 Y-1.2617 Z0.1981
X43.3343 Y-1.2606 Z0.1992
X43.3322 Y-1.2594 Z0.2005
X43.3301 Y-1.2582 Z0.2019
X43.3282 Y-1.2569 Z0.2035
X43.3264 Y-1.2555 Z0.2052
X43.3247 Y-1.2542 Z0.207
X43.3232 Y-1.2528 Z0.2089
X43.3218 Y-1.2515 Z0.2109
X43.3206 Y-1.2502 Z0.2131
X43.3194 Y-1.2489 Z0.2153
X43.3184 Y-1.2477 Z0.2176
X43.3176 Y-1.2466 Z0.2201
X43.3168 Y-1.2455 Z0.2226
X43.3161 Y-1.2446 Z0.2251
X43.3156 Y-1.2438 Z0.2277
X43.3151 Y-1.2431 Z0.2304
X43.3148 Y-1.2425 Z0.2331
X43.3145 Y-1.242 Z0.2359
X43.3143 Y-1.2416 Z0.2386
X43.3142 Y-1.2414 Z0.2414
X43.3141 Z0.2442
G0 Z0.8442
X45.6127 Y-0.9049
Z0.2442
G1 X45.6124 Z0.2386 F100.
X45.6114 Z0.2331
X45.6099 Z0.2277
X45.6078 Z0.2226
X45.605 Z0.2176
X45.6018 Z0.2131
X45.5981 Z0.2089
X45.5939 Z0.2052
X45.5893 Z0.2019
X45.5844 Z0.1992
X45.5792 Z0.1971
X45.5738 Z0.1955
X45.5683 Z0.1946
X45.5627 Z0.1942
X45.4141
X45.3492
G2 X45.2848 Y-0.8409 I0. J0.0644
G1 X45.2479 Y4.3093
G2 X45.3112 Y4.3731 I0.0633 J0.0005
G1 X45.4141
X45.6107
X45.6163 Z0.1946
X45.6219 Z0.1955
X45.6273 Z0.1971
X45.6324 Z0.1992
X45.6373 Z0.2019
X45.6419 Z0.2052
X45.6461 Z0.2089
X45.6498 Z0.2131
X45.6531 Z0.2176
X45.6558 Z0.2226
X45.6579 Z0.2277
X45.6595 Z0.2331
X45.6604 Z0.2386
X45.6607 Z0.2442
G0 Z0.8442
X45.6127 Y-1.0849
Z0.2442
G1 X45.6124 Z0.2386 F100.
X45.6114 Z0.2331
X45.6099 Z0.2277
X45.6078 Z0.2226
X45.605 Z0.2176
X45.6018 Z0.2131
X45.5981 Z0.2089
X45.5939 Z0.2052
X45.5893 Z0.2019
X45.5844 Z0.1992
X45.5792 Z0.1971
X45.5738 Z0.1955
X45.5683 Z0.1946
X45.5627 Z0.1942
X45.4141
X45.1705
G2 X45.106 Y-1.0209 I0. J0.0644
G1 X45.0666 Y4.4893
G2 X45.1299 Y4.5531 I0.0633 J0.0005
G1 X45.4141
X45.6107
X45.6163 Z0.1946
X45.6219 Z0.1955
X45.6273 Z0.1971
X45.6324 Z0.1992
X45.6373 Z0.2019
X45.6419 Z0.2052
X45.6461 Z0.2089
X45.6498 Z0.2131
X45.6531 Z0.2176
X45.6558 Z0.2226
X45.6579 Z0.2277
X45.6595 Z0.2331
X45.6604 Z0.2386
X45.6607 Z0.2442
G0 Z0.8442
X45.6127 Y-1.2351
Z0.2392
G1 X45.6124 Z0.2342 F100.
X45.6116 Y-1.2353 Z0.2292
X45.6102 Y-1.2355 Z0.2244
X45.6083 Y-1.2358 Z0.2197
X45.6059 Y-1.2362 Z0.2153
X45.603 Y-1.2366 Z0.2112
X45.5997 Y-1.2371 Z0.2074
X45.596 Y-1.2377 Z0.2041
X45.5919 Y-1.2384 Z0.2011
X45.5875 Y-1.2391 Z0.1987
X45.5829 Y-1.2398 Z0.1968
X45.5781 Y-1.2406 Z0.1954
X45.5732 Y-1.2413 Z0.1945
X45.5683 Y-1.2421 Z0.1942
X45.422 Y-1.2653
X45.4181 Y-1.2657
X45.4142 Y-1.2659
X44.9254
X44.9258 Y-1.2612
X44.9262 Y-1.2547
X44.9265 Y-1.2431
X44.9266 Y-1.2386
X44.9264 Y-1.2155
Y-1.2153
X44.8839 Y4.7341
X45.4141
X45.4181 Y4.7339
X45.422 Y4.7335
X45.6162 Y4.7027
X45.6217 Y4.7018 Z0.1946
X45.6271 Y4.701 Z0.1955
X45.6325 Y4.7001 Z0.1971
X45.6376 Y4.6993 Z0.1992
X45.6424 Y4.6986 Z0.2019
X45.6469 Y4.6978 Z0.2052
X45.6511 Y4.6972 Z0.2089
X45.6548 Y4.6966 Z0.2131
X45.658 Y4.6961 Z0.2176
X45.6607 Y4.6957 Z0.2226
X45.6628 Y4.6953 Z0.2277
X45.6643 Y4.6951 Z0.2331
X45.6652 Y4.6949 Z0.2386
X45.6655 Z0.2442
G0 Z0.8442
X21.1576 Y2.0089
Z0.5395
G1 Z0.4176 F50.
Y2.0092 Z0.4122 F100.
Y2.0101 Z0.4069
Y2.0115 Z0.4018
Y2.0134 Z0.3968
Y2.0159 Z0.392
Y2.0189 Z0.3876
X21.1577 Y2.0223 Z0.3835
Y2.0262 Z0.3798
Y2.0304 Z0.3765
Y2.035 Z0.3737
Y2.0398 Z0.3714
Y2.0449 Z0.3696
Y2.0501 Z0.3684
Y2.0554 Z0.3677
X21.1617 Y4.3261 Z0.2089
G2 X21.2087 Y4.3731 Z0.2038 I0.0471 J-0.0001
G1 X21.2378 Z0.2017
G2 X21.2848 Y4.3258 Z0.1965 I0. J-0.0471
G1 X21.2847 Y4.2947 Z0.1944
Y4.2913 Z0.1942
X21.2704 Y1.1367
G2 X21.217 Y1.108 I-0.0345 J0.0002
G3 X21.18 Y1.1305 I-0.3822 J-0.5854
G2 X21.1562 Y1.1715 I0.0232 J0.0409
G1 X21.1617 Y4.3261
G2 X21.2087 Y4.3731 I0.0471 J-0.0001
G1 X21.2378
G2 X21.2848 Y4.3258 I0. J-0.0471
G1 X21.2847 Y4.2913
G3 X21.3741 Y4.1559 I0.1462 J-0.0007
G2 X21.4634 Y4.0204 I-0.0569 J-0.1347
G1 X21.4498 Y1.0203
G2 X21.4026 Y0.9113 I-0.1509 J0.0007
G3 X21.3202 Y0.8042 I0.2952 J-0.3123
G2 X21.2609 Y0.8036 I-0.0298 J0.0161
G3 X21.0383 Y0.9991 I-0.3908 J-0.2206
G2 X20.976 Y1.0916 I0.0373 J0.0923
G1 X20.982 Y4.4892
G2 X21.046 Y4.5531 I0.064 J-0.0001
G1 X21.4021
G2 X21.4656 Y4.4893 I0. J-0.0635
G1 X21.4634 Y4.0204
G3 X21.5533 Y3.8843 I0.1471 J-0.0007
G2 X21.6432 Y3.7481 I-0.0572 J-0.1355
G1 X21.63 Y0.8404
X21.6259 Y0.8391
X21.6201 Y0.8372
X21.6144 Y0.8351
X21.6089 Y0.8329
X21.6037 Y0.8307
X21.5985 Y0.8284
X21.5933 Y0.826
X21.5901 Y0.8244
X21.589 Y0.8238
X21.5855 Y0.822
X21.5798 Y0.8189
X21.574 Y0.8156
X21.5682 Y0.812
X21.5622 Y0.8081
X21.556 Y0.8039
X21.5503 Y0.7996
X21.5449 Y0.7955
X21.5381 Y0.7898
X21.5298 Y0.7824
X21.5241 Y0.777
X21.5208 Y0.7737
X21.5155 Y0.768
X21.5082 Y0.7598
X21.5025 Y0.7528
X21.4982 Y0.7473
X21.4941 Y0.7415
X21.49 Y0.7355
X21.4862 Y0.7297
X21.4827 Y0.7239
X21.4794 Y0.7181
X21.4763 Y0.7124
X21.4744 Y0.7086
X21.4735 Y0.7069
X21.4708 Y0.7011
X21.4665 Y0.6914
X21.4634 Y0.6835
X21.4613 Y0.6778
X21.4594 Y0.672
X21.4576 Y0.6663
X21.456 Y0.6605
X21.4545 Y0.6547
X21.4531 Y0.649
X21.4519 Y0.6432
X21.451 Y0.6384
X21.4503 Y0.6347
X21.4494 Y0.6289
X21.4484 Y0.6212
X21.4478 Y0.6144
X21.4473 Y0.6086
X21.447 Y0.6029
X21.4468 Y0.5971
Y0.5937
X21.4385 Y-1.2387
Y-1.2428
X21.4388 Y-1.2544
X21.4392 Y-1.2607
X21.4396 Y-1.2659
X21.1314
X21.1319 Y-1.2583
X21.1321 Y-1.2537
X21.1323 Y-1.2422
X21.1324 Y-1.2395
X21.1355 Y0.5814
Y0.5817
Y0.5821
Y0.5936
X21.1353 Y0.5999
X21.135 Y0.6056
X21.1346 Y0.6114
X21.134 Y0.6172
X21.1333 Y0.6229
X21.1325 Y0.6287
X21.1316 Y0.6345
X21.1305 Y0.6402
X21.1294 Y0.6455
X21.1283 Y0.6502
X21.1268 Y0.656
X21.1249 Y0.6628
X21.123 Y0.669
X21.1211 Y0.6748
X21.119 Y0.6806
X21.1167 Y0.6863
X21.1143 Y0.6921
X21.1118 Y0.6978
X21.109 Y0.7036
X21.1061 Y0.7094
X21.103 Y0.7151
X21.0997 Y0.7209
X21.0963 Y0.7267
X21.0926 Y0.7324
X21.0884 Y0.7385
X21.0839 Y0.7448
X21.0795 Y0.7505
X21.0752 Y0.7557
X21.0695 Y0.7623
X21.0622 Y0.7702
X21.0566 Y0.7759
X21.0527 Y0.7796
X21.047 Y0.7847
X21.0393 Y0.7911
X21.0357 Y0.7941
X21.032 Y0.7969
X21.025 Y0.802
X21.0192 Y0.8059
X21.0147 Y0.8089
X21.0095 Y0.8121
X21.0037 Y0.8155
X20.998 Y0.8186
X20.9922 Y0.8216
X20.9869 Y0.8242
X20.9821 Y0.8264
X20.9764 Y0.8289
X20.9696 Y0.8316
X20.9634 Y0.834
X20.9576 Y0.836
X20.9518 Y0.8378
X20.9461 Y0.8395
X20.9403 Y0.8411
X20.9345 Y0.8425
X20.9288 Y0.8438
X20.923 Y0.8449
X20.9172 Y0.8459
X20.9114 Y0.8468
X20.9057 Y0.8475
X20.8999 Y0.8481
X20.8913 Y0.8487
X20.8798 Y0.8492
X20.875 Y0.8493
X20.7946 Y0.8494
X20.8014 Y4.7341
X21.6477
X21.6432 Y3.7481
X21.643 Y3.7453 Z0.1943
X21.6427 Y3.7426 Z0.1946
X21.6422 Y3.7398 Z0.195
X21.6416 Y3.7371 Z0.1955
X21.6408 Y3.7345 Z0.1962
X21.64 Y3.732 Z0.1971
X21.6389 Y3.7296 Z0.1981
X21.6378 Y3.7273 Z0.1992
X21.6366 Y3.7251 Z0.2005
X21.6354 Y3.7231 Z0.2019
X21.6341 Y3.7211 Z0.2035
X21.6327 Y3.7193 Z0.2052
X21.6313 Y3.7177 Z0.207
X21.63 Y3.7162 Z0.2089
X21.6286 Y3.7148 Z0.2109
X21.6273 Y3.7136 Z0.2131
X21.626 Y3.7124 Z0.2153
X21.6248 Y3.7115 Z0.2176
X21.6237 Y3.7106 Z0.2201
X21.6227 Y3.7098 Z0.2226
X21.6217 Y3.7092 Z0.2251
X21.6209 Y3.7086 Z0.2277
X21.6202 Y3.7082 Z0.2304
X21.6196 Y3.7078 Z0.2331
X21.6191 Y3.7075 Z0.2359
X21.6188 Y3.7073 Z0.2386
X21.6186 Y3.7072 Z0.2414
X21.6185 Z0.2442
G0 Z0.8442
X19.4174 Y2.7362
Z0.5395
G1 Z0.4176 F50.
Y2.7365 Z0.4122 F100.
Y2.7374 Z0.4069
Y2.7388 Z0.4018
Y2.7408 Z0.3968
Y2.7432 Z0.392
Y2.7462 Z0.3876
Y2.7497 Z0.3835
X19.4173 Y2.7535 Z0.3798
Y2.7578 Z0.3765
Y2.7623 Z0.3737
Y2.7672 Z0.3714
Y2.7722 Z0.3696
Y2.7774 Z0.3684
X19.4172 Y2.7827 Z0.3677
X19.4108 Y4.7341 Z0.2312
X19.7515 Z0.2074
X19.7511 Y4.5474 Z0.1944
Y4.5439 Z0.1942
X19.741 Y-1.2391
X19.7411 Y-1.242
G3 X19.7414 Y-1.2549 I0.6769 J0.0102
G1 X19.7417 Y-1.26
X19.7421 Y-1.2659
X19.4295
X19.4299 Y-1.2604
X19.4302 Y-1.2542
X19.4305 Y-1.2427
X19.4306 Y-1.2389
X19.4108 Y4.7341
X19.7515
X19.7511 Y4.5439
X19.751 Y4.5411 Z0.1943
X19.7507 Y4.5383 Z0.1946
X19.7502 Y4.5356 Z0.195
X19.7496 Y4.5329 Z0.1955
X19.7488 Y4.5303 Z0.1962
X19.7479 Y4.5278 Z0.1971
X19.7469 Y4.5253 Z0.1981
X19.7458 Y4.523 Z0.1992
X19.7446 Y4.5208 Z0.2005
X19.7434 Y4.5188 Z0.2019
X19.7421 Y4.5169 Z0.2035
X19.7407 Y4.5151 Z0.2052
X19.7394 Y4.5134 Z0.207
X19.738 Y4.5119 Z0.2089
X19.7366 Y4.5105 Z0.2109
X19.7353 Y4.5093 Z0.2131
X19.7341 Y4.5081 Z0.2153
X19.7329 Y4.5072 Z0.2176
X19.7317 Y4.5063 Z0.2201
X19.7307 Y4.5055 Z0.2226
X19.7298 Y4.5049 Z0.2251
X19.7289 Y4.5043 Z0.2277
X19.7282 Y4.5039 Z0.2304
X19.7276 Y4.5035 Z0.2331
X19.7272 Y4.5032 Z0.2359
X19.7268 Y4.503 Z0.2386
X19.7266 Y4.5029 Z0.2414
X19.7265 Z0.2442
G0 Z0.8442
X18.0504 Y3.685
Z0.5395
G1 Z0.4176 F50.
Y3.6847 Z0.4122 F100.
Y3.6839 Z0.4069
Y3.6825 Z0.4018
Y3.6805 Z0.3968
Y3.678 Z0.392
Y3.675 Z0.3876
Y3.6716 Z0.3835
X18.0505 Y3.6677 Z0.3798
Y3.6635 Z0.3765
Y3.6589 Z0.3737
Y3.6541 Z0.3714
Y3.649 Z0.3696
Y3.6438 Z0.3684
X18.0506 Y3.6385 Z0.3677
X18.0587 Y1.1735 Z0.1953
G2 X18.0552 Y1.1604 Z0.1944 I-0.026 J-0.0001
G1 X18.0543 Y1.1589 Z0.1943
X18.0533 Y1.1575 Z0.1942
G2 X18.044 Y1.1499 I-0.0206 J0.0159
G1 X18.0353 Y1.1457
G2 X17.9979 Y1.1692 I-0.0114 J0.0234
G1 X18.0084 Y4.3341
G2 X18.0483 I0.0199 J-0.0001
G1 X18.0587 Y1.1735
G2 X18.0533 Y1.1575 I-0.026 J-0.0001
G3 X18.0096 Y1.01 I0.1678 J-0.13
G2 X17.9647 Y0.8629 I-0.2076 J-0.0171
G3 X17.9318 Y0.8158 I0.3483 J-0.2781
G2 X17.8715 Y0.8159 I-0.0302 J0.0181
G3 X17.8358 Y0.8667 I-0.3598 J-0.2146
G2 X17.817 Y0.9195 I0.0639 J0.0525
G1 X17.8289 Y4.4903
G2 X17.8917 Y4.5529 I0.0628 J-0.0002
G1 X18.1649
G2 X18.2278 Y4.4903 I0. J-0.0628
G1 X18.239 Y1.0931
G2 X18.1781 Y1.0096 I-0.0874 J-0.0003
G3 X17.9647 Y0.8629 I0.1349 J-0.4248
X17.9758 Y0.6697 I0.1133 J-0.0905
G2 X18.0503 Y0.4911 I-0.1785 J-0.1794
G1 X18.0561 Y-1.2397
Y-1.2421
X18.0564 Y-1.2536
X18.0566 Y-1.2589
X18.057 Y-1.2659
X17.7464
X17.7468 Y-1.2588
X17.747 Y-1.2536
X17.7473 Y-1.242
Y-1.2397
X17.7533 Y0.5812
Y0.5817
Y0.5823
Y0.5938
X17.7531 Y0.6006
X17.7527 Y0.6063
X17.7523 Y0.6121
X17.7517 Y0.6179
X17.7511 Y0.6227
X17.7506 Y0.6265
X17.7496 Y0.6322
X17.7482 Y0.64
X17.7468 Y0.6467
X17.7454 Y0.6525
X17.7439 Y0.6582
X17.7422 Y0.664
X17.7404 Y0.6697
X17.7384 Y0.6755
X17.7363 Y0.6813
X17.734 Y0.687
X17.7315 Y0.693
X17.7287 Y0.6991
X17.7259 Y0.7049
X17.7231 Y0.7103
X17.7201 Y0.7159
X17.7167 Y0.7216
X17.7132 Y0.7274
X17.7094 Y0.7331
X17.7067 Y0.7372
X17.705 Y0.7396
X17.7025 Y0.7431
X17.699 Y0.7476
X17.6954 Y0.7522
X17.6916 Y0.7568
X17.6876 Y0.7614
X17.6833 Y0.7661
X17.6776 Y0.7719
X17.6706 Y0.7788
X17.6648 Y0.784
X17.6603 Y0.7879
X17.6555 Y0.7918
X17.6503 Y0.7959
X17.6451 Y0.7997
X17.6399 Y0.8034
X17.6367 Y0.8055
X17.6355 Y0.8063
X17.6485 Y4.7341
X18.4081
X18.421 Y0.849
X18.3135 Y0.8486
X18.3113
X18.2997 Y0.8484
X18.2919 Y0.848
X18.2861 Y0.8475
X18.2804 Y0.8469
X18.2746 Y0.8462
X18.2688 Y0.8453
X18.2631 Y0.8443
X18.2573 Y0.8432
X18.2515 Y0.8419
X18.2458 Y0.8405
X18.24 Y0.839
X18.2342 Y0.8373
X18.2285 Y0.8355
X18.2214 Y0.833
X18.2131 Y0.8298
X18.2073 Y0.8275
X18.2041 Y0.8261
X18.1996 Y0.824
X18.1938 Y0.8212
X18.1881 Y0.8182
X18.1823 Y0.8151
X18.1761 Y0.8114
X18.1694 Y0.8072
X18.1636 Y0.8034
X18.1588 Y0.8001
X18.1538 Y0.7965
X18.1488 Y0.7926
X18.1438 Y0.7885
X18.1388 Y0.7842
X18.1355 Y0.7814
X18.1341 Y0.78
X18.1307 Y0.7768
X18.1255 Y0.7717
X18.1206 Y0.7667
X18.1159 Y0.7616
X18.1128 Y0.758
X18.1111 Y0.756
X18.1083 Y0.7526
X18.1045 Y0.7479
X18.1009 Y0.7431
X18.0975 Y0.7384
X18.0936 Y0.7326
X18.0893 Y0.7259
X18.0858 Y0.7201
X18.083 Y0.7153
X18.0801 Y0.71
X18.0772 Y0.7043
X18.0744 Y0.6985
X18.0718 Y0.6928
X18.0689 Y0.6857
X18.0656 Y0.6772
X18.0636 Y0.6714
X18.0626 Y0.6684
X18.0612 Y0.6639
X18.0595 Y0.6582
X18.058 Y0.6524
X18.0566 Y0.6466
X18.0554 Y0.6409
X18.0542 Y0.6351
X18.0533 Y0.6294
X18.0524 Y0.6236
X18.0517 Y0.6178
X18.0511 Y0.6121
X18.0506 Y0.6063
X18.0503 Y0.6005
X18.0501 Y0.5938
X18.05 Y0.5822
Y0.5817
Y0.5812
X18.0503 Y0.4911
X18.0502 Y0.4883 Z0.1943
X18.0499 Y0.4856 Z0.1946
X18.0494 Y0.4828 Z0.195
X18.0488 Y0.4801 Z0.1955
X18.0481 Y0.4775 Z0.1962
X18.0472 Y0.475 Z0.1971
X18.0462 Y0.4726 Z0.1981
X18.0451 Y0.4703 Z0.1992
X18.044 Y0.4681 Z0.2005
X18.0427 Y0.466 Z0.2019
X18.0414 Y0.4641 Z0.2035
X18.0401 Y0.4623 Z0.2052
X18.0387 Y0.4606 Z0.207
X18.0374 Y0.4591 Z0.2089
X18.036 Y0.4577 Z0.2109
X18.0347 Y0.4564 Z0.2131
X18.0335 Y0.4553 Z0.2153
X18.0323 Y0.4543 Z0.2176
X18.0311 Y0.4534 Z0.2201
X18.0301 Y0.4527 Z0.2226
X18.0292 Y0.452 Z0.2251
X18.0283 Y0.4515 Z0.2277
X18.0276 Y0.451 Z0.2304
X18.027 Y0.4506 Z0.2331
X18.0266 Y0.4503 Z0.2359
X18.0262 Y0.4501 Z0.2386
X18.026 Y0.45 Z0.2414
Z0.2442
G0 Z0.8442
X16.177 Y1.9469
Z0.5395
G1 Z0.4176 F50.
Y1.9472 Z0.4122 F100.
Y1.9481 Z0.4069
Y1.9495 Z0.4018
Y1.9514 Z0.3968
Y1.9539 Z0.392
Y1.9569 Z0.3876
Y1.9603 Z0.3835
Y1.9642 Z0.3798
Y1.9684 Z0.3765
Y1.973 Z0.3737
Y1.9778 Z0.3714
Y1.9829 Z0.3696
Y1.9881 Z0.3684
Y1.9934 Z0.3677
X16.1753 Y4.347 Z0.2031
G2 X16.2014 Y4.3731 Z0.2003 I0.026 J0.
G1 X16.2192 Z0.199
G2 X16.2452 Y4.347 Z0.1961 I0. J-0.026
G1 Y4.3215 Z0.1944
Y4.318 Z0.1942
X16.2345 Y1.0965
G2 X16.2247 Y1.0762 I-0.026 J0.0001
G1 X16.2202 Y1.0726
G2 X16.1776 Y1.0927 I-0.0165 J0.0201
G1 X16.1753 Y4.347
G2 X16.2014 Y4.3731 I0.026 J0.
G1 X16.2192
G2 X16.2452 Y4.347 I0. J-0.026
G1 Y4.318
G3 X16.3347 Y4.1827 I0.1462 J-0.0005
G2 X16.4243 Y4.0475 I-0.0567 J-0.1348
G1 X16.4144 Y1.0704
G2 X16.3519 Y0.947 I-0.1541 J0.0005
G3 X16.2317 Y0.8132 I0.2661 J-0.3601
G2 X16.1711 I-0.0303 J0.0178
G3 X16.1301 Y0.872 I-0.4071 J-0.2398
X16.0804 Y0.9237 I-0.3419 J-0.2789
X16.0701 Y0.9319 I-0.0825 J-0.0934
G2 X16.0595 Y0.9398 I0.1764 J0.2482
X15.9976 Y1.0662 I0.0985 J0.1265
G1 X15.9953 Y4.4892
G2 X16.0591 Y4.5531 I0.0638 J0.
G1 X16.3621
G2 X16.4257 Y4.4893 I0. J-0.0636
G1 X16.4243 Y4.0475
G3 X16.5143 Y3.9114 I0.1471 J-0.0005
G2 X16.6044 Y3.7754 I-0.057 J-0.1356
G1 X16.5947 Y0.8508
X16.592 Y0.8506
X16.5862 Y0.8501
X16.5805 Y0.8495
X16.5763 Y0.8489
X16.5737 Y0.8485
X16.5679 Y0.8475
X16.559 Y0.8458
X16.5516 Y0.8442
X16.5458 Y0.8427
X16.5401 Y0.8411
X16.5343 Y0.8393
X16.5285 Y0.8374
X16.5228 Y0.8354
X16.517 Y0.8332
X16.5112 Y0.8308
X16.506 Y0.8285
X16.5014 Y0.8264
X16.4956 Y0.8235
X16.4887 Y0.8199
X16.4824 Y0.8164
X16.4766 Y0.8129
X16.4709 Y0.8093
X16.4651 Y0.8054
X16.4618 Y0.8031
X16.461 Y0.8025
X16.4579 Y0.8002
X16.4525 Y0.7961
X16.4472 Y0.7918
X16.4418 Y0.7873
X16.4376 Y0.7835
X16.4345 Y0.7806
X16.4307 Y0.777
X16.4263 Y0.7726
X16.4221 Y0.7681
X16.4181 Y0.7637
X16.415 Y0.7601
X16.4127 Y0.7575
X16.4093 Y0.7533
X16.4049 Y0.7475
X16.4007 Y0.7418
X16.3967 Y0.736
X16.3943 Y0.7324
X16.3935 Y0.731
X16.3915 Y0.7278
X16.3884 Y0.7227
X16.3855 Y0.7177
X16.3828 Y0.7126
X16.38 Y0.7072
X16.3772 Y0.7014
X16.3746 Y0.6956
X16.3722 Y0.6899
X16.3707 Y0.6863
X16.3702 Y0.6849
X16.3681 Y0.6792
X16.3647 Y0.669
X16.3623 Y0.6611
X16.3608 Y0.6553
X16.3594 Y0.6495
X16.3582 Y0.6438
X16.3571 Y0.638
X16.3561 Y0.6322
X16.3552 Y0.6265
X16.3545 Y0.6207
X16.3539 Y0.615
X16.3535 Y0.6092
X16.3531 Y0.6034
X16.3529 Y0.5977
Y0.5936
X16.3468 Y-1.2389
Y-1.2427
X16.3471 Y-1.2542
X16.3474 Y-1.2605
X16.3478 Y-1.2659
X16.0508
X16.0512 Y-1.2598
X16.0515 Y-1.2539
X16.0518 Y-1.2424
Y-1.2392
X16.0505 Y0.5817
Y0.582
Y0.5935
X16.0504 Y0.5988
X16.0501 Y0.6046
X16.0497 Y0.6103
X16.0492 Y0.6161
X16.0486 Y0.6219
X16.0478 Y0.6276
X16.0469 Y0.6334
X16.0459 Y0.6391
X16.0447 Y0.6449
X16.0434 Y0.6507
X16.042 Y0.6564
X16.0404 Y0.6622
X16.0394 Y0.6657
X16.039 Y0.667
X16.037 Y0.6728
X16.0334 Y0.683
X16.0302 Y0.691
X16.0277 Y0.6968
X16.025 Y0.7025
X16.0222 Y0.7083
X16.0195 Y0.7135
X16.017 Y0.7181
X16.0136 Y0.7239
X16.0093 Y0.7308
X16.0054 Y0.7367
X16.002 Y0.7416
X15.9983 Y0.7466
X15.9945 Y0.7515
X15.9919 Y0.7548
X15.9906 Y0.7564
X15.9875 Y0.76
X15.9827 Y0.7654
X15.9776 Y0.7708
X15.9723 Y0.7762
X15.9692 Y0.7793
X15.9684 Y0.78
X15.9654 Y0.7827
X15.96 Y0.7875
X15.9546 Y0.792
X15.9492 Y0.7963
X15.9448 Y0.7996
X15.9413 Y0.8021
X15.9356 Y0.8061
X15.9275 Y0.8113
X15.9205 Y0.8155
X15.9148 Y0.8187
X15.9088 Y0.8219
X15.9026 Y0.8249
X15.8967 Y0.8277
X15.8912 Y0.8301
X15.8856 Y0.8323
X15.8801 Y0.8344
X15.8744 Y0.8364
X15.8686 Y0.8383
X15.8629 Y0.8401
X15.8571 Y0.8417
X15.8513 Y0.8431
X15.8456 Y0.8445
X15.8398 Y0.8456
X15.834 Y0.8467
X15.8264 Y0.8478
X15.8168 Y0.849
X15.8141 Y4.7341
X16.6075
X16.6044 Y3.7754
X16.6042 Y3.7726 Z0.1943
X16.6039 Y3.7698 Z0.1946
X16.6034 Y3.767 Z0.195
X16.6028 Y3.7644 Z0.1955
X16.602 Y3.7618 Z0.1962
X16.6011 Y3.7592 Z0.1971
X16.6001 Y3.7568 Z0.1981
X16.599 Y3.7545 Z0.1992
X16.5978 Y3.7523 Z0.2005
X16.5965 Y3.7503 Z0.2019
X16.5952 Y3.7483 Z0.2035
X16.5939 Y3.7465 Z0.2052
X16.5925 Y3.7449 Z0.207
X16.5912 Y3.7434 Z0.2089
X16.5898 Y3.742 Z0.2109
X16.5885 Y3.7408 Z0.2131
X16.5872 Y3.7396 Z0.2153
X16.586 Y3.7387 Z0.2176
X16.5849 Y3.7378 Z0.2201
X16.5839 Y3.737 Z0.2226
X16.5829 Y3.7364 Z0.2251
X16.5821 Y3.7358 Z0.2277
X16.5814 Y3.7354 Z0.2304
X16.5808 Y3.735 Z0.2331
X16.5803 Y3.7347 Z0.2359
X16.58 Y3.7345 Z0.2386
X16.5798 Y3.7344 Z0.2414
X16.5797 Z0.2442
G0 Z0.8442
X14.3268 Y1.9687
Z0.5395
G1 Z0.4176 F50.
Y1.969 Z0.4122 F100.
Y1.9699 Z0.4069
Y1.9713 Z0.4018
Y1.9733 Z0.3968
Y1.9758 Z0.392
Y1.9787 Z0.3876
Y1.9822 Z0.3835
Y1.986 Z0.3798
Y1.9903 Z0.3765
Y1.9948 Z0.3737
Y1.9997 Z0.3714
Y2.0047 Z0.3696
Y2.0099 Z0.3684
Y2.0153 Z0.3677
X14.3252 Y4.338 Z0.2053
G2 X14.3602 Y4.3731 Z0.2014 I0.035 J0.
G1 X14.3798 Z0.2001
G2 X14.4148 Y4.3381 Z0.1962 I0. J-0.035
G1 X14.4149 Y4.3118 Z0.1944
Y4.3083 Z0.1942
X14.4171 Y1.1725
G2 X14.3622 Y1.1394 I-0.0374 J0.
G3 X14.3469 Y1.1472 I-0.236 J-0.4457
G2 X14.3274 Y1.1786 I0.0155 J0.0314
G1 X14.3252 Y4.338
G2 X14.3602 Y4.3731 I0.035 J0.
G1 X14.3798
G2 X14.4148 Y4.3381 I0. J-0.035
G1 X14.4149 Y4.3083
G3 X14.505 Y4.1733 I0.1463 J0.0001
G2 X14.5951 Y4.0384 I-0.0562 J-0.135
G1 X14.5972 Y0.9622
G2 X14.5678 Y0.8861 I-0.1129 J-0.0001
G3 X14.5139 Y0.8127 I0.3205 J-0.2918
G2 X14.453 Y0.8126 I-0.0305 J0.0176
G3 X14.2105 Y1.009 I-0.3808 J-0.2222
G2 X14.1474 Y1.0959 I0.0283 J0.0869
G1 X14.145 Y4.4892
G2 X14.2089 Y4.5531 I0.0638 J0.
G1 X14.5308
G2 X14.5947 Y4.4892 I0. J-0.0639
G1 X14.5951 Y4.0384
G3 X14.6857 Y3.9027 I0.1471 J0.0001
G2 X14.7762 Y3.767 I-0.0565 J-0.1358
G1 X14.7783 Y0.8224
X14.7745 Y0.8205
X14.7691 Y0.8176
X14.7639 Y0.8147
X14.7591 Y0.8118
X14.7543 Y0.8088
X14.7494 Y0.8056
X14.7461 Y0.8034
X14.7442 Y0.8021
X14.7404 Y0.7993
X14.7346 Y0.7949
X14.7289 Y0.7903
X14.7231 Y0.7854
X14.7197 Y0.7824
X14.7186 Y0.7814
X14.7153 Y0.7783
X14.7098 Y0.7729
X14.7045 Y0.7674
X14.6996 Y0.762
X14.6969 Y0.7589
X14.6963 Y0.7582
X14.6936 Y0.755
X14.689 Y0.7493
X14.6847 Y0.7435
X14.6806 Y0.7378
X14.6774 Y0.7331
X14.6752 Y0.7297
X14.6717 Y0.724
X14.667 Y0.7159
X14.6632 Y0.7089
X14.6604 Y0.7032
X14.6576 Y0.6974
X14.6551 Y0.6916
X14.6531 Y0.687
X14.6517 Y0.6834
X14.6496 Y0.6776
X14.6469 Y0.6697
X14.6448 Y0.6628
X14.6432 Y0.6571
X14.6417 Y0.6513
X14.6404 Y0.6455
X14.6392 Y0.6398
X14.6381 Y0.634
X14.6372 Y0.6282
X14.6364 Y0.6225
X14.6357 Y0.6167
X14.6352 Y0.611
X14.6348 Y0.6052
X14.6345 Y0.5994
X14.6343 Y0.5936
Y0.5821
Y0.5815
X14.6356 Y-1.2394
Y-1.2422
X14.6358 Y-1.2537
X14.6361 Y-1.2594
X14.6365 Y-1.2659
X14.3324
X14.3328 Y-1.2598
X14.3331 Y-1.2539
X14.3333 Y-1.2424
X14.3334 Y-1.2392
X14.3321 Y0.5817
Y0.582
X14.332 Y0.5935
X14.3319 Y0.5988
X14.3317 Y0.6046
X14.3313 Y0.6103
X14.3308 Y0.6161
X14.3301 Y0.6219
X14.3294 Y0.6276
X14.3285 Y0.6334
X14.3274 Y0.6392
X14.3263 Y0.6449
X14.325 Y0.6507
X14.3235 Y0.6564
X14.3219 Y0.6622
X14.3208 Y0.6662
X14.3201 Y0.6684
X14.3181 Y0.6742
X14.3148 Y0.6835
X14.3118 Y0.691
X14.3093 Y0.6968
X14.3066 Y0.7026
X14.3038 Y0.7083
X14.3009 Y0.7137
X14.2981 Y0.7188
X14.2947 Y0.7246
X14.2907 Y0.731
X14.2869 Y0.7368
X14.2833 Y0.7419
X14.2795 Y0.747
X14.2756 Y0.7521
X14.273 Y0.7553
X14.272 Y0.7566
X14.269 Y0.7601
X14.2641 Y0.7656
X14.2586 Y0.7714
X14.2526 Y0.7774
X14.2469 Y0.7828
X14.2413 Y0.7877
X14.2358 Y0.7923
X14.2302 Y0.7967
X14.2259 Y0.8
X14.2227 Y0.8023
X14.217 Y0.8062
X14.2086 Y0.8116
X14.2015 Y0.8158
X14.1957 Y0.819
X14.1899 Y0.8221
X14.184 Y0.825
X14.1782 Y0.8277
X14.1725 Y0.8302
X14.1668 Y0.8325
X14.1611 Y0.8346
X14.1554 Y0.8366
X14.1496 Y0.8385
X14.1438 Y0.8402
X14.1381 Y0.8418
X14.1323 Y0.8433
X14.1265 Y0.8446
X14.1208 Y0.8457
X14.115 Y0.8468
X14.1074 Y0.8479
X14.098 Y0.849
X14.0923 Y0.8496
X14.0901 Y0.8497
X14.0836 Y0.85
X14.0721 Y0.8503
X14.0689
X13.9666
X13.9639 Y4.7341
X14.7756
X14.7762 Y3.767
X14.7761 Y3.7642 Z0.1943
X14.7758 Y3.7615 Z0.1946
X14.7753 Y3.7587 Z0.195
X14.7747 Y3.756 Z0.1955
X14.774 Y3.7534 Z0.1962
X14.7731 Y3.7509 Z0.1971
X14.7721 Y3.7485 Z0.1981
X14.771 Y3.7462 Z0.1992
X14.7698 Y3.744 Z0.2005
X14.7685 Y3.7419 Z0.2019
X14.7672 Y3.74 Z0.2035
X14.7659 Y3.7382 Z0.2052
X14.7645 Y3.7365 Z0.207
X14.7632 Y3.735 Z0.2089
X14.7618 Y3.7336 Z0.2109
X14.7605 Y3.7324 Z0.2131
X14.7593 Y3.7313 Z0.2153
X14.7581 Y3.7303 Z0.2176
X14.757 Y3.7294 Z0.2201
X14.7559 Y3.7286 Z0.2226
X14.755 Y3.728 Z0.2251
X14.7541 Y3.7274 Z0.2277
X14.7534 Y3.7269 Z0.2304
X14.7528 Y3.7266 Z0.2331
X14.7524 Y3.7263 Z0.2359
X14.752 Y3.7261 Z0.2386
X14.7518 Y3.726 Z0.2414
Y3.7259 Z0.2442
G0 Z0.8442
X12.9462 Y1.0807
Z0.5395
G1 Z0.4176 F50.
Y1.0804 Z0.4122 F100.
Y1.0795 Z0.4069
Y1.0781 Z0.4018
Y1.0761 Z0.3968
Y1.0736 Z0.392
Y1.0707 Z0.3876
Y1.0672 Z0.3835
Y1.0634 Z0.3798
Y1.0591 Z0.3765
Y1.0546 Z0.3737
Y1.0497 Z0.3714
Y1.0447 Z0.3696
Y1.0395 Z0.3684
Y1.0341 Z0.3677
X12.9478 Y-1.2394 Z0.2087
Y-1.2422 Z0.2085
X12.9481 Y-1.2538 Z0.2077
X12.9483 Y-1.2594 Z0.2073
X12.9488 Y-1.2659 Z0.2069
X12.77 Z0.1944
X12.7666 Z0.1942
X12.6236
X12.624 Y-1.2582
X12.6242 Y-1.2533
G3 X12.6244 Y-1.2402 I-0.9405 J0.0239
G1 X12.6672 Y4.7341
X12.9436
X12.9478 Y-1.2394
Y-1.2422
X12.9481 Y-1.2538
X12.9483 Y-1.2594
X12.9488 Y-1.2659
X12.7666
X12.7638 Y-1.2657 Z0.1943
X12.761 Y-1.2654 Z0.1946
X12.7582 Y-1.265 Z0.195
X12.7556 Y-1.2644 Z0.1955
X12.7529 Y-1.2636 Z0.1962
X12.7504 Y-1.2627 Z0.1971
X12.748 Y-1.2617 Z0.1981
X12.7457 Y-1.2606 Z0.1992
X12.7435 Y-1.2594 Z0.2005
X12.7414 Y-1.2582 Z0.2019
X12.7395 Y-1.2569 Z0.2035
X12.7377 Y-1.2555 Z0.2052
X12.7361 Y-1.2542 Z0.207
X12.7345 Y-1.2528 Z0.2089
X12.7332 Y-1.2515 Z0.2109
X12.7319 Y-1.2502 Z0.2131
X12.7308 Y-1.2489 Z0.2153
X12.7298 Y-1.2477 Z0.2176
X12.7289 Y-1.2466 Z0.2201
X12.7282 Y-1.2455 Z0.2226
X12.7275 Y-1.2446 Z0.2251
X12.7269 Y-1.2438 Z0.2277
X12.7265 Y-1.2431 Z0.2304
X12.7261 Y-1.2425 Z0.2331
X12.7258 Y-1.242 Z0.2359
X12.7256 Y-1.2416 Z0.2386
X12.7255 Y-1.2414 Z0.2414
Z0.2442
G0 Z0.8442
X11.1167 Y2.0382
Z0.5395
G1 Z0.4176 F50.
Y2.0385 Z0.4122 F100.
Y2.0393 Z0.4069
Y2.0408 Z0.4018
Y2.0427 Z0.3968
Y2.0452 Z0.392
Y2.0482 Z0.3876
Y2.0516 Z0.3835
X11.1166 Y2.0555 Z0.3798
Y2.0597 Z0.3765
Y2.0643 Z0.3737
Y2.0691 Z0.3714
X11.1165 Y2.0742 Z0.3696
Y2.0794 Z0.3684
Y2.0847 Z0.3677
X11.104 Y4.3093 Z0.2121
G2 X11.1675 Y4.3731 Z0.2051 I0.0634 J0.0004
G1 X11.1926 Z0.2034
G2 X11.2559 Y4.3093 Z0.1964 I0. J-0.0633
G1 X11.2557 Y4.2802 Z0.1944
Y4.2767 Z0.1942
X11.2335 Y1.1811
G2 X11.2089 Y1.1401 I-0.0471 J0.0003
G3 X11.1756 Y1.1209 I0.3323 J-0.6131
G2 X11.1217 Y1.1508 I-0.0186 J0.0301
G1 X11.104 Y4.3093
G2 X11.1675 Y4.3731 I0.0634 J0.0004
G1 X11.1926
G2 X11.2559 Y4.3093 I0. J-0.0633
G1 X11.2557 Y4.2767
G3 X11.3447 Y4.1411 I0.1462 J-0.001
G2 X11.4337 Y4.0054 I-0.0572 J-0.1346
G1 X11.4129 Y1.0971
G2 X11.3492 Y1.0064 I-0.0973 J0.0007
G3 X11.2109 Y0.9235 I0.1481 J-0.4036
X11.1116 Y0.7964 I0.3022 J-0.3383
G2 X11.054 Y0.7963 I-0.0288 J0.0152
G3 X10.9752 Y0.9039 I-0.4071 J-0.2155
G2 X10.9426 Y0.9826 I0.0803 J0.0793
G1 X10.923 Y4.4893
G2 X10.9865 Y4.5531 I0.0634 J0.0004
G1 X11.3739
G2 X11.4372 Y4.4893 I0. J-0.0633
G1 X11.4337 Y4.0054
G3 X11.5233 Y3.869 I0.1471 J-0.0011
G2 X11.6128 Y3.7326 I-0.0575 J-0.1353
G1 X11.5922 Y0.8525
X11.5091 Y0.8531
X11.5069
X11.4954 Y0.853
X11.4875 Y0.8527
X11.4818 Y0.8522
X11.476 Y0.8517
X11.4702 Y0.851
X11.4619 Y0.8498
X11.4509 Y0.8478
X11.4423 Y0.8459
X11.4359 Y0.8443
X11.4298 Y0.8426
X11.4241 Y0.8409
X11.4183 Y0.8389
X11.4125 Y0.8369
X11.4068 Y0.8347
X11.401 Y0.8323
X11.3942 Y0.8293
X11.3865 Y0.8256
X11.3808 Y0.8226
X11.377 Y0.8206
X11.3722 Y0.8178
X11.3664 Y0.8144
X11.3606 Y0.8107
X11.3548 Y0.8068
X11.3505 Y0.8038
X11.3477 Y0.8017
X11.3418 Y0.7971
X11.3332 Y0.79
X11.3266 Y0.7841
X11.322 Y0.7798
X11.3161 Y0.7739
X11.3092 Y0.7665
X11.3041 Y0.7607
X11.3008 Y0.7566
X11.2969 Y0.7516
X11.2926 Y0.7459
X11.2885 Y0.7401
X11.2847 Y0.7343
X11.281 Y0.7286
X11.2776 Y0.7228
X11.2744 Y0.7171
X11.2714 Y0.7113
X11.2685 Y0.7055
X11.2658 Y0.6998
X11.2633 Y0.6939
X11.2609 Y0.688
X11.2587 Y0.6822
X11.2567 Y0.6765
X11.2548 Y0.6708
X11.2531 Y0.6651
X11.2516 Y0.6594
X11.2501 Y0.6537
X11.2488 Y0.6479
X11.2476 Y0.6421
X11.2466 Y0.6364
X11.2457 Y0.6306
X11.2449 Y0.6248
X11.2443 Y0.6191
X11.2436 Y0.6105
X11.2431 Y0.599
X11.2429 Y0.5941
X11.2299 Y-1.2269
Y-1.2273
Y-1.2388
Y-1.2431
X11.2303 Y-1.2547
X11.2306 Y-1.2612
X11.231 Y-1.2659
X10.9321
X10.9325 Y-1.261
X10.9328 Y-1.2545
X10.9331 Y-1.2429
X10.9332 Y-1.2386
X10.9327 Y-1.1464
X10.923 Y0.5939
X10.9229 Y0.5967
X10.9228 Y0.6025
X10.9225 Y0.6082
X10.9221 Y0.614
X10.9215 Y0.6198
X10.9208 Y0.6255
X10.92 Y0.6313
X10.9191 Y0.637
X10.918 Y0.6428
X10.9168 Y0.6486
X10.9155 Y0.6543
X10.914 Y0.6601
X10.9124 Y0.6659
X10.9106 Y0.6716
X10.9087 Y0.6774
X10.9066 Y0.6832
X10.9042 Y0.6893
X10.9015 Y0.696
X10.8989 Y0.7017
X10.8965 Y0.7066
X10.8939 Y0.712
X10.8908 Y0.7177
X10.8875 Y0.7235
X10.884 Y0.7293
X10.881 Y0.7341
X10.8783 Y0.7382
X10.8742 Y0.744
X10.8686 Y0.7515
X10.8658 Y0.7551
X10.8629 Y0.7587
X10.8569 Y0.7656
X10.8517 Y0.7713
X10.8472 Y0.7759
X10.8414 Y0.7815
X10.8344 Y0.7879
X10.8276 Y0.7936
X10.8212 Y0.7988
X10.8154 Y0.8031
X10.8103 Y0.8067
X10.8049 Y0.8103
X10.7991 Y0.8139
X10.7933 Y0.8174
X10.7876 Y0.8206
X10.7837 Y0.8227
X10.7816 Y0.8238
X10.7759 Y0.8266
X10.7664 Y0.8309
X10.7625 Y0.8327
X10.7407 Y4.7341
X11.6199
X11.6128 Y3.7326
X11.6126 Y3.7298 Z0.1943
X11.6123 Y3.7271 Z0.1946
X11.6118 Y3.7243 Z0.195
X11.6112 Y3.7217 Z0.1955
X11.6104 Y3.719 Z0.1962
X11.6095 Y3.7165 Z0.1971
X11.6085 Y3.7141 Z0.1981
X11.6074 Y3.7118 Z0.1992
X11.6061 Y3.7096 Z0.2005
X11.6049 Y3.7076 Z0.2019
X11.6036 Y3.7057 Z0.2035
X11.6022 Y3.7039 Z0.2052
X11.6008 Y3.7022 Z0.207
X11.5995 Y3.7007 Z0.2089
X11.5981 Y3.6993 Z0.2109
X11.5968 Y3.6981 Z0.2131
X11.5955 Y3.697 Z0.2153
X11.5943 Y3.696 Z0.2176
X11.5932 Y3.6951 Z0.2201
X11.5921 Y3.6944 Z0.2226
X11.5912 Y3.6937 Z0.2251
X11.5904 Y3.6932 Z0.2277
X11.5896 Y3.6927 Z0.2304
X11.589 Y3.6924 Z0.2331
X11.5886 Y3.6921 Z0.2359
X11.5882 Y3.6919 Z0.2386
X11.588 Y3.6918 Z0.2414
Y3.6917 Z0.2442
G0 Z0.8442
X9.3321 Y3.6876
Z0.5395
G1 Z0.4176 F50.
Y3.6873 Z0.4122 F100.
Y3.6864 Z0.4069
X9.3322 Y3.685 Z0.4018
Y3.683 Z0.3968
Y3.6805 Z0.392
Y3.6776 Z0.3876
Y3.6741 Z0.3835
Y3.6703 Z0.3798
X9.3323 Y3.666 Z0.3765
Y3.6615 Z0.3737
Y3.6566 Z0.3714
Y3.6516 Z0.3696
X9.3324 Y3.6464 Z0.3684
Y3.641 Z0.3677
X9.3462 Y1.1623 Z0.1944
X9.3463 Y1.1588 Z0.1942
Y1.158
G2 X9.2925 Y1.1269 I-0.0358 J-0.0002
G3 X9.275 Y1.1368 I-0.4373 J-0.7517
G2 X9.2505 Y1.178 I0.0225 J0.0413
G1 X9.2428 Y4.3187
G2 X9.3286 Y4.319 I0.0429 J0.0001
G1 X9.3463 Y1.1588
G3 X9.4398 Y1.0452 I0.1166 J0.0007
G2 X9.4817 Y0.9041 I-0.0164 J-0.0817
G3 X9.4505 Y0.8704 I0.34 J-0.3467
X9.4152 Y0.8221 I0.3281 J-0.2766
G2 X9.3538 Y0.8223 I-0.0306 J0.0193
G3 X9.1322 Y1.0045 I-0.3772 J-0.2328
G2 X9.0707 Y1.0933 I0.0336 J0.089
G1 X9.0624 Y4.4904
G2 X9.1248 Y4.5529 I0.0624 J0.0002
G1 X9.4447
G2 X9.5077 Y4.4902 I0. J-0.063
G1 X9.5272 Y0.9954
G2 X9.4917 Y0.9136 I-0.1106 J-0.0006
G3 X9.4817 Y0.9041 I0.33 J-0.3562
X9.467 Y0.7097 I0.1035 J-0.1056
G2 X9.5293 Y0.5249 I-0.2482 J-0.1865
G1 X9.5391 Y-1.24
G3 X9.5394 Y-1.2534 I0.829 J0.009
G1 X9.5396 Y-1.2585
X9.54 Y-1.2659
X9.2415
X9.2419 Y-1.2603
X9.2422 Y-1.2541
X9.2425 Y-1.2426
Y-1.239
X9.238 Y0.5935
X9.2379 Y0.598
X9.2377 Y0.6038
X9.2374 Y0.6095
X9.2369 Y0.6153
X9.2363 Y0.6211
X9.2356 Y0.6268
X9.2347 Y0.6326
X9.2337 Y0.6384
X9.2326 Y0.6441
X9.2313 Y0.6499
X9.2299 Y0.6557
X9.2283 Y0.6614
X9.2267 Y0.6672
X9.2248 Y0.6729
X9.2228 Y0.6787
X9.2207 Y0.6845
X9.2189 Y0.6891
X9.2174 Y0.6926
X9.2149 Y0.6984
X9.2111 Y0.7064
X9.2075 Y0.7133
X9.2044 Y0.719
X9.201 Y0.7248
X9.1975 Y0.7306
X9.1951 Y0.7342
X9.1941 Y0.7357
X9.1919 Y0.739
X9.1883 Y0.744
X9.1846 Y0.749
X9.1807 Y0.754
X9.1767 Y0.7589
X9.1726 Y0.7636
X9.1673 Y0.7694
X9.1606 Y0.7762
X9.1548 Y0.7818
X9.15 Y0.7862
X9.1452 Y0.7902
X9.1407 Y0.794
X9.1362 Y0.7975
X9.1316 Y0.8009
X9.1281 Y0.8035
X9.1257 Y0.8052
X9.1216 Y0.8079
X9.1158 Y0.8116
X9.11 Y0.8151
X9.1043 Y0.8184
X9.0986 Y0.8215
X9.0931 Y0.8243
X9.0873 Y0.827
X9.0813 Y0.8297
X9.0754 Y0.8322
X9.0696 Y0.8345
X9.0639 Y0.8365
X9.0581 Y0.8385
X9.0523 Y0.8403
X9.0466 Y0.8419
X9.0408 Y0.8434
X9.035 Y0.8448
X9.0275 Y0.8463
X9.0183 Y0.848
X9.0125 Y0.8488
X9.0102 Y0.8491
X9.0062 Y0.8496
X9.0004 Y0.8502
X8.9946 Y0.8506
X8.9889 Y0.8509
X8.9825 Y0.8511
X8.971
X8.9706
X8.9702
X8.8901 Y0.8509
X8.8806 Y4.7341
X9.6875
X9.7093 Y0.8351
X9.7064 Y0.8341
X9.7006 Y0.8321
X9.6965 Y0.8306
X9.6941 Y0.8297
X9.6883 Y0.8273
X9.6792 Y0.8232
X9.6718 Y0.8197
X9.666 Y0.8167
X9.6603 Y0.8135
X9.6545 Y0.8101
X9.6507 Y0.8078
X9.649 Y0.8067
X9.6456 Y0.8045
X9.6408 Y0.8012
X9.6359 Y0.7977
X9.631 Y0.7941
X9.6258 Y0.79
X9.6203 Y0.7854
X9.6145 Y0.7803
X9.6085 Y0.7747
X9.6027 Y0.7689
X9.5971 Y0.763
X9.5913 Y0.7565
X9.5853 Y0.7492
X9.5808 Y0.7434
X9.5777 Y0.7392
X9.5742 Y0.7341
X9.5704 Y0.7284
X9.5668 Y0.7226
X9.5633 Y0.7169
X9.5611 Y0.7129
X9.5599 Y0.7107
X9.557 Y0.705
X9.5525 Y0.6956
X9.5491 Y0.688
X9.5468 Y0.6823
X9.5446 Y0.6765
X9.5426 Y0.6707
X9.5402 Y0.6632
X9.5375 Y0.6538
X9.536 Y0.648
X9.5355 Y0.6459
X9.5347 Y0.6419
X9.5335 Y0.6362
X9.5325 Y0.6304
X9.5316 Y0.6246
X9.5308 Y0.6189
X9.5302 Y0.6131
X9.5297 Y0.6073
X9.5293 Y0.6016
X9.529 Y0.5941
G3 X9.5289 Y0.5809 I0.8799 J-0.0126
G1 X9.5293 Y0.5249
X9.5291 Y0.5221 Z0.1943
X9.5288 Y0.5194 Z0.1946
X9.5284 Y0.5166 Z0.195
X9.5278 Y0.5139 Z0.1955
X9.527 Y0.5113 Z0.1962
X9.5262 Y0.5088 Z0.1971
X9.5252 Y0.5064 Z0.1981
X9.5241 Y0.5041 Z0.1992
X9.5229 Y0.5019 Z0.2005
X9.5217 Y0.4998 Z0.2019
X9.5204 Y0.4978 Z0.2035
X9.519 Y0.496 Z0.2052
X9.5177 Y0.4944 Z0.207
X9.5163 Y0.4929 Z0.2089
X9.515 Y0.4915 Z0.2109
X9.5137 Y0.4902 Z0.2131
X9.5125 Y0.4891 Z0.2153
X9.5113 Y0.4881 Z0.2176
X9.5101 Y0.4872 Z0.2201
X9.5091 Y0.4864 Z0.2226
X9.5082 Y0.4858 Z0.2251
X9.5073 Y0.4852 Z0.2277
X9.5066 Y0.4847 Z0.2304
X9.506 Y0.4844 Z0.2331
X9.5056 Y0.4841 Z0.2359
X9.5052 Y0.4839 Z0.2386
X9.505 Y0.4838 Z0.2414
Y0.4837 Z0.2442
G0 Z0.8442
X7.8165 Y1.0906
Z0.5395
G1 Z0.4176 F50.
Y1.0903 Z0.4122 F100.
Y1.0894 Z0.4069
Y1.088 Z0.4018
Y1.0861 Z0.3968
Y1.0836 Z0.392
Y1.0806 Z0.3876
Y1.0772 Z0.3835
X7.8166 Y1.0733 Z0.3798
Y1.0691 Z0.3765
Y1.0645 Z0.3737
Y1.0597 Z0.3714
Y1.0546 Z0.3696
Y1.0494 Z0.3684
Y1.0441 Z0.3677
X7.8222 Y-1.2396 Z0.208
Y-1.2421 Z0.2078
X7.8225 Y-1.2536 Z0.207
X7.8227 Y-1.259 Z0.2067
X7.8231 Y-1.2659 Z0.2062
X7.6544 Z0.1944
X7.6509 Z0.1942
X7.519
X7.5194 Y-1.26
X7.5197 Y-1.254
X7.52 Y-1.2424
Y-1.2391
X7.5117 Y4.7341
X7.8076
X7.8222 Y-1.2396
Y-1.2421
X7.8225 Y-1.2536
X7.8227 Y-1.259
X7.8231 Y-1.2659
X7.6509
X7.6481 Y-1.2657 Z0.1943
X7.6453 Y-1.2654 Z0.1946
X7.6426 Y-1.265 Z0.195
X7.6399 Y-1.2644 Z0.1955
X7.6373 Y-1.2636 Z0.1962
X7.6348 Y-1.2627 Z0.1971
X7.6323 Y-1.2617 Z0.1981
X7.63 Y-1.2606 Z0.1992
X7.6278 Y-1.2594 Z0.2005
X7.6258 Y-1.2582 Z0.2019
X7.6238 Y-1.2569 Z0.2035
X7.622 Y-1.2555 Z0.2052
X7.6204 Y-1.2542 Z0.207
X7.6189 Y-1.2528 Z0.2089
X7.6175 Y-1.2515 Z0.2109
X7.6162 Y-1.2502 Z0.2131
X7.6151 Y-1.2489 Z0.2153
X7.6141 Y-1.2477 Z0.2176
X7.6132 Y-1.2466 Z0.2201
X7.6125 Y-1.2455 Z0.2226
X7.6118 Y-1.2446 Z0.2251
X7.6113 Y-1.2438 Z0.2277
X7.6108 Y-1.2431 Z0.2304
X7.6104 Y-1.2425 Z0.2331
X7.6102 Y-1.242 Z0.2359
X7.61 Y-1.2416 Z0.2386
X7.6099 Y-1.2414 Z0.2414
X7.6098 Z0.2442
G0 Z0.8442
X6.0583 Y1.9439
Z0.5395
G1 Z0.4176 F50.
Y1.9442 Z0.4122 F100.
Y1.945 Z0.4069
Y1.9465 Z0.4018
Y1.9484 Z0.3968
Y1.9509 Z0.392
Y1.9539 Z0.3876
Y1.9573 Z0.3835
Y1.9612 Z0.3798
Y1.9654 Z0.3765
Y1.97 Z0.3737
X6.0582 Y1.9748 Z0.3714
Y1.9799 Z0.3696
Y1.9851 Z0.3684
Y1.9904 Z0.3677
X6.0512 Y4.3379 Z0.2035
G2 X6.0863 Y4.3731 Z0.1997 I0.035 J0.0001
G1 X6.0893 Z0.1995
G2 X6.1244 Y4.3381 Z0.1956 I0. J-0.035
G1 Y4.3201 Z0.1944
Y4.3166 Z0.1942
X6.1288 Y1.1716
G2 X6.1142 Y1.1482 I-0.026 J0.
G1 X6.1064 Y1.1443
X6.0986 Y1.1404
G2 X6.0607 Y1.1634 I-0.0119 J0.0231
G1 X6.0512 Y4.3379
G2 X6.0863 Y4.3731 I0.035 J0.0001
G1 X6.0893
G2 X6.1244 Y4.3381 I0. J-0.035
G1 Y4.3166
G3 X6.2146 Y4.1817 I0.1463 J0.0002
G2 X6.3048 Y4.0468 I-0.0561 J-0.1351
G1 X6.3089 Y1.0948
G2 X6.2468 Y1.0082 I-0.0913 J-0.0001
G3 X6.0118 Y0.8242 I0.1436 J-0.4254
G2 X5.9489 Y0.8247 I-0.0313 J0.0199
G3 X5.9312 Y0.8515 I-0.4104 J-0.2522
X5.9115 Y0.8768 I-0.284 J-0.2017
G1 X5.9072 Y0.8814
X5.9029 Y0.886
G2 X5.8813 Y0.9421 I0.0628 J0.0564
G1 X5.8708 Y4.4893
G2 X5.9344 Y4.5531 I0.0636 J0.0002
G1 X6.2402
G2 X6.3042 Y4.4892 I0. J-0.064
G1 X6.3048 Y4.0468
G3 X6.3955 Y3.9112 I0.1471 J0.0002
G2 X6.4862 Y3.7756 I-0.0564 J-0.1358
G1 X6.4902 Y0.8496
X6.3864 Y0.8494
X6.3822
X6.3707 Y0.849
X6.3621 Y0.8484
X6.3564 Y0.8478
X6.3506 Y0.8471
X6.3448 Y0.8463
X6.3391 Y0.8453
X6.3333 Y0.8442
X6.3275 Y0.843
X6.3218 Y0.8416
X6.316 Y0.8401
X6.3102 Y0.8384
X6.3045 Y0.8366
X6.2987 Y0.8346
X6.2919 Y0.8321
X6.2841 Y0.829
X6.2784 Y0.8265
X6.2746 Y0.8248
X6.2698 Y0.8225
X6.2641 Y0.8195
X6.2583 Y0.8164
X6.2525 Y0.8131
X6.2469 Y0.8096
X6.2414 Y0.8061
X6.2357 Y0.8021
X6.2296 Y0.7978
X6.2259 Y0.795
X6.2223 Y0.792
X6.2138 Y0.7849
X6.2081 Y0.7798
X6.205 Y0.777
X6.2014 Y0.7734
X6.1972 Y0.769
X6.1931 Y0.7647
X6.1892 Y0.7604
X6.1856 Y0.7561
X6.1822 Y0.7519
X6.1777 Y0.7462
X6.1724 Y0.7389
X6.1681 Y0.7326
X6.1649 Y0.7276
X6.1618 Y0.7225
X6.1588 Y0.7174
X6.157 Y0.7142
X6.1563 Y0.7128
X6.1544 Y0.7092
X6.1515 Y0.7035
X6.1488 Y0.6977
X6.1462 Y0.6919
X6.1438 Y0.6862
X6.1416 Y0.6804
X6.1395 Y0.6746
X6.1376 Y0.6689
X6.1361 Y0.664
X6.1349 Y0.66
X6.1334 Y0.6542
X6.1315 Y0.6467
X6.1301 Y0.6401
X6.129 Y0.6343
X6.1281 Y0.6285
X6.1273 Y0.6228
X6.1266 Y0.617
X6.1261 Y0.6113
X6.1256 Y0.6055
X6.1253 Y0.5997
X6.1252 Y0.5936
X6.1251 Y0.5821
Y0.5818
Y0.5814
X6.1277 Y-1.2395
Y-1.2421
X6.128 Y-1.2537
X6.1282 Y-1.2593
X6.1286 Y-1.2659
X5.8392
X5.8396 Y-1.2603
X5.8399 Y-1.2542
X5.8402 Y-1.2427
Y-1.2389
X5.8348 Y0.5935
X5.8347 Y0.5978
X5.8345 Y0.6036
X5.8341 Y0.6093
X5.8337 Y0.6151
X5.8331 Y0.6209
X5.8324 Y0.6266
X5.8315 Y0.6324
X5.8305 Y0.6381
X5.8294 Y0.6439
X5.8281 Y0.6497
X5.8267 Y0.6554
X5.8252 Y0.6612
X5.8235 Y0.667
X5.8217 Y0.6727
X5.8197 Y0.6785
X5.8176 Y0.6843
X5.8159 Y0.6885
X5.8148 Y0.6913
X5.8123 Y0.6971
X5.8082 Y0.7058
X5.8045 Y0.7131
X5.8014 Y0.7188
X5.798 Y0.7246
X5.7945 Y0.7304
X5.7923 Y0.7338
X5.7915 Y0.7349
X5.7894 Y0.7381
X5.7857 Y0.7433
X5.7819 Y0.7485
X5.7778 Y0.7537
X5.7739 Y0.7585
X5.77 Y0.763
X5.7647 Y0.7688
X5.7579 Y0.7759
X5.7521 Y0.7815
X5.7474 Y0.7858
X5.7427 Y0.7898
X5.7382 Y0.7936
X5.7336 Y0.7972
X5.729 Y0.8007
X5.7255 Y0.8032
X5.7231 Y0.8049
X5.7191 Y0.8076
X5.7133 Y0.8114
X5.7075 Y0.8149
X5.7018 Y0.8182
X5.7012 Y0.8185
X5.7007 Y0.8188
X5.6891 Y4.7341
X6.4848
X6.4862 Y3.7756
X6.486 Y3.7728 Z0.1943
X6.4857 Y3.77 Z0.1946
X6.4852 Y3.7673 Z0.195
X6.4846 Y3.7646 Z0.1955
X6.4839 Y3.762 Z0.1962
X6.483 Y3.7595 Z0.1971
X6.482 Y3.757 Z0.1981
X6.4809 Y3.7547 Z0.1992
X6.4797 Y3.7525 Z0.2005
X6.4785 Y3.7505 Z0.2019
X6.4772 Y3.7485 Z0.2035
X6.4758 Y3.7467 Z0.2052
X6.4745 Y3.7451 Z0.207
X6.4731 Y3.7436 Z0.2089
X6.4718 Y3.7422 Z0.2109
X6.4705 Y3.7409 Z0.2131
X6.4692 Y3.7398 Z0.2153
X6.468 Y3.7388 Z0.2176
X6.4669 Y3.7379 Z0.2201
X6.4659 Y3.7372 Z0.2226
X6.4649 Y3.7365 Z0.2251
X6.4641 Y3.7359 Z0.2277
X6.4634 Y3.7355 Z0.2304
X6.4628 Y3.7351 Z0.2331
X6.4623 Y3.7348 Z0.2359
X6.462 Y3.7346 Z0.2386
X6.4618 Y3.7345 Z0.2414
X6.4617 Z0.2442
G0 Z0.8442
X4.2015 Y1.9688
Z0.5395
G1 Z0.4176 F50.
Y1.9691 Z0.4122 F100.
Y1.9699 Z0.4069
Y1.9714 Z0.4018
Y1.9733 Z0.3968
Y1.9758 Z0.392
Y1.9788 Z0.3876
Y1.9822 Z0.3835
X4.2014 Y1.9861 Z0.3798
Y1.9903 Z0.3765
Y1.9949 Z0.3737
Y1.9997 Z0.3714
Y2.0048 Z0.3696
Y2.01 Z0.3684
X4.2013 Y2.0153 Z0.3677
X4.1924 Y4.3379 Z0.2053
G2 X4.2275 Y4.3731 Z0.2014 I0.035 J0.0001
G1 X4.2472 Z0.2001
G2 X4.2822 Y4.3382 Z0.1962 I0. J-0.035
G1 X4.2823 Y4.3118 Z0.1944
Y4.3083 Z0.1942
X4.2918 Y1.1181
G2 X4.2393 Y1.0915 I-0.0329 J-0.0001
G3 X4.2297 Y1.0985 I-0.2596 J-0.3509
X4.22 Y1.1052 I-0.7246 J-1.0369
G2 X4.2047 Y1.134 I0.0198 J0.0289
G1 X4.1924 Y4.3379
G2 X4.2275 Y4.3731 I0.035 J0.0001
G1 X4.2472
G2 X4.2822 Y4.3382 I0. J-0.035
G1 X4.2823 Y4.3083
G3 X4.3727 Y4.1736 I0.1462 J0.0004
G2 X4.4631 Y4.0389 I-0.0558 J-0.1352
G1 X4.4719 Y1.062
G2 X4.4101 Y0.9328 I-0.165 J-0.0005
G3 X4.3103 Y0.8196 I0.2754 J-0.3436
G2 X4.2483 Y0.8197 I-0.031 J0.0189
G3 X4.1845 Y0.9022 I-0.403 J-0.2458
X4.103 Y0.9672 I-0.294 J-0.2846
G1 X4.0957 Y0.9713
X4.0883 Y0.9753
G2 X4.0249 Y1.0835 I0.0614 J0.1087
G1 X4.0118 Y4.4893
G2 X4.0754 Y4.5531 I0.0636 J0.0002
G1 X4.3977
G2 X4.4618 Y4.4892 I0. J-0.0641
G1 X4.4631 Y4.0389
G3 X4.554 Y3.9034 I0.1471 J0.0004
G2 X4.6449 Y3.7679 I-0.0562 J-0.1359
G1 X4.6536 Y0.8467
X4.6527 Y0.8466
X4.6469 Y0.8457
X4.6411 Y0.8448
X4.6353 Y0.8437
X4.6296 Y0.8425
X4.6238 Y0.8412
X4.618 Y0.8397
X4.6123 Y0.838
X4.6065 Y0.8363
X4.5988 Y0.8336
X4.5892 Y0.83
X4.5834 Y0.8276
X4.5815 Y0.8268
X4.5777 Y0.8251
X4.5719 Y0.8223
X4.5661 Y0.8194
X4.5604 Y0.8163
X4.5535 Y0.8124
X4.5456 Y0.8075
X4.5399 Y0.8038
X4.5362 Y0.8013
X4.5316 Y0.7979
X4.526 Y0.7936
X4.5202 Y0.789
X4.5143 Y0.7839
X4.5084 Y0.7786
X4.5026 Y0.773
X4.4971 Y0.7674
X4.492 Y0.7617
X4.4891 Y0.7586
X4.4886 Y0.7579
X4.486 Y0.7549
X4.4817 Y0.7495
X4.4775 Y0.744
X4.4735 Y0.7386
X4.47 Y0.7334
X4.4668 Y0.7285
X4.4632 Y0.7228
X4.4594 Y0.7161
X4.456 Y0.7099
X4.453 Y0.7042
X4.4503 Y0.6984
X4.4477 Y0.6927
X4.4453 Y0.6871
X4.4432 Y0.6817
X4.4411 Y0.6759
X4.439 Y0.6698
X4.4371 Y0.6638
X4.4354 Y0.6581
X4.4339 Y0.6523
X4.4325 Y0.6465
X4.4313 Y0.6408
X4.4301 Y0.635
X4.4292 Y0.6293
X4.4283 Y0.6235
X4.4276 Y0.6177
X4.427 Y0.612
X4.4266 Y0.6062
X4.4263 Y0.6004
X4.4261 Y0.5938
X4.426 Y0.5822
Y0.5817
Y0.5812
X4.4314 Y-1.2397
Y-1.2421
X4.4317 Y-1.2536
X4.4319 Y-1.2589
X4.4323 Y-1.2659
X4.1367
X4.1371 Y-1.2606
X4.1374 Y-1.2543
X4.1378 Y-1.2428
Y-1.2388
X4.1308 Y0.5936
X4.1307 Y0.5974
X4.1305 Y0.6032
X4.1302 Y0.6089
X4.1297 Y0.6147
X4.1289 Y0.6223
X4.1276 Y0.6318
X4.1267 Y0.6375
X4.1263 Y0.6396
X4.1256 Y0.6435
X4.1243 Y0.6493
X4.1229 Y0.6551
X4.1214 Y0.6608
X4.1198 Y0.6666
X4.118 Y0.6723
X4.116 Y0.6781
X4.1139 Y0.6839
X4.1107 Y0.6919
X4.1062 Y0.702
X4.1035 Y0.7077
X4.1028 Y0.7091
X4.1009 Y0.7127
X4.0978 Y0.7184
X4.0945 Y0.7242
X4.091 Y0.73
X4.0871 Y0.7359
X4.0829 Y0.742
X4.0787 Y0.7478
X4.0745 Y0.7532
X4.0688 Y0.7601
X4.0615 Y0.7684
X4.0561 Y0.7741
X4.0528 Y0.7773
X4.0471 Y0.7827
X4.0388 Y0.79
X4.0319 Y0.7958
X4.0265 Y0.7999
X4.0207 Y0.8041
X4.0146 Y0.8083
X4.0087 Y0.8121
X4.0029 Y0.8156
X3.9971 Y0.8189
X3.9914 Y0.8221
X3.9877 Y0.8239
X3.9863 Y0.8247
X3.9806 Y0.8274
X3.9705 Y0.8318
X3.9625 Y0.835
X3.9568 Y0.8371
X3.951 Y0.839
X3.9452 Y0.8408
X3.9395 Y0.8425
X3.9337 Y0.844
X3.9279 Y0.8454
X3.9222 Y0.8466
X3.918 Y0.8474
X3.9155 Y0.8479
X3.9097 Y0.8488
X3.9007 Y0.85
X3.8933 Y0.8507
X3.8875 Y0.8512
X3.8818 Y0.8515
X3.876 Y0.8517
X3.8715
X3.8448 Y0.8516
X3.8299 Y4.7341
X4.642
X4.6449 Y3.7679
X4.6448 Y3.7651 Z0.1943
X4.6444 Y3.7623 Z0.1946
X4.644 Y3.7596 Z0.195
X4.6434 Y3.7569 Z0.1955
X4.6426 Y3.7543 Z0.1962
X4.6418 Y3.7518 Z0.1971
X4.6408 Y3.7494 Z0.1981
X4.6397 Y3.747 Z0.1992
X4.6385 Y3.7448 Z0.2005
X4.6372 Y3.7428 Z0.2019
X4.6359 Y3.7408 Z0.2035
X4.6346 Y3.739 Z0.2052
X4.6333 Y3.7374 Z0.207
X4.6319 Y3.7359 Z0.2089
X4.6306 Y3.7345 Z0.2109
X4.6293 Y3.7332 Z0.2131
X4.628 Y3.7321 Z0.2153
X4.6268 Y3.7311 Z0.2176
X4.6257 Y3.7302 Z0.2201
X4.6247 Y3.7295 Z0.2226
X4.6237 Y3.7288 Z0.2251
X4.6229 Y3.7282 Z0.2277
X4.6222 Y3.7278 Z0.2304
X4.6216 Y3.7274 Z0.2331
X4.6211 Y3.7271 Z0.2359
X4.6208 Y3.7269 Z0.2386
X4.6206 Y3.7268 Z0.2414
X4.6205 Z0.2442
G0 Z0.8442
X2.4691 Y3.7027
Z0.5395
G1 Z0.4176 F50.
Y3.7024 Z0.4122 F100.
Y3.7016 Z0.4069
Y3.7001 Z0.4018
Y3.6982 Z0.3968
Y3.6957 Z0.392
Y3.6927 Z0.3876
Y3.6893 Z0.3835
Y3.6854 Z0.3798
Y3.6812 Z0.3765
X2.4692 Y3.6766 Z0.3737
Y3.6718 Z0.3714
Y3.6667 Z0.3696
Y3.6615 Z0.3684
Y3.6562 Z0.3677
X2.4787 Y1.1922 Z0.1954
G2 X2.476 Y1.1778 Z0.1944 I-0.0394 J-0.0002
G1 X2.4753 Y1.1761 Z0.1943
X2.4746 Y1.1746 Z0.1942
G2 X2.4232 Y1.1562 I-0.0352 J0.0175
G1 X2.4187 Y1.1582
G2 X2.3978 Y1.1902 I0.0141 J0.0321
G1 X2.3956 Y4.3228
G2 X2.4667 Y4.323 I0.0355 J0.
G1 X2.4787 Y1.1922
G2 X2.4746 Y1.1746 I-0.0394 J-0.0002
G3 X2.4794 Y1.0537 I0.1129 J-0.0561
G2 X2.3937 Y0.9682 I-0.0535 J-0.0321
G3 X2.279 Y1.017 I-0.2306 J-0.3826
G2 X2.2178 Y1.0964 I0.021 J0.0794
G1 X2.2155 Y4.4903
G2 X2.278 Y4.5529 I0.0625 J0.
G1 X2.5832
G2 X2.6461 Y4.4903 I0. J-0.0629
G1 X2.6598 Y0.9222
G2 X2.6406 Y0.869 I-0.0827 J-0.0003
G3 X2.6219 Y0.8445 I0.2854 J-0.2373
X2.6048 Y0.8187 I0.5079 J-0.3552
G2 X2.544 Y0.819 I-0.0303 J0.019
G3 X2.3937 Y0.9682 I-0.3809 J-0.2334
X2.2128 Y0.9305 I-0.0701 J-0.1164
G2 X2.0367 Y0.9866 I-0.0791 J0.0562
G1 X2.0341 Y4.7341
X2.8263
X2.8414 Y0.8076
X2.8404 Y0.807
X2.8346 Y0.8032
X2.8282 Y0.7986
X2.8244 Y0.7958
X2.8207 Y0.7929
X2.8121 Y0.7859
X2.8064 Y0.781
X2.8034 Y0.7782
X2.7997 Y0.7747
X2.7953 Y0.7703
X2.7911 Y0.7659
X2.7871 Y0.7615
X2.7835 Y0.7575
X2.7804 Y0.7537
X2.7759 Y0.748
X2.77 Y0.7402
G3 X2.7642 Y0.7318 I0.1041 J-0.0779
G1 X2.7585 Y0.7228
X2.7551 Y0.717
X2.7537 Y0.7145
X2.7514 Y0.7103
X2.7485 Y0.7046
X2.7457 Y0.6988
X2.743 Y0.693
X2.7406 Y0.6873
X2.7383 Y0.6815
X2.736 Y0.6754
X2.7338 Y0.6688
X2.7312 Y0.6602
X2.7283 Y0.6494
X2.7264 Y0.6412
X2.7253 Y0.6354
X2.7243 Y0.6297
X2.7235 Y0.6239
X2.7227 Y0.6181
X2.7221 Y0.6124
X2.7217 Y0.6066
X2.7213 Y0.6008
X2.7211 Y0.5939
X2.721 Y0.5823
Y0.5817
Y0.5811
X2.728 Y-1.2398
Y-1.242
X2.7283 Y-1.2535
X2.7285 Y-1.2588
X2.7289 Y-1.2659
X2.4271
X2.4275 Y-1.2598
X2.4278 Y-1.2539
X2.4281 Y-1.2424
Y-1.2392
X2.4269 Y0.5817
Y0.582
X2.4268 Y0.5935
X2.4267 Y0.5988
X2.4264 Y0.6046
X2.4261 Y0.6103
X2.4256 Y0.6161
X2.4249 Y0.6219
X2.4241 Y0.6276
X2.4232 Y0.6334
X2.4222 Y0.6392
X2.4205 Y0.6474
X2.4178 Y0.658
X2.4163 Y0.6637
X2.416 Y0.6646
X2.415 Y0.668
X2.4131 Y0.6737
X2.4111 Y0.6795
X2.4089 Y0.6853
X2.4065 Y0.691
X2.404 Y0.6968
X2.4014 Y0.7026
X2.3985 Y0.7083
X2.3962 Y0.7129
X2.3943 Y0.7163
X2.3909 Y0.7221
X2.386 Y0.7302
G3 X2.3802 Y0.7388 I-0.1108 J-0.0679
G1 X2.3737 Y0.7478
X2.3693 Y0.7535
X2.3672 Y0.756
X2.364 Y0.7598
X2.3595 Y0.7649
X2.3547 Y0.77
X2.3497 Y0.7751
X2.3465 Y0.7783
X2.3451 Y0.7797
X2.3419 Y0.7826
X2.3368 Y0.7871
X2.3317 Y0.7913
X2.3267 Y0.7954
X2.3221 Y0.7989
X2.318 Y0.8019
X2.3122 Y0.8059
X2.3048 Y0.8107
X2.2982 Y0.8147
X2.2924 Y0.818
X2.2867 Y0.8211
X2.2809 Y0.824
X2.2774 Y0.8257
X2.2763 Y0.8262
X2.2706 Y0.8287
X2.2602 Y0.833
X2.2521 Y0.836
X2.2463 Y0.8379
X2.2405 Y0.8397
X2.2348 Y0.8413
X2.229 Y0.8428
X2.2232 Y0.8441
X2.2174 Y0.8454
X2.2117 Y0.8464
X2.2036 Y0.8477
X2.1933 Y0.8489
X2.1875 Y0.8495
X2.1863 Y0.8496
X2.1801 Y0.8499
X2.1686 Y0.8503
X2.1647
X2.0368
X2.0367 Y0.9866
X2.0369 Y0.9894 Z0.1943
X2.0372 Y0.9922 Z0.1946
X2.0377 Y0.9949 Z0.195
X2.0383 Y0.9976 Z0.1955
X2.039 Y1.0002 Z0.1962
X2.0399 Y1.0028 Z0.1971
X2.0409 Y1.0052 Z0.1981
X2.042 Y1.0075 Z0.1992
X2.0432 Y1.0097 Z0.2005
X2.0444 Y1.0117 Z0.2019
X2.0457 Y1.0137 Z0.2035
X2.0471 Y1.0155 Z0.2052
X2.0484 Y1.0171 Z0.207
X2.0498 Y1.0187 Z0.2089
X2.0511 Y1.02 Z0.2109
X2.0524 Y1.0213 Z0.2131
X2.0537 Y1.0224 Z0.2153
X2.0549 Y1.0234 Z0.2176
X2.056 Y1.0243 Z0.2201
X2.0571 Y1.025 Z0.2226
X2.058 Y1.0257 Z0.2251
X2.0588 Y1.0263 Z0.2277
X2.0596 Y1.0267 Z0.2304
X2.0601 Y1.0271 Z0.2331
X2.0606 Y1.0274 Z0.2359
X2.061 Y1.0276 Z0.2386
X2.0612 Y1.0277 Z0.2414
Z0.2442
G0 Z0.8442
X0.3473 Y4.3731
Z0.2442
G1 X0.3476 Z0.2386 F100.
X0.3486 Z0.2331
X0.3501 Z0.2277
X0.3522 Z0.2226
X0.355 Z0.2176
X0.3582 Z0.2131
X0.3619 Z0.2089
X0.3661 Z0.2052
X0.3707 Z0.2019
X0.3756 Z0.1992
X0.3808 Z0.1971
X0.3862 Z0.1955
X0.3917 Z0.1946
X0.3973 Z0.1942
X0.5458
X0.6108
G2 X0.6748 Y4.3092 I0. J-0.0639
G1 X0.6783 Y-0.841
G2 X0.6145 Y-0.9049 I-0.0638 J0.
G1 X0.5458
X0.3492
X0.3436 Z0.1946
X0.3381 Z0.1955
X0.3327 Z0.1971
X0.3275 Z0.1992
X0.3226 Z0.2019
X0.3181 Z0.2052
X0.3139 Z0.2089
X0.3101 Z0.2131
X0.3069 Z0.2176
X0.3042 Z0.2226
X0.302 Z0.2277
X0.3005 Z0.2331
X0.2995 Z0.2386
X0.2992 Z0.2442
G0 Z0.8442
X0.3473 Y4.5531
Z0.2442
G1 X0.3476 Z0.2386 F100.
X0.3486 Z0.2331
X0.3501 Z0.2277
X0.3522 Z0.2226
X0.355 Z0.2176
X0.3582 Z0.2131
X0.3619 Z0.2089
X0.3661 Z0.2052
X0.3707 Z0.2019
X0.3756 Z0.1992
X0.3808 Z0.1971
X0.3862 Z0.1955
X0.3917 Z0.1946
X0.3973 Z0.1942
X0.5459
X0.7907
G2 X0.8546 Y4.4892 I0. J-0.0639
G1 X0.8585 Y-1.021
G2 X0.7947 Y-1.0849 I-0.0638 J0.
G1 X0.5458
X0.3492
X0.3436 Z0.1946
X0.3381 Z0.1955
X0.3327 Z0.1971
X0.3275 Z0.1992
X0.3226 Z0.2019
X0.3181 Z0.2052
X0.3139 Z0.2089
X0.3101 Z0.2131
X0.3069 Z0.2176
X0.3042 Z0.2226
X0.302 Z0.2277
X0.3005 Z0.2331
X0.2995 Z0.2386
X0.2992 Z0.2442
G0 Z0.8442
X0.3473 Y4.7033
Z0.2392
G1 X0.3476 Z0.2342 F100.
X0.3484 Y4.7034 Z0.2292
X0.3498 Y4.7037 Z0.2244
X0.3517 Y4.704 Z0.2197
X0.3541 Y4.7043 Z0.2153
X0.357 Y4.7048 Z0.2112
X0.3603 Y4.7053 Z0.2074
X0.364 Y4.7059 Z0.2041
X0.3681 Y4.7066 Z0.2011
X0.3725 Y4.7073 Z0.1987
X0.3771 Y4.708 Z0.1968
X0.3819 Y4.7087 Z0.1954
X0.3868 Y4.7095 Z0.1945
X0.3917 Y4.7103 Z0.1942
X0.538 Y4.7335
X0.5419 Y4.7339
X0.5459 Y4.7341
X1.0355
X1.0396 Y-1.2394
X1.0397 Y-1.2422
X1.0399 Y-1.2537
X1.0402 Y-1.2595
X1.0406 Y-1.2659
X0.5459
X0.5419 Y-1.2657
X0.538 Y-1.2653
X0.3438 Y-1.2345
X0.3383 Y-1.2337 Z0.1946
X0.3329 Y-1.2328 Z0.1955
X0.3275 Y-1.2319 Z0.1971
X0.3224 Y-1.2311 Z0.1992
X0.3176 Y-1.2304 Z0.2019
X0.3131 Y-1.2297 Z0.2052
X0.3089 Y-1.229 Z0.2089
X0.3052 Y-1.2284 Z0.2131
X0.302 Y-1.2279 Z0.2176
X0.2994 Y-1.2275 Z0.2226
X0.2972 Y-1.2271 Z0.2277
X0.2957 Y-1.2269 Z0.2331
X0.2948 Y-1.2268 Z0.2386
X0.2945 Y-1.2267 Z0.2442
G0 Z1.2442
M5
G53 G0 Z0.

(POCKET2 4)
M1
T16 M6
S24000 M3
G17 G90 G94
G55
G0 X0.481 Y4.8904
G43 Z1.2442 H16
G0 Z0.2155
G1 X0.4813 Y4.8905 Z0.2122 F50.
X0.482 Y4.8906 Z0.2089
X0.4833 Y4.8908 Z0.2059
X0.485 Y4.891 Z0.203
X0.4872 Y4.8914 Z0.2005
X0.4897 Y4.8918 Z0.1983
X0.4925 Y4.8922 Z0.1966
X0.4955 Y4.8927 Z0.1953
X0.4987 Y4.8932 Z0.1945
X0.502 Y4.8937 Z0.1942
X0.6919 Y4.9238
X0.6956 Y4.9241
X1.1772
X1.1815 Y-1.237
Y-1.2373
Y-1.2377
X1.1816 Y-1.2455
X1.1817 Y-1.2474
X1.182 Y-1.2551
X1.1822 Y-1.258
X1.183 Y-1.2658
X1.1833 Y-1.2688
X1.1845 Y-1.2766
X1.1849 Y-1.2791
X1.1864 Y-1.2869
X1.1869 Y-1.2894
X1.1888 Y-1.2972
X1.1895 Y-1.2998
X1.1917 Y-1.3076
X1.1926 Y-1.3105
X1.1953 Y-1.3183
X1.1959 Y-1.32
X1.1969 Y-1.3225
X1.1975 Y-1.3242
X1.1997 Y-1.3294
X1.2006 Y-1.3315
X1.2042 Y-1.3393
X1.2049 Y-1.3407
X1.2069 Y-1.3448
X1.2082 Y-1.3473
X1.2102 Y-1.3509
X1.211 Y-1.3523
X1.2156 Y-1.3601
X1.2169 Y-1.3622
G3 X1.2226 Y-1.3707 I0.301 J0.1937
G1 X1.2241 Y-1.3729
X1.2279 Y-1.378
X1.2288 Y-1.3792
X1.2308 Y-1.3818
X1.2322 Y-1.3836
X1.238 Y-1.3904
X1.2395 Y-1.3921
X1.2403 Y-1.3931
X1.2414 Y-1.3942
X1.2483 Y-1.4014
X1.2509 Y-1.404
X1.2586 Y-1.4112
X1.2613 Y-1.4135
X1.2691 Y-1.4199
X1.2715 Y-1.4217
G3 X1.2798 Y-1.4277 I0.3106 J0.4187
G1 X1.2823 Y-1.4295
X1.2901 Y-1.4345
X1.2929 Y-1.4362
X1.3006 Y-1.4406
X1.3033 Y-1.442
X1.3092 Y-1.445
X1.3096 Y-1.4452
X1.3099 Y-1.4453
X1.3118 Y-1.4462
X1.3139 Y-1.4472
X1.3216 Y-1.4506
X1.3242 Y-1.4517
X1.332 Y-1.4547
X1.3345 Y-1.4556
X1.3423 Y-1.4581
X1.3452 Y-1.459
X1.3529 Y-1.4612
X1.356 Y-1.4619
X1.3637 Y-1.4636
X1.3663 Y-1.4641
G3 X1.3783 Y-1.4661 I0.0568 J0.3023
G1 X1.3802 Y-1.4664
X1.3851 Y-1.467
X1.387 Y-1.4672
X1.3947 Y-1.4678
X1.3979 Y-1.468
X1.4056 Y-1.4683
X1.4074
X1.423
X1.4231
X2.0527 Y-1.4679
X2.053
X2.0608 Y-1.4678
X2.0624
X2.0702 Y-1.4675
X2.0734 Y-1.4674
X2.0822 Y-1.4666
X2.0851 Y-1.4663
X2.0918 Y-1.4653
X2.0939 Y-1.465
X2.1017 Y-1.4636
X2.1043 Y-1.4631
X2.1121 Y-1.4614
X2.1151 Y-1.4606
X2.1229 Y-1.4585
X2.1253 Y-1.4577
X2.1302 Y-1.4561
X2.1306 Y-1.456
X2.1309 Y-1.4559
X2.1312 Y-1.4558
X2.1341 Y-1.4548
X2.1361 Y-1.4541
X2.1438 Y-1.4511
X2.1464 Y-1.45
X2.1542 Y-1.4466
X2.1568 Y-1.4454
X2.1646 Y-1.4415
X2.1674 Y-1.44
X2.1752 Y-1.4355
X2.178 Y-1.4338
X2.1857 Y-1.4288
X2.1882 Y-1.4272
G3 X2.1965 Y-1.4211 I-0.2585 J0.3634
G1 X2.1988 Y-1.4193
G3 X2.2071 Y-1.4125 I-0.3171 J0.3942
G1 X2.2094 Y-1.4105
X2.2172 Y-1.4032
X2.2197 Y-1.4007
G3 X2.2283 Y-1.3916 I-0.2498 J0.2447
G1 X2.2301 Y-1.3897
X2.2352 Y-1.3836
X2.2364 Y-1.382
X2.2391 Y-1.3786
X2.2402 Y-1.3772
X2.2434 Y-1.3728
X2.2447 Y-1.3709
G3 X2.2506 Y-1.3621 I-0.2739 J0.1896
G1 X2.2517 Y-1.3603
X2.2564 Y-1.3525
X2.2573 Y-1.3509
X2.2598 Y-1.3463
X2.2611 Y-1.3438
G3 X2.2668 Y-1.3317 I-0.3092 J0.1536
G1 X2.2679 Y-1.3293
X2.2705 Y-1.3231
X2.271 Y-1.3216
X2.2716 Y-1.3201
X2.2723 Y-1.3183
X2.2749 Y-1.3106
X2.2759 Y-1.3077
X2.2781 Y-1.2999
X2.2788 Y-1.2974
X2.2807 Y-1.2896
X2.281 Y-1.2881
X2.2814 Y-1.2863
X2.2815 Y-1.2859
X2.2816 Y-1.2854
X2.2817 Y-1.285
X2.2828 Y-1.2791
X2.2832 Y-1.2767
X2.2844 Y-1.2689
X2.2847 Y-1.2659
X2.2855 Y-1.2581
X2.2857 Y-1.2553
X2.2861 Y-1.2475
Y-1.2455
X2.2862 Y-1.2378
Y-1.2375
Y-1.2372
Y-1.2369
X2.2849 Y0.5919
X2.2848 Y0.5953
X2.2846 Y0.5991
X2.2843 Y0.603
X2.2838 Y0.6069
X2.2832 Y0.6108
X2.2824 Y0.6147
X2.2816 Y0.6181
X2.2809 Y0.6212
X2.2797 Y0.6251
X2.2782 Y0.6298
X2.2765 Y0.6341
X2.2749 Y0.638
X2.2731 Y0.6419
X2.2711 Y0.6457
X2.2689 Y0.6498
X2.2663 Y0.6541
X2.2637 Y0.658
X2.2611 Y0.6615
X2.2586 Y0.6647
X2.2562 Y0.6676
X2.2536 Y0.6705
X2.2508 Y0.6734
X2.2483 Y0.6758
X2.2463 Y0.6778
X2.2438 Y0.6799
X2.2409 Y0.6823
X2.2381 Y0.6845
X2.2353 Y0.6866
X2.2325 Y0.6885
X2.2298 Y0.6903
X2.2271 Y0.6919
X2.2244 Y0.6935
X2.2218 Y0.6949
X2.2195 Y0.6961
X2.2163 Y0.6976
X2.2125 Y0.6993
X2.2086 Y0.7008
X2.2047 Y0.7022
X2.2008 Y0.7035
X2.1969 Y0.7046
X2.193 Y0.7055
X2.1891 Y0.7063
X2.1852 Y0.707
X2.1814 Y0.7075
X2.1775 Y0.708
X2.1736 Y0.7083
X2.1696 Y0.7084
X2.1618 Y0.7085
X2.1614
X1.895 Y0.7083
X1.8921 Y4.9241
X2.9675
X2.9837 Y0.7064
X2.9767 Y0.7063
X2.9722 Y0.7061
X2.9683 Y0.7057
X2.9644 Y0.7053
X2.9605 Y0.7046
X2.9567 Y0.7039
X2.9528 Y0.703
X2.9489 Y0.702
X2.945 Y0.7008
X2.9418 Y0.6997
X2.9393 Y0.6988
X2.9368 Y0.6979
X2.9343 Y0.6968
X2.9317 Y0.6956
X2.9289 Y0.6943
X2.9255 Y0.6926
X2.9217 Y0.6904
X2.9178 Y0.6881
X2.9139 Y0.6855
X2.9108 Y0.6833
X2.9086 Y0.6816
X2.9061 Y0.6796
X2.9033 Y0.6773
X2.9005 Y0.6748
X2.8978 Y0.6721
X2.8951 Y0.6694
X2.8926 Y0.6666
X2.8899 Y0.6635
X2.8871 Y0.6599
X2.8845 Y0.6563
X2.8821 Y0.6528
X2.8795 Y0.6487
X2.877 Y0.6442
X2.8748 Y0.64
X2.873 Y0.6361
X2.8714 Y0.6322
X2.8699 Y0.6284
X2.8686 Y0.6245
X2.8674 Y0.6206
X2.8664 Y0.617
X2.8657 Y0.6138
X2.8649 Y0.61
X2.8642 Y0.6054
X2.8636 Y0.6012
X2.8632 Y0.5973
X2.863 Y0.5934
X2.8629 Y0.5895
Y0.5877
X2.8699 Y-1.2371
Y-1.2375
X2.87 Y-1.2453
Y-1.247
X2.8703 Y-1.2548
X2.8705 Y-1.2578
X2.8712 Y-1.2656
X2.8716 Y-1.2685
X2.8727 Y-1.2762
X2.8731 Y-1.2786
X2.8745 Y-1.2864
X2.875 Y-1.2889
X2.8768 Y-1.2967
X2.8775 Y-1.2996
X2.8797 Y-1.3074
X2.8806 Y-1.3103
X2.8833 Y-1.3181
X2.8842 Y-1.3207
X2.8873 Y-1.3284
X2.8884 Y-1.331
X2.8919 Y-1.3388
X2.8927 Y-1.3406
X2.8935 Y-1.3422
X2.8937 Y-1.3425
X2.8938 Y-1.3428
X2.894 Y-1.3432
X2.8972 Y-1.3494
X2.8986 Y-1.3519
X2.9032 Y-1.3598
X2.9049 Y-1.3626
X2.9099 Y-1.3702
X2.9116 Y-1.3728
G3 X2.9177 Y-1.3809 I0.5149 J0.3746
G1 X2.9196 Y-1.3833
G3 X2.9264 Y-1.3916 I0.4278 J0.3499
G1 X2.9284 Y-1.3938
G3 X2.9365 Y-1.4023 I0.2818 J0.2582
G1 X2.9384 Y-1.4042
X2.9449 Y-1.4103
X2.9462 Y-1.4115
X2.948 Y-1.4132
X2.9495 Y-1.4144
X2.9555 Y-1.4193
X2.9574 Y-1.4209
G3 X2.9661 Y-1.4273 I0.1886 J0.2442
G1 X2.9684 Y-1.4289
X2.9761 Y-1.434
X2.9789 Y-1.4357
X2.9866 Y-1.4403
X2.9887 Y-1.4414
X2.9942 Y-1.4444
X2.9963 Y-1.4454
G3 X3.0075 Y-1.4506 I0.1424 J0.2929
G1 X3.0101 Y-1.4517
X3.0179 Y-1.4548
X3.0208 Y-1.4559
X3.0285 Y-1.4585
X3.0315 Y-1.4594
X3.0392 Y-1.4616
X3.0418 Y-1.4623
X3.0496 Y-1.4641
X3.0513 Y-1.4645
X3.0568 Y-1.4656
X3.0595 Y-1.4661
G3 X3.0702 Y-1.4677 I0.0765 J0.4855
G1 X3.0734 Y-1.468
X3.0811 Y-1.4687
X3.0839 Y-1.4689
X3.0916 Y-1.4692
X3.0936 Y-1.4693
X3.1013 Y-1.4694
X3.1017
X3.1022
X3.7696 Y-1.4668
X3.7715
X3.7802 Y-1.4665
X3.7834 Y-1.4663
X3.7911 Y-1.4656
X3.7937 Y-1.4653
X3.8015 Y-1.4643
X3.8039 Y-1.4639
X3.8117 Y-1.4625
X3.8143 Y-1.462
X3.8221 Y-1.4602
X3.8253 Y-1.4594
X3.8346 Y-1.4568
X3.8377 Y-1.4558
X3.844 Y-1.4537
X3.8461 Y-1.4529
X3.8538 Y-1.4499
X3.8559 Y-1.4491
X3.8619 Y-1.4465
X3.865 Y-1.445
X3.8745 Y-1.4403
X3.8773 Y-1.4388
X3.8826 Y-1.4358
X3.8828 Y-1.4356
X3.8831 Y-1.4355
X3.8856 Y-1.4341
X3.888 Y-1.4326
X3.8958 Y-1.4275
X3.8975 Y-1.4263
X3.8994 Y-1.425
X3.9007 Y-1.4241
X3.9066 Y-1.4197
X3.9086 Y-1.4181
G3 X3.9172 Y-1.4111 I-0.2195 J0.2748
G1 X3.9192 Y-1.4093
G3 X3.9276 Y-1.4014 I-0.2781 J0.3068
G1 X3.9297 Y-1.3994
G3 X3.9381 Y-1.3904 I-0.2875 J0.2794
G1 X3.9401 Y-1.3882
X3.944 Y-1.3835
X3.9449 Y-1.3824
X3.9487 Y-1.3776
X3.9502 Y-1.3757
X3.9524 Y-1.3727
X3.9535 Y-1.3711
X3.9591 Y-1.3629
X3.9608 Y-1.3602
X3.9652 Y-1.3529
X3.9664 Y-1.3508
X3.9698 Y-1.3447
X3.971 Y-1.3423
G3 X3.9759 Y-1.3321 I-0.4042 J0.1992
G1 X3.9772 Y-1.3292
X3.9804 Y-1.3212
X3.9816 Y-1.3182
X3.9842 Y-1.3107
X3.985 Y-1.3082
X3.9873 Y-1.3004
X3.988 Y-1.2979
X3.99 Y-1.2902
X3.9905 Y-1.2879
X3.9914 Y-1.2838
Y-1.2835
X3.9915 Y-1.2831
X3.9922 Y-1.2794
X3.9927 Y-1.2767
X3.9939 Y-1.2689
X3.9942 Y-1.2665
X3.995 Y-1.2587
X3.9953 Y-1.2556
X3.9957 Y-1.2479
X3.9958 Y-1.2457
X3.9959 Y-1.238
Y-1.2375
Y-1.2371
Y-1.2367
X3.9889 Y0.5882
Y0.5885
Y0.5888
Y0.5891
X3.9887 Y0.5968
X3.9885 Y0.6016
X3.9881 Y0.6055
X3.9875 Y0.6094
X3.9869 Y0.6133
X3.9861 Y0.6172
X3.9852 Y0.621
X3.9841 Y0.6249
X3.9829 Y0.6288
X3.9819 Y0.6317
X3.9812 Y0.6336
X3.9802 Y0.6361
X3.979 Y0.639
X3.9777 Y0.6419
X3.9763 Y0.6448
X3.9745 Y0.6482
X3.9723 Y0.6521
X3.9697 Y0.6562
X3.9668 Y0.6605
X3.9638 Y0.6644
X3.9608 Y0.6681
X3.9575 Y0.6718
X3.954 Y0.6755
X3.9516 Y0.6779
X3.9504 Y0.679
X3.9478 Y0.6812
X3.944 Y0.6844
X3.9401 Y0.6874
X3.9362 Y0.6901
X3.9336 Y0.6918
X3.9324 Y0.6925
X3.9302 Y0.6938
X3.9269 Y0.6957
X3.9236 Y0.6974
X3.9203 Y0.6989
X3.9167 Y0.7005
X3.9128 Y0.7021
X3.909 Y0.7035
X3.9051 Y0.7047
X3.9014 Y0.7058
X3.8979 Y0.7067
X3.8944 Y0.7074
X3.891 Y0.7081
X3.8869 Y0.7087
X3.8822 Y0.7093
X3.8779 Y0.7096
X3.874 Y0.7098
X3.8712
X3.7041 Y0.7092
X3.6873 Y4.9241
X4.7834
X4.7959 Y0.7072
X4.6873 Y0.7068
X4.687
X4.6867
X4.6828
X4.6793 Y0.7066
X4.6754 Y0.7063
X4.6715 Y0.7059
X4.6677 Y0.7054
X4.6638 Y0.7047
X4.6599 Y0.7039
X4.656 Y0.7029
X4.6521 Y0.7019
X4.6482 Y0.7006
X4.6443 Y0.6992
X4.6409 Y0.6979
X4.6378 Y0.6966
X4.6351 Y0.6953
X4.6328 Y0.6942
X4.6304 Y0.6929
X4.628 Y0.6916
X4.6249 Y0.6898
X4.6211 Y0.6874
X4.6172 Y0.6847
X4.6132 Y0.6817
X4.6103 Y0.6794
X4.6084 Y0.6778
X4.6064 Y0.676
X4.6045 Y0.6742
X4.6025 Y0.6723
X4.6005 Y0.6702
X4.5985 Y0.6681
X4.5966 Y0.6659
X4.5941 Y0.6629
X4.5911 Y0.659
X4.5883 Y0.6551
X4.5858 Y0.6513
X4.5835 Y0.6473
X4.5813 Y0.6433
X4.5793 Y0.6394
X4.5776 Y0.6357
X4.576 Y0.6318
X4.5746 Y0.628
X4.5733 Y0.6241
X4.5722 Y0.6202
X4.5711 Y0.6163
X4.5703 Y0.6124
X4.5696 Y0.6085
X4.569 Y0.6047
X4.5685 Y0.6008
X4.5682 Y0.5969
X4.568 Y0.593
X4.5679 Y0.5892
Y0.5878
X4.5733 Y-1.2371
Y-1.2373
Y-1.2376
X4.5734 Y-1.2453
Y-1.2471
X4.5737 Y-1.2549
X4.5739 Y-1.2572
X4.5742 Y-1.2616
X4.5744 Y-1.2632
X4.5747 Y-1.2665
X4.575 Y-1.2686
X4.5761 Y-1.2763
X4.5765 Y-1.2788
X4.5779 Y-1.2865
X4.5785 Y-1.289
X4.5803 Y-1.2968
X4.581 Y-1.2996
X4.5832 Y-1.3074
X4.5839 Y-1.3098
X4.5848 Y-1.3124
X4.5849 Y-1.3127
X4.585 Y-1.313
X4.5851 Y-1.3133
X4.5869 Y-1.3185
X4.5878 Y-1.3208
X4.5908 Y-1.3286
X4.5918 Y-1.3308
X4.5947 Y-1.3374
X4.5956 Y-1.3393
G3 X4.6007 Y-1.3493 I0.3133 J0.1534
G1 X4.6019 Y-1.3515
X4.6051 Y-1.3571
X4.6061 Y-1.3588
X4.6074 Y-1.3609
X4.6084 Y-1.3625
X4.6135 Y-1.3703
X4.6155 Y-1.3731
X4.6212 Y-1.3808
X4.6232 Y-1.3833
G3 X4.6301 Y-1.3916 I0.4256 J0.3495
G1 X4.6321 Y-1.3938
G3 X4.64 Y-1.4022 I0.3121 J0.2883
G1 X4.642 Y-1.4042
X4.647 Y-1.4089
X4.6481 Y-1.4099
X4.6515 Y-1.4129
X4.6533 Y-1.4144
X4.6576 Y-1.418
X4.6592 Y-1.4193
X4.6646 Y-1.4234
X4.6658 Y-1.4244
X4.6682 Y-1.4261
X4.6701 Y-1.4274
G3 X4.6801 Y-1.4341 I0.1942 J0.2797
G1 X4.6821 Y-1.4353
X4.6886 Y-1.4392
X4.691 Y-1.4405
X4.6987 Y-1.4446
X4.7014 Y-1.4459
X4.7091 Y-1.4496
X4.7119 Y-1.4508
X4.7197 Y-1.4539
X4.7221 Y-1.4549
X4.7243 Y-1.4556
X4.7246 Y-1.4558
X4.725 Y-1.4559
X4.7306 Y-1.4578
X4.7331 Y-1.4586
X4.7409 Y-1.4609
X4.7434 Y-1.4616
X4.7512 Y-1.4635
X4.7537 Y-1.464
X4.7615 Y-1.4656
X4.7644 Y-1.466
X4.7721 Y-1.4672
X4.7752 Y-1.4676
X4.783 Y-1.4683
X4.7855 Y-1.4685
X4.7933 Y-1.4689
X4.7954 Y-1.469
X4.8032 Y-1.4691
X4.8036
X4.8039
X4.8043
X5.4649 Y-1.4671
X5.4651
X5.4729
X5.4746 Y-1.467
X5.4824 Y-1.4668
X5.4855 Y-1.4666
X5.4932 Y-1.4659
X5.4958 Y-1.4656
X5.5035 Y-1.4646
X5.506 Y-1.4642
X5.5138 Y-1.4629
X5.5164 Y-1.4623
X5.5242 Y-1.4606
X5.5273 Y-1.4599
X5.535 Y-1.4577
X5.5364 Y-1.4573
X5.5391 Y-1.4565
X5.5412 Y-1.4558
X5.5463 Y-1.454
X5.5481 Y-1.4533
X5.5559 Y-1.4503
X5.5582 Y-1.4494
X5.5651 Y-1.4464
X5.568 Y-1.445
X5.5767 Y-1.4407
X5.5795 Y-1.4392
X5.5873 Y-1.4348
X5.5901 Y-1.4331
X5.5979 Y-1.428
X5.5999 Y-1.4267
X5.6023 Y-1.4249
X5.6034 Y-1.4242
X5.6087 Y-1.4202
X5.6108 Y-1.4186
G3 X5.6193 Y-1.4116 I-0.2255 J0.283
G1 X5.6213 Y-1.4098
G3 X5.6297 Y-1.402 I-0.2868 J0.3174
G1 X5.6318 Y-1.4
G3 X5.6402 Y-1.3911 I-0.29 J0.283
G1 X5.6422 Y-1.3889
X5.6466 Y-1.3835
X5.6476 Y-1.3824
X5.6509 Y-1.3782
X5.6523 Y-1.3763
X5.655 Y-1.3727
X5.6561 Y-1.371
X5.6614 Y-1.3633
X5.6631 Y-1.3606
X5.6678 Y-1.3528
X5.6689 Y-1.3509
X5.6719 Y-1.3456
X5.6731 Y-1.3432
G3 X5.6785 Y-1.332 I-0.3434 J0.171
G1 X5.6797 Y-1.3292
X5.6829 Y-1.3214
X5.684 Y-1.3185
X5.6867 Y-1.3107
X5.6876 Y-1.3081
X5.6899 Y-1.3003
X5.6906 Y-1.2978
X5.6925 Y-1.29
X5.693 Y-1.288
X5.6935 Y-1.2853
X5.6936 Y-1.285
X5.6937 Y-1.2846
X5.6947 Y-1.2795
X5.6952 Y-1.2767
X5.6963 Y-1.269
X5.6967 Y-1.2663
X5.6975 Y-1.2585
X5.6977 Y-1.2555
X5.6981 Y-1.2478
X5.6982 Y-1.2457
X5.6983 Y-1.2379
Y-1.2375
Y-1.2371
Y-1.2367
X5.6929 Y0.5881
Y0.5885
Y0.5889
Y0.5893
X5.6927 Y0.597
X5.6924 Y0.602
X5.692 Y0.6059
X5.6914 Y0.6098
X5.6908 Y0.6137
X5.6899 Y0.6175
X5.689 Y0.6214
X5.6879 Y0.6253
X5.6866 Y0.6292
X5.6855 Y0.6326
X5.6843 Y0.6355
X5.6831 Y0.6384
X5.6818 Y0.6412
X5.6807 Y0.6437
X5.6797 Y0.6457
X5.6781 Y0.6486
X5.6758 Y0.6525
X5.6733 Y0.6564
X5.6707 Y0.6603
X5.6684 Y0.6634
X5.6665 Y0.6657
X5.6644 Y0.6682
X5.662 Y0.6709
X5.6595 Y0.6737
X5.6567 Y0.6764
X5.654 Y0.6789
X5.6514 Y0.6812
X5.6482 Y0.6839
X5.6443 Y0.6868
X5.6404 Y0.6896
X5.6365 Y0.692
X5.6326 Y0.6943
X5.6287 Y0.6964
X5.6248 Y0.6983
X5.6209 Y0.7001
X5.617 Y0.7016
X5.6132 Y0.703
X5.6093 Y0.7043
X5.6054 Y0.7054
X5.6015 Y0.7064
X5.5976 Y0.7072
X5.5936 Y0.7079
X5.5895 Y0.7085
X5.5856 Y0.709
