(LOWER SHAPING)
(T13 D=0.2362 CR=0. TAPER=45DEG - ZMIN=0.2936 - CHAMFER MILL)
(T15 D=0.5 CR=0. - ZMIN=0.1796 - FLAT END MILL)
(T18 D=0.9843 CR=0. TAPER=45DEG - ZMIN=-0.635 - DOVETAIL MILL)
(T19 D=0.2362 CR=0. - ZMIN=-0.585 - FLAT END MILL)
(T20 D=0.0625 CR=0. - ZMIN=0.2296 - FLAT END MILL)
G90 G94 G91.1 G40 G49 G17
G20
G53 G0 Z0.

(ROUGH TOP PASS)
T15 M6
S10000 M3
G17 G90 G94
G55
G0 X22.8226 Y1.9437
G43 Z1.2296 H15
G0 Z0.5248
G1 Z0.403 F50.
Y1.944 Z0.3976 F100.
Y1.9448 Z0.3923
Y1.9463 Z0.3872
Y1.9482 Z0.3822
Y1.9507 Z0.3774
X22.8225 Y1.9537 Z0.373
Y1.9571 Z0.3689
Y1.961 Z0.3651
Y1.9652 Z0.3619
Y1.9698 Z0.3591
X22.8224 Y1.9746 Z0.3567
Y1.9797 Z0.355
Y1.9849 Z0.3537
Y1.9902 Z0.3531
X22.8109 Y4.3379 Z0.1889
G2 X22.8459 Y4.3731 Z0.1851 I0.035 J0.0002
G1 X22.8487 Z0.1849
G2 X22.8838 Y4.3379 Z0.181 I0. J-0.035
G1 X22.8837 Y4.32 Z0.1798
Y4.3165 Z0.1796
X22.871 Y1.1609 F140.
G2 X22.8432 Y1.1437 I-0.0193 J0.0001
G1 X22.8374 Y1.1466
G2 X22.8264 Y1.1639 I0.0083 J0.0174
G1 X22.8109 Y4.3379
G2 X22.8459 Y4.3731 I0.035 J0.0002
G1 X22.8487
G2 X22.8838 Y4.3379 I0. J-0.035
G1 X22.8837 Y4.3165
G3 X22.9731 Y4.1812 I0.1462 J-0.0006
G2 X23.0626 Y4.0458 I-0.0568 J-0.1348
G1 X23.0499 Y0.8874
G2 X23.0372 Y0.8496 I-0.0631 J0.0003
G3 X23.0236 Y0.8305 I0.3077 J-0.2322
X23.0111 Y0.8106 I0.4277 J-0.2836
G2 X22.95 I-0.0306 J0.0183
G3 X22.8476 Y0.929 I-0.3894 J-0.2333
X22.7104 Y1.004 I-0.2702 J-0.331
G2 X22.6468 Y1.0913 I0.0287 J0.0877
G1 X22.6302 Y4.4893
G2 X22.6936 Y4.5531 I0.0635 J0.0003
G1 X23.0008
G2 X23.0644 Y4.4893 I0. J-0.0636
G1 X23.0626 Y4.0458
G3 X23.1525 Y3.9097 I0.1471 J-0.0006
G2 X23.2425 Y3.7736 I-0.0571 J-0.1355
G1 X23.2305 Y0.7905
X23.2264 Y0.7872
X23.2206 Y0.7824
X23.2138 Y0.7763
X23.2078 Y0.7705
X23.2023 Y0.765
X23.1966 Y0.7588
X23.1904 Y0.7517
X23.1857 Y0.7459
X23.1823 Y0.7414
X23.1786 Y0.7364
X23.1746 Y0.7306
X23.1708 Y0.7248
X23.1673 Y0.7191
X23.1652 Y0.7157
X23.1646 Y0.7146
X23.1629 Y0.7115
X23.1601 Y0.7063
X23.1574 Y0.701
X23.1548 Y0.6958
X23.1523 Y0.6903
X23.1499 Y0.6845
X23.1476 Y0.6787
X23.1454 Y0.673
X23.1436 Y0.6677
X23.142 Y0.6628
X23.1403 Y0.657
X23.1385 Y0.6504
X23.137 Y0.6441
X23.1357 Y0.6384
X23.1346 Y0.6326
X23.1336 Y0.6269
X23.1327 Y0.6211
X23.132 Y0.6153
X23.1314 Y0.6096
X23.1309 Y0.6038
X23.1305 Y0.5959
X23.1302 Y0.5844
Y0.5821
X23.1229 Y-1.2388
X23.123 Y-1.2427
X23.1233 Y-1.2543
X23.1236 Y-1.2606
X23.124 Y-1.2659
X22.8384
X22.8388 Y-1.2608
X22.8391 Y-1.2544
X22.8395 Y-1.2429
Y-1.2387
X22.8306 Y0.5822
Y0.5827
Y0.5831
X22.8305 Y0.5918
X22.8304 Y0.5962
X22.8303 Y0.5991
X22.83 Y0.6034
X22.8295 Y0.6091
X22.829 Y0.6149
X22.8282 Y0.6207
X22.8274 Y0.6264
X22.8264 Y0.6322
X22.8253 Y0.638
X22.824 Y0.6437
X22.8227 Y0.6495
X22.8211 Y0.6552
X22.8195 Y0.661
X22.8176 Y0.6668
X22.8157 Y0.6725
X22.8136 Y0.6783
X22.8112 Y0.6842
X22.8087 Y0.6902
X22.8061 Y0.696
X22.8033 Y0.7017
X22.8004 Y0.7073
X22.7974 Y0.7129
X22.793 Y0.7203
X22.7873 Y0.7294
X22.7834 Y0.7351
X22.7817 Y0.7376
X22.7786 Y0.7417
X22.7742 Y0.7475
X22.7693 Y0.7534
X22.764 Y0.7596
X22.7584 Y0.7655
X22.7526 Y0.7714
X22.7468 Y0.777
X22.7408 Y0.7823
X22.735 Y0.7872
X22.7293 Y0.7917
X22.7236 Y0.7959
X22.718 Y0.8
X22.7128 Y0.8035
X22.708 Y0.8065
X22.7023 Y0.8099
X22.6955 Y0.8138
X22.6892 Y0.8172
X22.6834 Y0.82
X22.6776 Y0.8227
X22.6719 Y0.8252
X22.666 Y0.8276
X22.66 Y0.8299
X22.6543 Y0.8319
X22.6487 Y0.8338
X22.643 Y0.8355
X22.6372 Y0.8371
X22.6315 Y0.8385
X22.6257 Y0.8399
X22.6199 Y0.841
X22.6142 Y0.8421
X22.6084 Y0.843
X22.6026 Y0.8438
X22.5969 Y0.8444
X22.5911 Y0.845
X22.5853 Y0.8453
X22.5796 Y0.8456
X22.5736 Y0.8457
X22.5621
X22.5615
X22.467 Y0.8453
X22.448 Y4.7341
X23.2463
X23.2425 Y3.7736
X23.2423 Y3.7708 Z0.1797
X23.242 Y3.768 Z0.1799
X23.2415 Y3.7653 Z0.1803
X23.2409 Y3.7626 Z0.1809
X23.2401 Y3.76 Z0.1816
X23.2392 Y3.7575 Z0.1824
X23.2382 Y3.7551 Z0.1834
X23.2371 Y3.7527 Z0.1846
X23.2359 Y3.7506 Z0.1859
X23.2347 Y3.7485 Z0.1873
X23.2334 Y3.7466 Z0.1889
X23.232 Y3.7448 Z0.1905
X23.2306 Y3.7431 Z0.1924
X23.2293 Y3.7416 Z0.1943
X23.2279 Y3.7402 Z0.1963
X23.2266 Y3.739 Z0.1985
X23.2253 Y3.7379 Z0.2007
X23.2241 Y3.7369 Z0.203
X23.223 Y3.736 Z0.2054
X23.222 Y3.7353 Z0.2079
X23.221 Y3.7346 Z0.2105
X23.2202 Y3.7341 Z0.2131
X23.2195 Y3.7336 Z0.2158
X23.2189 Y3.7332 Z0.2185
X23.2184 Y3.733 Z0.2213
X23.2181 Y3.7328 Z0.224
X23.2179 Y3.7326 Z0.2268
X23.2178 Z0.2296
G0 Z0.8296
X24.6565 Y1.9187
Z0.5248
G1 Z0.403 F50.
Y1.919 Z0.3976 F100.
Y1.9199 Z0.3923
Y1.9213 Z0.3872
Y1.9233 Z0.3822
Y1.9257 Z0.3774
Y1.9287 Z0.373
X24.6566 Y1.9322 Z0.3689
Y1.936 Z0.3651
Y1.9403 Z0.3619
Y1.9448 Z0.3591
Y1.9497 Z0.3567
Y1.9547 Z0.355
X24.6567 Y1.9599 Z0.3537
Y1.9652 Z0.3531
X24.6663 Y4.3539 Z0.1861
G2 X24.6855 Y4.3731 Z0.1839 I0.0193 J-0.0001
G1 X24.6942 Z0.1833
G2 X24.7135 Y4.3537 Z0.1812 I0. J-0.0193
G1 X24.7134 Y4.3329 Z0.1798
Y4.3294 Z0.1796
X24.6969 Y1.078 F140.
G2 X24.6899 Y1.0633 I-0.0193 J0.0001
G1 X24.689 Y1.0626
G2 X24.6646 Y1.0624 I-0.0123 J0.0148
G1 X24.6603 Y1.0658
G2 X24.6531 Y1.0809 I0.0121 J0.015
G1 X24.6663 Y4.3539
G2 X24.6855 Y4.3731 I0.0193 J-0.0001
G1 X24.6942
G2 X24.7135 Y4.3537 I0. J-0.0193
G1 X24.7134 Y4.3294
G3 X24.8027 Y4.1939 I0.1462 J-0.0007
G2 X24.892 Y4.0585 I-0.0569 J-0.1347
G1 X24.8768 Y1.0608
G2 X24.8144 Y0.9325 I-0.1648 J0.0008
G3 X24.7088 Y0.8126 I0.2796 J-0.3527
G2 X24.6471 I-0.0308 J0.0188
G3 X24.5353 Y0.9351 I-0.3699 J-0.2254
G2 X24.473 Y1.0594 I0.0918 J0.1237
G1 X24.4868 Y4.4892
G2 X24.551 Y4.5531 I0.0642 J-0.0003
G1 X24.8307
G2 X24.8942 Y4.4893 I0. J-0.0635
G1 X24.892 Y4.0585
G3 X24.9818 Y3.9223 I0.1471 J-0.0007
G2 X25.0716 Y3.786 I-0.0572 J-0.1355
G1 X25.0567 Y0.844
X25.0521 Y0.8435
X25.0464 Y0.8426
X25.0406 Y0.8416
X25.0348 Y0.8405
X25.0291 Y0.8393
X25.0233 Y0.8379
X25.0154 Y0.8357
X25.0053 Y0.8326
X24.9996 Y0.8307
X24.9981 Y0.8302
X24.9945 Y0.8288
X24.9887 Y0.8265
X24.9829 Y0.8241
X24.9772 Y0.8215
X24.9715 Y0.8187
X24.9658 Y0.8158
X24.9601 Y0.8127
X24.9542 Y0.8093
X24.9483 Y0.8057
X24.9425 Y0.802
X24.9368 Y0.798
X24.931 Y0.7938
X24.926 Y0.79
X24.9218 Y0.7866
X24.916 Y0.7816
X24.9087 Y0.775
X24.9027 Y0.7692
X24.8979 Y0.7643
X24.8921 Y0.7579
X24.8853 Y0.7498
X24.8807 Y0.744
X24.878 Y0.7405
X24.8747 Y0.7359
X24.8707 Y0.7301
X24.867 Y0.7244
X24.8635 Y0.7186
X24.861 Y0.7145
X24.8596 Y0.7119
X24.8566 Y0.7062
X24.8521 Y0.6972
X24.8487 Y0.6898
X24.8463 Y0.684
X24.844 Y0.6783
X24.8419 Y0.6725
X24.8395 Y0.6655
X24.837 Y0.6573
X24.8354 Y0.6515
X24.8346 Y0.6482
X24.8335 Y0.6437
X24.8323 Y0.6379
X24.8312 Y0.6322
X24.8302 Y0.6264
X24.8293 Y0.6206
X24.8286 Y0.6149
X24.8281 Y0.6091
X24.8276 Y0.6033
X24.8272 Y0.5957
G3 X24.827 Y0.5823 I0.7797 J-0.0215
G1 X24.8178 Y-1.2386
Y-1.2429
X24.8181 Y-1.2544
X24.8185 Y-1.2609
X24.8189 Y-1.2659
X24.5231
X24.5235 Y-1.2587
X24.5237 Y-1.2535
X24.524 Y-1.242
Y-1.2398
X24.5313 Y0.5811
Y0.5843
X24.5312 Y0.5901
X24.5309 Y0.5958
X24.5306 Y0.6016
X24.5301 Y0.6073
X24.5294 Y0.6131
X24.5287 Y0.6189
X24.5278 Y0.6246
X24.5267 Y0.6304
X24.5256 Y0.6362
X24.5243 Y0.6419
X24.5228 Y0.6477
X24.5218 Y0.6514
X24.5213 Y0.6532
X24.5196 Y0.659
X24.5163 Y0.6688
X24.5135 Y0.6765
X24.5111 Y0.6823
X24.5086 Y0.688
X24.506 Y0.6938
X24.503 Y0.6998
X24.4997 Y0.706
X24.4965 Y0.7118
X24.4933 Y0.7171
X24.4899 Y0.7226
X24.4861 Y0.7284
X24.4819 Y0.7343
X24.4773 Y0.7405
X24.4726 Y0.7463
X24.4679 Y0.7519
X24.463 Y0.7575
X24.4577 Y0.7631
X24.4542 Y0.7666
X24.4527 Y0.7681
X24.449 Y0.7716
X24.4433 Y0.7768
X24.4374 Y0.7818
X24.4316 Y0.7865
X24.4258 Y0.7909
X24.4201 Y0.795
X24.4143 Y0.7989
X24.4086 Y0.8026
X24.4024 Y0.8063
X24.3958 Y0.8101
X24.39 Y0.8131
X24.3851 Y0.8156
X24.3798 Y0.8181
X24.374 Y0.8207
X24.3683 Y0.8231
X24.3625 Y0.8253
X24.3567 Y0.8274
X24.351 Y0.8293
X24.3452 Y0.8311
X24.3394 Y0.8327
X24.3351 Y0.8339
X24.3322 Y0.8346
X24.3264 Y0.8359
X24.3178 Y0.8376
X24.3106 Y0.8388
X24.3048 Y0.8396
X24.299 Y0.8403
X24.2933 Y0.8409
X24.2912 Y0.8411
X24.3068 Y4.7341
X25.0764
X25.0716 Y3.786
X25.0715 Y3.7832 Z0.1797
X25.0711 Y3.7805 Z0.1799
X25.0707 Y3.7777 Z0.1803
X25.07 Y3.7751 Z0.1809
X25.0693 Y3.7725 Z0.1816
X25.0684 Y3.7699 Z0.1824
X25.0673 Y3.7675 Z0.1834
X25.0662 Y3.7652 Z0.1846
X25.065 Y3.763 Z0.1859
X25.0638 Y3.761 Z0.1873
X25.0625 Y3.7591 Z0.1889
X25.0611 Y3.7573 Z0.1905
X25.0597 Y3.7556 Z0.1924
X25.0584 Y3.7541 Z0.1943
X25.057 Y3.7527 Z0.1963
X25.0557 Y3.7515 Z0.1985
X25.0544 Y3.7504 Z0.2007
X25.0532 Y3.7494 Z0.203
X25.0521 Y3.7485 Z0.2054
X25.0511 Y3.7478 Z0.2079
X25.0501 Y3.7471 Z0.2105
X25.0493 Y3.7465 Z0.2131
X25.0486 Y3.7461 Z0.2158
X25.048 Y3.7457 Z0.2185
X25.0475 Y3.7455 Z0.2213
X25.0472 Y3.7453 Z0.224
X25.047 Y3.7451 Z0.2268
X25.0469 Z0.2296
G0 Z0.8296
X26.686 Y3.4306
Z0.5248
G1 Z0.403 F50.
Y3.4303 Z0.3976 F100.
Y3.4295 Z0.3923
Y3.428 Z0.3872
Y3.4261 Z0.3822
Y3.4236 Z0.3774
Y3.4206 Z0.373
Y3.4172 Z0.3689
Y3.4133 Z0.3651
Y3.4091 Z0.3619
Y3.4045 Z0.3591
Y3.3997 Z0.3567
Y3.3946 Z0.355
Y3.3894 Z0.3537
Y3.3841 Z0.3531
X26.6852 Y1.0843 Z0.1923
G2 X26.623 Y0.9927 Z0.1841 I-0.0985 J0.
G3 X26.5677 Y0.9661 Z0.1798 I0.1598 J-0.4025
G1 X26.5662 Y0.9652 Z0.1797
X26.5647 Y0.9643 Z0.1796
G3 X26.4097 Y0.81 I0.2182 J-0.3741 F140.
G2 X26.3491 I-0.0303 J0.018
G3 X26.3143 Y0.8595 I-0.3438 J-0.2049
G2 X26.3004 Y0.8989 I0.0478 J0.0392
G1 X26.3185 Y4.4903
G2 X26.3815 Y4.5529 I0.063 J-0.0003
G1 X26.6238
G2 X26.6864 Y4.4903 I0. J-0.0626
G1 X26.6852 Y1.1439
Y1.0843
G2 X26.623 Y0.9927 I-0.0985 J0.
G3 X26.5647 Y0.9643 I0.1598 J-0.4025
X26.4954 Y0.7775 I0.079 J-0.1355
G2 X26.5284 Y0.581 I-0.5674 J-0.1963
G1 X26.5278 Y-1.2393
Y-1.2423
X26.5281 Y-1.2538
X26.5284 Y-1.2597
X26.5288 Y-1.2659
X26.2218
X26.2222 Y-1.2581
X26.2224 Y-1.2535
X26.2226 Y-1.2419
X26.2227 Y-1.24
X26.2319 Y0.581
X26.2318 Y0.5848
X26.2317 Y0.5905
X26.2314 Y0.5963
X26.231 Y0.6021
X26.2305 Y0.6078
X26.2298 Y0.6136
X26.2291 Y0.6193
X26.2281 Y0.6251
X26.2271 Y0.6309
X26.2259 Y0.6366
X26.2246 Y0.6424
X26.2231 Y0.6482
X26.2215 Y0.6539
X26.2198 Y0.6597
X26.2179 Y0.6655
X26.2158 Y0.6712
X26.2141 Y0.6759
X26.2126 Y0.6795
X26.2101 Y0.6853
X26.2065 Y0.6932
X26.2032 Y0.7
X26.2001 Y0.7058
X26.1969 Y0.7116
X26.1935 Y0.7173
X26.191 Y0.7213
X26.1895 Y0.7235
X26.1872 Y0.727
X26.184 Y0.7316
X26.1806 Y0.7363
X26.1771 Y0.7409
X26.173 Y0.7461
X26.1682 Y0.7518
X26.163 Y0.7576
X26.1574 Y0.7634
X26.1517 Y0.7691
X26.1457 Y0.7746
X26.139 Y0.7804
X26.1316 Y0.7864
X26.1258 Y0.7908
X26.1217 Y0.7938
X26.1186 Y0.7959
X26.1386 Y4.7341
X26.8676
X26.8663 Y0.8437
X26.7956 Y0.8438
X26.7951
X26.7947
X26.7832 Y0.8437
X26.7767 Y0.8435
X26.7709 Y0.8432
X26.7651 Y0.8427
X26.7594 Y0.8421
X26.7536 Y0.8414
X26.7478 Y0.8406
X26.7421 Y0.8396
X26.7363 Y0.8385
X26.7287 Y0.8367
X26.7192 Y0.8343
X26.7134 Y0.8327
X26.7114 Y0.8321
X26.7075 Y0.8308
X26.7017 Y0.8288
X26.6959 Y0.8267
X26.6902 Y0.8245
X26.6844 Y0.822
X26.6786 Y0.8194
X26.6728 Y0.8166
X26.6671 Y0.8137
X26.6632 Y0.8116
X26.6612 Y0.8105
X26.6554 Y0.8071
X26.6459 Y0.8011
G3 X26.6373 Y0.7953 I0.0689 J-0.1102
G1 X26.6299 Y0.7898
X26.6241 Y0.7853
X26.6201 Y0.7819
X26.6159 Y0.7783
X26.6116 Y0.7744
X26.6073 Y0.7703
X26.603 Y0.766
X26.5994 Y0.7623
X26.5965 Y0.7591
X26.5915 Y0.7534
X26.5846 Y0.7451
X26.5816 Y0.7414
X26.5788 Y0.7376
X26.5742 Y0.731
X26.5703 Y0.7253
X26.5672 Y0.7203
X26.5639 Y0.7149
X26.5607 Y0.7091
X26.5576 Y0.7034
X26.5547 Y0.6976
X26.5522 Y0.6922
X26.5499 Y0.6873
X26.5475 Y0.6815
X26.545 Y0.675
X26.5427 Y0.6688
X26.5408 Y0.663
X26.5391 Y0.6573
X26.5374 Y0.6515
X26.5359 Y0.6457
X26.5346 Y0.64
X26.5334 Y0.6342
X26.5323 Y0.6285
X26.5314 Y0.6227
X26.5306 Y0.6169
X26.5299 Y0.6112
X26.5293 Y0.6054
X26.5288 Y0.597
X26.5285 Y0.5854
X26.5284 Y0.5817
Y0.581
X26.5283 Y0.5782 Z0.1797
X26.528 Y0.5754 Z0.1799
X26.5275 Y0.5727 Z0.1803
X26.5269 Y0.57 Z0.1809
X26.5261 Y0.5674 Z0.1816
X26.5252 Y0.5649 Z0.1824
X26.5242 Y0.5625 Z0.1834
X26.5231 Y0.5602 Z0.1846
X26.5219 Y0.558 Z0.1859
X26.5207 Y0.5559 Z0.1873
X26.5194 Y0.554 Z0.1889
X26.518 Y0.5522 Z0.1905
X26.5167 Y0.5505 Z0.1924
X26.5153 Y0.549 Z0.1943
X26.514 Y0.5476 Z0.1963
X26.5127 Y0.5464 Z0.1985
X26.5114 Y0.5453 Z0.2007
X26.5102 Y0.5443 Z0.203
X26.5091 Y0.5434 Z0.2054
X26.508 Y0.5426 Z0.2079
X26.5071 Y0.542 Z0.2105
X26.5063 Y0.5414 Z0.2131
X26.5056 Y0.541 Z0.2158
X26.505 Y0.5406 Z0.2185
X26.5045 Y0.5403 Z0.2213
X26.5042 Y0.5401 Z0.224
X26.504 Y0.54 Z0.2268
X26.5039 Y0.5399 Z0.2296
G0 Z0.8296
X27.9241 Y2.7124
Z0.5248
G1 Z0.403 F50.
Y2.7127 Z0.3976 F100.
Y2.7136 Z0.3923
Y2.715 Z0.3872
Y2.717 Z0.3822
Y2.7194 Z0.3774
Y2.7224 Z0.373
Y2.7259 Z0.3689
Y2.7297 Z0.3651
Y2.734 Z0.3619
Y2.7385 Z0.3591
Y2.7434 Z0.3567
Y2.7484 Z0.355
Y2.7536 Z0.3537
Y2.7589 Z0.3531
X27.9248 Y4.7341 Z0.215
X28.2491 Z0.1923
X28.248 Y4.5548 Z0.1798
Y4.5514 Z0.1796
X28.2106 Y-1.2273 F140.
Y-1.2388
X28.2107 Y-1.2431
X28.211 Y-1.2546
X28.2112 Y-1.2594
X28.2115 Y-1.264
X28.2116 Y-1.2647
Y-1.2653
X28.2117 Y-1.2659
X27.9217
X27.9221 Y-1.2595
X27.9224 Y-1.2538
X27.9226 Y-1.2422
X27.9227 Y-1.2394
X27.9247 Y4.5726
X27.9248 Y4.7341
X28.2491
X28.248 Y4.5514
X28.2478 Y4.5486 Z0.1797
X28.2475 Y4.5458 Z0.1799
X28.247 Y4.543 Z0.1803
X28.2463 Y4.5404 Z0.1809
X28.2456 Y4.5378 Z0.1816
X28.2447 Y4.5353 Z0.1824
X28.2437 Y4.5328 Z0.1834
X28.2426 Y4.5305 Z0.1846
X28.2413 Y4.5284 Z0.1859
X28.2401 Y4.5263 Z0.1873
X28.2388 Y4.5244 Z0.1889
X28.2374 Y4.5226 Z0.1905
X28.236 Y4.5209 Z0.1924
X28.2347 Y4.5194 Z0.1943
X28.2333 Y4.5181 Z0.1963
X28.232 Y4.5168 Z0.1985
X28.2307 Y4.5157 Z0.2007
X28.2295 Y4.5147 Z0.203
X28.2284 Y4.5138 Z0.2054
X28.2274 Y4.5131 Z0.2079
X28.2264 Y4.5124 Z0.2105
X28.2256 Y4.5119 Z0.2131
X28.2249 Y4.5114 Z0.2158
X28.2243 Y4.5111 Z0.2185
X28.2238 Y4.5108 Z0.2213
X28.2234 Y4.5106 Z0.224
X28.2232 Y4.5105 Z0.2268
Y4.5104 Z0.2296
G0 Z0.8296
X29.7332 Y3.6573
Z0.5248
G1 Z0.403 F50.
Y3.657 Z0.3976 F100.
Y3.6561 Z0.3923
Y3.6547 Z0.3872
Y3.6527 Z0.3822
Y3.6503 Z0.3774
Y3.6473 Z0.373
Y3.6438 Z0.3689
Y3.64 Z0.3651
Y3.6357 Z0.3619
Y3.6312 Z0.3591
Y3.6263 Z0.3567
Y3.6213 Z0.355
Y3.6161 Z0.3537
X29.7331 Y3.6108 Z0.3531
X29.7288 Y1.1436 Z0.1806
G2 X29.7263 Y1.1324 Z0.1798 I-0.026 J0.
G1 X29.7255 Y1.1308 Z0.1797
X29.7246 Y1.1293 Z0.1796
G2 X29.69 Y1.121 I-0.0217 J0.0143 F140.
G1 X29.6845 Y1.124
G2 X29.671 Y1.147 I0.0125 J0.0228
G1 X29.6916 Y4.3329
G2 X29.7344 Y4.3327 I0.0214 J-0.0001
G1 X29.7288 Y1.1486
Y1.1436
G2 X29.7246 Y1.1293 I-0.026 J0.
G3 X29.7 Y1.0215 I0.1318 J-0.0867
G2 X29.6079 Y0.9604 I-0.0609 J-0.0082
G3 X29.5512 Y0.9887 I-0.2261 J-0.3819
G2 X29.4905 Y1.0805 I0.0381 J0.0911
G1 X29.5126 Y4.4902
G2 X29.5757 Y4.5529 I0.0631 J-0.0004
G1 X29.8522
G2 X29.9147 Y4.4903 I0. J-0.0625
G1 X29.9086 Y0.9739
G2 X29.8756 Y0.8953 I-0.1106 J0.0002
G3 X29.816 Y0.8208 I0.2851 J-0.2889
G2 X29.7539 Y0.8203 I-0.0312 J0.0196
G3 X29.6079 Y0.9604 I-0.3722 J-0.2417
X29.4604 Y0.9122 I-0.0526 J-0.0888
G2 X29.3085 Y0.9438 I-0.0728 J0.0311
G1 X29.333 Y4.7341
X30.0963
X30.0895 Y0.8247
X30.0843 Y0.8225
X30.0785 Y0.8199
X30.0728 Y0.8171
X30.067 Y0.8142
X30.0611 Y0.811
X30.0554 Y0.8077
X30.0497 Y0.8041
X30.044 Y0.8005
X30.0385 Y0.7967
X30.0328 Y0.7925
X30.0267 Y0.7879
X30.0208 Y0.783
X30.0151 Y0.778
X30.0091 Y0.7725
X30.0029 Y0.7664
X29.9972 Y0.7604
X29.9921 Y0.7547
X29.9872 Y0.7489
X29.9827 Y0.7431
X29.9797 Y0.7393
X29.9783 Y0.7374
X29.9759 Y0.734
X29.9726 Y0.7292
X29.9695 Y0.7244
X29.9665 Y0.7196
X29.9623 Y0.7124
X29.9571 Y0.7026
X29.9541 Y0.6968
X29.9532 Y0.695
X29.9515 Y0.6913
X29.949 Y0.6855
X29.9467 Y0.6797
X29.9445 Y0.674
X29.9424 Y0.6682
X29.9405 Y0.6624
X29.9388 Y0.6567
X29.9372 Y0.6509
X29.9357 Y0.6451
X29.9344 Y0.6394
X29.9332 Y0.6332
X29.932 Y0.6267
X29.9308 Y0.6181
X29.9296 Y0.6073
G3 X29.9289 Y0.5965 I0.1292 J-0.0142
G1 X29.9286 Y0.585
X29.9285 Y0.5818
X29.9253 Y-1.2391
X29.9254 Y-1.2425
X29.9257 Y-1.254
X29.9259 Y-1.26
X29.9264 Y-1.2659
X29.6309
X29.6313 Y-1.2583
X29.6315 Y-1.2533
G3 X29.6317 Y-1.2401 I-0.9261 J0.0236
G1 X29.6435 Y0.5808
X29.6434 Y0.5855
X29.6433 Y0.5912
X29.643 Y0.597
X29.6425 Y0.6027
X29.642 Y0.6085
X29.6413 Y0.6143
X29.6405 Y0.62
X29.6395 Y0.6258
X29.6384 Y0.6316
X29.6372 Y0.6373
X29.6359 Y0.6431
X29.6344 Y0.6488
X29.6325 Y0.6553
X29.6303 Y0.6624
X29.6283 Y0.6682
X29.6267 Y0.6726
X29.6247 Y0.6777
X29.6223 Y0.6834
X29.6197 Y0.6892
X29.617 Y0.695
X29.6133 Y0.7022
X29.6085 Y0.7108
X29.6052 Y0.7165
X29.6034 Y0.7194
X29.6005 Y0.7238
X29.5966 Y0.7295
X29.5925 Y0.7353
X29.5881 Y0.7411
X29.5851 Y0.7448
X29.5837 Y0.7465
X29.5809 Y0.7499
X29.5766 Y0.7548
X29.572 Y0.7597
X29.5673 Y0.7646
X29.5636 Y0.7681
X29.5611 Y0.7705
X29.5572 Y0.7741
X29.5516 Y0.779
X29.5458 Y0.7837
X29.5399 Y0.7884
X29.534 Y0.7927
X29.5282 Y0.7966
X29.5224 Y0.8004
X29.5167 Y0.8039
X29.5104 Y0.8076
X29.5035 Y0.8113
X29.4977 Y0.8142
X29.493 Y0.8164
X29.4878 Y0.8188
X29.4821 Y0.8212
X29.4763 Y0.8235
X29.4705 Y0.8256
X29.4647 Y0.8276
X29.459 Y0.8294
X29.4532 Y0.8311
X29.4474 Y0.8327
X29.4414 Y0.8341
X29.435 Y0.8355
X29.4293 Y0.8366
X29.4241 Y0.8375
X29.4186 Y0.8383
X29.4128 Y0.839
X29.4071 Y0.8396
X29.4013 Y0.84
X29.3937 Y0.8404
G3 X29.3803 Y0.8407 I-0.0228 J-0.8027
G1 X29.3078 Y0.8412
X29.3085 Y0.9438
X29.3086 Y0.9466 Z0.1797
X29.309 Y0.9494 Z0.1799
X29.3095 Y0.9521 Z0.1803
X29.3101 Y0.9548 Z0.1809
X29.3109 Y0.9574 Z0.1816
X29.3118 Y0.9599 Z0.1824
X29.3128 Y0.9623 Z0.1834
X29.3139 Y0.9646 Z0.1846
X29.3151 Y0.9668 Z0.1859
X29.3164 Y0.9689 Z0.1873
X29.3177 Y0.9708 Z0.1889
X29.319 Y0.9726 Z0.1905
X29.3204 Y0.9742 Z0.1924
X29.3218 Y0.9757 Z0.1943
X29.3231 Y0.9771 Z0.1963
X29.3244 Y0.9783 Z0.1985
X29.3257 Y0.9794 Z0.2007
X29.3269 Y0.9804 Z0.203
X29.328 Y0.9813 Z0.2054
X29.3291 Y0.9821 Z0.2079
X29.33 Y0.9827 Z0.2105
X29.3309 Y0.9833 Z0.2131
X29.3316 Y0.9837 Z0.2158
X29.3322 Y0.9841 Z0.2185
X29.3327 Y0.9844 Z0.2213
X29.333 Y0.9846 Z0.224
X29.3332 Y0.9847 Z0.2268
X29.3333 Z0.2296
G0 Z0.8296
X31.6068 Y3.6687
Z0.5248
G1 Z0.403 F50.
Y3.6684 Z0.3976 F100.
Y3.6675 Z0.3923
Y3.6661 Z0.3872
Y3.6642 Z0.3822
Y3.6617 Z0.3774
Y3.6587 Z0.373
Y3.6553 Z0.3689
Y3.6514 Z0.3651
Y3.6472 Z0.3619
Y3.6426 Z0.3591
Y3.6378 Z0.3567
X31.6067 Y3.6327 Z0.355
Y3.6275 Z0.3537
Y3.6222 Z0.3531
X31.6024 Y1.1577 Z0.1808
G2 X31.5995 Y1.1438 Z0.1798 I-0.035 J0.0001
G1 X31.5988 Y1.1422 Z0.1797
X31.598 Y1.1407 Z0.1796
G2 X31.5845 Y1.1271 I-0.0306 J0.0171 F140.
G1 X31.5788 Y1.1239
G2 X31.5247 Y1.1555 I-0.0179 J0.0315
G1 Y1.1604
X31.5302 Y4.321
G2 X31.5691 Y4.3598 I0.0389 J-0.0001
X31.6079 Y4.3209 I-0.0001 J-0.0389
G1 X31.6024 Y1.1577
G2 X31.598 Y1.1407 I-0.035 J0.0001
G3 X31.5755 Y0.9985 I0.1824 J-0.1017
G2 X31.5415 Y0.8587 I-0.168 J-0.0332
G3 X31.4998 Y0.7966 I0.3581 J-0.2851
G2 X31.4419 Y0.7965 I-0.029 J0.0162
G3 X31.3747 Y0.8879 I-0.3995 J-0.2237
G2 X31.3443 Y0.9642 I0.0803 J0.0761
G1 X31.3505 Y4.4903
G2 X31.4132 Y4.5529 I0.0627 J-0.0001
G1 X31.7258
G2 X31.7883 Y4.4903 I0. J-0.0625
G1 X31.7823 Y1.0848
G2 X31.7202 Y0.9929 I-0.0992 J0.0002
G3 X31.5932 Y0.9136 I0.1603 J-0.3981
X31.5415 Y0.8587 I0.3065 J-0.3401
X31.5526 Y0.6659 I0.1133 J-0.0902
G2 X31.6264 Y0.4875 I-0.1774 J-0.178
G1 X31.6234 Y-1.2391
X31.6235 Y-1.2425
X31.6237 Y-1.254
X31.624 Y-1.2601
X31.6245 Y-1.2659
X31.3118
X31.3122 Y-1.2592
X31.3125 Y-1.2537
X31.3127 Y-1.2421
X31.3128 Y-1.2395
X31.3159 Y0.5814
Y0.5862
X31.3155 Y0.5977
X31.3149 Y0.6063
X31.3143 Y0.6121
X31.3136 Y0.6178
X31.3127 Y0.6236
X31.3117 Y0.6294
X31.3106 Y0.6351
X31.3094 Y0.6409
X31.308 Y0.6467
X31.306 Y0.654
X31.3033 Y0.6628
X31.3014 Y0.6686
X31.3005 Y0.6712
X31.2989 Y0.6755
X31.2966 Y0.6812
X31.2941 Y0.687
X31.2915 Y0.6928
X31.2889 Y0.6983
X31.2862 Y0.7036
X31.2834 Y0.7089
X31.2803 Y0.7141
X31.2785 Y0.7172
X31.2779 Y0.7182
X31.2758 Y0.7216
X31.2721 Y0.7273
X31.2681 Y0.7331
X31.2639 Y0.7389
X31.2603 Y0.7436
X31.2573 Y0.7474
X31.2523 Y0.7532
X31.2453 Y0.761
X31.2395 Y0.767
X31.2349 Y0.7714
X31.2285 Y0.7772
X31.2202 Y0.7844
X31.2143 Y0.789
X31.2112 Y0.7914
X31.2067 Y0.7946
X31.201 Y0.7986
X31.1952 Y0.8024
X31.1894 Y0.8059
X31.1851 Y0.8085
X31.1823 Y0.8101
X31.1765 Y0.8131
X31.1678 Y0.8175
X31.1629 Y0.8198
X31.1697 Y4.7341
X31.9699
X31.9631 Y0.8442
X31.8943 Y0.8444
X31.8939
X31.8935
X31.882 Y0.8443
X31.8756 Y0.8441
X31.8699 Y0.8438
X31.8641 Y0.8434
X31.8583 Y0.8428
X31.8526 Y0.8421
X31.8468 Y0.8413
X31.841 Y0.8403
X31.8352 Y0.8392
X31.8295 Y0.838
X31.8237 Y0.8366
X31.8178 Y0.8351
X31.8117 Y0.8333
X31.8058 Y0.8315
X31.8002 Y0.8296
X31.7946 Y0.8275
X31.789 Y0.8253
X31.7833 Y0.823
X31.7776 Y0.8204
X31.7718 Y0.8176
X31.766 Y0.8147
X31.7614 Y0.8122
X31.758 Y0.8103
X31.7522 Y0.8069
X31.7441 Y0.8018
G3 X31.7357 Y0.796 I0.0693 J-0.11
G1 X31.7271 Y0.7896
X31.7214 Y0.7851
X31.7185 Y0.7827
X31.7146 Y0.7793
X31.7098 Y0.775
X31.7051 Y0.7705
X31.7003 Y0.7657
X31.6969 Y0.7622
X31.6949 Y0.76
X31.6919 Y0.7566
X31.6878 Y0.752
X31.684 Y0.7473
X31.6803 Y0.7426
X31.6765 Y0.7375
X31.6727 Y0.7322
X31.6689 Y0.7264
X31.665 Y0.7203
X31.6614 Y0.7143
X31.6582 Y0.7085
X31.6551 Y0.7028
X31.6523 Y0.697
X31.6501 Y0.6924
X31.6486 Y0.6889
X31.6462 Y0.6832
X31.643 Y0.6751
X31.6405 Y0.6682
X31.6386 Y0.6624
X31.6369 Y0.6567
X31.6353 Y0.6509
X31.6338 Y0.6451
X31.6325 Y0.6394
X31.6313 Y0.6336
X31.6303 Y0.6278
X31.6294 Y0.6221
X31.6286 Y0.6163
X31.6279 Y0.6106
X31.6274 Y0.6048
X31.6269 Y0.5965
X31.6266 Y0.585
Y0.5818
Y0.5808
X31.6264 Y0.4875
X31.6263 Y0.4847 Z0.1797
X31.626 Y0.482 Z0.1799
X31.6255 Y0.4792 Z0.1803
X31.6249 Y0.4765 Z0.1809
X31.6241 Y0.4739 Z0.1816
X31.6232 Y0.4714 Z0.1824
X31.6222 Y0.469 Z0.1834
X31.6211 Y0.4667 Z0.1846
X31.6199 Y0.4645 Z0.1859
X31.6187 Y0.4624 Z0.1873
X31.6174 Y0.4605 Z0.1889
X31.616 Y0.4587 Z0.1905
X31.6147 Y0.4571 Z0.1924
X31.6133 Y0.4555 Z0.1943
X31.612 Y0.4542 Z0.1963
X31.6106 Y0.4529 Z0.1985
X31.6094 Y0.4518 Z0.2007
X31.6082 Y0.4508 Z0.203
X31.6071 Y0.4499 Z0.2054
X31.606 Y0.4492 Z0.2079
X31.6051 Y0.4485 Z0.2105
X31.6042 Y0.448 Z0.2131
X31.6035 Y0.4475 Z0.2158
X31.6029 Y0.4471 Z0.2185
X31.6025 Y0.4469 Z0.2213
X31.6021 Y0.4467 Z0.224
X31.6019 Y0.4465 Z0.2268
X31.6018 Z0.2296
G0 Z0.8296
X33.3278 Y1.0934
Z0.5248
G1 Z0.403 F50.
Y1.0931 Z0.3976 F100.
Y1.0922 Z0.3923
Y1.0908 Z0.3872
Y1.0889 Z0.3822
Y1.0864 Z0.3774
Y1.0834 Z0.373
Y1.08 Z0.3689
Y1.0761 Z0.3651
Y1.0719 Z0.3619
Y1.0673 Z0.3591
Y1.0625 Z0.3567
Y1.0574 Z0.355
Y1.0522 Z0.3537
X33.3277 Y1.0469 Z0.3531
X33.3246 Y-1.2391 Z0.1932
Y-1.2424 Z0.193
X33.3249 Y-1.254 Z0.1922
X33.3252 Y-1.26 Z0.1918
X33.3256 Y-1.2659 Z0.1914
X33.1596 Z0.1798
X33.1561 Z0.1796
X33.0263 F140.
X33.0268 Y-1.2592
X33.027 Y-1.2536
X33.0272 Y-1.2421
X33.0273 Y-1.2395
X33.0377 Y4.7341
X33.3329
X33.3247 Y-1.1172
X33.3246 Y-1.2391
Y-1.2424
X33.3249 Y-1.254
X33.3252 Y-1.26
X33.3256 Y-1.2659
X33.1561
X33.1533 Y-1.2657 Z0.1797
X33.1505 Y-1.2654 Z0.1799
X33.1478 Y-1.265 Z0.1803
X33.1451 Y-1.2644 Z0.1809
X33.1425 Y-1.2636 Z0.1816
X33.14 Y-1.2627 Z0.1824
X33.1376 Y-1.2617 Z0.1834
X33.1353 Y-1.2606 Z0.1846
X33.1331 Y-1.2594 Z0.1859
X33.131 Y-1.2582 Z0.1873
X33.1291 Y-1.2569 Z0.1889
X33.1273 Y-1.2555 Z0.1905
X33.1256 Y-1.2542 Z0.1924
X33.1241 Y-1.2528 Z0.1943
X33.1227 Y-1.2515 Z0.1963
X33.1215 Y-1.2502 Z0.1985
X33.1203 Y-1.2489 Z0.2007
X33.1194 Y-1.2477 Z0.203
X33.1185 Y-1.2466 Z0.2054
X33.1177 Y-1.2455 Z0.2079
X33.1171 Y-1.2446 Z0.2105
X33.1165 Y-1.2438 Z0.2131
X33.116 Y-1.2431 Z0.2158
X33.1157 Y-1.2425 Z0.2185
X33.1154 Y-1.242 Z0.2213
X33.1152 Y-1.2416 Z0.224
X33.1151 Y-1.2414 Z0.2268
X33.115 Z0.2296
G0 Z0.8296
X34.738 Y1.9581
Z0.5248
G1 Z0.403 F50.
Y1.9584 Z0.3976 F100.
Y1.9593 Z0.3923
Y1.9607 Z0.3872
Y1.9626 Z0.3822
Y1.9651 Z0.3774
Y1.9681 Z0.373
Y1.9715 Z0.3689
X34.7381 Y1.9754 Z0.3651
Y1.9796 Z0.3619
Y1.9842 Z0.3591
Y1.989 Z0.3567
Y1.9941 Z0.355
Y1.9993 Z0.3537
Y2.0046 Z0.3531
X34.7414 Y4.3381 Z0.1899
G2 X34.7764 Y4.3731 Z0.1861 I0.035 J0.
G1 X34.7888 Z0.1852
G2 X34.8238 Y4.3379 Z0.1813 I0. J-0.035
G1 Y4.3152 Z0.1798
X34.8237 Y4.3117 Z0.1796
X34.8122 Y1.1637 F140.
G2 X34.7574 Y1.1308 I-0.0373 J0.0001
G1 X34.7555 Y1.1318
G2 X34.7369 Y1.1628 I0.0164 J0.031
G1 X34.7414 Y4.3381
G2 X34.7764 Y4.3731 I0.035 J0.
G1 X34.7888
G2 X34.8238 Y4.3379 I0. J-0.035
G1 X34.8237 Y4.3117
G3 X34.9132 Y4.1764 I0.1462 J-0.0005
G2 X35.0027 Y4.0411 I-0.0567 J-0.1348
G1 X34.9914 Y0.952
G2 X34.9633 Y0.8778 I-0.1129 J0.0004
G3 X34.9338 Y0.8408 I0.3667 J-0.3225
X34.9085 Y0.8008 I0.3177 J-0.229
G2 X34.8487 Y0.8003 I-0.0301 J0.0166
G3 X34.7515 Y0.9182 I-0.3964 J-0.2277
X34.6199 Y0.9959 I-0.2784 J-0.3215
G2 X34.5568 Y1.0864 I0.0332 J0.0904
G1 X34.5616 Y4.4892
G2 X34.6255 Y4.5531 I0.064 J-0.0001
G1 X34.9408
G2 X35.0044 Y4.4893 I0. J-0.0636
G1 X35.0027 Y4.0411
G3 X35.0928 Y3.905 I0.1471 J-0.0005
G2 X35.1828 Y3.7689 I-0.0571 J-0.1355
G1 X35.1719 Y0.8152
X35.1715 Y0.8149
X35.171 Y0.8147
X35.1652 Y0.8115
X35.1618 Y0.8096
X35.1606 Y0.8089
X35.1574 Y0.8069
X35.1522 Y0.8037
X35.147 Y0.8002
X35.1419 Y0.7966
X35.1363 Y0.7925
X35.1303 Y0.7878
X35.1245 Y0.7831
X35.119 Y0.7782
X35.1128 Y0.7724
X35.1062 Y0.7658
X35.1004 Y0.7597
X35.0955 Y0.7541
X35.0908 Y0.7484
X35.0861 Y0.7424
X35.082 Y0.7368
X35.0784 Y0.7316
X35.0749 Y0.7265
X35.0717 Y0.7213
X35.0697 Y0.7181
X35.069 Y0.7169
X35.067 Y0.7134
X35.0639 Y0.7077
X35.0609 Y0.7019
X35.0581 Y0.6962
X35.0554 Y0.6904
X35.053 Y0.6846
X35.0505 Y0.6785
X35.0482 Y0.6721
X35.0467 Y0.6678
X35.0453 Y0.6635
X35.0421 Y0.6526
X35.04 Y0.6443
X35.0387 Y0.6385
X35.0376 Y0.6328
X35.0366 Y0.627
X35.0357 Y0.6212
X35.035 Y0.6155
X35.0344 Y0.6097
X35.0339 Y0.6039
X35.0335 Y0.596
X35.0332 Y0.5845
Y0.5821
X35.0265 Y-1.2388
X35.0266 Y-1.2427
X35.0269 Y-1.2542
X35.0272 Y-1.2606
X35.0276 Y-1.2659
X34.7215
X34.7219 Y-1.2593
X34.7222 Y-1.2537
X34.7224 Y-1.2422
Y-1.2395
X34.725 Y0.5814
X34.7249 Y0.5861
X34.7245 Y0.5976
G3 X34.7237 Y0.6086 I-0.1299 J-0.0045
G1 X34.7224 Y0.6191
X34.7216 Y0.6248
X34.7214 Y0.6258
X34.7208 Y0.6292
X34.7197 Y0.635
X34.7185 Y0.6408
X34.7171 Y0.6465
X34.7156 Y0.6523
X34.7139 Y0.658
X34.7121 Y0.6638
X34.7101 Y0.6696
X34.708 Y0.6753
X34.7057 Y0.6811
X34.7033 Y0.6869
X34.7007 Y0.6926
X34.6992 Y0.6959
X34.6988 Y0.6967
X34.6973 Y0.6998
X34.6945 Y0.7051
X34.6915 Y0.7105
X34.6884 Y0.7159
X34.6841 Y0.7228
X34.6785 Y0.7313
X34.6744 Y0.737
X34.6722 Y0.7401
X34.6689 Y0.7443
X34.6645 Y0.7497
X34.6598 Y0.7551
X34.655 Y0.7605
X34.6521 Y0.7635
X34.6514 Y0.7643
X34.6483 Y0.7673
X34.6429 Y0.7725
X34.6375 Y0.7774
X34.6321 Y0.7821
X34.6284 Y0.7852
X34.6263 Y0.7869
X34.6229 Y0.7895
X34.6182 Y0.793
X34.6135 Y0.7964
X34.6087 Y0.7996
X34.6024 Y0.8037
X34.5944 Y0.8084
X34.5886 Y0.8117
X34.5851 Y0.8136
X34.5804 Y0.816
X34.5746 Y0.8187
X34.5689 Y0.8213
X34.5631 Y0.8238
X34.5573 Y0.826
X34.5516 Y0.8281
X34.5458 Y0.8301
X34.54 Y0.8319
X34.5362 Y0.833
X34.5345 Y0.8335
X34.5287 Y0.835
X34.5189 Y0.8373
X34.5112 Y0.8388
X34.5054 Y0.8398
X34.4996 Y0.8407
X34.4939 Y0.8414
X34.4881 Y0.8419
X34.4823 Y0.8424
X34.4766 Y0.8427
X34.4708 Y0.8429
X34.4666 Y0.843
X34.3755 Y0.8431
X34.3809 Y4.7341
X35.1863
X35.1828 Y3.7689
X35.1826 Y3.7661 Z0.1797
X35.1823 Y3.7633 Z0.1799
X35.1818 Y3.7606 Z0.1803
X35.1812 Y3.7579 Z0.1809
X35.1804 Y3.7553 Z0.1816
X35.1795 Y3.7528 Z0.1824
X35.1785 Y3.7504 Z0.1834
X35.1774 Y3.7481 Z0.1846
X35.1762 Y3.7459 Z0.1859
X35.1749 Y3.7438 Z0.1873
X35.1736 Y3.7419 Z0.1889
X35.1723 Y3.7401 Z0.1905
X35.1709 Y3.7384 Z0.1924
X35.1695 Y3.7369 Z0.1943
X35.1682 Y3.7355 Z0.1963
X35.1669 Y3.7343 Z0.1985
X35.1656 Y3.7332 Z0.2007
X35.1644 Y3.7322 Z0.203
X35.1633 Y3.7313 Z0.2054
X35.1623 Y3.7306 Z0.2079
X35.1613 Y3.7299 Z0.2105
X35.1605 Y3.7294 Z0.2131
X35.1598 Y3.7289 Z0.2158
X35.1592 Y3.7285 Z0.2185
X35.1587 Y3.7283 Z0.2213
X35.1584 Y3.7281 Z0.224
X35.1581 Y3.7279 Z0.2268
Z0.2296
G0 Z0.8296
X36.5738 Y1.9321
Z0.5248
G1 Z0.403 F50.
Y1.9323 Z0.3976 F100.
Y1.9332 Z0.3923
Y1.9346 Z0.3872
Y1.9366 Z0.3822
Y1.9391 Z0.3774
Y1.9421 Z0.373
X36.5739 Y1.9455 Z0.3689
Y1.9494 Z0.3651
Y1.9536 Z0.3619
Y1.9581 Z0.3591
Y1.963 Z0.3567
Y1.968 Z0.355
X36.574 Y1.9733 Z0.3537
Y1.9786 Z0.3531
X36.5827 Y4.3472 Z0.1875
G2 X36.6087 Y4.3731 Z0.1846 I0.026 J-0.0001
G1 X36.6166 Z0.1841
G2 X36.6426 Y4.3469 Z0.1812 I0. J-0.026
G1 X36.6425 Y4.3264 Z0.1798
Y4.323 Z0.1796
X36.6245 Y1.0991 F140.
G2 X36.6142 Y1.0786 I-0.026 J0.0001
G1 X36.6126 Y1.0774
G2 X36.5707 Y1.0981 I-0.0159 J0.0206
G1 X36.5827 Y4.3472
G2 X36.6087 Y4.3731 I0.026 J-0.0001
G1 X36.6166
G2 X36.6426 Y4.3469 I0. J-0.026
G1 X36.6425 Y4.323
G3 X36.7317 Y4.1875 I0.1462 J-0.0008
G2 X36.821 Y4.052 I-0.057 J-0.1347
G1 X36.8043 Y1.0684
G2 X36.7409 Y0.9483 I-0.147 J0.0008
G3 X36.6167 Y0.8169 I0.2479 J-0.3587
G2 X36.554 Y0.8165 I-0.0315 J0.0192
G3 X36.4519 Y0.9296 I-0.3757 J-0.2366
G2 X36.3906 Y1.0566 I0.0997 J0.1265
G1 X36.4032 Y4.4892
G2 X36.4673 Y4.5531 I0.0642 J-0.0002
G1 X36.76
G2 X36.8234 Y4.4893 I0. J-0.0634
G1 X36.821 Y4.052
G3 X36.9107 Y3.9157 I0.1471 J-0.0008
G2 X37.0004 Y3.7795 I-0.0573 J-0.1354
G1 X36.9841 Y0.8459
X36.9785 Y0.8457
X36.9727 Y0.8453
X36.967 Y0.8448
X36.9612 Y0.8441
X36.9554 Y0.8434
X36.9497 Y0.8425
X36.9439 Y0.8415
X36.9381 Y0.8403
X36.9324 Y0.839
X36.9266 Y0.8376
X36.9189 Y0.8354
X36.9093 Y0.8323
X36.9035 Y0.8304
X36.9016 Y0.8297
X36.8978 Y0.8282
X36.892 Y0.8259
X36.8862 Y0.8234
X36.8804 Y0.8207
X36.8749 Y0.818
X36.8697 Y0.8152
X36.8644 Y0.8123
X36.8591 Y0.8093
X36.856 Y0.8074
X36.855 Y0.8068
X36.8516 Y0.8046
X36.8458 Y0.8008
X36.8401 Y0.7967
X36.8343 Y0.7924
X36.8297 Y0.7889
X36.8263 Y0.7861
X36.8204 Y0.781
X36.8123 Y0.7735
X36.8064 Y0.7677
X36.8025 Y0.7636
X36.7986 Y0.7593
X36.7946 Y0.7547
X36.7907 Y0.7501
X36.7871 Y0.7456
X36.7844 Y0.7421
X36.7827 Y0.7397
X36.7798 Y0.7357
X36.7759 Y0.7299
X36.7721 Y0.7242
X36.7686 Y0.7184
X36.7657 Y0.7134
X36.7634 Y0.7091
X36.7604 Y0.7034
X36.7569 Y0.6961
X36.7539 Y0.6896
X36.7515 Y0.6838
X36.7492 Y0.678
X36.7471 Y0.6723
X36.7452 Y0.6665
X36.7434 Y0.6608
X36.7416 Y0.6547
X36.74 Y0.6482
X36.738 Y0.6396
X36.736 Y0.6287
X36.7347 Y0.6204
X36.734 Y0.6146
X36.7334 Y0.6089
X36.733 Y0.6031
X36.7326 Y0.5956
G3 X36.7324 Y0.5823 I0.8406 J-0.022
G1 X36.7223 Y-1.2271
Y-1.2273
X36.7222 Y-1.2388
X36.7223 Y-1.2429
X36.7226 Y-1.2545
X36.7229 Y-1.261
X36.7233 Y-1.2659
X36.433
X36.4334 Y-1.2588
X36.4336 Y-1.2535
X36.4339 Y-1.242
Y-1.2398
X36.4406 Y0.5811
X36.4405 Y0.5841
X36.4404 Y0.5899
X36.4402 Y0.5957
X36.4398 Y0.6014
X36.4393 Y0.6072
X36.4387 Y0.613
X36.4379 Y0.6187
X36.437 Y0.6245
X36.436 Y0.6302
X36.4349 Y0.636
X36.4336 Y0.6418
X36.4321 Y0.6475
X36.4306 Y0.6533
X36.4289 Y0.6591
X36.427 Y0.6648
X36.425 Y0.6706
X36.4231 Y0.6756
X36.4214 Y0.6799
X36.4189 Y0.6857
X36.4157 Y0.6929
X36.4125 Y0.6994
X36.4095 Y0.7052
X36.4063 Y0.7109
X36.4029 Y0.7167
X36.4003 Y0.721
X36.3984 Y0.7239
X36.3944 Y0.7297
X36.3882 Y0.7384
X36.3854 Y0.7421
X36.3824 Y0.7458
X36.3771 Y0.7521
X36.372 Y0.7579
X36.3671 Y0.7631
X36.3613 Y0.7688
X36.3547 Y0.775
X36.3481 Y0.7808
X36.3415 Y0.7861
X36.3358 Y0.7905
X36.3308 Y0.7942
X36.3254 Y0.7979
X36.3196 Y0.8016
X36.3139 Y0.8052
X36.3081 Y0.8085
X36.3044 Y0.8106
X36.3029 Y0.8114
X36.2972 Y0.8143
X36.2872 Y0.819
X36.2792 Y0.8225
X36.2735 Y0.8248
X36.2677 Y0.8269
X36.2619 Y0.8289
X36.2546 Y0.8312
X36.2457 Y0.8336
X36.2399 Y0.8351
X36.2373 Y0.8357
X36.2331 Y0.8366
X36.2273 Y0.8377
X36.2216 Y0.8387
X36.2158 Y0.8396
X36.21 Y0.8403
X36.2088 Y0.8404
X36.2231 Y4.7341
X37.0058
X37.0004 Y3.7795
X37.0003 Y3.7767 Z0.1797
X36.9999 Y3.7739 Z0.1799
X36.9995 Y3.7711 Z0.1803
X36.9988 Y3.7685 Z0.1809
X36.9981 Y3.7659 Z0.1816
X36.9972 Y3.7633 Z0.1824
X36.9961 Y3.7609 Z0.1834
X36.995 Y3.7586 Z0.1846
X36.9938 Y3.7564 Z0.1859
X36.9926 Y3.7544 Z0.1873
X36.9913 Y3.7525 Z0.1889
X36.9899 Y3.7507 Z0.1905
X36.9885 Y3.749 Z0.1924
X36.9872 Y3.7475 Z0.1943
X36.9858 Y3.7461 Z0.1963
X36.9845 Y3.7449 Z0.1985
X36.9832 Y3.7438 Z0.2007
X36.982 Y3.7428 Z0.203
X36.9809 Y3.7419 Z0.2054
X36.9799 Y3.7412 Z0.2079
X36.9789 Y3.7405 Z0.2105
X36.9781 Y3.74 Z0.2131
X36.9774 Y3.7395 Z0.2158
X36.9768 Y3.7391 Z0.2185
X36.9763 Y3.7389 Z0.2213
X36.976 Y3.7387 Z0.224
X36.9758 Y3.7386 Z0.2268
X36.9757 Y3.7385 Z0.2296
G0 Z0.8296
X38.3819 Y1.921
Z0.5248
G1 Z0.403 F50.
Y1.9213 Z0.3976 F100.
Y1.9221 Z0.3923
Y1.9235 Z0.3872
Y1.9255 Z0.3822
X38.382 Y1.928 Z0.3774
Y1.931 Z0.373
Y1.9344 Z0.3689
Y1.9383 Z0.3651
Y1.9425 Z0.3619
X38.3821 Y1.9471 Z0.3591
Y1.9519 Z0.3567
Y1.9569 Z0.355
Y1.9622 Z0.3537
X38.3822 Y1.9675 Z0.3531
X38.3955 Y4.3539 Z0.1862
G2 X38.4148 Y4.3731 Z0.1841 I0.0193 J-0.0001
G1 X38.4249 Z0.1834
G2 X38.4442 Y4.3537 Z0.1813 I0. J-0.0193
G1 X38.4441 Y4.3321 Z0.1798
X38.444 Y4.3286 Z0.1796
X38.4252 Y1.1601 F140.
G2 X38.4144 Y1.1429 I-0.0193 J0.0001
G1 X38.4057 Y1.1385
G2 X38.3776 Y1.1558 I-0.0088 J0.0171
G1 X38.3955 Y4.3539
G2 X38.4148 Y4.3731 I0.0193 J-0.0001
G1 X38.4249
G2 X38.4442 Y4.3537 I0. J-0.0193
G1 X38.444 Y4.3286
G3 X38.5332 Y4.1931 I0.1462 J-0.0009
G2 X38.6224 Y4.0575 I-0.0571 J-0.1347
G1 X38.6048 Y1.0908
G2 X38.5414 Y1.0015 I-0.0953 J0.0006
G3 X38.4101 Y0.9271 I0.1447 J-0.4082
X38.3114 Y0.813 I0.2891 J-0.3497
G2 X38.2495 Y0.8128 I-0.031 J0.0188
G3 X38.213 Y0.8637 I-0.3758 J-0.2313
G1 X38.212 Y0.8647
X38.2111 Y0.8658
G2 X38.1962 Y0.9068 I0.0482 J0.0406
G1 X38.2163 Y4.4891
G2 X38.2806 Y4.5531 I0.0643 J-0.0004
G1 X38.5616
G2 X38.625 Y4.4893 I0. J-0.0634
G1 X38.6224 Y4.0575
G3 X38.7121 Y3.9213 I0.1471 J-0.0009
G2 X38.8018 Y3.785 I-0.0574 J-0.1354
G1 X38.7844 Y0.8456
X38.6891 Y0.8462
X38.6842 Y0.8461
X38.6784 Y0.8459
X38.6727 Y0.8456
X38.6669 Y0.8452
X38.6611 Y0.8446
X38.6554 Y0.8439
X38.6496 Y0.8431
X38.6438 Y0.8421
X38.6381 Y0.841
X38.6323 Y0.8398
X38.6265 Y0.8384
X38.6208 Y0.8369
X38.6136 Y0.8348
X38.6051 Y0.832
X38.5994 Y0.83
X38.5963 Y0.8289
X38.5919 Y0.8271
X38.5861 Y0.8247
X38.5804 Y0.8221
X38.5746 Y0.8194
X38.5671 Y0.8154
X38.5578 Y0.8102
X38.5521 Y0.8068
X38.5498 Y0.8054
X38.5458 Y0.8028
X38.54 Y0.7988
X38.5342 Y0.7946
X38.5285 Y0.7902
X38.5246 Y0.7871
X38.5225 Y0.7854
X38.5191 Y0.7824
X38.5143 Y0.7782
X38.5096 Y0.7738
X38.5049 Y0.7691
X38.5013 Y0.7654
X38.4988 Y0.7628
X38.4951 Y0.7587
X38.4903 Y0.7532
X38.4857 Y0.7474
X38.4811 Y0.7414
X38.4768 Y0.7355
X38.4729 Y0.7298
X38.4692 Y0.724
X38.4657 Y0.7183
X38.462 Y0.7118
X38.4582 Y0.7047
X38.4553 Y0.699
X38.4532 Y0.6945
X38.451 Y0.6894
X38.4486 Y0.6837
X38.4463 Y0.6779
X38.4442 Y0.6721
X38.4423 Y0.6664
X38.4405 Y0.6606
X38.4388 Y0.6549
X38.4373 Y0.6491
X38.4357 Y0.6422
X38.4341 Y0.6342
X38.433 Y0.6284
X38.4325 Y0.6249
X38.4318 Y0.6203
X38.4311 Y0.6145
X38.4306 Y0.6087
X38.4301 Y0.603
X38.4298 Y0.5956
G3 X38.4296 Y0.5824 I0.9819 J-0.0243
G1 X38.4188 Y-1.227
Y-1.2273
Y-1.2388
Y-1.243
X38.4191 Y-1.2545
X38.4195 Y-1.261
X38.4199 Y-1.2659
X38.1232
X38.1237 Y-1.2585
X38.1239 Y-1.2534
G3 X38.1241 Y-1.24 I-0.8481 J0.0227
G1 X38.1343 Y0.5809
X38.1342 Y0.585
X38.1341 Y0.5908
X38.1338 Y0.5965
X38.1334 Y0.6023
X38.1329 Y0.608
X38.1322 Y0.6138
X38.1314 Y0.6196
X38.1305 Y0.6253
X38.1294 Y0.6311
X38.1282 Y0.6369
X38.1269 Y0.6426
X38.1254 Y0.6484
X38.1231 Y0.6563
X38.1199 Y0.6663
X38.1179 Y0.672
X38.1173 Y0.6735
X38.1159 Y0.6772
X38.1135 Y0.683
X38.1109 Y0.6887
X38.1082 Y0.6945
X38.1055 Y0.7
X38.1027 Y0.7053
X38.0998 Y0.7105
X38.0967 Y0.7158
X38.0948 Y0.7189
X38.0941 Y0.7199
X38.0919 Y0.7233
X38.088 Y0.7291
X38.0839 Y0.7348
X38.0796 Y0.7406
X38.076 Y0.7451
X38.0734 Y0.7483
X38.0682 Y0.7542
X38.0605 Y0.7625
X38.0547 Y0.7683
X38.0509 Y0.7719
X38.0466 Y0.7758
X38.0418 Y0.78
X38.0369 Y0.7839
X38.0321 Y0.7877
X38.0287 Y0.7903
X38.0268 Y0.7917
X38.023 Y0.7943
X38.0173 Y0.7982
X38.0146 Y0.8
X38.0366 Y4.7341
X38.8074
X38.8018 Y3.785
X38.8016 Y3.7822 Z0.1797
X38.8013 Y3.7794 Z0.1799
X38.8008 Y3.7767 Z0.1803
X38.8002 Y3.774 Z0.1809
X38.7994 Y3.7714 Z0.1816
X38.7985 Y3.7689 Z0.1824
X38.7975 Y3.7665 Z0.1834
X38.7964 Y3.7642 Z0.1846
X38.7952 Y3.762 Z0.1859
X38.7939 Y3.7599 Z0.1873
X38.7926 Y3.758 Z0.1889
X38.7913 Y3.7562 Z0.1905
X38.7899 Y3.7546 Z0.1924
X38.7885 Y3.753 Z0.1943
X38.7872 Y3.7517 Z0.1963
X38.7859 Y3.7504 Z0.1985
X38.7846 Y3.7493 Z0.2007
X38.7834 Y3.7483 Z0.203
X38.7823 Y3.7475 Z0.2054
X38.7812 Y3.7467 Z0.2079
X38.7803 Y3.746 Z0.2105
X38.7794 Y3.7455 Z0.2131
X38.7787 Y3.745 Z0.2158
X38.7781 Y3.7447 Z0.2185
X38.7777 Y3.7444 Z0.2213
X38.7773 Y3.7442 Z0.224
X38.7771 Y3.7441 Z0.2268
X38.777 Z0.2296
G0 Z0.8296
X40.125 Y1.0855
Z0.5248
G1 Z0.403 F50.
Y1.0852 Z0.3976 F100.
Y1.0844 Z0.3923
Y1.0829 Z0.3872
Y1.081 Z0.3822
Y1.0785 Z0.3774
Y1.0755 Z0.373
Y1.0721 Z0.3689
Y1.0682 Z0.3651
Y1.064 Z0.3619
Y1.0594 Z0.3591
X40.1251 Y1.0546 Z0.3567
Y1.0495 Z0.355
Y1.0443 Z0.3537
Y1.039 Z0.3531
X40.1295 Y-1.2396 Z0.1938
Y-1.2421 Z0.1936
X40.1297 Y-1.2536 Z0.1928
X40.13 Y-1.2592 Z0.1924
X40.1304 Y-1.2659 Z0.1919
X39.9565 Z0.1798
X39.9531 Z0.1796
X39.8153 F140.
X39.8157 Y-1.2584
X39.8159 Y-1.2534
G3 X39.8161 Y-1.2401 I-0.7846 J0.0212
G1 X39.8516 Y4.7341
X40.118
X40.1292 Y-1.1094
X40.1295 Y-1.2396
Y-1.2421
X40.1297 Y-1.2536
X40.13 Y-1.2592
X40.1304 Y-1.2659
X39.9531
X39.9503 Y-1.2657 Z0.1797
X39.9475 Y-1.2654 Z0.1799
X39.9447 Y-1.265 Z0.1803
X39.9421 Y-1.2644 Z0.1809
X39.9395 Y-1.2636 Z0.1816
X39.9369 Y-1.2627 Z0.1824
X39.9345 Y-1.2617 Z0.1834
X39.9322 Y-1.2606 Z0.1846
X39.93 Y-1.2594 Z0.1859
X39.9279 Y-1.2582 Z0.1873
X39.926 Y-1.2569 Z0.1889
X39.9242 Y-1.2555 Z0.1905
X39.9226 Y-1.2542 Z0.1924
X39.921 Y-1.2528 Z0.1943
X39.9197 Y-1.2515 Z0.1963
X39.9184 Y-1.2502 Z0.1985
X39.9173 Y-1.2489 Z0.2007
X39.9163 Y-1.2477 Z0.203
X39.9154 Y-1.2466 Z0.2054
X39.9147 Y-1.2455 Z0.2079
X39.914 Y-1.2446 Z0.2105
X39.9135 Y-1.2438 Z0.2131
X39.913 Y-1.2431 Z0.2158
X39.9126 Y-1.2425 Z0.2185
X39.9123 Y-1.242 Z0.2213
X39.9121 Y-1.2416 Z0.224
X39.912 Y-1.2414 Z0.2268
Z0.2296
G0 Z0.8296
X41.5404 Y2.0122
Z0.5248
G1 Z0.403 F50.
Y2.0125 Z0.3976 F100.
Y2.0134 Z0.3923
Y2.0148 Z0.3872
Y2.0167 Z0.3822
Y2.0192 Z0.3774
Y2.0222 Z0.373
Y2.0256 Z0.3689
Y2.0295 Z0.3651
Y2.0337 Z0.3619
Y2.0383 Z0.3591
Y2.0431 Z0.3567
Y2.0482 Z0.355
X41.5403 Y2.0534 Z0.3537
Y2.0587 Z0.3531
X41.536 Y4.3093 Z0.1957
G2 X41.5997 Y4.3731 Z0.1887 I0.0637 J0.0001
G1 X41.6074 Z0.1882
G2 X41.6702 Y4.3094 Z0.1812 I0. J-0.0628
G1 X41.6699 Y4.2886 Z0.1798
Y4.2851 Z0.1796
X41.6261 Y1.153 F140.
G2 X41.5712 Y1.1219 I-0.0366 J0.0005
G3 X41.5603 Y1.128 I-0.2459 J-0.425
G2 X41.5421 Y1.1587 I0.0168 J0.0308
G1 X41.536 Y4.3093
G2 X41.5997 Y4.3731 I0.0637 J0.0001
G1 X41.6074
G2 X41.6702 Y4.3094 I0. J-0.0628
G1 X41.6699 Y4.2851
G3 X41.758 Y4.1489 I0.1462 J-0.002
G2 X41.8461 Y4.0126 I-0.0581 J-0.1342
G1 X41.8035 Y0.9639
G2 X41.774 Y0.8894 I-0.1129 J0.0016
G3 X41.7372 Y0.8438 I0.366 J-0.3337
X41.7066 Y0.7938 I0.334 J-0.2388
G2 X41.6485 Y0.7931 I-0.0292 J0.0151
G3 X41.4248 Y0.9935 I-0.3966 J-0.2176
G2 X41.3622 Y1.0866 I0.0382 J0.0933
G1 X41.3557 Y4.4893
G2 X41.4194 Y4.5531 I0.0637 J0.0001
G1 X41.7899
G2 X41.8527 Y4.4894 I0. J-0.0628
G1 X41.8461 Y4.0126
G3 X41.9347 Y3.8756 I0.147 J-0.0021
G2 X42.0233 Y3.7386 I-0.0585 J-0.1349
G1 X41.9825 Y0.8228
X41.9779 Y0.8205
X41.9724 Y0.8175
X41.9648 Y0.8132
X41.9552 Y0.8072
X41.9495 Y0.8034
X41.9476 Y0.802
X41.9437 Y0.7992
X41.9379 Y0.7949
X41.9321 Y0.7902
X41.9263 Y0.7853
X41.923 Y0.7824
X41.922 Y0.7815
X41.9187 Y0.7784
X41.9131 Y0.7729
X41.9078 Y0.7675
X41.9029 Y0.762
X41.9002 Y0.7589
X41.8996 Y0.7583
X41.897 Y0.7552
X41.8924 Y0.7494
X41.888 Y0.7436
X41.8839 Y0.7379
X41.8807 Y0.7332
X41.8785 Y0.7298
X41.875 Y0.724
X41.8703 Y0.716
X41.8665 Y0.709
X41.8636 Y0.7033
X41.8609 Y0.6975
X41.8584 Y0.6918
X41.8564 Y0.6871
X41.855 Y0.6834
X41.8529 Y0.6777
X41.8502 Y0.6698
X41.848 Y0.6629
X41.8464 Y0.6572
X41.8449 Y0.6514
X41.8436 Y0.6456
X41.8424 Y0.6399
X41.8413 Y0.6341
X41.8404 Y0.6284
X41.8396 Y0.6226
X41.8389 Y0.6168
X41.8384 Y0.6111
X41.838 Y0.6053
X41.8377 Y0.5995
X41.8375 Y0.595
X41.8121 Y-1.226
G3 Y-1.2392 I0.7528 J-0.0077
G1 X41.8122 Y-1.2442
X41.8126 Y-1.2558
X41.813 Y-1.2623
X41.8133 Y-1.2659
X41.5225
X41.5229 Y-1.2601
X41.5232 Y-1.254
X41.5235 Y-1.2425
Y-1.2391
X41.52 Y0.5819
Y0.585
X41.5197 Y0.5965
X41.5192 Y0.6047
X41.5187 Y0.6105
X41.5181 Y0.6162
X41.5173 Y0.622
X41.5165 Y0.6274
X41.5156 Y0.6324
X41.5144 Y0.6381
X41.513 Y0.6447
X41.5114 Y0.6508
X41.5098 Y0.6566
X41.5081 Y0.6624
X41.5062 Y0.6681
X41.5042 Y0.6739
X41.502 Y0.6796
X41.4996 Y0.6854
X41.4971 Y0.6912
X41.4949 Y0.696
X41.493 Y0.6999
X41.49 Y0.7057
X41.4858 Y0.7133
X41.482 Y0.7199
X41.4785 Y0.7254
X41.4747 Y0.7312
X41.4704 Y0.7372
X41.466 Y0.743
X41.4615 Y0.7488
X41.4566 Y0.7546
X41.4515 Y0.7603
X41.4481 Y0.764
X41.4466 Y0.7655
X41.4432 Y0.7689
X41.4377 Y0.7742
X41.4322 Y0.7792
X41.4268 Y0.7839
X41.4237 Y0.7865
X41.4231 Y0.7869
X41.42 Y0.7894
X41.4142 Y0.7938
X41.4084 Y0.7979
X41.4027 Y0.8018
X41.3975 Y0.8051
X41.3929 Y0.8079
X41.3872 Y0.8112
X41.3802 Y0.815
X41.3738 Y0.8182
X41.3681 Y0.8209
X41.3623 Y0.8235
X41.3565 Y0.8259
X41.3499 Y0.8284
X41.3423 Y0.8311
X41.3365 Y0.8329
X41.3325 Y0.8341
X41.3277 Y0.8355
X41.3219 Y0.837
X41.3161 Y0.8383
X41.3104 Y0.8395
X41.3046 Y0.8406
X41.2988 Y0.8415
X41.2931 Y0.8423
X41.2873 Y0.843
X41.2815 Y0.8435
X41.2758 Y0.844
X41.27 Y0.8442
X41.2642 Y0.8444
X41.2604
X41.1817 Y0.8443
X41.1742 Y4.7341
X42.0372
X42.0233 Y3.7386
X42.0231 Y3.7358 Z0.1797
X42.0227 Y3.733 Z0.1799
X42.0222 Y3.7303 Z0.1803
X42.0216 Y3.7276 Z0.1809
X42.0208 Y3.725 Z0.1816
X42.0199 Y3.7225 Z0.1824
X42.0188 Y3.7201 Z0.1834
X42.0177 Y3.7178 Z0.1846
X42.0165 Y3.7157 Z0.1859
X42.0152 Y3.7136 Z0.1873
X42.0139 Y3.7117 Z0.1889
X42.0125 Y3.7099 Z0.1905
X42.0111 Y3.7083 Z0.1924
X42.0097 Y3.7068 Z0.1943
X42.0084 Y3.7054 Z0.1963
X42.007 Y3.7042 Z0.1985
X42.0058 Y3.7031 Z0.2007
X42.0045 Y3.7021 Z0.203
X42.0034 Y3.7012 Z0.2054
X42.0024 Y3.7005 Z0.2079
X42.0014 Y3.6999 Z0.2105
X42.0006 Y3.6993 Z0.2131
X41.9999 Y3.6989 Z0.2158
X41.9993 Y3.6985 Z0.2185
X41.9988 Y3.6982 Z0.2213
X41.9984 Y3.698 Z0.224
X41.9982 Y3.6979 Z0.2268
Z0.2296
G0 Z0.8296
X43.4715 Y2.3078
Z0.5248
G1 Z0.403 F50.
Y2.3081 Z0.3976 F100.
Y2.3089 Z0.3923
X43.4716 Y2.3104 Z0.3872
Y2.3123 Z0.3822
Y2.3148 Z0.3774
X43.4717 Y2.3178 Z0.373
Y2.3212 Z0.3689
X43.4718 Y2.3251 Z0.3651
Y2.3293 Z0.3619
X43.4719 Y2.3339 Z0.3591
X43.472 Y2.3387 Z0.3567
Y2.3438 Z0.355
X43.4721 Y2.349 Z0.3537
X43.4722 Y2.3543 Z0.3531
X43.4804 Y2.9413 Z0.312
G2 X43.5165 Y2.941 Z0.3081 I0.0181 J-0.0003
G1 X43.5049 Y1.1458 Z0.1825
G2 X43.4951 Y1.1291 Z0.1811 I-0.0193 J0.0001
G1 X43.4877 Y1.1249 Z0.1805
X43.4842 Y1.1229 Z0.1802
X43.4821 Y1.1218 Z0.1801
X43.4799 Y1.121 Z0.1799
X43.4776 Y1.1205 Z0.1798
X43.4759 Y1.1203 Z0.1797
X43.4741 Z0.1796
G2 X43.4552 Y1.1398 I0.0004 J0.0193 F140.
G1 X43.4804 Y2.9413
G2 X43.5165 Y2.941 I0.0181 J-0.0003
G1 X43.5049 Y1.1492
Y1.1458
G2 X43.4951 Y1.1291 I-0.0193 J0.0001
G1 X43.4877 Y1.1249
X43.4842 Y1.1229
G2 X43.4741 Y1.1203 I-0.0097 J0.0167
G3 X43.3776 Y1.0712 I-0.0021 J-0.1153
G2 X43.2747 Y1.1046 I-0.0463 J0.0325
G1 X43.322 Y4.4901
G2 X43.3856 Y4.5529 I0.0637 J-0.0009
G1 X43.6444
G2 X43.7065 Y4.4904 I0. J-0.0621
G1 X43.6845 Y1.0856
G2 X43.6224 Y0.9915 I-0.1033 J0.0007
G3 X43.4189 Y0.8132 I0.1773 J-0.4078
G2 X43.3579 Y0.8126 I-0.0307 J0.0185
G3 X43.3339 Y0.8468 I-0.3707 J-0.2341
X43.307 Y0.8788 I-0.3898 J-0.3017
G1 X43.3051 Y0.8807
X43.3032 Y0.8826
G2 X43.2727 Y0.9604 I0.0801 J0.0763
G1 X43.2747 Y1.1046
G3 X43.186 Y1.2417 I-0.1472 J0.0021
G2 X43.0973 Y1.3788 I0.0585 J0.1351
G1 X43.1442 Y4.7341
X43.8893
X43.8642 Y0.846
X43.7993 Y0.8464
X43.7938 Y0.8463
X43.7823 Y0.8459
X43.7736 Y0.8453
X43.7679 Y0.8447
X43.7621 Y0.844
X43.7563 Y0.8432
X43.7506 Y0.8422
X43.7448 Y0.8411
X43.739 Y0.8398
X43.7333 Y0.8384
X43.7275 Y0.8369
X43.7217 Y0.8352
X43.7159 Y0.8334
X43.7101 Y0.8314
X43.7044 Y0.8292
X43.6986 Y0.827
X43.6929 Y0.8245
X43.6871 Y0.8219
X43.6813 Y0.8191
X43.6756 Y0.8162
X43.6695 Y0.8129
X43.6632 Y0.8092
X43.6573 Y0.8055
X43.6518 Y0.8019
X43.6463 Y0.7981
X43.6408 Y0.7941
X43.6357 Y0.7901
X43.6309 Y0.7862
X43.6251 Y0.7812
X43.6184 Y0.775
X43.6124 Y0.7692
X43.6073 Y0.7639
X43.6015 Y0.7574
X43.5951 Y0.7498
X43.5905 Y0.744
X43.5876 Y0.7401
X43.5841 Y0.7353
X43.5802 Y0.7295
X43.5765 Y0.7238
X43.5731 Y0.718
X43.5707 Y0.714
X43.5695 Y0.7118
X43.5665 Y0.7061
X43.5619 Y0.6968
X43.5585 Y0.6892
X43.5561 Y0.6834
X43.5538 Y0.6777
X43.5517 Y0.6719
X43.5494 Y0.6649
X43.547 Y0.6567
X43.5454 Y0.6509
X43.5446 Y0.6476
X43.5435 Y0.6431
X43.5423 Y0.6373
X43.5412 Y0.6316
X43.5403 Y0.6258
X43.5395 Y0.62
X43.5388 Y0.6143
X43.5382 Y0.6085
X43.5378 Y0.6027
X43.5375 Y0.5955
G3 X43.5372 Y0.5825 I1.0952 J-0.0255
G1 X43.5256 Y-1.2269
Y-1.2273
X43.5255 Y-1.2388
X43.5256 Y-1.2431
X43.5259 Y-1.2546
X43.5263 Y-1.2611
X43.5266 Y-1.2659
X43.2186
X43.2191 Y-1.2572
X43.2192 Y-1.2528
X43.2197 Y-1.2182
Y-1.2181
X43.2447 Y0.5683
G3 Y0.5815 I-1.2009 J0.0088
G1 X43.2445 Y0.5889
X43.2442 Y0.5946
X43.2437 Y0.6004
X43.2431 Y0.6062
X43.2424 Y0.6119
X43.2416 Y0.6177
X43.2406 Y0.6235
X43.2395 Y0.6292
X43.2382 Y0.635
X43.2369 Y0.6407
X43.2353 Y0.6465
X43.2337 Y0.6523
X43.2316 Y0.6587
X43.2292 Y0.6658
X43.227 Y0.6716
X43.2253 Y0.676
X43.2231 Y0.6811
X43.2205 Y0.6869
X43.2177 Y0.6926
X43.2148 Y0.6984
X43.2112 Y0.7049
X43.207 Y0.7121
X43.2034 Y0.7179
X43.2006 Y0.7222
X43.1972 Y0.7272
X43.193 Y0.7328
X43.1886 Y0.7386
X43.1838 Y0.7444
X43.1788 Y0.7503
X43.1735 Y0.756
X43.1678 Y0.7618
X43.1618 Y0.7676
X43.1558 Y0.773
X43.1501 Y0.7779
X43.1443 Y0.7825
X43.1385 Y0.7869
X43.134 Y0.7901
X43.1308 Y0.7923
X43.1251 Y0.7961
X43.1167 Y0.8012
X43.1097 Y0.8052
X43.1039 Y0.8083
X43.0981 Y0.8112
X43.0924 Y0.8139
X43.0894 Y0.8152
X43.0973 Y1.3788
X43.0975 Y1.3816 Z0.1797
X43.0979 Y1.3844 Z0.1799
X43.0984 Y1.3871 Z0.1803
X43.099 Y1.3898 Z0.1809
X43.0998 Y1.3924 Z0.1816
X43.1007 Y1.3949 Z0.1824
X43.1018 Y1.3973 Z0.1834
X43.1029 Y1.3996 Z0.1846
X43.1041 Y1.4018 Z0.1859
X43.1054 Y1.4038 Z0.1873
X43.1067 Y1.4058 Z0.1889
X43.1081 Y1.4075 Z0.1905
X43.1095 Y1.4092 Z0.1924
X43.1109 Y1.4107 Z0.1943
X43.1122 Y1.412 Z0.1963
X43.1135 Y1.4133 Z0.1985
X43.1148 Y1.4144 Z0.2007
X43.116 Y1.4153 Z0.203
X43.1172 Y1.4162 Z0.2054
X43.1182 Y1.417 Z0.2079
X43.1192 Y1.4176 Z0.2105
X43.12 Y1.4181 Z0.2131
X43.1207 Y1.4186 Z0.2158
X43.1213 Y1.4189 Z0.2185
X43.1218 Y1.4192 Z0.2213
X43.1221 Y1.4194 Z0.224
X43.1223 Y1.4195 Z0.2268
X43.1224 Y1.4196 Z0.2296
G0 Z0.8296
X45.5927 Y-0.9049
Z0.2296
G1 X45.5924 Z0.224 F140.
X45.5915 Z0.2185
X45.5899 Z0.2131
X45.5878 Z0.2079
X45.585 Z0.203
X45.5818 Z0.1985
X45.5781 Z0.1943
X45.5739 Z0.1905
X45.5693 Z0.1873
X45.5644 Z0.1846
X45.5592 Z0.1824
X45.5538 Z0.1809
X45.5483 Z0.1799
X45.5427 Z0.1796
X45.3941
X45.3578
G2 X45.2944 Y-0.8411 I0. J0.0634
G1 X45.3277 Y4.3091
G2 X45.3921 Y4.3731 I0.0644 J-0.0004
G1 X45.3941
X45.5908
X45.5964 Z0.1799
X45.6019 Z0.1809
X45.6073 Z0.1824
X45.6125 Z0.1846
X45.6174 Z0.1873
X45.6219 Z0.1905
X45.6261 Z0.1943
X45.6298 Z0.1985
X45.6331 Z0.203
X45.6358 Z0.2079
X45.638 Z0.2131
X45.6395 Z0.2185
X45.6404 Z0.224
X45.6408 Z0.2296
G0 Z0.8296
X45.5927 Y-1.0849
Z0.2296
G1 X45.5924 Z0.224 F140.
X45.5915 Z0.2185
X45.5899 Z0.2131
X45.5878 Z0.2079
X45.585 Z0.203
X45.5818 Z0.1985
X45.5781 Z0.1943
X45.5739 Z0.1905
X45.5693 Z0.1873
X45.5644 Z0.1846
X45.5592 Z0.1824
X45.5538 Z0.1809
X45.5483 Z0.1799
X45.5427 Z0.1796
X45.3941
X45.1766
G2 X45.1133 Y-1.0211 I0. J0.0634
G1 X45.1489 Y4.4891
G2 X45.2132 Y4.5531 I0.0644 J-0.0004
G1 X45.3941
X45.5907
X45.5963 Z0.1799
X45.6019 Z0.1809
X45.6073 Z0.1824
X45.6124 Z0.1846
X45.6173 Z0.1873
X45.6219 Z0.1905
X45.6261 Z0.1943
X45.6298 Z0.1985
X45.6331 Z0.203
X45.6358 Z0.2079
X45.6379 Z0.2131
X45.6395 Z0.2185
X45.6404 Z0.224
X45.6407 Z0.2296
G0 Z0.8296
X45.5927 Y-1.2351
Z0.2246
G1 X45.5924 Z0.2196 F140.
X45.5916 Y-1.2353 Z0.2146
X45.5902 Y-1.2355 Z0.2098
X45.5883 Y-1.2358 Z0.2051
X45.5859 Y-1.2362 Z0.2007
X45.583 Y-1.2366 Z0.1966
X45.5797 Y-1.2371 Z0.1928
X45.576 Y-1.2377 Z0.1895
X45.5719 Y-1.2384 Z0.1865
X45.5675 Y-1.2391 Z0.1841
X45.5629 Y-1.2398 Z0.1822
X45.5581 Y-1.2406 Z0.1808
X45.5532 Y-1.2413 Z0.1799
X45.5483 Y-1.2421 Z0.1796
X45.402 Y-1.2653
X45.3981 Y-1.2657
X45.3942 Y-1.2659
X44.93
X44.9304 Y-1.2583
X44.9306 Y-1.2533
G3 X44.9309 Y-1.2401 I-1.1295 J0.0276
G1 X44.9694 Y4.7341
X45.3942
X45.3981 Y4.7339
X45.402 Y4.7335
X45.5962 Y4.7027
X45.6017 Y4.7018 Z0.1799
X45.6072 Y4.701 Z0.1809
X45.6125 Y4.7001 Z0.1824
X45.6176 Y4.6993 Z0.1846
X45.6224 Y4.6986 Z0.1873
X45.627 Y4.6978 Z0.1905
X45.6311 Y4.6972 Z0.1943
X45.6348 Y4.6966 Z0.1985
X45.638 Y4.6961 Z0.203
X45.6407 Y4.6957 Z0.2079
X45.6428 Y4.6953 Z0.2131
X45.6443 Y4.6951 Z0.2185
X45.6452 Y4.6949 Z0.224
X45.6456 Z0.2296
G0 Z0.8296
X21.4085 Y1.0916
Z0.5248
G1 Z0.403 F50.
Y1.0913 Z0.3976 F100.
Y1.0904 Z0.3923
Y1.089 Z0.3872
Y1.0871 Z0.3822
Y1.0846 Z0.3774
Y1.0816 Z0.373
Y1.0782 Z0.3689
Y1.0743 Z0.3651
X21.4086 Y1.0701 Z0.3619
Y1.0655 Z0.3591
Y1.0607 Z0.3567
Y1.0556 Z0.355
X21.4087 Y1.0504 Z0.3537
Y1.0451 Z0.3531
X21.4199 Y-1.2399 Z0.1933
Y-1.2419 Z0.1932
X21.4201 Y-1.2535 Z0.1924
X21.4203 Y-1.2585 Z0.192
X21.4208 Y-1.2659 Z0.1915
X21.253 Z0.1798
X21.2495 Z0.1796
X21.1184 F140.
X21.1188 Y-1.2588
X21.1191 Y-1.2535
X21.1193 Y-1.242
Y-1.2398
X21.1412 Y4.7341
X21.3907
X21.4192 Y-1.1156
X21.4199 Y-1.2399
Y-1.2419
X21.4201 Y-1.2535
X21.4203 Y-1.2585
X21.4208 Y-1.2659
X21.2495
X21.2467 Y-1.2657 Z0.1797
X21.2439 Y-1.2654 Z0.1799
X21.2412 Y-1.265 Z0.1803
X21.2385 Y-1.2644 Z0.1809
X21.2359 Y-1.2636 Z0.1816
X21.2334 Y-1.2627 Z0.1824
X21.231 Y-1.2617 Z0.1834
X21.2287 Y-1.2606 Z0.1846
X21.2265 Y-1.2594 Z0.1859
X21.2244 Y-1.2582 Z0.1873
X21.2225 Y-1.2569 Z0.1889
X21.2207 Y-1.2555 Z0.1905
X21.219 Y-1.2542 Z0.1924
X21.2175 Y-1.2528 Z0.1943
X21.2161 Y-1.2515 Z0.1963
X21.2149 Y-1.2502 Z0.1985
X21.2137 Y-1.2489 Z0.2007
X21.2127 Y-1.2477 Z0.203
X21.2119 Y-1.2466 Z0.2054
X21.2111 Y-1.2455 Z0.2079
X21.2105 Y-1.2446 Z0.2105
X21.2099 Y-1.2438 Z0.2131
X21.2094 Y-1.2431 Z0.2158
X21.2091 Y-1.2425 Z0.2185
X21.2088 Y-1.242 Z0.2213
X21.2086 Y-1.2416 Z0.224
X21.2085 Y-1.2414 Z0.2268
X21.2084 Z0.2296
G0 Z0.8296
X17.7503 Y1.9683
Z0.5248
G1 Z0.403 F50.
Y1.9686 Z0.3976 F100.
Y1.9695 Z0.3923
Y1.9709 Z0.3872
Y1.9729 Z0.3822
Y1.9753 Z0.3774
Y1.9783 Z0.373
Y1.9818 Z0.3689
Y1.9856 Z0.3651
Y1.9899 Z0.3619
Y1.9944 Z0.3591
Y1.9993 Z0.3567
Y2.0043 Z0.355
Y2.0095 Z0.3537
Y2.0148 Z0.3531
X17.7466 Y4.326 Z0.1915
G2 X17.7937 Y4.3731 Z0.1863 I0.0471 J0.0001
G1 X17.7959 Z0.1862
G2 X17.8429 Y4.3261 Z0.181 I0. J-0.0471
G1 Y4.3085 Z0.1798
Y4.305 Z0.1796
X17.8452 Y1.141 F140.
G2 X17.7915 Y1.1111 I-0.0351 J0.
G3 X17.7805 Y1.1178 I-0.4452 J-0.718
X17.7694 Y1.1243 I-0.2605 J-0.4347
G2 X17.7516 Y1.1548 I0.0172 J0.0305
G1 X17.7466 Y4.326
G2 X17.7937 Y4.3731 I0.0471 J0.0001
G1 X17.7959
G2 X17.8429 Y4.3261 I0. J-0.0471
G1 Y4.305
G3 X17.933 Y4.17 I0.1463 J0.0001
G2 X18.0231 Y4.0351 I-0.0562 J-0.135
G1 X18.0252 Y1.0118
G2 X17.9783 Y0.9024 I-0.1509 J-0.0001
G3 X17.9036 Y0.8088 I0.3001 J-0.3159
G2 X17.8424 I-0.0306 J0.0181
G3 X17.7535 Y0.9162 I-0.3816 J-0.2251
X17.6353 Y0.9901 I-0.2836 J-0.3222
G2 X17.5717 Y1.0854 I0.0398 J0.0954
G1 X17.5664 Y4.4892
G2 X17.6301 Y4.5531 I0.0637 J0.0001
G1 X17.9589
G2 X18.0228 Y4.4892 I0. J-0.0639
G1 X18.0231 Y4.0351
G3 X18.1137 Y3.8994 I0.1471 J0.0001
G2 X18.2043 Y3.7637 I-0.0565 J-0.1358
G1 X18.2064 Y0.8318
X18.2037 Y0.831
X18.1983 Y0.8292
X18.1929 Y0.8273
X18.1873 Y0.8252
X18.1815 Y0.8228
X18.1757 Y0.8203
X18.17 Y0.8176
X18.1643 Y0.8148
X18.1588 Y0.8119
X18.1531 Y0.8087
X18.147 Y0.8051
X18.1412 Y0.8014
X18.1356 Y0.7977
X18.1298 Y0.7936
X18.1239 Y0.7892
X18.118 Y0.7845
X18.1123 Y0.7797
X18.1065 Y0.7745
X18.1007 Y0.769
X18.0974 Y0.7658
X18.0965 Y0.7648
X18.0933 Y0.7615
X18.0881 Y0.7557
X18.0831 Y0.75
X18.0784 Y0.7442
X18.0758 Y0.7408
X18.0751 Y0.74
X18.0729 Y0.7369
X18.0691 Y0.7316
X18.0655 Y0.7262
X18.0621 Y0.7209
X18.0582 Y0.7144
X18.0538 Y0.7067
X18.0508 Y0.7009
X18.0489 Y0.6971
X18.0466 Y0.6923
X18.044 Y0.6866
X18.0416 Y0.6808
X18.0394 Y0.675
X18.0373 Y0.6693
X18.0353 Y0.6635
X18.0335 Y0.6577
X18.0319 Y0.652
X18.0305 Y0.6466
X18.0292 Y0.6415
X18.028 Y0.6358
X18.0268 Y0.6293
X18.0257 Y0.6232
X18.0249 Y0.6174
X18.0242 Y0.6116
X18.0236 Y0.6059
X18.0231 Y0.5973
X18.0227 Y0.5858
X18.0226 Y0.5815
X18.0239 Y-1.2394
Y-1.2422
X18.0242 Y-1.2537
X18.0244 Y-1.2594
X18.0249 Y-1.2659
X17.7246
X17.725 Y-1.26
X17.7253 Y-1.254
X17.7256 Y-1.2425
Y-1.2391
X17.7228 Y0.5818
X17.7227 Y0.5851
X17.7224 Y0.5966
X17.7219 Y0.6049
X17.7214 Y0.6106
X17.7208 Y0.6164
X17.72 Y0.6222
X17.7192 Y0.6272
X17.7185 Y0.6314
X17.7173 Y0.6372
X17.7157 Y0.6445
X17.7141 Y0.651
X17.7125 Y0.6567
X17.7107 Y0.6625
X17.7088 Y0.6683
X17.7068 Y0.674
X17.7046 Y0.6798
X17.7022 Y0.6856
X17.6997 Y0.6913
X17.6976 Y0.696
X17.6959 Y0.6995
X17.6929 Y0.7053
X17.6885 Y0.7133
X17.6846 Y0.7199
X17.6812 Y0.7253
X17.6776 Y0.7307
X17.6738 Y0.7361
X17.6716 Y0.7391
X17.6711 Y0.7399
X17.6685 Y0.7432
X17.664 Y0.749
X17.6591 Y0.7547
X17.6539 Y0.7605
X17.6507 Y0.764
X17.6495 Y0.7652
X17.6461 Y0.7686
X17.6405 Y0.7741
X17.6347 Y0.7793
X17.6288 Y0.7844
X17.6229 Y0.7891
X17.6172 Y0.7935
X17.6114 Y0.7976
X17.6056 Y0.8015
X17.6003 Y0.805
X17.5953 Y0.808
X17.5896 Y0.8113
X17.583 Y0.8148
X17.5768 Y0.8179
X17.571 Y0.8207
X17.5652 Y0.8232
X17.5595 Y0.8256
X17.5525 Y0.8283
X17.5444 Y0.8311
X17.5386 Y0.833
X17.5352 Y0.834
X17.5306 Y0.8353
X17.5249 Y0.8368
X17.5191 Y0.8381
X17.5133 Y0.8393
X17.5076 Y0.8404
X17.5018 Y0.8413
X17.496 Y0.8421
X17.4903 Y0.8428
X17.4845 Y0.8434
X17.4787 Y0.8438
X17.4729 Y0.8441
X17.4672 Y0.8442
X17.4633 Y0.8443
X17.3911 Y0.8442
X17.385 Y4.7341
X18.2036
X18.2043 Y3.7637
X18.2042 Y3.7609 Z0.1797
X18.2039 Y3.7582 Z0.1799
X18.2034 Y3.7554 Z0.1803
X18.2028 Y3.7527 Z0.1809
X18.202 Y3.7501 Z0.1816
X18.2011 Y3.7476 Z0.1824
X18.2002 Y3.7452 Z0.1834
X18.1991 Y3.7429 Z0.1846
X18.1979 Y3.7407 Z0.1859
X18.1966 Y3.7386 Z0.1873
X18.1953 Y3.7367 Z0.1889
X18.194 Y3.7349 Z0.1905
X18.1926 Y3.7332 Z0.1924
X18.1913 Y3.7317 Z0.1943
X18.1899 Y3.7303 Z0.1963
X18.1886 Y3.7291 Z0.1985
X18.1873 Y3.728 Z0.2007
X18.1861 Y3.727 Z0.203
X18.185 Y3.7261 Z0.2054
X18.184 Y3.7253 Z0.2079
X18.183 Y3.7247 Z0.2105
X18.1822 Y3.7241 Z0.2131
X18.1815 Y3.7236 Z0.2158
X18.1809 Y3.7233 Z0.2185
X18.1804 Y3.723 Z0.2213
X18.1801 Y3.7228 Z0.224
X18.1799 Y3.7227 Z0.2268
X18.1798 Y3.7226 Z0.2296
G0 Z0.8296
X19.6949 Y3.9147
Z0.5248
G1 Z0.403 F50.
Y3.9144 Z0.3976 F100.
Y3.9135 Z0.3923
Y3.9121 Z0.3872
Y3.9101 Z0.3822
Y3.9077 Z0.3774
Y3.9047 Z0.373
Y3.9012 Z0.3689
Y3.8974 Z0.3651
Y3.8931 Z0.3619
X19.6948 Y3.8886 Z0.3591
Y3.8838 Z0.3567
Y3.8787 Z0.355
Y3.8735 Z0.3537
Y3.8682 Z0.3531
X19.6914 Y2.9398 Z0.2882
G2 X19.6564 Z0.2843 I-0.0175 J0.0001
G1 X19.6554 Y4.3544 Z0.1854
G2 X19.6741 Y4.3731 Z0.1834 I0.0187 J0.
G1 X19.6779 Z0.1831
G2 X19.6966 Y4.3544 Z0.181 I0. J-0.0187
G1 X19.6965 Y4.336 Z0.1798
Y4.3325 Z0.1796
X19.6914 Y2.9398 F140.
G2 X19.6564 I-0.0175 J0.0001
G1 X19.6554 Y4.3544
G2 X19.6741 Y4.3731 I0.0187 J0.
G1 X19.6779
G2 X19.6966 Y4.3544 I0. J-0.0187
G1 X19.6965 Y4.3325
G3 X19.786 Y4.1972 I0.1462 J-0.0005
G2 X19.8755 Y4.0619 I-0.0567 J-0.1348
G1 X19.8645 Y1.0831
G2 X19.8017 Y0.9831 I-0.1115 J0.0004
G3 X19.6123 Y0.81 I0.1965 J-0.4051
G2 X19.5512 I-0.0305 J0.0182
G3 X19.532 Y0.8397 I-0.4266 J-0.2543
X19.5106 Y0.8679 I-0.3495 J-0.2437
G1 X19.508 Y0.8708
X19.5053 Y0.8737
X19.4999 Y0.8794
G2 X19.4778 Y0.9362 I0.0624 J0.0569
G1 X19.4754 Y4.4892
G2 X19.5392 Y4.5531 I0.0638 J0.
G1 X19.8134
G2 X19.877 Y4.4893 I0. J-0.0636
G1 X19.8755 Y4.0619
G3 X19.9655 Y3.9258 I0.1471 J-0.0005
G2 X20.0555 Y3.7897 I-0.0571 J-0.1355
G1 X20.0447 Y0.845
X20.0018 Y0.8452
X20.0015
X19.99
X19.9849 Y0.8451
X19.9792 Y0.8449
X19.9734 Y0.8445
X19.9676 Y0.8441
X19.9619 Y0.8435
X19.9561 Y0.8427
X19.9503 Y0.8419
X19.9446 Y0.8409
X19.9388 Y0.8397
X19.933 Y0.8385
X19.9273 Y0.8371
X19.9215 Y0.8355
X19.9161 Y0.834
X19.9111 Y0.8324
X19.9053 Y0.8304
X19.8988 Y0.828
X19.8926 Y0.8256
X19.8869 Y0.8231
X19.8811 Y0.8205
X19.8753 Y0.8177
X19.869 Y0.8144
X19.862 Y0.8105
X19.8562 Y0.8071
X19.8517 Y0.8043
X19.8465 Y0.8009
X19.8407 Y0.7969
X19.8348 Y0.7925
X19.8288 Y0.7879
X19.823 Y0.783
X19.8174 Y0.7781
X19.8117 Y0.7728
X19.806 Y0.7672
X19.8028 Y0.7639
X19.8019 Y0.7629
X19.7989 Y0.7596
X19.7938 Y0.7538
X19.789 Y0.7481
X19.7845 Y0.7423
X19.7818 Y0.7387
X19.7807 Y0.7372
X19.7785 Y0.734
X19.775 Y0.7289
X19.7718 Y0.7239
X19.7687 Y0.7189
X19.7646 Y0.7116
X19.7595 Y0.7022
X19.7566 Y0.6964
X19.7557 Y0.6943
X19.7539 Y0.6904
X19.7515 Y0.6847
X19.7492 Y0.6789
X19.747 Y0.6731
X19.745 Y0.6674
X19.7432 Y0.6616
X19.7415 Y0.6558
X19.7399 Y0.6501
X19.7385 Y0.6443
X19.7372 Y0.6385
X19.7361 Y0.6328
X19.7351 Y0.627
X19.7345 Y0.6232
X19.7342 Y0.6213
X19.7335 Y0.6155
X19.7325 Y0.6059
G3 X19.7319 Y0.596 I0.1294 J-0.0128
G1 X19.7317 Y0.5845
Y0.5821
X19.725 Y-1.2388
Y-1.2427
X19.7253 Y-1.2543
X19.7257 Y-1.2605
X19.7261 Y-1.2659
X19.4328
X19.4332 Y-1.2598
X19.4335 Y-1.2539
X19.4338 Y-1.2423
Y-1.2392
X19.4326 Y0.5817
X19.4325 Y0.5853
X19.4322 Y0.5969
X19.4317 Y0.6052
X19.4311 Y0.611
X19.4305 Y0.6168
X19.4297 Y0.6225
X19.4287 Y0.6283
X19.4277 Y0.6341
X19.4265 Y0.6398
X19.4251 Y0.6456
X19.424 Y0.65
X19.4232 Y0.6532
X19.4215 Y0.659
X19.4188 Y0.6673
X19.4163 Y0.6744
X19.4141 Y0.6802
X19.4117 Y0.6859
X19.4091 Y0.6917
X19.4059 Y0.6986
X19.4018 Y0.7066
X19.3986 Y0.7123
X19.3966 Y0.7158
X19.3938 Y0.7205
X19.3901 Y0.7263
X19.3862 Y0.732
X19.3821 Y0.7378
X19.3791 Y0.7418
X19.3774 Y0.744
X19.3747 Y0.7474
X19.3708 Y0.7521
X19.3668 Y0.7567
X19.3625 Y0.7614
X19.3587 Y0.7655
X19.3552 Y0.7689
X19.3512 Y0.7728
X19.3467 Y0.777
X19.3421 Y0.781
X19.3375 Y0.7849
X19.334 Y0.7877
X19.3316 Y0.7896
X19.3276 Y0.7926
X19.3218 Y0.7968
X19.316 Y0.8007
X19.3103 Y0.8044
X19.3059 Y0.8071
X19.3028 Y0.8089
X19.2971 Y0.8121
X19.2969 Y0.8122
X19.2942 Y4.7341
X20.0589
X20.0555 Y3.7897
X20.0553 Y3.7869 Z0.1797
X20.055 Y3.7841 Z0.1799
X20.0545 Y3.7814 Z0.1803
X20.0539 Y3.7787 Z0.1809
X20.0531 Y3.7761 Z0.1816
X20.0522 Y3.7736 Z0.1824
X20.0512 Y3.7712 Z0.1834
X20.0501 Y3.7689 Z0.1846
X20.0489 Y3.7667 Z0.1859
X20.0476 Y3.7646 Z0.1873
X20.0463 Y3.7627 Z0.1889
X20.045 Y3.7609 Z0.1905
X20.0436 Y3.7593 Z0.1924
X20.0423 Y3.7577 Z0.1943
X20.0409 Y3.7564 Z0.1963
X20.0396 Y3.7551 Z0.1985
X20.0383 Y3.754 Z0.2007
X20.0371 Y3.753 Z0.203
X20.036 Y3.7521 Z0.2054
X20.035 Y3.7514 Z0.2079
X20.034 Y3.7507 Z0.2105
X20.0332 Y3.7502 Z0.2131
X20.0325 Y3.7497 Z0.2158
X20.0319 Y3.7494 Z0.2185
X20.0314 Y3.7491 Z0.2213
X20.0311 Y3.7489 Z0.224
X20.0309 Y3.7488 Z0.2268
X20.0308 Y3.7487 Z0.2296
G0 Z0.8296
X16.3247 Y1.0844
Z0.5248
G1 Z0.403 F50.
Y1.0841 Z0.3976 F100.
Y1.0832 Z0.3923
X16.3248 Y1.0818 Z0.3872
Y1.0799 Z0.3822
Y1.0774 Z0.3774
Y1.0744 Z0.373
Y1.071 Z0.3689
Y1.0671 Z0.3651
Y1.0629 Z0.3619
Y1.0583 Z0.3591
Y1.0535 Z0.3567
Y1.0484 Z0.355
Y1.0432 Z0.3537
Y1.0379 Z0.3531
X16.3284 Y-1.2395 Z0.1938
Y-1.2421 Z0.1937
X16.3287 Y-1.2537 Z0.1928
X16.3289 Y-1.2592 Z0.1925
X16.3294 Y-1.2659 Z0.192
X16.1544 Z0.1798
X16.1509 Z0.1796
X16.0125 F140.
X16.0129 Y-1.2595
X16.0132 Y-1.2537
X16.0135 Y-1.2422
Y-1.2394
X16.0177 Y4.7341
X16.319
X16.3282 Y-1.1085
X16.3284 Y-1.2395
Y-1.2421
X16.3287 Y-1.2537
X16.3289 Y-1.2592
X16.3294 Y-1.2659
X16.1509
X16.1481 Y-1.2657 Z0.1797
X16.1453 Y-1.2654 Z0.1799
X16.1426 Y-1.265 Z0.1803
X16.1399 Y-1.2644 Z0.1809
X16.1373 Y-1.2636 Z0.1816
X16.1348 Y-1.2627 Z0.1824
X16.1323 Y-1.2617 Z0.1834
X16.13 Y-1.2606 Z0.1846
X16.1278 Y-1.2594 Z0.1859
X16.1258 Y-1.2582 Z0.1873
X16.1238 Y-1.2569 Z0.1889
X16.122 Y-1.2555 Z0.1905
X16.1204 Y-1.2542 Z0.1924
X16.1189 Y-1.2528 Z0.1943
X16.1175 Y-1.2515 Z0.1963
X16.1162 Y-1.2502 Z0.1985
X16.1151 Y-1.2489 Z0.2007
X16.1141 Y-1.2477 Z0.203
X16.1132 Y-1.2466 Z0.2054
X16.1125 Y-1.2455 Z0.2079
X16.1118 Y-1.2446 Z0.2105
X16.1113 Y-1.2438 Z0.2131
X16.1108 Y-1.2431 Z0.2158
X16.1104 Y-1.2425 Z0.2185
X16.1102 Y-1.242 Z0.2213
X16.11 Y-1.2416 Z0.224
X16.1099 Y-1.2414 Z0.2268
X16.1098 Z0.2296
G0 Z0.8296
X14.6396 Y3.6818
Z0.5248
G1 Z0.403 F50.
Y3.6815 Z0.3976 F100.
Y3.6807 Z0.3923
Y3.6792 Z0.3872
Y3.6773 Z0.3822
Y3.6748 Z0.3774
Y3.6718 Z0.373
Y3.6684 Z0.3689
Y3.6645 Z0.3651
Y3.6603 Z0.3619
X14.6395 Y3.6557 Z0.3591
Y3.6509 Z0.3567
Y3.6458 Z0.355
Y3.6406 Z0.3537
Y3.6353 Z0.3531
X14.6378 Y1.1712 Z0.1808
G2 X14.6348 Y1.1569 Z0.1798 I-0.035 J0.
G1 X14.634 Y1.1554 Z0.1797
X14.6332 Y1.1538 Z0.1796
G2 X14.6185 Y1.1399 I-0.0304 J0.0174 F140.
G1 X14.6168 Y1.139
G2 X14.5617 Y1.1731 I-0.0172 J0.0339
G1 X14.5754 Y4.325
G2 X14.64 Y4.3248 I0.0323 J-0.0001
G1 X14.6378 Y1.1712
G2 X14.6332 Y1.1538 I-0.035 J0.
G3 X14.607 Y1.0138 I0.189 J-0.1078
G2 X14.5662 Y0.8772 I-0.1658 J-0.0248
G3 X14.5116 Y0.801 I0.3262 J-0.2916
G2 X14.4527 Y0.8007 I-0.0295 J0.0167
G3 X14.4284 Y0.8382 I-0.3804 J-0.2199
X14.4007 Y0.8733 I-0.4221 J-0.3051
G2 X14.3806 Y0.9277 I0.0627 J0.054
G1 X14.3961 Y4.4903
G2 X14.4591 Y4.5529 I0.0629 J-0.0003
G1 X14.7576
G2 X14.8202 Y4.4903 I0. J-0.0625
G1 X14.8178 Y1.0878
G2 X14.7566 Y1.0026 I-0.0901 J0.0001
G3 X14.6155 Y0.9244 I0.1454 J-0.4288
X14.5662 Y0.8772 I0.2769 J-0.3388
Y0.6828 I0.1087 J-0.0972
G2 X14.6355 Y0.5011 I-0.2029 J-0.1815
G1 X14.6343 Y-1.2392
Y-1.2423
X14.6346 Y-1.2539
X14.6349 Y-1.2598
X14.6353 Y-1.2658
X14.3209 Y-1.2659
X14.3213 Y-1.2587
X14.3215 Y-1.2535
X14.3218 Y-1.242
Y-1.2399
X14.3297 Y0.581
Y0.5844
X14.3296 Y0.5902
X14.3293 Y0.596
X14.329 Y0.6017
X14.3287 Y0.6055
X14.3285 Y0.6073
X14.3278 Y0.6131
X14.3264 Y0.6228
X14.3251 Y0.6305
X14.3239 Y0.6363
X14.3226 Y0.6421
X14.3212 Y0.6478
X14.3196 Y0.6536
X14.3179 Y0.6594
X14.316 Y0.6651
X14.3139 Y0.6709
X14.3111 Y0.6783
X14.3073 Y0.6872
X14.3047 Y0.693
X14.3035 Y0.6955
X14.3014 Y0.6997
X14.2984 Y0.7055
X14.2951 Y0.7112
X14.2917 Y0.717
X14.2881 Y0.7228
X14.2842 Y0.7286
X14.2802 Y0.7344
X14.2759 Y0.7401
X14.2731 Y0.7437
X14.2702 Y0.7472
X14.2629 Y0.7556
X14.2577 Y0.7613
X14.2547 Y0.7644
X14.2511 Y0.768
X14.2468 Y0.7721
X14.2425 Y0.7759
X14.2383 Y0.7797
X14.2338 Y0.7834
X14.229 Y0.7872
X14.2233 Y0.7915
X14.2165 Y0.7963
X14.2102 Y0.8004
X14.2045 Y0.804
X14.1989 Y0.8073
X14.216 Y4.7341
X15.0015
X14.9988 Y0.8438
X14.9028 Y0.8439
X14.9024
X14.9019
X14.8904 Y0.8438
X14.8839 Y0.8436
X14.8781 Y0.8433
X14.8724 Y0.8429
X14.8666 Y0.8423
X14.8608 Y0.8416
X14.8551 Y0.8407
X14.8493 Y0.8397
X14.8435 Y0.8386
X14.8356 Y0.8368
X14.8256 Y0.8343
X14.8199 Y0.8326
X14.8183 Y0.8322
X14.8147 Y0.831
X14.8089 Y0.829
X14.8031 Y0.8269
X14.7974 Y0.8246
X14.7916 Y0.8222
X14.7858 Y0.8196
X14.7801 Y0.8168
X14.7743 Y0.8139
X14.7703 Y0.8117
X14.768 Y0.8105
X14.7622 Y0.807
X14.7529 Y0.8012
G3 X14.7445 Y0.7954 I0.069 J-0.1102
G1 X14.7368 Y0.7897
X14.731 Y0.7852
X14.7272 Y0.782
X14.7231 Y0.7784
X14.7187 Y0.7745
X14.7143 Y0.7703
X14.7099 Y0.7659
X14.7064 Y0.7622
X14.7036 Y0.7592
X14.6986 Y0.7535
X14.6916 Y0.745
X14.6887 Y0.7413
X14.6859 Y0.7375
X14.6814 Y0.7312
X14.6775 Y0.7254
X14.6742 Y0.7202
X14.6709 Y0.7148
X14.6677 Y0.709
X14.6646 Y0.7032
X14.6617 Y0.6975
X14.6592 Y0.6922
X14.6571 Y0.6875
X14.6547 Y0.6817
X14.6521 Y0.6749
X14.6498 Y0.6687
X14.6479 Y0.6629
X14.6461 Y0.6571
X14.6445 Y0.6514
X14.643 Y0.6456
X14.6417 Y0.6398
X14.6405 Y0.6341
X14.6394 Y0.6283
X14.6385 Y0.6225
X14.6377 Y0.6168
X14.637 Y0.611
X14.6365 Y0.6053
X14.636 Y0.5969
X14.6356 Y0.5853
Y0.5817
X14.6355 Y0.5011
X14.6354 Y0.4983 Z0.1797
X14.635 Y0.4956 Z0.1799
X14.6346 Y0.4928 Z0.1803
X14.634 Y0.4902 Z0.1809
X14.6332 Y0.4875 Z0.1816
X14.6323 Y0.485 Z0.1824
X14.6313 Y0.4826 Z0.1834
X14.6302 Y0.4803 Z0.1846
X14.629 Y0.4781 Z0.1859
X14.6278 Y0.476 Z0.1873
X14.6265 Y0.4741 Z0.1889
X14.6251 Y0.4723 Z0.1905
X14.6238 Y0.4707 Z0.1924
X14.6224 Y0.4691 Z0.1943
X14.6211 Y0.4678 Z0.1963
X14.6198 Y0.4665 Z0.1985
X14.6185 Y0.4654 Z0.2007
X14.6173 Y0.4644 Z0.203
X14.6162 Y0.4635 Z0.2054
X14.6151 Y0.4628 Z0.2079
X14.6142 Y0.4621 Z0.2105
X14.6134 Y0.4615 Z0.2131
X14.6126 Y0.4611 Z0.2158
X14.612 Y0.4607 Z0.2185
X14.6116 Y0.4604 Z0.2213
X14.6112 Y0.4602 Z0.224
X14.611 Y0.4601 Z0.2268
Z0.2296
G0 Z0.8296
X12.6002 Y2.5656
Z0.5248
G1 Z0.403 F50.
Y2.5659 Z0.3976 F100.
Y2.5667 Z0.3923
Y2.5681 Z0.3872
Y2.5701 Z0.3822
Y2.5726 Z0.3774
Y2.5756 Z0.373
Y2.579 Z0.3689
Y2.5829 Z0.3651
X12.6003 Y2.5871 Z0.3619
Y2.5917 Z0.3591
Y2.5965 Z0.3567
Y2.6015 Z0.355
Y2.6068 Z0.3537
X12.6004 Y2.6121 Z0.3531
X12.6076 Y4.4892 Z0.2218
G2 X12.6717 Y4.5531 Z0.2148 I0.0642 J-0.0002
G1 X12.9275 Z0.1969
G2 X12.9911 Y4.4893 Z0.1899 I0. J-0.0635
G1 X12.9904 Y4.344 Z0.1798
Y4.3405 Z0.1796
X12.9761 Y1.0585 F140.
G2 X12.913 Y0.9269 I-0.1703 J0.0007
G3 X12.8595 Y0.8748 I0.262 J-0.3232
X12.8154 Y0.8146 I0.3632 J-0.312
G2 X12.7532 Y0.8145 I-0.0311 J0.0192
G3 X12.6564 Y0.9243 I-0.3716 J-0.2302
G2 X12.5944 Y1.0546 I0.1045 J0.1297
G1 X12.6071 Y4.3619
X12.6076 Y4.4892
G2 X12.6717 Y4.5531 I0.0642 J-0.0002
G1 X12.9275
G2 X12.9911 Y4.4893 I0. J-0.0635
G1 X12.9904 Y4.3405
G3 X13.0803 Y4.2044 I0.1471 J-0.0006
G2 X13.1702 Y4.0683 I-0.0572 J-0.1355
G1 X13.1562 Y0.843
X13.1556 Y0.8429
X13.1498 Y0.842
X13.144 Y0.841
X13.1383 Y0.8398
X13.1325 Y0.8385
X13.1268 Y0.8371
X13.1213 Y0.8356
X13.1155 Y0.8339
X13.1095 Y0.832
X13.1037 Y0.8299
X13.0979 Y0.8278
X13.0921 Y0.8255
X13.0863 Y0.823
X13.0806 Y0.8203
X13.0748 Y0.8175
X13.069 Y0.8145
X13.0633 Y0.8113
X13.0598 Y0.8093
X13.0586 Y0.8086
X13.0554 Y0.8066
X13.0503 Y0.8033
X13.0451 Y0.7999
X13.0399 Y0.7962
X13.0344 Y0.7921
X13.0285 Y0.7875
X13.0228 Y0.7827
X13.0171 Y0.7777
X13.011 Y0.7719
X13.0045 Y0.7654
X12.9988 Y0.7592
X12.9937 Y0.7534
X12.989 Y0.7476
X12.9845 Y0.7419
X12.9805 Y0.7364
X12.9767 Y0.731
X12.9729 Y0.7252
X12.9692 Y0.7191
X12.9657 Y0.7132
X12.9626 Y0.7074
X12.9596 Y0.7016
X12.9568 Y0.6959
X12.9542 Y0.6901
X12.9517 Y0.6843
X12.9494 Y0.6786
X12.9473 Y0.6728
X12.946 Y0.669
X12.9454 Y0.6672
X12.9436 Y0.6615
X12.9408 Y0.6518
X12.9389 Y0.644
X12.9376 Y0.6382
X12.9365 Y0.6325
X12.9355 Y0.6267
X12.9346 Y0.6209
X12.9339 Y0.6152
X12.9333 Y0.6094
X12.9328 Y0.6037
X12.9324 Y0.5959
X12.9322 Y0.5844
Y0.5822
X12.9242 Y-1.2387
X12.9243 Y-1.2428
X12.9246 Y-1.2543
X12.9249 Y-1.2607
X12.9253 Y-1.2659
X12.6307
X12.6311 Y-1.2588
X12.6313 Y-1.2535
X12.6316 Y-1.242
Y-1.2398
X12.6386 Y0.5811
Y0.5842
X12.6384 Y0.59
X12.6382 Y0.5958
X12.6378 Y0.6015
X12.6373 Y0.6073
X12.6367 Y0.613
X12.6359 Y0.6188
X12.635 Y0.6246
X12.634 Y0.6303
X12.6329 Y0.6361
X12.6316 Y0.6419
X12.6301 Y0.6476
X12.6291 Y0.6515
X12.6285 Y0.6536
X12.6267 Y0.6594
X12.6236 Y0.6688
X12.6208 Y0.6764
X12.6184 Y0.6822
X12.6159 Y0.688
X12.6133 Y0.6937
X12.6103 Y0.6998
X12.6069 Y0.7063
X12.6037 Y0.712
X12.6006 Y0.7171
X12.5972 Y0.7225
X12.5934 Y0.7283
X12.5892 Y0.7343
X12.5845 Y0.7406
X12.5798 Y0.7465
X12.5752 Y0.752
X12.5703 Y0.7575
X12.5651 Y0.763
X12.5616 Y0.7666
X12.5599 Y0.7683
X12.5562 Y0.7718
X12.5504 Y0.777
X12.5446 Y0.7819
X12.5389 Y0.7866
X12.5331 Y0.791
X12.5273 Y0.7951
X12.5215 Y0.799
X12.5158 Y0.8027
X12.5096 Y0.8064
X12.5032 Y0.8101
X12.4974 Y0.8131
X12.4923 Y0.8157
X12.4869 Y0.8182
X12.4811 Y0.8208
X12.4754 Y0.8232
X12.4696 Y0.8254
X12.4638 Y0.8275
X12.4581 Y0.8294
X12.4523 Y0.8312
X12.4465 Y0.8328
X12.4424 Y0.8339
X12.4398 Y0.8346
X12.434 Y0.8359
X12.4251 Y0.8377
X12.4177 Y0.8389
X12.4126 Y0.8396
X12.4275 Y4.7341
X13.1731
X13.1702 Y4.0683
X13.1701 Y4.0655 Z0.1797
X13.1697 Y4.0627 Z0.1799
X13.1693 Y4.0599 Z0.1803
X13.1686 Y4.0573 Z0.1809
X13.1679 Y4.0547 Z0.1816
X13.167 Y4.0521 Z0.1824
X13.166 Y4.0497 Z0.1834
X13.1649 Y4.0474 Z0.1846
X13.1637 Y4.0452 Z0.1859
X13.1624 Y4.0432 Z0.1873
X13.1611 Y4.0413 Z0.1889
X13.1597 Y4.0395 Z0.1905
X13.1584 Y4.0378 Z0.1924
X13.157 Y4.0363 Z0.1943
X13.1557 Y4.0349 Z0.1963
X13.1543 Y4.0337 Z0.1985
X13.1531 Y4.0326 Z0.2007
X13.1519 Y4.0316 Z0.203
X13.1507 Y4.0307 Z0.2054
X13.1497 Y4.0299 Z0.2079
X13.1488 Y4.0293 Z0.2105
X13.1479 Y4.0287 Z0.2131
X13.1472 Y4.0283 Z0.2158
X13.1466 Y4.0279 Z0.2185
X13.1461 Y4.0276 Z0.2213
X13.1458 Y4.0274 Z0.224
X13.1456 Y4.0273 Z0.2268
X13.1455 Z0.2296
G0 Z0.8296
X10.9171 Y1.9356
Z0.5248
G1 Z0.403 F50.
Y1.9359 Z0.3976 F100.
Y1.9368 Z0.3923
X10.917 Y1.9382 Z0.3872
Y1.9401 Z0.3822
Y1.9426 Z0.3774
Y1.9456 Z0.373
Y1.949 Z0.3689
Y1.9529 Z0.3651
Y1.9571 Z0.3619
Y1.9617 Z0.3591
Y1.9665 Z0.3567
Y1.9716 Z0.355
Y1.9768 Z0.3537
Y1.9821 Z0.3531
X10.9137 Y4.347 Z0.1877
G2 X10.9397 Y4.3731 Z0.1849 I0.026 J0.
G1 X10.95 Z0.1841
G2 X10.976 Y4.347 Z0.1813 I0. J-0.026
G1 Y4.3253 Z0.1798
X10.9759 Y4.3218 Z0.1796
X10.9638 Y1.155 F140.
G2 X10.9359 Y1.1379 I-0.0193 J0.0001
G1 X10.9288 Y1.1414
G2 X10.9181 Y1.1586 I0.0086 J0.0173
G1 X10.9137 Y4.3415
Y4.347
G2 X10.9397 Y4.3731 I0.026 J0.
G1 X10.95
G2 X10.976 Y4.347 I0. J-0.026
G1 X10.9759 Y4.3218
G3 X11.0654 Y4.1865 I0.1462 J-0.0006
G2 X11.1549 Y4.0511 I-0.0568 J-0.1348
G1 X11.1427 Y0.8772
G2 X11.131 Y0.8408 I-0.0631 J0.0002
G3 X11.1017 Y0.7934 I0.3476 J-0.2472
G2 X11.0431 Y0.793 I-0.0294 J0.0155
G3 X10.81 Y0.9972 I-0.3917 J-0.212
G1 X10.8056 Y0.9987
X10.8012 Y1.0001
G2 X10.7382 Y1.0888 I0.031 J0.0887
G1 X10.7335 Y4.4892
G2 X10.7972 Y4.5531 I0.0638 J0.0001
G1 X11.093
G2 X11.1566 Y4.4893 I0. J-0.0636
G1 X11.1549 Y4.0511
G3 X11.2449 Y3.915 I0.1471 J-0.0006
G2 X11.3349 Y3.7789 I-0.0571 J-0.1355
G1 X11.3234 Y0.7845
X11.3215 Y0.7829
X11.3158 Y0.7779
X11.3101 Y0.7725
X11.3044 Y0.7668
X11.3012 Y0.7636
X11.3004 Y0.7627
X11.2975 Y0.7595
X11.2924 Y0.7537
X11.2877 Y0.748
X11.2832 Y0.7422
X11.2803 Y0.7384
X11.2791 Y0.7367
X11.2768 Y0.7334
X11.2735 Y0.7285
X11.2703 Y0.7236
X11.2673 Y0.7187
X11.2631 Y0.7113
X11.2579 Y0.7015
X11.255 Y0.6956
X11.2543 Y0.694
X11.2526 Y0.6903
X11.2502 Y0.6846
X11.2479 Y0.6788
X11.2457 Y0.673
X11.2437 Y0.6673
X11.2419 Y0.6615
X11.2402 Y0.6557
X11.2386 Y0.65
X11.2372 Y0.6442
X11.236 Y0.6384
X11.2348 Y0.6327
X11.2338 Y0.6269
X11.2331 Y0.6222
X11.2326 Y0.6185
X11.2319 Y0.6127
X11.2312 Y0.6049
X11.2307 Y0.596
X11.2305 Y0.5845
X11.2304 Y0.5821
X11.2235 Y-1.2388
Y-1.2427
X11.2238 Y-1.2543
X11.2241 Y-1.2606
X11.2245 Y-1.2659
X10.9162
X10.9166 Y-1.26
X10.9169 Y-1.254
X10.9172 Y-1.2424
Y-1.2391
X10.9146 Y0.5867
X10.9145 Y0.5921
X10.9142 Y0.5988
X10.9138 Y0.605
X10.9133 Y0.6107
X10.9126 Y0.6165
X10.9119 Y0.6222
X10.9109 Y0.628
X10.9099 Y0.6338
X10.9087 Y0.6395
X10.9074 Y0.6453
X10.9059 Y0.6511
X10.9043 Y0.6568
X10.9026 Y0.6626
X10.9007 Y0.6684
X10.8978 Y0.6763
X10.8937 Y0.6864
X10.8912 Y0.6921
X10.8906 Y0.6935
X10.8888 Y0.6972
X10.886 Y0.7029
X10.8829 Y0.7087
X10.8797 Y0.7145
X10.8757 Y0.7211
X10.8709 Y0.7285
X10.867 Y0.7342
X10.864 Y0.7383
X10.8605 Y0.743
X10.8565 Y0.7481
X10.8522 Y0.7532
X10.8477 Y0.7584
X10.8448 Y0.7615
X10.8436 Y0.7628
X10.8405 Y0.766
X10.8353 Y0.7712
X10.8301 Y0.776
X10.825 Y0.7806
X10.8213 Y0.7838
X10.8191 Y0.7856
X10.8157 Y0.7883
X10.811 Y0.7919
X10.8063 Y0.7954
X10.8016 Y0.7987
X10.7956 Y0.8027
X10.7882 Y0.8073
X10.7824 Y0.8107
X10.7783 Y0.8129
X10.7733 Y0.8155
X10.7676 Y0.8184
X10.7618 Y0.8211
X10.756 Y0.8236
X10.7505 Y0.8259
X10.7451 Y0.828
X10.7393 Y0.83
X10.7331 Y0.8321
X10.7272 Y0.8339
X10.7214 Y0.8355
X10.7157 Y0.8369
X10.7099 Y0.8383
X10.7041 Y0.8394
X10.6983 Y0.8405
X10.6926 Y0.8414
X10.6868 Y0.8422
X10.681 Y0.8428
X10.6753 Y0.8434
X10.6695 Y0.8438
X10.6637 Y0.844
X10.658 Y0.8442
X10.6465
X10.646
X10.5576 Y0.8441
X10.5521 Y4.7341
X11.3385
X11.3349 Y3.7789
X11.3347 Y3.7761 Z0.1797
X11.3344 Y3.7734 Z0.1799
X11.3339 Y3.7706 Z0.1803
X11.3333 Y3.7679 Z0.1809
X11.3325 Y3.7653 Z0.1816
X11.3316 Y3.7628 Z0.1824
X11.3306 Y3.7604 Z0.1834
X11.3295 Y3.7581 Z0.1846
X11.3283 Y3.7559 Z0.1859
X11.327 Y3.7538 Z0.1873
X11.3257 Y3.7519 Z0.1889
X11.3244 Y3.7501 Z0.1905
X11.323 Y3.7485 Z0.1924
X11.3216 Y3.747 Z0.1943
X11.3203 Y3.7456 Z0.1963
X11.319 Y3.7443 Z0.1985
X11.3177 Y3.7432 Z0.2007
X11.3165 Y3.7422 Z0.203
X11.3154 Y3.7414 Z0.2054
X11.3144 Y3.7406 Z0.2079
X11.3134 Y3.74 Z0.2105
X11.3126 Y3.7394 Z0.2131
X11.3119 Y3.7389 Z0.2158
X11.3113 Y3.7386 Z0.2185
X11.3108 Y3.7383 Z0.2213
X11.3105 Y3.7381 Z0.224
X11.3102 Y3.738 Z0.2268
Z0.2296
G0 Z0.8296
X9.5305 Y1.0912
Z0.5248
G1 Z0.403 F50.
Y1.0909 Z0.3976 F100.
Y1.0901 Z0.3923
Y1.0886 Z0.3872
Y1.0867 Z0.3822
Y1.0842 Z0.3774
Y1.0812 Z0.373
Y1.0778 Z0.3689
Y1.0739 Z0.3651
Y1.0697 Z0.3619
X9.5306 Y1.0651 Z0.3591
Y1.0603 Z0.3567
Y1.0552 Z0.355
Y1.05 Z0.3537
Y1.0447 Z0.3531
X9.5338 Y-1.2395 Z0.1934
Y-1.2422 Z0.1932
X9.5341 Y-1.2537 Z0.1924
X9.5343 Y-1.2593 Z0.192
X9.5347 Y-1.2659 Z0.1915
X9.3666 Z0.1798
X9.3631 Z0.1796
X9.2308 F140.
X9.2312 Y-1.2581
X9.2314 Y-1.2533
G3 X9.2316 Y-1.2403 I-1.022 J0.025
G1 X9.2765 Y4.7341
X9.5254
X9.5336 Y-1.1153
X9.5338 Y-1.2395
Y-1.2422
X9.5341 Y-1.2537
X9.5343 Y-1.2593
X9.5347 Y-1.2659
X9.3631
X9.3603 Y-1.2657 Z0.1797
X9.3575 Y-1.2654 Z0.1799
X9.3548 Y-1.265 Z0.1803
X9.3521 Y-1.2644 Z0.1809
X9.3495 Y-1.2636 Z0.1816
X9.347 Y-1.2627 Z0.1824
X9.3445 Y-1.2617 Z0.1834
X9.3422 Y-1.2606 Z0.1846
X9.34 Y-1.2594 Z0.1859
X9.338 Y-1.2582 Z0.1873
X9.336 Y-1.2569 Z0.1889
X9.3342 Y-1.2555 Z0.1905
X9.3326 Y-1.2542 Z0.1924
X9.3311 Y-1.2528 Z0.1943
X9.3297 Y-1.2515 Z0.1963
X9.3284 Y-1.2502 Z0.1985
X9.3273 Y-1.2489 Z0.2007
X9.3263 Y-1.2477 Z0.203
X9.3254 Y-1.2466 Z0.2054
X9.3247 Y-1.2455 Z0.2079
X9.324 Y-1.2446 Z0.2105
X9.3235 Y-1.2438 Z0.2131
X9.323 Y-1.2431 Z0.2158
X9.3226 Y-1.2425 Z0.2185
X9.3224 Y-1.242 Z0.2213
X9.3222 Y-1.2416 Z0.224
X9.322 Y-1.2414 Z0.2268
Z0.2296
G0 Z0.8296
X7.8178 Y3.6341
Z0.5248
G1 Z0.403 F50.
Y3.6338 Z0.3976 F100.
Y3.633 Z0.3923
Y3.6316 Z0.3872
Y3.6296 Z0.3822
Y3.6271 Z0.3774
Y3.6241 Z0.373
X7.8177 Y3.6207 Z0.3689
Y3.6168 Z0.3651
Y3.6126 Z0.3619
X7.8176 Y3.608 Z0.3591
Y3.6032 Z0.3567
Y3.5982 Z0.355
X7.8175 Y3.5929 Z0.3537
Y3.5876 Z0.3531
X7.7992 Y1.1482 Z0.1825
G2 X7.7893 Y1.1315 Z0.1811 I-0.0193 J0.0001
G1 X7.7807 Y1.1267 Z0.1804
X7.778 Y1.1254 Z0.1802
X7.7751 Y1.1245 Z0.18
X7.772 Y1.1241 Z0.1798
X7.7703 Z0.1797
X7.7686 Y1.1243 Z0.1796
G2 X7.7518 Y1.1435 I0.0025 J0.0191 F140.
G1 X7.7791 Y4.3325
G2 X7.8231 Y4.3321 I0.022 J-0.0002
G1 X7.7992 Y1.1482
G2 X7.7893 Y1.1315 I-0.0193 J0.0001
G1 X7.7807 Y1.1267
G2 X7.7686 Y1.1243 I-0.0096 J0.0167
X7.6469 Y1.1498 I0.1083 J0.8179
X7.5727 Y1.2495 I0.0287 J0.0988
G1 X7.6004 Y4.4902
G2 X7.6637 Y4.5529 I0.0633 J-0.0005
G1 X7.9423
G2 X8.0043 Y4.4904 I0. J-0.062
G1 X7.9788 Y1.0867
G2 X7.9168 Y0.9935 I-0.1023 J0.0008
G3 X7.8026 Y0.9231 I0.1789 J-0.4178
X7.7146 Y0.8219 I0.2815 J-0.3337
G2 X7.6525 Y0.8213 I-0.0313 J0.0197
G3 X7.6086 Y0.8781 I-0.3918 J-0.2567
G1 X7.605 Y0.8818
X7.6013 Y0.8855
G2 X7.5703 Y0.9633 I0.0796 J0.0769
G1 X7.5727 Y1.2495
G3 X7.4833 Y1.3862 I-0.1472 J0.0013
G2 X7.3939 Y1.5228 I0.0578 J0.1354
G1 X7.4213 Y4.7341
X8.1873
X8.1581 Y0.8464
X8.0979 Y0.8469
X8.0974
X8.0858
X8.0799 Y0.8468
X8.0741 Y0.8465
X8.0684 Y0.8462
X8.0626 Y0.8457
X8.0568 Y0.845
X8.0511 Y0.8443
X8.0453 Y0.8434
X8.0395 Y0.8423
X8.0338 Y0.8412
X8.028 Y0.8399
X8.0222 Y0.8384
X8.0165 Y0.8369
X8.009 Y0.8346
X7.9999 Y0.8315
X7.9942 Y0.8294
X7.9917 Y0.8284
X7.9876 Y0.8267
X7.9818 Y0.8242
X7.9761 Y0.8216
X7.9703 Y0.8187
X7.9628 Y0.8147
X7.9538 Y0.8095
X7.948 Y0.806
X7.9456 Y0.8044
X7.9415 Y0.8016
X7.9357 Y0.7976
X7.9299 Y0.7933
X7.9241 Y0.7887
X7.9205 Y0.7858
X7.9189 Y0.7844
X7.9156 Y0.7815
X7.9107 Y0.777
X7.9057 Y0.7722
X7.9007 Y0.7672
X7.8973 Y0.7636
X7.8955 Y0.7617
X7.8922 Y0.7579
X7.8873 Y0.7521
X7.8827 Y0.7463
X7.8783 Y0.7406
X7.8759 Y0.7373
X7.8754 Y0.7366
X7.8733 Y0.7335
X7.8697 Y0.7281
X7.8663 Y0.7227
X7.8631 Y0.7173
X7.8591 Y0.71
X7.8544 Y0.7008
X7.8516 Y0.695
X7.8505 Y0.6927
X7.8488 Y0.6887
X7.8464 Y0.6829
X7.8442 Y0.6772
X7.8422 Y0.6714
X7.8402 Y0.6656
X7.8385 Y0.6599
X7.8369 Y0.6541
X7.8354 Y0.6483
X7.8341 Y0.6426
X7.8329 Y0.6368
X7.8318 Y0.6311
X7.8309 Y0.6253
X7.8301 Y0.6192
X7.8293 Y0.6128
X7.8288 Y0.607
X7.8285 Y0.6019
X7.8282 Y0.5953
X7.828 Y0.5838
Y0.5832
Y0.5826
X7.8144 Y-1.2268
Y-1.2273
Y-1.2388
Y-1.2432
X7.8148 Y-1.2548
X7.8151 Y-1.2613
X7.8155 Y-1.2659
X7.5269
X7.5273 Y-1.2579
X7.5275 Y-1.2532
X7.5277 Y-1.2417
Y-1.241
Y-1.2404
X7.5432 Y0.569
Y0.5694
X7.5433 Y0.5809
X7.5432 Y0.5864
X7.543 Y0.5921
X7.5426 Y0.5979
X7.5422 Y0.6037
X7.5416 Y0.6094
X7.5408 Y0.6152
X7.54 Y0.621
X7.539 Y0.6267
X7.5379 Y0.6325
X7.5366 Y0.6382
X7.5352 Y0.644
X7.5337 Y0.6498
X7.5313 Y0.6575
X7.5281 Y0.6672
X7.526 Y0.6729
X7.5253 Y0.6748
X7.5237 Y0.6786
X7.5213 Y0.6844
X7.5187 Y0.6901
X7.5159 Y0.6959
X7.5118 Y0.7037
X7.5062 Y0.7134
X7.5027 Y0.7191
X7.5016 Y0.7209
X7.4991 Y0.7247
X7.4951 Y0.7305
X7.4909 Y0.7362
X7.4864 Y0.742
X7.4832 Y0.746
X7.4812 Y0.7483
X7.4782 Y0.7518
X7.474 Y0.7564
X7.4696 Y0.761
X7.465 Y0.7656
X7.4613 Y0.7692
X7.4586 Y0.7718
X7.4544 Y0.7754
X7.4489 Y0.7802
X7.4431 Y0.7848
X7.4371 Y0.7893
X7.4312 Y0.7935
X7.4255 Y0.7974
X7.4197 Y0.801
X7.4139 Y0.8045
X7.4073 Y0.8082
X7.3999 Y0.8121
X7.3941 Y0.8149
X7.39 Y0.8168
X7.3878 Y0.8178
X7.3939 Y1.5228
X7.394 Y1.5256 Z0.1797
X7.3944 Y1.5284 Z0.1799
X7.3949 Y1.5311 Z0.1803
X7.3955 Y1.5338 Z0.1809
X7.3963 Y1.5364 Z0.1816
X7.3972 Y1.5389 Z0.1824
X7.3982 Y1.5413 Z0.1834
X7.3993 Y1.5436 Z0.1846
X7.4005 Y1.5458 Z0.1859
X7.4018 Y1.5479 Z0.1873
X7.4031 Y1.5498 Z0.1889
X7.4045 Y1.5516 Z0.1905
X7.4058 Y1.5532 Z0.1924
X7.4072 Y1.5547 Z0.1943
X7.4086 Y1.5561 Z0.1963
X7.4099 Y1.5573 Z0.1985
X7.4112 Y1.5584 Z0.2007
X7.4124 Y1.5594 Z0.203
X7.4135 Y1.5603 Z0.2054
X7.4145 Y1.5611 Z0.2079
X7.4155 Y1.5617 Z0.2105
X7.4163 Y1.5622 Z0.2131
X7.417 Y1.5627 Z0.2158
X7.4176 Y1.5631 Z0.2185
X7.4181 Y1.5633 Z0.2213
X7.4185 Y1.5635 Z0.224
X7.4187 Y1.5636 Z0.2268
Y1.5637 Z0.2296
G0 Z0.8296
X5.9929 Y2.2127
Z0.5248
G1 Z0.403 F50.
Y2.213 Z0.3976 F100.
Y2.2138 Z0.3923
Y2.2153 Z0.3872
Y2.2172 Z0.3822
Y2.2197 Z0.3774
Y2.2227 Z0.373
Y2.2261 Z0.3689
Y2.23 Z0.3651
Y2.2342 Z0.3619
Y2.2388 Z0.3591
X5.993 Y2.2436 Z0.3567
Y2.2487 Z0.355
Y2.2539 Z0.3537
Y2.2592 Z0.3531
X5.998 Y4.4892 Z0.1972
G2 X6.0621 Y4.5531 Z0.1901 I0.064 J-0.0001
G1 X6.0831 Z0.1887
G2 X6.1463 Y4.4893 Z0.1817 I0. J-0.0632
G1 X6.1461 Y4.4619 Z0.1798
X6.146 Y4.4584 Z0.1796
X6.116 Y0.9513 F140.
G2 X6.1004 Y0.9167 I-0.0471 J0.0004
G3 X6.0366 Y0.8461 I0.3071 J-0.3418
G2 X5.9898 Y0.8615 I-0.0209 J0.0153
G1 X5.998 Y4.479
Y4.4892
G2 X6.0621 Y4.5531 I0.064 J-0.0001
G1 X6.0831
G2 X6.1463 Y4.4893 I0. J-0.0632
G1 X6.146 Y4.4584
G3 X6.2354 Y4.3218 I0.1471 J-0.0013
G2 X6.3247 Y4.1853 I-0.0577 J-0.1353
G1 X6.296 Y0.8283
X6.2948 Y0.8278
X6.2906 Y0.826
X6.2848 Y0.8234
X6.279 Y0.8207
X6.2733 Y0.8177
X6.2662 Y0.8139
X6.2578 Y0.8089
X6.252 Y0.8054
X6.2489 Y0.8033
X6.2444 Y0.8002
X6.2387 Y0.796
X6.2329 Y0.7916
X6.2271 Y0.7869
X6.2239 Y0.7842
X6.2232 Y0.7836
X6.2201 Y0.7809
X6.2147 Y0.7759
X6.2093 Y0.7706
X6.2039 Y0.765
X6.2008 Y0.7616
X6.2 Y0.7607
X6.1971 Y0.7574
X6.1923 Y0.7517
X6.1877 Y0.7459
X6.1834 Y0.7401
X6.1805 Y0.7361
X6.1789 Y0.7338
X6.1752 Y0.7281
X6.1695 Y0.7189
X6.1652 Y0.7113
X6.1622 Y0.7056
X6.1592 Y0.6996
X6.1564 Y0.6936
X6.1539 Y0.6877
X6.1516 Y0.6821
X6.1495 Y0.6765
X6.1475 Y0.6709
X6.1457 Y0.6652
X6.1439 Y0.6595
X6.1423 Y0.6537
X6.1409 Y0.6479
X6.1396 Y0.6422
X6.1384 Y0.6364
X6.1373 Y0.6306
X6.1364 Y0.6249
X6.1357 Y0.6191
X6.135 Y0.6133
X6.1345 Y0.6076
X6.1341 Y0.6018
X6.1338 Y0.5952
X6.1337 Y0.5837
Y0.5832
Y0.5827
X6.1182 Y-1.2267
Y-1.227
Y-1.2274
X6.1181 Y-1.2389
X6.1182 Y-1.2434
X6.1186 Y-1.2549
X6.1189 Y-1.2614
X6.1193 Y-1.2659
X5.8081
X5.8086 Y-1.259
X5.8088 Y-1.2536
X5.8091 Y-1.2421
Y-1.2396
X5.8132 Y0.5813
X5.8131 Y0.5864
X5.8127 Y0.5979
X5.8121 Y0.6065
X5.8115 Y0.6123
X5.8108 Y0.6181
X5.8099 Y0.6238
X5.8089 Y0.6296
X5.8083 Y0.6328
X5.8176 Y4.7341
X6.3294
X6.3247 Y4.1853
X6.3245 Y4.1825 Z0.1797
X6.3242 Y4.1798 Z0.1799
X6.3237 Y4.177 Z0.1803
X6.3231 Y4.1743 Z0.1809
X6.3223 Y4.1717 Z0.1816
X6.3214 Y4.1692 Z0.1824
X6.3204 Y4.1668 Z0.1834
X6.3192 Y4.1645 Z0.1846
X6.318 Y4.1623 Z0.1859
X6.3168 Y4.1603 Z0.1873
X6.3154 Y4.1584 Z0.1889
X6.3141 Y4.1566 Z0.1905
X6.3127 Y4.1549 Z0.1924
X6.3113 Y4.1534 Z0.1943
X6.31 Y4.1521 Z0.1963
X6.3087 Y4.1508 Z0.1985
X6.3074 Y4.1497 Z0.2007
X6.3062 Y4.1487 Z0.203
X6.3051 Y4.1479 Z0.2054
X6.304 Y4.1471 Z0.2079
X6.3031 Y4.1465 Z0.2105
X6.3022 Y4.1459 Z0.2131
X6.3015 Y4.1455 Z0.2158
X6.3009 Y4.1451 Z0.2185
X6.3004 Y4.1448 Z0.2213
X6.3001 Y4.1446 Z0.224
X6.2999 Y4.1445 Z0.2268
X6.2998 Z0.2296
G0 Z0.8296
X4.4245 Y1.0969
Z0.5248
G1 Z0.403 F50.
Y1.0966 Z0.3976 F100.
Y1.0958 Z0.3923
Y1.0943 Z0.3872
Y1.0924 Z0.3822
Y1.0899 Z0.3774
Y1.0869 Z0.373
Y1.0835 Z0.3689
Y1.0796 Z0.3651
Y1.0754 Z0.3619
Y1.0708 Z0.3591
Y1.066 Z0.3567
Y1.0609 Z0.355
Y1.0557 Z0.3537
X4.4244 Y1.0504 Z0.3531
X4.4192 Y-1.239 Z0.193
X4.4193 Y-1.2425 Z0.1928
X4.4196 Y-1.254 Z0.1919
X4.4199 Y-1.2602 Z0.1915
X4.4203 Y-1.2659 Z0.1911
X4.2578 Z0.1798
X4.2543 Z0.1796
X4.1279 F140.
X4.1284 Y-1.259
X4.1286 Y-1.2536
X4.1288 Y-1.2421
X4.1289 Y-1.2396
X4.1424 Y4.7341
X4.4328
X4.4192 Y-1.239
X4.4193 Y-1.2425
X4.4196 Y-1.254
X4.4199 Y-1.2602
X4.4203 Y-1.2659
X4.2543
X4.2515 Y-1.2657 Z0.1797
X4.2488 Y-1.2654 Z0.1799
X4.246 Y-1.265 Z0.1803
X4.2433 Y-1.2644 Z0.1809
X4.2407 Y-1.2636 Z0.1816
X4.2382 Y-1.2627 Z0.1824
X4.2358 Y-1.2617 Z0.1834
X4.2335 Y-1.2606 Z0.1846
X4.2313 Y-1.2594 Z0.1859
X4.2292 Y-1.2582 Z0.1873
X4.2273 Y-1.2569 Z0.1889
X4.2255 Y-1.2555 Z0.1905
X4.2238 Y-1.2542 Z0.1924
X4.2223 Y-1.2528 Z0.1943
X4.2209 Y-1.2515 Z0.1963
X4.2197 Y-1.2502 Z0.1985
X4.2186 Y-1.2489 Z0.2007
X4.2176 Y-1.2477 Z0.203
X4.2167 Y-1.2466 Z0.2054
X4.2159 Y-1.2455 Z0.2079
X4.2153 Y-1.2446 Z0.2105
X4.2147 Y-1.2438 Z0.2131
X4.2143 Y-1.2431 Z0.2158
X4.2139 Y-1.2425 Z0.2185
X4.2136 Y-1.242 Z0.2213
X4.2134 Y-1.2416 Z0.224
X4.2133 Y-1.2414 Z0.2268
Z0.2296
G0 Z0.8296
X2.5071 Y1.4159
Z0.5248
G1 Z0.403 F50.
Y1.4162 Z0.3976 F100.
Y1.417 Z0.3923
Y1.4184 Z0.3872
Y1.4204 Z0.3822
Y1.4229 Z0.3774
Y1.4259 Z0.373
Y1.4293 Z0.3689
X2.5072 Y1.4332 Z0.3651
Y1.4374 Z0.3619
Y1.442 Z0.3591
X2.5073 Y1.4468 Z0.3567
Y1.4519 Z0.355
Y1.4571 Z0.3537
X2.5074 Y1.4624 Z0.3531
X2.5138 Y2.376 Z0.2892
G2 X2.5491 Y2.3758 Z0.2853 I0.0177 J-0.0001
G1 X2.5457 Y0.8764 Z0.1805
G2 X2.543 Y0.8667 Z0.1798 I-0.0189 J0.
G1 X2.542 Y0.8652 Z0.1797
X2.5409 Y0.8639 Z0.1796
G2 X2.5124 Y0.8642 I-0.0141 J0.0126 F140.
G1 X2.5079 Y0.8696
G2 X2.5033 Y0.882 I0.0143 J0.0123
G1 X2.5138 Y2.376
G2 X2.5491 Y2.3758 I0.0177 J-0.0001
G1 X2.5457 Y0.8764
G2 X2.5409 Y0.8639 I-0.0189 J0.
G3 X2.5811 Y0.5781 I0.1409 J-0.1259
G2 X2.7203 Y0.3253 I-0.1588 J-0.2521
G1 X2.7168 Y-1.239
Y-1.2426
X2.7171 Y-1.2541
X2.7174 Y-1.2602
X2.7178 Y-1.2659
X2.4211
X2.4215 Y-1.2582
X2.4217 Y-1.2533
G3 X2.422 Y-1.2402 I-0.952 J0.024
G1 X2.4347 Y0.5807
X2.4346 Y0.5856
X2.4344 Y0.5914
X2.4341 Y0.5972
X2.4337 Y0.6029
X2.4331 Y0.6087
X2.4324 Y0.6145
X2.4316 Y0.6202
X2.4306 Y0.626
X2.4295 Y0.6318
X2.4283 Y0.6375
X2.4269 Y0.6433
X2.4254 Y0.649
X2.4238 Y0.6548
X2.422 Y0.6606
X2.4201 Y0.6663
X2.418 Y0.6721
X2.4164 Y0.6763
X2.4153 Y0.6789
X2.4128 Y0.6847
X2.4087 Y0.6936
X2.4051 Y0.7009
X2.402 Y0.7067
X2.3987 Y0.7124
X2.3952 Y0.7182
X2.393 Y0.7217
X2.3921 Y0.723
X2.39 Y0.7262
X2.3864 Y0.7313
X2.3827 Y0.7364
X2.3787 Y0.7416
X2.3747 Y0.7465
X2.3707 Y0.7512
X2.3655 Y0.757
X2.3589 Y0.7638
X2.3531 Y0.7695
X2.3481 Y0.7741
X2.3413 Y0.7799
X2.3327 Y0.7868
X2.3269 Y0.7913
X2.324 Y0.7933
X2.3215 Y0.795
X2.349 Y4.7341
X2.7357
X2.7264 Y0.6376
X2.7255 Y0.6334
X2.7245 Y0.6276
X2.7236 Y0.6218
X2.7228 Y0.6161
X2.7222 Y0.6103
X2.7217 Y0.6046
X2.7212 Y0.5964
X2.7209 Y0.5849
Y0.5819
X2.7203 Y0.3253
X2.7201 Y0.3225 Z0.1797
X2.7198 Y0.3197 Z0.1799
X2.7194 Y0.317 Z0.1803
X2.7187 Y0.3143 Z0.1809
X2.718 Y0.3117 Z0.1816
X2.7171 Y0.3092 Z0.1824
X2.7161 Y0.3067 Z0.1834
X2.715 Y0.3044 Z0.1846
X2.7138 Y0.3022 Z0.1859
X2.7125 Y0.3002 Z0.1873
X2.7112 Y0.2983 Z0.1889
X2.7099 Y0.2965 Z0.1905
X2.7085 Y0.2948 Z0.1924
X2.7071 Y0.2933 Z0.1943
X2.7058 Y0.2919 Z0.1963
X2.7045 Y0.2907 Z0.1985
X2.7032 Y0.2896 Z0.2007
X2.702 Y0.2886 Z0.203
X2.7009 Y0.2877 Z0.2054
X2.6999 Y0.2869 Z0.2079
X2.6989 Y0.2863 Z0.2105
X2.6981 Y0.2857 Z0.2131
X2.6974 Y0.2853 Z0.2158
X2.6968 Y0.2849 Z0.2185
X2.6963 Y0.2846 Z0.2213
X2.696 Y0.2844 Z0.224
X2.6958 Y0.2843 Z0.2268
X2.6957 Z0.2296
G0 Z0.8296
X0.3273 Y4.3731
Z0.2296
G1 X0.3276 Z0.224 F140.
X0.3285 Z0.2185
X0.3301 Z0.2131
X0.3322 Z0.2079
X0.335 Z0.203
X0.3382 Z0.1985
X0.3419 Z0.1943
X0.3461 Z0.1905
X0.3507 Z0.1873
X0.3556 Z0.1846
X0.3608 Z0.1824
X0.3662 Z0.1809
X0.3717 Z0.1799
X0.3773 Z0.1796
X0.5258
X0.6291
G2 X0.6924 Y4.3093 I0. J-0.0633
G1 X0.6565 Y-0.8409
G2 X0.5921 Y-0.9049 I-0.0644 J0.0004
G1 X0.5259
X0.3292
X0.3237 Z0.1799
X0.3181 Z0.1809
X0.3127 Z0.1824
X0.3076 Z0.1846
X0.3026 Z0.1873
X0.2981 Z0.1905
X0.2939 Z0.1943
X0.2902 Z0.1985
X0.2869 Z0.203
X0.2842 Z0.2079
X0.2821 Z0.2131
X0.2805 Z0.2185
X0.2796 Z0.224
X0.2792 Z0.2296
G0 Z0.8296
X0.3273 Y4.5531
Z0.2296
G1 X0.3276 Z0.224 F140.
X0.3285 Z0.2185
X0.3301 Z0.2131
X0.3322 Z0.2079
X0.335 Z0.203
X0.3382 Z0.1985
X0.3419 Z0.1943
X0.3461 Z0.1905
X0.3507 Z0.1873
X0.3556 Z0.1846
X0.3608 Z0.1824
X0.3662 Z0.1809
X0.3717 Z0.1799
X0.3773 Z0.1796
X0.5259
X0.8104
G2 X0.8737 Y4.4893 I0. J-0.0633
G1 X0.8352 Y-1.0209
G2 X0.7708 Y-1.0849 I-0.0644 J0.0004
G1 X0.5259
X0.3292
X0.3236 Z0.1799
X0.3181 Z0.1809
X0.3127 Z0.1824
X0.3076 Z0.1846
X0.3026 Z0.1873
X0.2981 Z0.1905
X0.2939 Z0.1943
X0.2902 Z0.1985
X0.2869 Z0.203
X0.2842 Z0.2079
X0.2821 Z0.2131
X0.2805 Z0.2185
X0.2796 Z0.224
X0.2792 Z0.2296
G0 Z0.8296
X0.3273 Y4.7033
Z0.2246
G1 X0.3276 Z0.2196 F140.
X0.3284 Y4.7034 Z0.2146
X0.3298 Y4.7037 Z0.2098
X0.3317 Y4.704 Z0.2051
X0.3341 Y4.7043 Z0.2007
X0.337 Y4.7048 Z0.1966
X0.3403 Y4.7053 Z0.1928
X0.344 Y4.7059 Z0.1895
X0.3481 Y4.7066 Z0.1865
X0.3525 Y4.7073 Z0.1841
X0.3571 Y4.708 Z0.1822
X0.3619 Y4.7087 Z0.1808
X0.3668 Y4.7095 Z0.1799
X0.3717 Y4.7103 Z0.1796
X0.518 Y4.7335
X0.5219 Y4.7339
X0.5259 Y4.7341
X1.0564
X1.0148 Y-1.2269
Y-1.2273
X1.0147 Y-1.2388
X1.0148 Y-1.2432
X1.0151 Y-1.2547
X1.0155 Y-1.2612
X1.0159 Y-1.2659
X0.5259
X0.5219 Y-1.2657
X0.518 Y-1.2653
X0.3238 Y-1.2345
X0.3183 Y-1.2337 Z0.1799
X0.3129 Y-1.2328 Z0.1809
X0.3075 Y-1.2319 Z0.1824
X0.3024 Y-1.2311 Z0.1846
X0.2976 Y-1.2304 Z0.1873
X0.2931 Y-1.2297 Z0.1905
X0.2889 Y-1.229 Z0.1943
X0.2852 Y-1.2284 Z0.1985
X0.282 Y-1.2279 Z0.203
X0.2794 Y-1.2275 Z0.2079
X0.2772 Y-1.2271 Z0.2131
X0.2757 Y-1.2269 Z0.2185
X0.2748 Y-1.2268 Z0.224
X0.2745 Y-1.2267 Z0.2296
G0 Z1.2296
M5
G53 G0 Z0.

(FINISH TOP PASS)
M1
T19 M6
S16000 M3
G17 G90 G94
G55
M8
G0 X0.463 Y4.8911
G43 Z1.2296 H19
G0 Z0.2009
G1 X0.4633 Z0.1976 F80.
X0.4641 Y4.8913 Z0.1943
X0.4653 Y4.8915 Z0.1912
X0.467 Y4.8917 Z0.1884
X0.4692 Y4.8921 Z0.1859
X0.4717 Y4.8925 Z0.1837
X0.4745 Y4.8929 Z0.182
X0.4775 Y4.8934 Z0.1807
X0.4807 Y4.8939 Z0.1799
X0.484 Y4.8944 Z0.1796
X0.6695 Y4.9238
X0.6732 Y4.9241
X1.1996
X1.1566 Y-1.2365
Y-1.2381
X1.1568 Y-1.2459
X1.1569 Y-1.2484
X1.1574 Y-1.2562
X1.1576 Y-1.2582
X1.1578 Y-1.2607
X1.158 Y-1.2622
X1.1586 Y-1.2675
X1.1589 Y-1.2692
X1.1601 Y-1.277
X1.1606 Y-1.2799
X1.1622 Y-1.2877
X1.1629 Y-1.2906
X1.1649 Y-1.2984
X1.1656 Y-1.3009
X1.168 Y-1.3087
X1.1689 Y-1.3113
X1.1717 Y-1.319
X1.1727 Y-1.3217
X1.1759 Y-1.3294
X1.1772 Y-1.3323
X1.1809 Y-1.3401
X1.1824 Y-1.3429
X1.1866 Y-1.3507
X1.1874 Y-1.352
X1.1888 Y-1.3545
X1.19 Y-1.3565
X1.1934 Y-1.3617
X1.1946 Y-1.3636
X1.199 Y-1.37
X1.1999 Y-1.3712
X1.2008 Y-1.3725
X1.2021 Y-1.3743
X1.2082 Y-1.382
X1.2091 Y-1.3831
X1.2098 Y-1.384
X1.2113 Y-1.3858
G3 X1.2199 Y-1.3953 I0.2712 J0.2353
G1 X1.2219 Y-1.3974
G3 X1.2303 Y-1.4055 I0.3259 J0.3272
G1 X1.2326 Y-1.4076
X1.2403 Y-1.4142
X1.2431 Y-1.4165
X1.2509 Y-1.4223
X1.2524 Y-1.4235
X1.2545 Y-1.4249
X1.2561 Y-1.426
X1.2618 Y-1.4298
X1.2641 Y-1.4312
X1.2719 Y-1.4359
X1.2746 Y-1.4374
X1.2823 Y-1.4414
X1.2846 Y-1.4426
X1.2911 Y-1.4456
X1.2939 Y-1.4469
X1.303 Y-1.4506
X1.3059 Y-1.4517
X1.3137 Y-1.4544
X1.3167 Y-1.4554
X1.3244 Y-1.4576
X1.3271 Y-1.4583
X1.3349 Y-1.4602
X1.3374 Y-1.4608
X1.3452 Y-1.4623
X1.3477 Y-1.4627
X1.3555 Y-1.4639
X1.3585 Y-1.4642
X1.3662 Y-1.465
X1.3692 Y-1.4652
X1.377 Y-1.4656
X1.3787 Y-1.4657
X1.3865 Y-1.4658
X1.3868
X1.3871
X2.0478 Y-1.4704
X2.0481
X2.0485
X2.0488
X2.0566 Y-1.4703
X2.0586
X2.0664 Y-1.4699
X2.069 Y-1.4698
X2.0768 Y-1.4691
X2.0799 Y-1.4687
X2.0877 Y-1.4676
X2.0904 Y-1.4671
X2.0982 Y-1.4656
X2.1007 Y-1.4651
X2.1085 Y-1.4633
X2.111 Y-1.4626
X2.1188 Y-1.4604
X2.1216 Y-1.4595
X2.1294 Y-1.4569
X2.1318 Y-1.456
X2.1343 Y-1.455
X2.1345 Y-1.4549
X2.1348 Y-1.4548
X2.1351 Y-1.4547
X2.1404 Y-1.4526
X2.1428 Y-1.4515
X2.1506 Y-1.4479
X2.152 Y-1.4473
X2.1562 Y-1.4452
X2.1587 Y-1.4439
X2.1623 Y-1.4419
X2.1636 Y-1.4411
X2.1714 Y-1.4366
X2.1732 Y-1.4355
X2.1751 Y-1.4343
X2.1763 Y-1.4335
X2.1821 Y-1.4296
X2.184 Y-1.4283
X2.1892 Y-1.4245
X2.1911 Y-1.423
X2.1936 Y-1.4211
X2.1949 Y-1.42
X2.2018 Y-1.4143
X2.2046 Y-1.4118
X2.2128 Y-1.404
X2.2155 Y-1.4013
X2.2227 Y-1.3935
X2.2244 Y-1.3915
G3 X2.2315 Y-1.383 I-0.28 J0.2374
G1 X2.233 Y-1.381
G3 X2.2394 Y-1.3723 I-0.2433 J0.1842
G1 X2.2408 Y-1.3702
X2.2453 Y-1.3632
X2.2464 Y-1.3616
X2.2469 Y-1.3607
X2.2477 Y-1.3594
X2.2521 Y-1.3517
X2.2536 Y-1.3488
X2.2575 Y-1.3411
X2.2588 Y-1.3383
X2.2622 Y-1.3306
X2.2633 Y-1.328
X2.2663 Y-1.3202
X2.2672 Y-1.3176
X2.2698 Y-1.3099
X2.2706 Y-1.3072
X2.2728 Y-1.2995
X2.2735 Y-1.2964
X2.2753 Y-1.2887
X2.2758 Y-1.2857
X2.2774 Y-1.2765
X2.2778 Y-1.2741
X2.2786 Y-1.2678
X2.2789 Y-1.2651
X2.2795 Y-1.2574
X2.2797 Y-1.2546
X2.28 Y-1.2469
Y-1.2451
X2.2928 Y0.5798
X2.2927 Y0.5818
X2.2926 Y0.5857
X2.2924 Y0.5896
X2.292 Y0.5935
X2.2915 Y0.5974
X2.2909 Y0.6013
X2.2901 Y0.6051
X2.2893 Y0.609
X2.2882 Y0.6129
X2.287 Y0.6168
X2.2857 Y0.6207
X2.2842 Y0.6246
X2.2824 Y0.6287
X2.2804 Y0.6331
X2.2784 Y0.6369
X2.2765 Y0.6403
X2.2742 Y0.644
X2.2716 Y0.6479
X2.2687 Y0.6519
X2.2654 Y0.656
X2.2628 Y0.659
X2.261 Y0.6611
X2.2591 Y0.6631
X2.257 Y0.6651
X2.254 Y0.6679
X2.25 Y0.6714
X2.2461 Y0.6745
X2.2423 Y0.6773
X2.2384 Y0.6799
X2.2346 Y0.6822
X2.2314 Y0.6841
X2.2287 Y0.6855
X2.2261 Y0.6868
X2.2235 Y0.688
X2.2209 Y0.6891
X2.2184 Y0.6902
X2.2152 Y0.6914
X2.2113 Y0.6927
X2.2074 Y0.6939
X2.2035 Y0.695
X2.1996 Y0.6959
X2.1958 Y0.6967
X2.1919 Y0.6973
X2.188 Y0.6978
X2.1841 Y0.6982
X2.1802 Y0.6984
X2.1798 Y0.6985
X2.1794
X2.179
X2.2085 Y4.9238
X2.878 Y4.9241
X2.8682 Y0.6199
X2.8672 Y0.6165
X2.8662 Y0.6126
X2.8653 Y0.6088
X2.8645 Y0.6049
X2.8639 Y0.601
X2.8635 Y0.5971
X2.8631 Y0.5932
X2.8629 Y0.5887
X2.8628 Y0.581
Y0.5806
Y0.5803
X2.8586 Y-1.2368
Y-1.2371
Y-1.2375
X2.8587 Y-1.2379
X2.8588 Y-1.2456
Y-1.2477
X2.8592 Y-1.2555
X2.8594 Y-1.258
X2.8599 Y-1.2634
X2.8601 Y-1.2647
X2.8604 Y-1.2671
X2.8606 Y-1.2689
X2.8618 Y-1.2767
X2.8623 Y-1.2796
X2.8638 Y-1.2874
X2.8644 Y-1.2899
X2.8663 Y-1.2977
X2.867 Y-1.3002
X2.8693 Y-1.3079
X2.8701 Y-1.3106
X2.8728 Y-1.3184
X2.874 Y-1.3214
X2.8771 Y-1.3291
X2.8782 Y-1.3317
X2.8807 Y-1.337
X2.8809 Y-1.3373
X2.881 Y-1.3376
X2.8811 Y-1.3379
X2.8823 Y-1.3403
X2.8833 Y-1.3423
X2.8875 Y-1.3501
X2.8883 Y-1.3516
X2.8908 Y-1.3559
X2.8922 Y-1.3584
X2.8944 Y-1.3618
X2.8954 Y-1.3633
X2.901 Y-1.3715
X2.9029 Y-1.3742
X2.9085 Y-1.3815
X2.91 Y-1.3833
X2.9122 Y-1.386
X2.9132 Y-1.3872
X2.9177 Y-1.3924
X2.919 Y-1.3938
X2.9223 Y-1.3972
X2.9238 Y-1.3989
X2.9282 Y-1.4032
X2.9291 Y-1.4041
X2.9326 Y-1.4073
X2.9346 Y-1.4091
G3 X2.943 Y-1.4163 I0.2727 J0.3109
G1 X2.9453 Y-1.4182
X2.9531 Y-1.424
X2.9558 Y-1.426
X2.9636 Y-1.4312
X2.9653 Y-1.4323
X2.9691 Y-1.4346
X2.9711 Y-1.4358
X2.9751 Y-1.4381
X2.9768 Y-1.439
X2.9845 Y-1.4431
X2.986 Y-1.4439
X2.9889 Y-1.4453
X2.9907 Y-1.4461
X2.9956 Y-1.4483
X2.9975 Y-1.4491
X3.0053 Y-1.4523
X3.0082 Y-1.4534
X3.016 Y-1.4561
X3.0189 Y-1.457
X3.0267 Y-1.4593
X3.0293 Y-1.4599
X3.0371 Y-1.4618
X3.0396 Y-1.4624
X3.0473 Y-1.4639
X3.0499 Y-1.4643
X3.0577 Y-1.4655
X3.0608 Y-1.4659
X3.0686 Y-1.4666
X3.0714 Y-1.4668
X3.0791 Y-1.4672
X3.081
X3.0888 Y-1.4673
X3.0892 Y-1.4674
X3.0896
X3.758 Y-1.4689
X3.7595
X3.7673 Y-1.4687
X3.7699 Y-1.4686
X3.7777 Y-1.468
X3.7801 Y-1.4678
X3.7879 Y-1.467
X3.7905 Y-1.4666
X3.7983 Y-1.4654
X3.8014 Y-1.4649
X3.8091 Y-1.4632
X3.8119 Y-1.4626
X3.8197 Y-1.4606
X3.8222 Y-1.4598
X3.83 Y-1.4574
X3.8317 Y-1.4569
X3.8347 Y-1.4559
X3.836 Y-1.4554
X3.8408 Y-1.4536
X3.843 Y-1.4527
X3.8508 Y-1.4495
X3.8537 Y-1.4482
X3.8615 Y-1.4445
X3.8643 Y-1.443
X3.8721 Y-1.4388
X3.8739 Y-1.4377
X3.8782 Y-1.4352
X3.8798 Y-1.4341
X3.8834 Y-1.4318
X3.8852 Y-1.4306
X3.8931 Y-1.4252
X3.8958 Y-1.4232
X3.9034 Y-1.4171
X3.9047 Y-1.4161
X3.9068 Y-1.4144
X3.9087 Y-1.4127
G3 X3.918 Y-1.4042 I-0.2399 J0.2705
G1 X3.9201 Y-1.4021
G3 X3.9281 Y-1.3938 I-0.3329 J0.325
G1 X3.93 Y-1.3915
G3 X3.9371 Y-1.3831 I-0.3433 J0.2957
G1 X3.9388 Y-1.3809
X3.9446 Y-1.3731
X3.9457 Y-1.3717
X3.9465 Y-1.3705
X3.9475 Y-1.369
X3.9518 Y-1.3624
X3.9533 Y-1.3601
G3 X3.9583 Y-1.3515 I-0.2928 J0.1764
G1 X3.9594 Y-1.3494
X3.9634 Y-1.3417
X3.9644 Y-1.3396
X3.9671 Y-1.3338
X3.9681 Y-1.3315
G3 X3.9724 Y-1.3209 I-0.3713 J0.1558
G1 X3.9734 Y-1.3182
X3.9761 Y-1.3105
X3.977 Y-1.3074
X3.9792 Y-1.2997
X3.9799 Y-1.2969
X3.9817 Y-1.2891
X3.9823 Y-1.2866
X3.9837 Y-1.2789
X3.9841 Y-1.2764
X3.9853 Y-1.2686
X3.9856 Y-1.2657
X3.9863 Y-1.2579
X3.9865 Y-1.255
X3.9869 Y-1.2472
Y-1.2454
X3.987 Y-1.2376
Y-1.2373
Y-1.2371
X4.001 Y4.9241
X4.5751
X4.5611 Y-1.2368
Y-1.2371
Y-1.2375
X4.5612 Y-1.2378
X4.5613 Y-1.2456
Y-1.2477
X4.5617 Y-1.2555
X4.5619 Y-1.2572
X4.562 Y-1.2596
X4.5622 Y-1.2612
X4.5628 Y-1.2666
X4.5631 Y-1.2689
X4.5643 Y-1.2767
X4.5648 Y-1.2796
X4.5663 Y-1.2874
X4.5669 Y-1.2899
X4.5688 Y-1.2977
X4.5695 Y-1.3002
X4.5718 Y-1.3079
X4.5726 Y-1.3106
X4.5753 Y-1.3184
X4.5764 Y-1.3214
X4.5796 Y-1.3291
X4.5807 Y-1.3315
X4.5828 Y-1.3362
X4.583 Y-1.3366
X4.5831 Y-1.3369
X4.5833 Y-1.3372
X4.5848 Y-1.3403
X4.5858 Y-1.3423
X4.5899 Y-1.3501
X4.5907 Y-1.3515
X4.5929 Y-1.3553
X4.5943 Y-1.3577
X4.5968 Y-1.3617
X4.5978 Y-1.3632
X4.6031 Y-1.371
X4.605 Y-1.3737
X4.6109 Y-1.3814
X4.6124 Y-1.3833
X4.6143 Y-1.3856
X4.6153 Y-1.3868
X4.6201 Y-1.3923
X4.6215 Y-1.3938
X4.6245 Y-1.3969
X4.6259 Y-1.3984
X4.6305 Y-1.403
X4.6316 Y-1.4041
X4.6347 Y-1.407
X4.6366 Y-1.4087
G3 X4.6452 Y-1.4161 I0.2368 J0.2674
G1 X4.6474 Y-1.4178
X4.6552 Y-1.4237
X4.6579 Y-1.4257
X4.6657 Y-1.4309
X4.6674 Y-1.432
X4.6714 Y-1.4346
X4.6735 Y-1.4358
X4.6773 Y-1.4379
X4.6788 Y-1.4388
X4.6866 Y-1.4429
X4.6882 Y-1.4437
X4.6914 Y-1.4453
X4.693 Y-1.4461
X4.6977 Y-1.4481
X4.6996 Y-1.449
X4.7074 Y-1.4522
X4.7103 Y-1.4533
X4.7181 Y-1.456
X4.721 Y-1.4569
X4.7288 Y-1.4592
X4.7313 Y-1.4598
X4.7391 Y-1.4617
X4.7416 Y-1.4623
X4.7494 Y-1.4638
X4.752 Y-1.4643
X4.7598 Y-1.4654
X4.7629 Y-1.4658
X4.7707 Y-1.4666
X4.7734 Y-1.4668
X4.7812 Y-1.4672
X4.7831
X4.7909 Y-1.4674
X4.7912
X4.7915
X4.7918
X5.4369 Y-1.4688
X5.4373
X5.4377
X5.4381
X5.4458 Y-1.4687
X5.4481 Y-1.4686
X5.4559 Y-1.4682
X5.4584 Y-1.468
X5.4661 Y-1.4672
X5.4691 Y-1.4668
X5.4769 Y-1.4657
X5.4799 Y-1.4651
X5.4876 Y-1.4636
X5.4902 Y-1.463
X5.4979 Y-1.4611
X5.5005 Y-1.4604
X5.5082 Y-1.4581
X5.5106 Y-1.4573
X5.5148 Y-1.4559
X5.5152 Y-1.4557
X5.5155 Y-1.4556
X5.519 Y-1.4544
X5.5216 Y-1.4534
X5.5294 Y-1.4502
X5.5322 Y-1.4489
X5.54 Y-1.4453
X5.5426 Y-1.4439
X5.5504 Y-1.4398
X5.5525 Y-1.4386
X5.558 Y-1.4354
X5.56 Y-1.4341
X5.5622 Y-1.4327
X5.5635 Y-1.4318
X5.5713 Y-1.4266
X5.5729 Y-1.4254
X5.5744 Y-1.4243
X5.5756 Y-1.4234
X5.582 Y-1.4185
X5.5835 Y-1.4172
X5.587 Y-1.4144
X5.5887 Y-1.4129
X5.593 Y-1.409
X5.594 Y-1.4081
X5.5982 Y-1.4042
X5.6002 Y-1.4022
G3 X5.6082 Y-1.3938 I-0.3037 J0.2975
G1 X5.6102 Y-1.3916
G3 X5.6171 Y-1.3834 I-0.4145 J0.3555
G1 X5.619 Y-1.3809
X5.6248 Y-1.3732
X5.6267 Y-1.3704
X5.6319 Y-1.3626
X5.6331 Y-1.3606
X5.6353 Y-1.3571
X5.6361 Y-1.3557
X5.6385 Y-1.3515
X5.6396 Y-1.3494
G3 X5.6455 Y-1.3378 I-0.2948 J0.1573
G1 X5.6466 Y-1.3354
X5.6488 Y-1.3304
X5.6495 Y-1.3287
X5.6526 Y-1.3209
X5.6536 Y-1.3182
X5.6563 Y-1.3105
X5.6572 Y-1.3074
X5.6594 Y-1.2997
X5.6601 Y-1.2969
X5.6619 Y-1.2891
X5.6625 Y-1.2866
X5.6639 Y-1.2789
X5.6643 Y-1.2764
X5.6655 Y-1.2686
X5.6658 Y-1.2657
X5.6665 Y-1.2579
X5.6667 Y-1.255
X5.6671 Y-1.2472
Y-1.2454
X5.6672 Y-1.2376
Y-1.2373
Y-1.2371
X5.6713 Y0.58
Y0.5804
Y0.5843
X5.6712 Y0.5875
X5.671 Y0.5913
X5.6706 Y0.5952
X5.6702 Y0.5991
X5.6695 Y0.603
X5.6688 Y0.6069
X5.6679 Y0.6108
X5.6669 Y0.6146
X5.6664 Y0.6165
X5.6761 Y4.9241
X6.4729
X6.4368 Y0.7053
X6.3932 Y0.7054
X6.3904
X6.3865 Y0.7052
X6.3826 Y0.7049
X6.3788 Y0.7045
X6.3749 Y0.7039
X6.371 Y0.7032
X6.3671 Y0.7024
X6.3632 Y0.7014
X6.3599 Y0.7005
X6.3572 Y0.6997
X6.3545 Y0.6988
X6.3518 Y0.6978
X6.3493 Y0.6968
X6.3469 Y0.6958
X6.3438 Y0.6944
X6.3399 Y0.6925
X6.336 Y0.6904
X6.3321 Y0.6881
X6.3283 Y0.6857
X6.3246 Y0.6831
X6.3217 Y0.681
X6.3197 Y0.6794
X6.3177 Y0.6777
X6.3156 Y0.676
X6.3135 Y0.674
X6.3111 Y0.6718
X6.3089 Y0.6696
X6.3068 Y0.6673
X6.3049 Y0.6652
X6.3031 Y0.6632
X6.3015 Y0.6611
X6.2999 Y0.6591
X6.2978 Y0.6562
X6.2952 Y0.6525
X6.2928 Y0.6488
X6.2906 Y0.6449
X6.2885 Y0.641
X6.2866 Y0.6371
X6.2851 Y0.6339
X6.2841 Y0.6313
X6.2831 Y0.6287
X6.2821 Y0.6261
X6.2813 Y0.6235
X6.2805 Y0.6209
X6.2796 Y0.6177
X6.2786 Y0.6138
X6.2778 Y0.6099
X6.2771 Y0.606
X6.2765 Y0.6021
X6.2761 Y0.5983
X6.2758 Y0.5944
X6.2756 Y0.5905
Y0.5885
X6.26 Y-1.2364
Y-1.2382
X6.2602 Y-1.246
X6.2603 Y-1.2487
X6.2608 Y-1.2565
X6.2611 Y-1.2594
X6.262 Y-1.2672
X6.2623 Y-1.2694
X6.2636 Y-1.2772
X6.2641 Y-1.28
X6.2657 Y-1.2878
X6.2664 Y-1.2908
X6.2685 Y-1.2986
X6.2692 Y-1.3012
X6.2717 Y-1.309
X6.2725 Y-1.3115
X6.2754 Y-1.3193
X6.2764 Y-1.3219
X6.2796 Y-1.3296
X6.2809 Y-1.3324
X6.2846 Y-1.3402
X6.2861 Y-1.343
X6.2903 Y-1.3508
X6.292 Y-1.3536
X6.2968 Y-1.3613
X6.2986 Y-1.364
X6.304 Y-1.3718
X6.3048 Y-1.3729
X6.3066 Y-1.3753
X6.3083 Y-1.3775
X6.3127 Y-1.3829
X6.3137 Y-1.3841
X6.3171 Y-1.3881
X6.3186 Y-1.3897
X6.3221 Y-1.3935
X6.3233 Y-1.3948
X6.3276 Y-1.3992
X6.3289 Y-1.4004
X6.3324 Y-1.4038
X6.334 Y-1.4053
X6.3382 Y-1.409
X6.3394 Y-1.41
X6.3441 Y-1.414
X6.3462 Y-1.4157
X6.3493 Y-1.4181
X6.3506 Y-1.4191
X6.3584 Y-1.4247
X6.3611 Y-1.4266
X6.3689 Y-1.4316
X6.3713 Y-1.4331
X6.3758 Y-1.4356
X6.3761 Y-1.4358
X6.3763 Y-1.4359
X6.3797 Y-1.4378
X6.3822 Y-1.4392
X6.39 Y-1.443
X6.3925 Y-1.4442
X6.3971 Y-1.4462
X6.3975 Y-1.4464
X6.3979 Y-1.4466
X6.4011 Y-1.4479
X6.4032 Y-1.4488
X6.411 Y-1.4518
X6.4136 Y-1.4527
X6.4213 Y-1.4552
X6.4233 Y-1.4558
X6.4266 Y-1.4567
X6.4269 Y-1.4568
X6.4272 Y-1.4569
X6.4275 Y-1.457
X6.432 Y-1.4582
X6.4346 Y-1.4589
X6.4423 Y-1.4606
X6.4453 Y-1.4612
X6.4531 Y-1.4625
X6.4556 Y-1.4629
X6.4634 Y-1.4638
X6.4659 Y-1.4641
X6.4736 Y-1.4647
X6.4764 Y-1.4649
X6.4841 Y-1.4652
X6.4858
X7.1542 Y-1.471
X7.1546
X7.1551
X7.1555
X7.1632 Y-1.4709
X7.1655 Y-1.4708
X7.1733 Y-1.4704
X7.1758 Y-1.4702
X7.1836 Y-1.4695
X7.1865 Y-1.4691
X7.1942 Y-1.468
X7.1973 Y-1.4675
X7.2064 Y-1.4657
X7.2093 Y-1.465
X7.2158 Y-1.4634
X7.2179 Y-1.4628
X7.2256 Y-1.4606
X7.2283 Y-1.4597
X7.236 Y-1.4571
X7.239 Y-1.456
X7.2468 Y-1.4528
X7.2496 Y-1.4516
X7.2574 Y-1.448
X7.2592 Y-1.4471
X7.2636 Y-1.4449
X7.2654 Y-1.4439
X7.2688 Y-1.442
X7.2705 Y-1.4411
X7.2782 Y-1.4364
X7.2797 Y-1.4356
X7.2816 Y-1.4343
X7.2833 Y-1.4332
X7.2891 Y-1.4292
X7.2906 Y-1.4282
X7.2958 Y-1.4244
X7.2981 Y-1.4226
G3 X7.3084 Y-1.4141 I-0.2185 J0.2725
G1 X7.3104 Y-1.4123
G3 X7.3193 Y-1.4037 I-0.2497 J0.2702
G1 X7.3219 Y-1.4011
X7.329 Y-1.3934
X7.3306 Y-1.3916
X7.3319 Y-1.3901
X7.3328 Y-1.3889
X7.3378 Y-1.3827
X7.3391 Y-1.381
X7.3419 Y-1.3773
X7.343 Y-1.3758
X7.3459 Y-1.3717
X7.3472 Y-1.3698
X7.3522 Y-1.362
X7.3538 Y-1.3593
X7.3582 Y-1.3516
X7.3597 Y-1.3487
X7.3636 Y-1.341
X7.3649 Y-1.3381
X7.3683 Y-1.3303
X7.3694 Y-1.3277
G3 X7.3736 Y-1.3163 I-0.305 J0.1199
G1 X7.3743 Y-1.3143
X7.376 Y-1.3089
X7.3765 Y-1.3071
X7.3787 Y-1.2993
X7.3794 Y-1.2964
X7.3811 Y-1.2886
X7.3817 Y-1.2856
X7.3831 Y-1.2779
X7.3834 Y-1.2757
X7.3844 Y-1.2679
X7.3847 Y-1.2648
X7.3853 Y-1.257
X7.3855 Y-1.2545
X7.3858 Y-1.2468
Y-1.2452
X7.4014 Y0.5797
X7.4013 Y0.5826
X7.4012 Y0.5865
X7.4009 Y0.5903
X7.4005 Y0.5942
X7.4 Y0.5976
X7.3995 Y0.6006
X7.3987 Y0.6045
X7.3976 Y0.6093
X7.3964 Y0.6136
X7.3952 Y0.6175
X7.3938 Y0.6214
X7.3922 Y0.6253
X7.3906 Y0.6291
X7.3888 Y0.6327
X7.3868 Y0.6366
X7.3844 Y0.6407
X7.3819 Y0.6447
X7.3792 Y0.6486
X7.3763 Y0.6525
X7.3731 Y0.6564
X7.3707 Y0.6592
X7.369 Y0.661
X7.3665 Y0.6635
X7.3632 Y0.6667
X7.3598 Y0.6697
X7.3564 Y0.6725
X7.3542 Y0.6742
X7.3532 Y0.675
X7.3507 Y0.6767
X7.3468 Y0.6793
X7.3429 Y0.6816
X7.3391 Y0.6838
X7.3359 Y0.6855
X7.3334 Y0.6867
X7.331 Y0.6878
X7.3285 Y0.6888
X7.3259 Y0.6899
X7.323 Y0.691
X7.3196 Y0.6921
X7.3157 Y0.6933
X7.3118 Y0.6943
X7.308 Y0.6952
X7.3041 Y0.696
X7.3002 Y0.6966
X7.2963 Y0.6971
X7.2924 Y0.6975
X7.288 Y0.6977
X7.2802 Y0.6979
X7.2799
X7.2796
X7.2454 Y0.6982
X7.281 Y4.9241
X8.3306
X8.299 Y0.7034
X8.0879 Y0.705
X8.0849
X8.081 Y0.7048
X8.0771 Y0.7045
X8.0732 Y0.7041
X8.0693 Y0.7035
X8.0655 Y0.7028
X8.0616 Y0.702
X8.0577 Y0.7011
X8.0536 Y0.6999
X8.0492 Y0.6984
X8.0453 Y0.697
X8.0419 Y0.6956
X8.0382 Y0.694
X8.0344 Y0.6921
X8.0305 Y0.69
X8.0266 Y0.6878
X8.023 Y0.6855
X8.0198 Y0.6833
X8.017 Y0.6813
X8.0148 Y0.6796
X8.0125 Y0.6777
X8.0102 Y0.6758
X8.0081 Y0.6738
X8.006 Y0.6719
X8.0039 Y0.6699
X8.0019 Y0.6677
X7.9999 Y0.6655
X7.998 Y0.6633
X7.9962 Y0.6611
X7.9944 Y0.6589
X7.9924 Y0.6562
X7.99 Y0.6528
X7.9877 Y0.6492
X7.9854 Y0.6453
X7.9833 Y0.6414
X7.9813 Y0.6375
X7.9798 Y0.6342
X7.9786 Y0.6314
X7.9776 Y0.6287
X7.9767 Y0.6262
X7.9758 Y0.6238
X7.975 Y0.6213
X7.9741 Y0.6181
X7.9731 Y0.6142
X7.9723 Y0.6103
X7.9716 Y0.6065
X7.971 Y0.6026
X7.9705 Y0.5987
X7.9702 Y0.5948
X7.97 Y0.5909
X7.9699 Y0.5884
X7.9562 Y-1.2365
Y-1.2382
X7.9564 Y-1.2459
X7.9565 Y-1.2485
X7.957 Y-1.2563
X7.9573 Y-1.2593
X7.9582 Y-1.2671
X7.9584 Y-1.2687
X7.959 Y-1.2729
X7.9592 Y-1.2743
X7.9598 Y-1.2778
X7.9602 Y-1.28
X7.9619 Y-1.2877
X7.9626 Y-1.2907
X7.9646 Y-1.2985
X7.9653 Y-1.301
X7.9677 Y-1.3088
X7.9682 Y-1.3101
X7.9693 Y-1.3135
X7.9701 Y-1.3156
X7.9717 Y-1.32
X7.9724 Y-1.3217
X7.9756 Y-1.3295
X7.9769 Y-1.3323
X7.9806 Y-1.3401
X7.9821 Y-1.343
X7.9864 Y-1.3507
X7.9877 Y-1.353
G3 X7.9931 Y-1.3618 I0.2386 J0.1419
G1 X7.9945 Y-1.3639
X8.0002 Y-1.3719
X8.0022 Y-1.3747
X8.0081 Y-1.3822
X8.0089 Y-1.3832
X8.0108 Y-1.3855
X8.0127 Y-1.3877
G3 X8.0212 Y-1.3969 I0.283 J0.2528
G1 X8.0232 Y-1.3989
G3 X8.0317 Y-1.407 I0.2475 J0.2524
G1 X8.0337 Y-1.4087
X8.0399 Y-1.414
X8.0411 Y-1.415
X8.0427 Y-1.4162
X8.0444 Y-1.4176
X8.0522 Y-1.4234
X8.0549 Y-1.4253
X8.0627 Y-1.4304
X8.0655 Y-1.4322
X8.0733 Y-1.4367
X8.076 Y-1.4382
X8.0838 Y-1.4422
X8.086 Y-1.4432
X8.0916 Y-1.4458
X8.0934 Y-1.4466
X8.0955 Y-1.4475
X8.0968 Y-1.448
X8.1046 Y-1.4511
X8.1072 Y-1.4521
X8.1149 Y-1.4547
X8.1178 Y-1.4556
X8.1256 Y-1.4579
X8.1286 Y-1.4586
X8.1364 Y-1.4604
X8.1389 Y-1.461
X8.1467 Y-1.4624
X8.1492 Y-1.4628
X8.1569 Y-1.4639
X8.1596 Y-1.4642
X8.1674 Y-1.4649
X8.1705 Y-1.4651
X8.1783 Y-1.4655
X8.1799
X8.1877 Y-1.4656
X8.188
X8.8565 Y-1.4706
X8.8569
X8.8573
X8.865
X8.8669 Y-1.4705
