(INITIAL TRIM FRONT)
(T11 D=0.5 CR=0. - ZMIN=-1.058 - FLAT END MILL)
(T12 D=0.5 CR=0. - ZMIN=-1.058 - FLAT END MILL)
G90 G94 G91.1 G40 G49 G17
G20
G53 G0 Z0.

(TRACE6)
T12 M6
S10000 M3
G17 G90 G94
G55
G0 X45.7326 Y-1.5599
G43 Z0.658 H12
G0 Z-0.308
G1 X45.7324 Y-1.5587 Z-0.3191 F50.
X45.7319 Y-1.555 Z-0.3297
X45.7312 Y-1.5491 Z-0.3392
X45.7302 Y-1.5412 Z-0.3471
X45.729 Y-1.5318 Z-0.353
X45.7277 Y-1.5214 Z-0.3567
X45.7263 Y-1.5103 Z-0.358
X45.7248 Y-1.4992
X45.7236 Y-1.4881
X45.7199 Y-1.4775
X45.7139 Y-1.468
X45.706 Y-1.4601
X45.6965 Y-1.4542
X45.6859 Y-1.4505
X45.6748 Y-1.4492
X45.1678 Y-1.4495
X45.1536 Y-1.4518
X45.1386 Y-1.4568
X45.1262 Y-1.4635
X45.1194 Y-1.4682
X45.1021 Y-1.4796
X45.0788 Y-1.4931
X45.057 Y-1.5043
X45.0339 Y-1.5145
X45.0104 Y-1.5235
X44.9845 Y-1.5317
X44.9602 Y-1.5379
X44.936 Y-1.5427
X44.9097 Y-1.5464
X44.8839 Y-1.5485
X44.8623 Y-1.5492
X44.605
X44.583 Y-1.5485
X44.5577 Y-1.5464
X44.5326 Y-1.5429
X44.5069 Y-1.5378
X44.4821 Y-1.5314
X44.4589 Y-1.5241
X44.4349 Y-1.5151
X44.4103 Y-1.5043
X44.3865 Y-1.492
X44.3658 Y-1.4798
X44.3501 Y-1.4696
X44.3411 Y-1.4635
X44.3287 Y-1.4568
X44.3149 Y-1.452
X44.3107 Y-1.4511
X44.296 Y-1.4493
X43.4678 Y-1.4495
X43.4536 Y-1.4518
X43.4493 Y-1.453
X43.4363 Y-1.4579
X43.4262 Y-1.4635
X43.4194 Y-1.4682
X43.4021 Y-1.4796
X43.3788 Y-1.4931
X43.357 Y-1.5043
X43.3339 Y-1.5145
X43.3104 Y-1.5235
X43.2845 Y-1.5317
X43.2602 Y-1.5379
X43.236 Y-1.5427
X43.2097 Y-1.5464
X43.1839 Y-1.5485
X43.1623 Y-1.5492
X42.905
X42.883 Y-1.5485
X42.8577 Y-1.5464
X42.8326 Y-1.5429
X42.8069 Y-1.5378
X42.7821 Y-1.5314
X42.7589 Y-1.5241
X42.7349 Y-1.5151
X42.7103 Y-1.5043
X42.6865 Y-1.492
X42.6658 Y-1.4798
X42.6501 Y-1.4696
X42.6411 Y-1.4635
X42.6287 Y-1.4568
X42.6149 Y-1.452
X42.6107 Y-1.4511
X42.596 Y-1.4493
X41.7678 Y-1.4495
X41.7536 Y-1.4518
X41.7493 Y-1.453
X41.7363 Y-1.4579
X41.7262 Y-1.4635
X41.7194 Y-1.4682
X41.7021 Y-1.4796
X41.6788 Y-1.4931
X41.657 Y-1.5043
X41.6339 Y-1.5145
X41.6104 Y-1.5235
X41.5845 Y-1.5317
X41.5602 Y-1.5379
X41.536 Y-1.5427
X41.5097 Y-1.5464
X41.4839 Y-1.5485
X41.4623 Y-1.5492
X41.205
X41.183 Y-1.5485
X41.1577 Y-1.5464
X41.1326 Y-1.5429
X41.1069 Y-1.5378
X41.0821 Y-1.5314
X41.0589 Y-1.5241
X41.0349 Y-1.5151
X41.0103 Y-1.5043
X40.9865 Y-1.492
X40.9658 Y-1.4798
X40.9501 Y-1.4696
X40.9411 Y-1.4635
X40.9287 Y-1.4568
X40.9149 Y-1.452
X40.9107 Y-1.4511
X40.896 Y-1.4493
X40.0678 Y-1.4495
X40.0536 Y-1.4518
X40.0493 Y-1.453
X40.0363 Y-1.4579
X40.0262 Y-1.4635
X40.0194 Y-1.4682
X40.0021 Y-1.4796
X39.9788 Y-1.4931
X39.957 Y-1.5043
X39.9339 Y-1.5145
X39.9104 Y-1.5235
X39.8845 Y-1.5317
X39.8602 Y-1.5379
X39.836 Y-1.5427
X39.8097 Y-1.5464
X39.7839 Y-1.5485
X39.7623 Y-1.5492
X39.505
X39.483 Y-1.5485
X39.4577 Y-1.5464
X39.4326 Y-1.5429
X39.4069 Y-1.5378
X39.3821 Y-1.5314
X39.3589 Y-1.5241
X39.3349 Y-1.5151
X39.3103 Y-1.5043
X39.2865 Y-1.492
X39.2658 Y-1.4798
X39.2501 Y-1.4696
X39.2411 Y-1.4635
X39.2282 Y-1.4566
X39.2143 Y-1.4519
X39.2108 Y-1.4511
X39.1962 Y-1.4493
X38.3676 Y-1.4495
X38.3531 Y-1.4519
X38.3496 Y-1.4529
X38.3358 Y-1.4582
X38.3262 Y-1.4636
X38.3181 Y-1.4691
X38.3019 Y-1.4797
X38.2797 Y-1.4927
X38.257 Y-1.5043
X38.2335 Y-1.5147
X38.2097 Y-1.5238
X38.1851 Y-1.5315
X38.1603 Y-1.5379
X38.1352 Y-1.5428
X38.1098 Y-1.5464
X38.0843 Y-1.5485
X38.0624 Y-1.5492
X37.8051
X37.7831 Y-1.5485
X37.7576 Y-1.5464
X37.7323 Y-1.5428
X37.7071 Y-1.5379
X37.6822 Y-1.5315
X37.6578 Y-1.5238
X37.6339 Y-1.5147
X37.6105 Y-1.5043
X37.5877 Y-1.4926
X37.5656 Y-1.4797
X37.5494 Y-1.4691
X37.5413 Y-1.4636
X37.5282 Y-1.4566
X37.5143 Y-1.4519
X37.5108 Y-1.4511
X37.4962 Y-1.4493
X36.6676 Y-1.4495
X36.6531 Y-1.4519
X36.6496 Y-1.4529
X36.6358 Y-1.4582
X36.6262 Y-1.4636
X36.6181 Y-1.4691
X36.6019 Y-1.4797
X36.5797 Y-1.4927
X36.557 Y-1.5043
X36.5335 Y-1.5147
X36.5097 Y-1.5238
X36.4851 Y-1.5315
X36.4603 Y-1.5379
X36.4352 Y-1.5428
X36.4098 Y-1.5464
X36.3843 Y-1.5485
X36.3624 Y-1.5492
X36.1051
X36.0831 Y-1.5485
X36.0576 Y-1.5464
X36.0323 Y-1.5428
X36.0071 Y-1.5379
X35.9822 Y-1.5315
X35.9578 Y-1.5238
X35.9339 Y-1.5147
X35.9105 Y-1.5043
X35.8877 Y-1.4926
X35.8656 Y-1.4797
X35.8494 Y-1.4691
X35.8413 Y-1.4636
X35.8282 Y-1.4566
X35.8143 Y-1.4519
X35.8108 Y-1.4511
X35.7962 Y-1.4493
X34.9676 Y-1.4495
X34.9531 Y-1.4519
X34.9496 Y-1.4529
X34.9358 Y-1.4582
X34.9262 Y-1.4636
X34.9181 Y-1.4691
X34.9019 Y-1.4797
X34.8797 Y-1.4927
X34.857 Y-1.5043
X34.8335 Y-1.5147
X34.8097 Y-1.5238
X34.7851 Y-1.5315
X34.7603 Y-1.5379
X34.7352 Y-1.5428
X34.7098 Y-1.5464
X34.6843 Y-1.5485
X34.6624 Y-1.5492
X34.4051
X34.3831 Y-1.5485
X34.3576 Y-1.5464
X34.3323 Y-1.5428
X34.3071 Y-1.5379
X34.2822 Y-1.5315
X34.2578 Y-1.5238
X34.2339 Y-1.5147
X34.2105 Y-1.5043
X34.1877 Y-1.4926
X34.1656 Y-1.4797
X34.1494 Y-1.4691
X34.1413 Y-1.4636
X34.1282 Y-1.4566
X34.1143 Y-1.4519
X34.1108 Y-1.4511
X34.0962 Y-1.4493
X33.2676 Y-1.4495
X33.2531 Y-1.4519
X33.2496 Y-1.4529
X33.2358 Y-1.4582
X33.2262 Y-1.4636
X33.2181 Y-1.4691
X33.2019 Y-1.4797
X33.1797 Y-1.4927
X33.157 Y-1.5043
X33.1335 Y-1.5147
X33.1097 Y-1.5238
X33.0851 Y-1.5315
X33.0603 Y-1.5379
X33.0352 Y-1.5428
X33.0098 Y-1.5464
X32.9843 Y-1.5485
X32.9624 Y-1.5492
X32.7051
X32.6831 Y-1.5485
X32.6576 Y-1.5464
X32.6323 Y-1.5428
X32.6071 Y-1.5379
X32.5822 Y-1.5315
X32.5578 Y-1.5238
X32.5339 Y-1.5147
X32.5105 Y-1.5043
X32.4877 Y-1.4926
X32.4656 Y-1.4797
X32.4494 Y-1.4691
X32.4413 Y-1.4636
X32.4282 Y-1.4566
X32.4143 Y-1.4519
X32.4108 Y-1.4511
X32.3962 Y-1.4493
X31.5676 Y-1.4495
X31.5531 Y-1.4519
X31.5496 Y-1.4529
X31.5358 Y-1.4582
X31.5262 Y-1.4636
X31.5181 Y-1.4691
X31.5019 Y-1.4797
X31.4797 Y-1.4927
X31.457 Y-1.5043
X31.4335 Y-1.5147
X31.4097 Y-1.5238
X31.3851 Y-1.5315
X31.3603 Y-1.5379
X31.3352 Y-1.5428
X31.3098 Y-1.5464
X31.2843 Y-1.5485
X31.2624 Y-1.5492
X31.0051
X30.9831 Y-1.5485
X30.9576 Y-1.5464
X30.9323 Y-1.5428
X30.9071 Y-1.5379
X30.8822 Y-1.5315
X30.8578 Y-1.5238
X30.8339 Y-1.5147
X30.8105 Y-1.5043
X30.7877 Y-1.4926
X30.7656 Y-1.4797
X30.7494 Y-1.4691
X30.7413 Y-1.4636
X30.7282 Y-1.4566
X30.7143 Y-1.4519
X30.7108 Y-1.4511
X30.6962 Y-1.4493
X29.8676 Y-1.4495
X29.8531 Y-1.4519
X29.8496 Y-1.4529
X29.8358 Y-1.4582
X29.8262 Y-1.4636
X29.8181 Y-1.4691
X29.8019 Y-1.4797
X29.7797 Y-1.4927
X29.757 Y-1.5043
X29.7335 Y-1.5147
X29.7097 Y-1.5238
X29.6851 Y-1.5315
X29.6603 Y-1.5379
X29.6352 Y-1.5428
X29.6098 Y-1.5464
X29.5843 Y-1.5485
X29.5624 Y-1.5492
X29.3051
X29.2831 Y-1.5485
X29.2576 Y-1.5464
X29.2323 Y-1.5428
X29.2071 Y-1.5379
X29.1822 Y-1.5315
X29.1578 Y-1.5238
X29.1339 Y-1.5147
X29.1105 Y-1.5043
X29.0877 Y-1.4926
X29.0656 Y-1.4797
X29.0494 Y-1.4691
X29.0413 Y-1.4636
X29.0282 Y-1.4566
X29.0143 Y-1.4519
X29.0108 Y-1.4511
X28.9962 Y-1.4493
X28.1676 Y-1.4495
X28.1531 Y-1.4519
X28.1496 Y-1.4529
X28.1358 Y-1.4582
X28.1262 Y-1.4636
X28.1181 Y-1.4691
X28.1019 Y-1.4797
X28.0797 Y-1.4927
X28.057 Y-1.5043
X28.0335 Y-1.5147
X28.0097 Y-1.5238
X27.9851 Y-1.5315
X27.9603 Y-1.5379
X27.9352 Y-1.5428
X27.9098 Y-1.5464
X27.8843 Y-1.5485
X27.8624 Y-1.5492
X27.6051
X27.5831 Y-1.5485
X27.5576 Y-1.5464
X27.5323 Y-1.5428
X27.5071 Y-1.5379
X27.4822 Y-1.5315
X27.4578 Y-1.5238
X27.4339 Y-1.5147
X27.4105 Y-1.5043
X27.3877 Y-1.4926
X27.3656 Y-1.4797
X27.3494 Y-1.4691
X27.3413 Y-1.4636
X27.3282 Y-1.4566
X27.3143 Y-1.4519
X27.3108 Y-1.4511
X27.2962 Y-1.4493
X26.4676 Y-1.4495
X26.4531 Y-1.4519
X26.4496 Y-1.4529
X26.4358 Y-1.4582
X26.4262 Y-1.4636
X26.4181 Y-1.4691
X26.4019 Y-1.4797
X26.3797 Y-1.4927
X26.357 Y-1.5043
X26.3335 Y-1.5147
X26.3097 Y-1.5238
X26.2851 Y-1.5315
X26.2603 Y-1.5379
X26.2352 Y-1.5428
X26.2098 Y-1.5464
X26.1843 Y-1.5485
X26.1624 Y-1.5492
X25.9051
X25.8831 Y-1.5485
X25.8576 Y-1.5464
X25.8323 Y-1.5428
X25.8071 Y-1.5379
X25.7822 Y-1.5315
X25.7578 Y-1.5238
X25.7339 Y-1.5147
X25.7105 Y-1.5043
X25.6877 Y-1.4926
X25.6656 Y-1.4797
X25.6494 Y-1.4691
X25.6413 Y-1.4636
X25.6282 Y-1.4566
X25.6143 Y-1.4519
X25.6108 Y-1.4511
X25.5962 Y-1.4493
X24.7676 Y-1.4495
X24.7531 Y-1.4519
X24.7496 Y-1.4529
X24.7358 Y-1.4582
X24.7262 Y-1.4636
X24.7181 Y-1.4691
X24.7019 Y-1.4797
X24.6797 Y-1.4927
X24.657 Y-1.5043
X24.6335 Y-1.5147
X24.6097 Y-1.5238
X24.5851 Y-1.5315
X24.5603 Y-1.5379
X24.5352 Y-1.5428
X24.5098 Y-1.5464
X24.4843 Y-1.5485
X24.4624 Y-1.5492
X24.2051
X24.1831 Y-1.5485
X24.1576 Y-1.5464
X24.1323 Y-1.5428
X24.1071 Y-1.5379
X24.0822 Y-1.5315
X24.0578 Y-1.5238
X24.0339 Y-1.5147
X24.0105 Y-1.5043
X23.9877 Y-1.4926
X23.9656 Y-1.4797
X23.9494 Y-1.4691
X23.9413 Y-1.4636
X23.9282 Y-1.4566
X23.9143 Y-1.4519
X23.9108 Y-1.4511
X23.8962 Y-1.4493
X23.0676 Y-1.4495
X23.0531 Y-1.4519
X23.0496 Y-1.4529
X23.0358 Y-1.4582
X23.0262 Y-1.4636
X23.0181 Y-1.4691
X23.0019 Y-1.4797
X22.9797 Y-1.4927
X22.957 Y-1.5043
X22.9335 Y-1.5147
X22.9097 Y-1.5238
X22.8851 Y-1.5315
X22.8603 Y-1.5379
X22.8352 Y-1.5428
X22.8098 Y-1.5464
X22.7843 Y-1.5485
X22.7624 Y-1.5492
X22.5051
X22.4831 Y-1.5485
X22.4576 Y-1.5464
X22.4323 Y-1.5428
X22.4071 Y-1.5379
X22.3822 Y-1.5315
X22.3578 Y-1.5238
X22.3339 Y-1.5147
X22.3105 Y-1.5043
X22.2877 Y-1.4926
X22.2656 Y-1.4797
X22.2494 Y-1.4691
X22.2413 Y-1.4636
X22.2282 Y-1.4566
X22.2143 Y-1.4519
X22.2108 Y-1.4511
X22.1962 Y-1.4493
X21.3676 Y-1.4495
X21.3531 Y-1.4519
X21.3496 Y-1.4529
X21.3358 Y-1.4582
X21.3262 Y-1.4636
X21.3181 Y-1.4691
X21.3019 Y-1.4797
X21.2797 Y-1.4927
X21.257 Y-1.5043
X21.2335 Y-1.5147
X21.2097 Y-1.5238
X21.1851 Y-1.5315
X21.1603 Y-1.5379
X21.1352 Y-1.5428
X21.1098 Y-1.5464
X21.0843 Y-1.5485
X21.0624 Y-1.5492
X20.8051
X20.7831 Y-1.5485
X20.7576 Y-1.5464
X20.7323 Y-1.5428
X20.7071 Y-1.5379
X20.6822 Y-1.5315
X20.6578 Y-1.5238
X20.6339 Y-1.5147
X20.6105 Y-1.5043
X20.5877 Y-1.4926
X20.5656 Y-1.4797
X20.5494 Y-1.4691
X20.5413 Y-1.4636
X20.5282 Y-1.4566
X20.5143 Y-1.4519
X20.5108 Y-1.4511
X20.4962 Y-1.4493
X19.6676 Y-1.4495
X19.6531 Y-1.4519
X19.6496 Y-1.4529
X19.6358 Y-1.4582
X19.6262 Y-1.4636
X19.6181 Y-1.4691
X19.6019 Y-1.4797
X19.5797 Y-1.4927
X19.557 Y-1.5043
X19.5335 Y-1.5147
X19.5097 Y-1.5238
X19.4851 Y-1.5315
X19.4603 Y-1.5379
X19.4352 Y-1.5428
X19.4098 Y-1.5464
X19.3843 Y-1.5485
X19.3624 Y-1.5492
X19.1051
X19.0831 Y-1.5485
X19.0576 Y-1.5464
X19.0323 Y-1.5428
X19.0071 Y-1.5379
X18.9822 Y-1.5315
X18.9578 Y-1.5238
X18.9339 Y-1.5147
X18.9105 Y-1.5043
X18.8877 Y-1.4926
X18.8656 Y-1.4797
X18.8494 Y-1.4691
X18.8413 Y-1.4636
X18.8282 Y-1.4566
X18.8143 Y-1.4519
X18.8108 Y-1.4511
X18.7962 Y-1.4493
X17.9676 Y-1.4495
X17.9531 Y-1.4519
X17.9496 Y-1.4529
X17.9358 Y-1.4582
X17.9262 Y-1.4636
X17.9181 Y-1.4691
X17.9019 Y-1.4797
X17.8797 Y-1.4927
X17.857 Y-1.5043
X17.8335 Y-1.5147
X17.8097 Y-1.5238
X17.7851 Y-1.5315
X17.7603 Y-1.5379
X17.7352 Y-1.5428
X17.7098 Y-1.5464
X17.6843 Y-1.5485
X17.6624 Y-1.5492
X17.4051
X17.3831 Y-1.5485
X17.3576 Y-1.5464
X17.3323 Y-1.5428
X17.3071 Y-1.5379
X17.2822 Y-1.5315
X17.2578 Y-1.5238
X17.2339 Y-1.5147
X17.2105 Y-1.5043
X17.1877 Y-1.4926
X17.1656 Y-1.4797
X17.1494 Y-1.4691
X17.1413 Y-1.4636
X17.1282 Y-1.4566
X17.1143 Y-1.4519
X17.1108 Y-1.4511
X17.0962 Y-1.4493
X16.2676 Y-1.4495
X16.2531 Y-1.4519
X16.2496 Y-1.4529
X16.2358 Y-1.4582
X16.2262 Y-1.4636
X16.2181 Y-1.4691
X16.2019 Y-1.4797
X16.1797 Y-1.4927
X16.157 Y-1.5043
X16.1335 Y-1.5147
X16.1097 Y-1.5238
X16.0851 Y-1.5315
X16.0603 Y-1.5379
X16.0352 Y-1.5428
X16.0098 Y-1.5464
X15.9843 Y-1.5485
X15.9624 Y-1.5492
X15.7051
X15.6831 Y-1.5485
X15.6576 Y-1.5464
X15.6323 Y-1.5428
X15.6071 Y-1.5379
X15.5822 Y-1.5315
X15.5578 Y-1.5238
X15.5339 Y-1.5147
X15.5105 Y-1.5043
X15.4877 Y-1.4926
X15.4656 Y-1.4797
X15.4494 Y-1.4691
X15.4413 Y-1.4636
X15.4282 Y-1.4566
X15.4143 Y-1.4519
X15.4108 Y-1.4511
X15.3962 Y-1.4493
X14.5676 Y-1.4495
X14.5531 Y-1.4519
X14.5496 Y-1.4529
X14.5358 Y-1.4582
X14.5262 Y-1.4636
X14.5181 Y-1.4691
X14.5019 Y-1.4797
X14.4797 Y-1.4927
X14.457 Y-1.5043
X14.4335 Y-1.5147
X14.4097 Y-1.5238
X14.3851 Y-1.5315
X14.3603 Y-1.5379
X14.3352 Y-1.5428
X14.3098 Y-1.5464
X14.2843 Y-1.5485
X14.2624 Y-1.5492
X14.0051
X13.9831 Y-1.5485
X13.9576 Y-1.5464
X13.9323 Y-1.5428
X13.9071 Y-1.5379
X13.8822 Y-1.5315
X13.8578 Y-1.5238
X13.8339 Y-1.5147
X13.8105 Y-1.5043
X13.7877 Y-1.4926
X13.7656 Y-1.4797
X13.7494 Y-1.4691
X13.7413 Y-1.4636
X13.7282 Y-1.4566
X13.7143 Y-1.4519
X13.7108 Y-1.4511
X13.6962 Y-1.4493
X12.8676 Y-1.4495
X12.8531 Y-1.4519
X12.8496 Y-1.4529
X12.8358 Y-1.4582
X12.8262 Y-1.4636
X12.8181 Y-1.4691
X12.8019 Y-1.4797
X12.7797 Y-1.4927
X12.757 Y-1.5043
X12.7335 Y-1.5147
X12.7097 Y-1.5238
X12.6851 Y-1.5315
X12.6603 Y-1.5379
X12.6352 Y-1.5428
X12.6098 Y-1.5464
X12.5843 Y-1.5485
X12.5624 Y-1.5492
X12.3051
X12.2831 Y-1.5485
X12.2576 Y-1.5464
X12.2323 Y-1.5428
X12.2071 Y-1.5379
X12.1822 Y-1.5315
X12.1578 Y-1.5238
X12.1339 Y-1.5147
X12.1105 Y-1.5043
X12.0877 Y-1.4926
X12.0656 Y-1.4797
X12.0494 Y-1.4691
X12.0413 Y-1.4636
X12.0282 Y-1.4566
X12.0143 Y-1.4519
X12.0108 Y-1.4511
X11.9962 Y-1.4493
X11.1676 Y-1.4495
X11.1531 Y-1.4519
X11.1496 Y-1.4529
X11.1358 Y-1.4582
X11.1262 Y-1.4636
X11.1181 Y-1.4691
X11.1019 Y-1.4797
X11.0797 Y-1.4927
X11.057 Y-1.5043
X11.0335 Y-1.5147
X11.0097 Y-1.5238
X10.9851 Y-1.5315
X10.9603 Y-1.5379
X10.9352 Y-1.5428
X10.9098 Y-1.5464
X10.8843 Y-1.5485
X10.8624 Y-1.5492
X10.6051
X10.5831 Y-1.5485
X10.5576 Y-1.5464
X10.5323 Y-1.5428
X10.5071 Y-1.5379
X10.4822 Y-1.5315
X10.4578 Y-1.5238
X10.4339 Y-1.5147
X10.4105 Y-1.5043
X10.3877 Y-1.4926
X10.3656 Y-1.4797
X10.3494 Y-1.4691
X10.3413 Y-1.4636
X10.3282 Y-1.4566
X10.3143 Y-1.4519
X10.3108 Y-1.4511
X10.2962 Y-1.4493
X9.4676 Y-1.4495
X9.4531 Y-1.4519
X9.4496 Y-1.4529
X9.4358 Y-1.4582
X9.4262 Y-1.4636
X9.4181 Y-1.4691
X9.4019 Y-1.4797
X9.3797 Y-1.4927
X9.357 Y-1.5043
X9.3335 Y-1.5147
X9.3097 Y-1.5238
X9.2851 Y-1.5315
X9.2603 Y-1.5379
X9.2352 Y-1.5428
X9.2098 Y-1.5464
X9.1843 Y-1.5485
X9.1624 Y-1.5492
X8.9051
X8.8831 Y-1.5485
X8.8576 Y-1.5464
X8.8323 Y-1.5428
X8.8071 Y-1.5379
X8.7822 Y-1.5315
X8.7578 Y-1.5238
X8.7339 Y-1.5147
X8.7105 Y-1.5043
X8.6877 Y-1.4926
X8.6656 Y-1.4797
X8.6494 Y-1.4691
X8.6413 Y-1.4636
X8.6282 Y-1.4566
X8.6143 Y-1.4519
X8.6108 Y-1.4511
X8.5962 Y-1.4493
X7.7676 Y-1.4495
X7.7531 Y-1.4519
X7.7496 Y-1.4529
X7.7358 Y-1.4582
X7.7262 Y-1.4636
X7.7181 Y-1.4691
X7.7019 Y-1.4797
X7.6797 Y-1.4927
X7.657 Y-1.5043
X7.6335 Y-1.5147
X7.6097 Y-1.5238
X7.5851 Y-1.5315
X7.5603 Y-1.5379
X7.5352 Y-1.5428
X7.5098 Y-1.5464
X7.4843 Y-1.5485
X7.4624 Y-1.5492
X7.2051
X7.1831 Y-1.5485
X7.1576 Y-1.5464
X7.1323 Y-1.5428
X7.1071 Y-1.5379
X7.0822 Y-1.5315
X7.0578 Y-1.5238
X7.0339 Y-1.5147
X7.0105 Y-1.5043
X6.9877 Y-1.4926
X6.9656 Y-1.4797
X6.9494 Y-1.4691
X6.9413 Y-1.4636
X6.9282 Y-1.4566
X6.9143 Y-1.4519
X6.9108 Y-1.4511
X6.8962 Y-1.4493
X6.0676 Y-1.4495
X6.0531 Y-1.4519
X6.0496 Y-1.4529
X6.0358 Y-1.4582
X6.0262 Y-1.4636
X6.0181 Y-1.4691
X6.0019 Y-1.4797
X5.9797 Y-1.4927
X5.957 Y-1.5043
X5.9335 Y-1.5147
X5.9097 Y-1.5238
X5.8851 Y-1.5315
X5.8603 Y-1.5379
X5.8352 Y-1.5428
X5.8098 Y-1.5464
X5.7843 Y-1.5485
X5.7624 Y-1.5492
X5.5051
X5.4831 Y-1.5485
X5.4576 Y-1.5464
X5.4323 Y-1.5428
X5.4071 Y-1.5379
X5.3822 Y-1.5315
X5.3578 Y-1.5238
X5.3339 Y-1.5147
X5.3105 Y-1.5043
X5.2877 Y-1.4926
X5.2656 Y-1.4797
X5.2494 Y-1.4691
X5.2413 Y-1.4636
X5.2282 Y-1.4566
X5.2143 Y-1.4519
X5.2108 Y-1.4511
X5.1962 Y-1.4493
X4.3676 Y-1.4495
X4.3531 Y-1.4519
X4.3496 Y-1.4529
X4.3358 Y-1.4582
X4.3262 Y-1.4636
X4.3181 Y-1.4691
X4.3019 Y-1.4797
X4.2797 Y-1.4927
X4.257 Y-1.5043
X4.2335 Y-1.5147
X4.2097 Y-1.5238
X4.1851 Y-1.5315
X4.1603 Y-1.5379
X4.1352 Y-1.5428
X4.1098 Y-1.5464
X4.0843 Y-1.5485
X4.0624 Y-1.5492
X3.8051
X3.7831 Y-1.5485
X3.7576 Y-1.5464
X3.7323 Y-1.5428
X3.7071 Y-1.5379
X3.6823 Y-1.5315
X3.6579 Y-1.5238
X3.6339 Y-1.5147
X3.6105 Y-1.5043
X3.5877 Y-1.4926
X3.5656 Y-1.4797
X3.5494 Y-1.4691
X3.5412 Y-1.4635
X3.5282 Y-1.4566
X3.5143 Y-1.4519
X3.5107 Y-1.4511
X3.4962 Y-1.4493
X2.6676 Y-1.4495
X2.6531 Y-1.4519
X2.6496 Y-1.4529
X2.6359 Y-1.4581
X2.6263 Y-1.4635
X2.618 Y-1.4691
X2.6018 Y-1.4797
X2.5797 Y-1.4926
X2.557 Y-1.5043
X2.5335 Y-1.5147
X2.5096 Y-1.5238
X2.4851 Y-1.5315
X2.4603 Y-1.5379
X2.4352 Y-1.5428
X2.4098 Y-1.5464
X2.3843 Y-1.5485
X2.3624 Y-1.5492
X2.1051
X2.0831 Y-1.5485
X2.0576 Y-1.5464
X2.0323 Y-1.5428
X2.0071 Y-1.5379
X1.9823 Y-1.5315
X1.9579 Y-1.5238
X1.9339 Y-1.5147
X1.9105 Y-1.5043
X1.8877 Y-1.4926
X1.8656 Y-1.4797
X1.8494 Y-1.4691
X1.8412 Y-1.4635
X1.8282 Y-1.4566
X1.8143 Y-1.4519
X1.7999 Y-1.4495
X0.975 Y-1.4492
X0.475
X0.4638 Y-1.4505
X0.4533 Y-1.4542
X0.4438 Y-1.4601
X0.4359 Y-1.468
X0.4299 Y-1.4775
X0.4262 Y-1.4881
X0.425 Y-1.4992
X0.4235 Y-1.5104
X0.4221 Y-1.5214 Z-0.3567
X0.4208 Y-1.5319 Z-0.353
X0.4196 Y-1.5413 Z-0.3471
X0.4186 Y-1.5491 Z-0.3392
X0.4179 Y-1.555 Z-0.3297
X0.4174 Y-1.5587 Z-0.3191
X0.4172 Y-1.56 Z-0.308
G0 Z0.522
X45.7326 Y-1.5599
Z-1.008
G1 X45.7324 Y-1.5587 Z-1.0191 F50.
X45.7319 Y-1.555 Z-1.0297
X45.7312 Y-1.5491 Z-1.0392
X45.7302 Y-1.5412 Z-1.0471
X45.729 Y-1.5318 Z-1.053
X45.7277 Y-1.5214 Z-1.0567
X45.7263 Y-1.5103 Z-1.058
X45.7248 Y-1.4992
X45.7236 Y-1.4881
X45.7199 Y-1.4775
X45.7139 Y-1.468
X45.706 Y-1.4601
X45.6965 Y-1.4542
X45.6859 Y-1.4505
X45.6748 Y-1.4492
X45.1678 Y-1.4495
X45.1536 Y-1.4518
X45.1386 Y-1.4568
X45.1262 Y-1.4635
X45.1194 Y-1.4682
X45.1021 Y-1.4796
X45.0788 Y-1.4931
X45.057 Y-1.5043
X45.0339 Y-1.5145
X45.0104 Y-1.5235
X44.9845 Y-1.5317
X44.9602 Y-1.5379
X44.936 Y-1.5427
X44.9097 Y-1.5464
X44.8839 Y-1.5485
X44.8623 Y-1.5492
X44.605
X44.583 Y-1.5485
X44.5577 Y-1.5464
X44.5326 Y-1.5429
X44.5069 Y-1.5378
X44.4821 Y-1.5314
X44.4589 Y-1.5241
X44.4349 Y-1.5151
X44.4103 Y-1.5043
X44.3865 Y-1.492
X44.3658 Y-1.4798
X44.3501 Y-1.4696
X44.3411 Y-1.4635
X44.3287 Y-1.4568
X44.3149 Y-1.452
X44.3107 Y-1.4511
X44.296 Y-1.4493
X43.4678 Y-1.4495
X43.4536 Y-1.4518
X43.4493 Y-1.453
X43.4363 Y-1.4579
X43.4262 Y-1.4635
X43.4194 Y-1.4682
X43.4021 Y-1.4796
X43.3788 Y-1.4931
X43.357 Y-1.5043
X43.3339 Y-1.5145
X43.3104 Y-1.5235
X43.2845 Y-1.5317
X43.2602 Y-1.5379
X43.236 Y-1.5427
X43.2097 Y-1.5464
X43.1839 Y-1.5485
X43.1623 Y-1.5492
X42.905
X42.883 Y-1.5485
X42.8577 Y-1.5464
X42.8326 Y-1.5429
X42.8069 Y-1.5378
X42.7821 Y-1.5314
X42.7589 Y-1.5241
X42.7349 Y-1.5151
X42.7103 Y-1.5043
X42.6865 Y-1.492
X42.6658 Y-1.4798
X42.6501 Y-1.4696
X42.6411 Y-1.4635
X42.6287 Y-1.4568
X42.6149 Y-1.452
X42.6107 Y-1.4511
X42.596 Y-1.4493
X41.7678 Y-1.4495
X41.7536 Y-1.4518
X41.7493 Y-1.453
X41.7363 Y-1.4579
X41.7262 Y-1.4635
X41.7194 Y-1.4682
X41.7021 Y-1.4796
X41.6788 Y-1.4931
X41.657 Y-1.5043
X41.6339 Y-1.5145
X41.6104 Y-1.5235
X41.5845 Y-1.5317
X41.5602 Y-1.5379
X41.536 Y-1.5427
X41.5097 Y-1.5464
X41.4839 Y-1.5485
X41.4623 Y-1.5492
X41.205
X41.183 Y-1.5485
X41.1577 Y-1.5464
X41.1326 Y-1.5429
X41.1069 Y-1.5378
X41.0821 Y-1.5314
X41.0589 Y-1.5241
X41.0349 Y-1.5151
X41.0103 Y-1.5043
X40.9865 Y-1.492
X40.9658 Y-1.4798
X40.9501 Y-1.4696
X40.9411 Y-1.4635
X40.9287 Y-1.4568
X40.9149 Y-1.452
X40.9107 Y-1.4511
X40.896 Y-1.4493
X40.0678 Y-1.4495
X40.0536 Y-1.4518
X40.0493 Y-1.453
X40.0363 Y-1.4579
X40.0262 Y-1.4635
X40.0194 Y-1.4682
X40.0021 Y-1.4796
X39.9788 Y-1.4931
X39.957 Y-1.5043
X39.9339 Y-1.5145
X39.9104 Y-1.5235
X39.8845 Y-1.5317
X39.8602 Y-1.5379
X39.836 Y-1.5427
X39.8097 Y-1.5464
X39.7839 Y-1.5485
X39.7623 Y-1.5492
X39.505
X39.483 Y-1.5485
X39.4577 Y-1.5464
X39.4326 Y-1.5429
X39.4069 Y-1.5378
X39.3821 Y-1.5314
X39.3589 Y-1.5241
X39.3349 Y-1.5151
X39.3103 Y-1.5043
X39.2865 Y-1.492
X39.2658 Y-1.4798
X39.2501 Y-1.4696
X39.2411 Y-1.4635
X39.2282 Y-1.4566
X39.2143 Y-1.4519
X39.2108 Y-1.4511
X39.1962 Y-1.4493
X38.3676 Y-1.4495
X38.3531 Y-1.4519
X38.3496 Y-1.4529
X38.3358 Y-1.4582
X38.3262 Y-1.4636
X38.3181 Y-1.4691
X38.3019 Y-1.4797
X38.2797 Y-1.4927
X38.257 Y-1.5043
X38.2335 Y-1.5147
X38.2097 Y-1.5238
X38.1851 Y-1.5315
X38.1603 Y-1.5379
X38.1352 Y-1.5428
X38.1098 Y-1.5464
X38.0843 Y-1.5485
X38.0624 Y-1.5492
X37.8051
X37.7831 Y-1.5485
X37.7576 Y-1.5464
X37.7323 Y-1.5428
X37.7071 Y-1.5379
X37.6822 Y-1.5315
X37.6578 Y-1.5238
X37.6339 Y-1.5147
X37.6105 Y-1.5043
X37.5877 Y-1.4926
X37.5656 Y-1.4797
X37.5494 Y-1.4691
X37.5413 Y-1.4636
X37.5282 Y-1.4566
X37.5143 Y-1.4519
X37.5108 Y-1.4511
X37.4962 Y-1.4493
X36.6676 Y-1.4495
X36.6531 Y-1.4519
X36.6496 Y-1.4529
X36.6358 Y-1.4582
X36.6262 Y-1.4636
X36.6181 Y-1.4691
X36.6019 Y-1.4797
X36.5797 Y-1.4927
X36.557 Y-1.5043
X36.5335 Y-1.5147
X36.5097 Y-1.5238
X36.4851 Y-1.5315
X36.4603 Y-1.5379
X36.4352 Y-1.5428
X36.4098 Y-1.5464
X36.3843 Y-1.5485
X36.3624 Y-1.5492
X36.1051
X36.0831 Y-1.5485
X36.0576 Y-1.5464
X36.0323 Y-1.5428
X36.0071 Y-1.5379
X35.9822 Y-1.5315
X35.9578 Y-1.5238
X35.9339 Y-1.5147
X35.9105 Y-1.5043
X35.8877 Y-1.4926
X35.8656 Y-1.4797
X35.8494 Y-1.4691
X35.8413 Y-1.4636
X35.8282 Y-1.4566
X35.8143 Y-1.4519
X35.8108 Y-1.4511
X35.7962 Y-1.4493
X34.9676 Y-1.4495
X34.9531 Y-1.4519
X34.9496 Y-1.4529
X34.9358 Y-1.4582
X34.9262 Y-1.4636
X34.9181 Y-1.4691
X34.9019 Y-1.4797
X34.8797 Y-1.4927
X34.857 Y-1.5043
X34.8335 Y-1.5147
X34.8097 Y-1.5238
X34.7851 Y-1.5315
X34.7603 Y-1.5379
X34.7352 Y-1.5428
X34.7098 Y-1.5464
X34.6843 Y-1.5485
X34.6624 Y-1.5492
X34.4051
X34.3831 Y-1.5485
X34.3576 Y-1.5464
X34.3323 Y-1.5428
X34.3071 Y-1.5379
X34.2822 Y-1.5315
X34.2578 Y-1.5238
X34.2339 Y-1.5147
X34.2105 Y-1.5043
X34.1877 Y-1.4926
X34.1656 Y-1.4797
X34.1494 Y-1.4691
X34.1413 Y-1.4636
X34.1282 Y-1.4566
X34.1143 Y-1.4519
X34.1108 Y-1.4511
X34.0962 Y-1.4493
X33.2676 Y-1.4495
X33.2531 Y-1.4519
X33.2496 Y-1.4529
X33.2358 Y-1.4582
X33.2262 Y-1.4636
X33.2181 Y-1.4691
X33.2019 Y-1.4797
X33.1797 Y-1.4927
X33.157 Y-1.5043
X33.1335 Y-1.5147
X33.1097 Y-1.5238
X33.0851 Y-1.5315
X33.0603 Y-1.5379
X33.0352 Y-1.5428
X33.0098 Y-1.5464
X32.9843 Y-1.5485
X32.9624 Y-1.5492
X32.7051
X32.6831 Y-1.5485
X32.6576 Y-1.5464
X32.6323 Y-1.5428
X32.6071 Y-1.5379
X32.5822 Y-1.5315
X32.5578 Y-1.5238
X32.5339 Y-1.5147
X32.5105 Y-1.5043
X32.4877 Y-1.4926
X32.4656 Y-1.4797
X32.4494 Y-1.4691
X32.4413 Y-1.4636
X32.4282 Y-1.4566
X32.4143 Y-1.4519
X32.4108 Y-1.4511
X32.3962 Y-1.4493
X31.5676 Y-1.4495
X31.5531 Y-1.4519
X31.5496 Y-1.4529
X31.5358 Y-1.4582
X31.5262 Y-1.4636
X31.5181 Y-1.4691
X31.5019 Y-1.4797
X31.4797 Y-1.4927
X31.457 Y-1.5043
X31.4335 Y-1.5147
X31.4097 Y-1.5238
X31.3851 Y-1.5315
X31.3603 Y-1.5379
X31.3352 Y-1.5428
X31.3098 Y-1.5464
X31.2843 Y-1.5485
X31.2624 Y-1.5492
X31.0051
X30.9831 Y-1.5485
X30.9576 Y-1.5464
X30.9323 Y-1.5428
X30.9071 Y-1.5379
X30.8822 Y-1.5315
X30.8578 Y-1.5238
X30.8339 Y-1.5147
X30.8105 Y-1.5043
X30.7877 Y-1.4926
X30.7656 Y-1.4797
X30.7494 Y-1.4691
X30.7413 Y-1.4636
X30.7282 Y-1.4566
X30.7143 Y-1.4519
X30.7108 Y-1.4511
X30.6962 Y-1.4493
X29.8676 Y-1.4495
X29.8531 Y-1.4519
X29.8496 Y-1.4529
X29.8358 Y-1.4582
X29.8262 Y-1.4636
X29.8181 Y-1.4691
X29.8019 Y-1.4797
X29.7797 Y-1.4927
X29.757 Y-1.5043
X29.7335 Y-1.5147
X29.7097 Y-1.5238
X29.6851 Y-1.5315
X29.6603 Y-1.5379
X29.6352 Y-1.5428
X29.6098 Y-1.5464
X29.5843 Y-1.5485
X29.5624 Y-1.5492
X29.3051
X29.2831 Y-1.5485
X29.2576 Y-1.5464
X29.2323 Y-1.5428
X29.2071 Y-1.5379
X29.1822 Y-1.5315
X29.1578 Y-1.5238
X29.1339 Y-1.5147
X29.1105 Y-1.5043
X29.0877 Y-1.4926
X29.0656 Y-1.4797
X29.0494 Y-1.4691
X29.0413 Y-1.4636
X29.0282 Y-1.4566
X29.0143 Y-1.4519
X29.0108 Y-1.4511
X28.9962 Y-1.4493
X28.1676 Y-1.4495
X28.1531 Y-1.4519
X28.1496 Y-1.4529
X28.1358 Y-1.4582
X28.1262 Y-1.4636
X28.1181 Y-1.4691
X28.1019 Y-1.4797
X28.0797 Y-1.4927
X28.057 Y-1.5043
X28.0335 Y-1.5147
X28.0097 Y-1.5238
X27.9851 Y-1.5315
X27.9603 Y-1.5379
X27.9352 Y-1.5428
X27.9098 Y-1.5464
X27.8843 Y-1.5485
X27.8624 Y-1.5492
X27.6051
X27.5831 Y-1.5485
X27.5576 Y-1.5464
X27.5323 Y-1.5428
X27.5071 Y-1.5379
X27.4822 Y-1.5315
X27.4578 Y-1.5238
X27.4339 Y-1.5147
X27.4105 Y-1.5043
X27.3877 Y-1.4926
X27.3656 Y-1.4797
X27.3494 Y-1.4691
X27.3413 Y-1.4636
X27.3282 Y-1.4566
X27.3143 Y-1.4519
X27.3108 Y-1.4511
X27.2962 Y-1.4493
X26.4676 Y-1.4495
X26.4531 Y-1.4519
X26.4496 Y-1.4529
X26.4358 Y-1.4582
X26.4262 Y-1.4636
X26.4181 Y-1.4691
X26.4019 Y-1.4797
X26.3797 Y-1.4927
X26.357 Y-1.5043
X26.3335 Y-1.5147
X26.3097 Y-1.5238
X26.2851 Y-1.5315
X26.2603 Y-1.5379
X26.2352 Y-1.5428
X26.2098 Y-1.5464
X26.1843 Y-1.5485
X26.1624 Y-1.5492
X25.9051
X25.8831 Y-1.5485
X25.8576 Y-1.5464
X25.8323 Y-1.5428
X25.8071 Y-1.5379
X25.7822 Y-1.5315
X25.7578 Y-1.5238
X25.7339 Y-1.5147
X25.7105 Y-1.5043
X25.6877 Y-1.4926
X25.6656 Y-1.4797
X25.6494 Y-1.4691
X25.6413 Y-1.4636
X25.6282 Y-1.4566
X25.6143 Y-1.4519
X25.6108 Y-1.4511
X25.5962 Y-1.4493
X24.7676 Y-1.4495
X24.7531 Y-1.4519
X24.7496 Y-1.4529
X24.7358 Y-1.4582
X24.7262 Y-1.4636
X24.7181 Y-1.4691
X24.7019 Y-1.4797
X24.6797 Y-1.4927
X24.657 Y-1.5043
X24.6335 Y-1.5147
X24.6097 Y-1.5238
X24.5851 Y-1.5315
X24.5603 Y-1.5379
X24.5352 Y-1.5428
X24.5098 Y-1.5464
X24.4843 Y-1.5485
X24.4624 Y-1.5492
X24.2051
X24.1831 Y-1.5485
X24.1576 Y-1.5464
X24.1323 Y-1.5428
X24.1071 Y-1.5379
X24.0822 Y-1.5315
X24.0578 Y-1.5238
X24.0339 Y-1.5147
X24.0105 Y-1.5043
X23.9877 Y-1.4926
X23.9656 Y-1.4797
X23.9494 Y-1.4691
X23.9413 Y-1.4636
X23.9282 Y-1.4566
X23.9143 Y-1.4519
X23.9108 Y-1.4511
X23.8962 Y-1.4493
X23.0676 Y-1.4495
X23.0531 Y-1.4519
X23.0496 Y-1.4529
X23.0358 Y-1.4582
X23.0262 Y-1.4636
X23.0181 Y-1.4691
X23.0019 Y-1.4797
X22.9797 Y-1.4927
X22.957 Y-1.5043
X22.9335 Y-1.5147
X22.9097 Y-1.5238
X22.8851 Y-1.5315
X22.8603 Y-1.5379
X22.8352 Y-1.5428
X22.8098 Y-1.5464
X22.7843 Y-1.5485
X22.7624 Y-1.5492
X22.5051
X22.4831 Y-1.5485
X22.4576 Y-1.5464
X22.4323 Y-1.5428
X22.4071 Y-1.5379
X22.3822 Y-1.5315
X22.3578 Y-1.5238
X22.3339 Y-1.5147
X22.3105 Y-1.5043
X22.2877 Y-1.4926
X22.2656 Y-1.4797
X22.2494 Y-1.4691
X22.2413 Y-1.4636
X22.2282 Y-1.4566
X22.2143 Y-1.4519
X22.2108 Y-1.4511
X22.1962 Y-1.4493
X21.3676 Y-1.4495
X21.3531 Y-1.4519
X21.3496 Y-1.4529
X21.3358 Y-1.4582
X21.3262 Y-1.4636
X21.3181 Y-1.4691
X21.3019 Y-1.4797
X21.2797 Y-1.4927
X21.257 Y-1.5043
X21.2335 Y-1.5147
X21.2097 Y-1.5238
X21.1851 Y-1.5315
X21.1603 Y-1.5379
X21.1352 Y-1.5428
X21.1098 Y-1.5464
X21.0843 Y-1.5485
X21.0624 Y-1.5492
X20.8051
X20.7831 Y-1.5485
X20.7576 Y-1.5464
X20.7323 Y-1.5428
X20.7071 Y-1.5379
X20.6822 Y-1.5315
X20.6578 Y-1.5238
X20.6339 Y-1.5147
X20.6105 Y-1.5043
X20.5877 Y-1.4926
X20.5656 Y-1.4797
X20.5494 Y-1.4691
X20.5413 Y-1.4636
X20.5282 Y-1.4566
X20.5143 Y-1.4519
X20.5108 Y-1.4511
X20.4962 Y-1.4493
X19.6676 Y-1.4495
X19.6531 Y-1.4519
X19.6496 Y-1.4529
X19.6358 Y-1.4582
X19.6262 Y-1.4636
X19.6181 Y-1.4691
X19.6019 Y-1.4797
X19.5797 Y-1.4927
X19.557 Y-1.5043
X19.5335 Y-1.5147
X19.5097 Y-1.5238
X19.4851 Y-1.5315
X19.4603 Y-1.5379
X19.4352 Y-1.5428
X19.4098 Y-1.5464
X19.3843 Y-1.5485
X19.3624 Y-1.5492
X19.1051
X19.0831 Y-1.5485
X19.0576 Y-1.5464
X19.0323 Y-1.5428
X19.0071 Y-1.5379
X18.9822 Y-1.5315
X18.9578 Y-1.5238
X18.9339 Y-1.5147
X18.9105 Y-1.5043
X18.8877 Y-1.4926
X18.8656 Y-1.4797
X18.8494 Y-1.4691
X18.8413 Y-1.4636
X18.8282 Y-1.4566
X18.8143 Y-1.4519
X18.8108 Y-1.4511
X18.7962 Y-1.4493
X17.9676 Y-1.4495
X17.9531 Y-1.4519
X17.9496 Y-1.4529
X17.9358 Y-1.4582
X17.9262 Y-1.4636
X17.9181 Y-1.4691
X17.9019 Y-1.4797
X17.8797 Y-1.4927
X17.857 Y-1.5043
X17.8335 Y-1.5147
X17.8097 Y-1.5238
X17.7851 Y-1.5315
X17.7603 Y-1.5379
X17.7352 Y-1.5428
X17.7098 Y-1.5464
X17.6843 Y-1.5485
X17.6624 Y-1.5492
X17.4051
X17.3831 Y-1.5485
X17.3576 Y-1.5464
X17.3323 Y-1.5428
X17.3071 Y-1.5379
X17.2822 Y-1.5315
X17.2578 Y-1.5238
X17.2339 Y-1.5147
X17.2105 Y-1.5043
X17.1877 Y-1.4926
X17.1656 Y-1.4797
X17.1494 Y-1.4691
X17.1413 Y-1.4636
X17.1282 Y-1.4566
X17.1143 Y-1.4519
X17.1108 Y-1.4511
X17.0962 Y-1.4493
X16.2676 Y-1.4495
X16.2531 Y-1.4519
X16.2496 Y-1.4529
X16.2358 Y-1.4582
X16.2262 Y-1.4636
X16.2181 Y-1.4691
X16.2019 Y-1.4797
X16.1797 Y-1.4927
X16.157 Y-1.5043
X16.1335 Y-1.5147
X16.1097 Y-1.5238
X16.0851 Y-1.5315
X16.0603 Y-1.5379
X16.0352 Y-1.5428
X16.0098 Y-1.5464
X15.9843 Y-1.5485
X15.9624 Y-1.5492
X15.7051
X15.6831 Y-1.5485
X15.6576 Y-1.5464
X15.6323 Y-1.5428
X15.6071 Y-1.5379
X15.5822 Y-1.5315
X15.5578 Y-1.5238
X15.5339 Y-1.5147
X15.5105 Y-1.5043
X15.4877 Y-1.4926
X15.4656 Y-1.4797
X15.4494 Y-1.4691
X15.4413 Y-1.4636
X15.4282 Y-1.4566
X15.4143 Y-1.4519
X15.4108 Y-1.4511
X15.3962 Y-1.4493
X14.5676 Y-1.4495
X14.5531 Y-1.4519
X14.5496 Y-1.4529
X14.5358 Y-1.4582
X14.5262 Y-1.4636
X14.5181 Y-1.4691
X14.5019 Y-1.4797
X14.4797 Y-1.4927
X14.457 Y-1.5043
X14.4335 Y-1.5147
X14.4097 Y-1.5238
X14.3851 Y-1.5315
X14.3603 Y-1.5379
X14.3352 Y-1.5428
X14.3098 Y-1.5464
X14.2843 Y-1.5485
X14.2624 Y-1.5492
X14.0051
X13.9831 Y-1.5485
X13.9576 Y-1.5464
X13.9323 Y-1.5428
X13.9071 Y-1.5379
X13.8822 Y-1.5315
X13.8578 Y-1.5238
X13.8339 Y-1.5147
X13.8105 Y-1.5043
X13.7877 Y-1.4926
X13.7656 Y-1.4797
X13.7494 Y-1.4691
X13.7413 Y-1.4636
X13.7282 Y-1.4566
X13.7143 Y-1.4519
X13.7108 Y-1.4511
X13.6962 Y-1.4493
X12.8676 Y-1.4495
X12.8531 Y-1.4519
X12.8496 Y-1.4529
X12.8358 Y-1.4582
X12.8262 Y-1.4636
X12.8181 Y-1.4691
X12.8019 Y-1.4797
X12.7797 Y-1.4927
X12.757 Y-1.5043
X12.7335 Y-1.5147
X12.7097 Y-1.5238
X12.6851 Y-1.5315
X12.6603 Y-1.5379
X12.6352 Y-1.5428
X12.6098 Y-1.5464
X12.5843 Y-1.5485
X12.5624 Y-1.5492
X12.3051
X12.2831 Y-1.5485
X12.2576 Y-1.5464
X12.2323 Y-1.5428
X12.2071 Y-1.5379
X12.1822 Y-1.5315
X12.1578 Y-1.5238
X12.1339 Y-1.5147
X12.1105 Y-1.5043
X12.0877 Y-1.4926
X12.0656 Y-1.4797
X12.0494 Y-1.4691
X12.0413 Y-1.4636
X12.0282 Y-1.4566
X12.0143 Y-1.4519
X12.0108 Y-1.4511
X11.9962 Y-1.4493
X11.1676 Y-1.4495
X11.1531 Y-1.4519
X11.1496 Y-1.4529
X11.1358 Y-1.4582
X11.1262 Y-1.4636
X11.1181 Y-1.4691
X11.1019 Y-1.4797
X11.0797 Y-1.4927
X11.057 Y-1.5043
X11.0335 Y-1.5147
X11.0097 Y-1.5238
X10.9851 Y-1.5315
X10.9603 Y-1.5379
X10.9352 Y-1.5428
X10.9098 Y-1.5464
X10.8843 Y-1.5485
X10.8624 Y-1.5492
X10.6051
X10.5831 Y-1.5485
X10.5576 Y-1.5464
X10.5323 Y-1.5428
X10.5071 Y-1.5379
X10.4822 Y-1.5315
X10.4578 Y-1.5238
X10.4339 Y-1.5147
X10.4105 Y-1.5043
X10.3877 Y-1.4926
X10.3656 Y-1.4797
X10.3494 Y-1.4691
X10.3413 Y-1.4636
X10.3282 Y-1.4566
X10.3143 Y-1.4519
X10.3108 Y-1.4511
X10.2962 Y-1.4493
X9.4676 Y-1.4495
X9.4531 Y-1.4519
X9.4496 Y-1.4529
X9.4358 Y-1.4582
X9.4262 Y-1.4636
X9.4181 Y-1.4691
X9.4019 Y-1.4797
X9.3797 Y-1.4927
X9.357 Y-1.5043
X9.3335 Y-1.5147
X9.3097 Y-1.5238
X9.2851 Y-1.5315
X9.2603 Y-1.5379
X9.2352 Y-1.5428
X9.2098 Y-1.5464
X9.1843 Y-1.5485
X9.1624 Y-1.5492
X8.9051
X8.8831 Y-1.5485
X8.8576 Y-1.5464
X8.8323 Y-1.5428
X8.8071 Y-1.5379
X8.7822 Y-1.5315
X8.7578 Y-1.5238
X8.7339 Y-1.5147
X8.7105 Y-1.5043
X8.6877 Y-1.4926
X8.6656 Y-1.4797
X8.6494 Y-1.4691
X8.6413 Y-1.4636
X8.6282 Y-1.4566
X8.6143 Y-1.4519
X8.6108 Y-1.4511
X8.5962 Y-1.4493
X7.7676 Y-1.4495
X7.7531 Y-1.4519
X7.7496 Y-1.4529
X7.7358 Y-1.4582
X7.7262 Y-1.4636
X7.7181 Y-1.4691
X7.7019 Y-1.4797
X7.6797 Y-1.4927
X7.657 Y-1.5043
X7.6335 Y-1.5147
X7.6097 Y-1.5238
X7.5851 Y-1.5315
X7.5603 Y-1.5379
X7.5352 Y-1.5428
X7.5098 Y-1.5464
X7.4843 Y-1.5485
X7.4624 Y-1.5492
X7.2051
X7.1831 Y-1.5485
X7.1576 Y-1.5464
X7.1323 Y-1.5428
X7.1071 Y-1.5379
X7.0822 Y-1.5315
X7.0578 Y-1.5238
X7.0339 Y-1.5147
X7.0105 Y-1.5043
X6.9877 Y-1.4926
X6.9656 Y-1.4797
X6.9494 Y-1.4691
X6.9413 Y-1.4636
X6.9282 Y-1.4566
X6.9143 Y-1.4519
X6.9108 Y-1.4511
X6.8962 Y-1.4493
X6.0676 Y-1.4495
X6.0531 Y-1.4519
X6.0496 Y-1.4529
X6.0358 Y-1.4582
X6.0262 Y-1.4636
X6.0181 Y-1.4691
X6.0019 Y-1.4797
X5.9797 Y-1.4927
X5.957 Y-1.5043
X5.9335 Y-1.5147
X5.9097 Y-1.5238
X5.8851 Y-1.5315
X5.8603 Y-1.5379
X5.8352 Y-1.5428
X5.8098 Y-1.5464
X5.7843 Y-1.5485
X5.7624 Y-1.5492
X5.5051
X5.4831 Y-1.5485
X5.4576 Y-1.5464
X5.4323 Y-1.5428
X5.4071 Y-1.5379
X5.3822 Y-1.5315
X5.3578 Y-1.5238
X5.3339 Y-1.5147
X5.3105 Y-1.5043
X5.2877 Y-1.4926
X5.2656 Y-1.4797
X5.2494 Y-1.4691
X5.2413 Y-1.4636
X5.2282 Y-1.4566
X5.2143 Y-1.4519
X5.2108 Y-1.4511
X5.1962 Y-1.4493
X4.3676 Y-1.4495
X4.3531 Y-1.4519
X4.3496 Y-1.4529
X4.3358 Y-1.4582
X4.3262 Y-1.4636
X4.3181 Y-1.4691
X4.3019 Y-1.4797
X4.2797 Y-1.4927
X4.257 Y-1.5043
X4.2335 Y-1.5147
X4.2097 Y-1.5238
X4.1851 Y-1.5315
X4.1603 Y-1.5379
X4.1352 Y-1.5428
X4.1098 Y-1.5464
X4.0843 Y-1.5485
X4.0624 Y-1.5492
X3.8051
X3.7831 Y-1.5485
X3.7576 Y-1.5464
X3.7323 Y-1.5428
X3.7071 Y-1.5379
X3.6823 Y-1.5315
X3.6579 Y-1.5238
X3.6339 Y-1.5147
X3.6105 Y-1.5043
X3.5877 Y-1.4926
X3.5656 Y-1.4797
X3.5494 Y-1.4691
X3.5412 Y-1.4635
X3.5282 Y-1.4566
X3.5143 Y-1.4519
X3.5107 Y-1.4511
X3.4962 Y-1.4493
X2.6676 Y-1.4495
X2.6531 Y-1.4519
X2.6496 Y-1.4529
X2.6359 Y-1.4581
X2.6263 Y-1.4635
X2.618 Y-1.4691
X2.6018 Y-1.4797
X2.5797 Y-1.4926
X2.557 Y-1.5043
X2.5335 Y-1.5147
X2.5096 Y-1.5238
X2.4851 Y-1.5315
X2.4603 Y-1.5379
X2.4352 Y-1.5428
X2.4098 Y-1.5464
X2.3843 Y-1.5485
X2.3624 Y-1.5492
X2.1051
X2.0831 Y-1.5485
X2.0576 Y-1.5464
X2.0323 Y-1.5428
X2.0071 Y-1.5379
X1.9823 Y-1.5315
X1.9579 Y-1.5238
X1.9339 Y-1.5147
X1.9105 Y-1.5043
X1.8877 Y-1.4926
X1.8656 Y-1.4797
X1.8494 Y-1.4691
X1.8412 Y-1.4635
X1.8282 Y-1.4566
X1.8143 Y-1.4519
X1.7999 Y-1.4495
X0.975 Y-1.4492
X0.475
X0.4638 Y-1.4505
X0.4533 Y-1.4542
X0.4438 Y-1.4601
X0.4359 Y-1.468
X0.4299 Y-1.4775
X0.4262 Y-1.4881
X0.425 Y-1.4992
X0.4235 Y-1.5104
X0.4221 Y-1.5214 Z-1.0567
X0.4208 Y-1.5319 Z-1.053
X0.4196 Y-1.5413 Z-1.0471
X0.4186 Y-1.5491 Z-1.0392
X0.4179 Y-1.555 Z-1.0297
X0.4174 Y-1.5587 Z-1.0191
X0.4172 Y-1.56 Z-1.008
G0 Z0.658

(TRACE6 2)
G0 X0.4172 Y-1.55
Z0.658
Z-1.008
G1 X0.4174 Y-1.5487 Z-1.0191 F100.
X0.4179 Y-1.545 Z-1.0297
X0.4186 Y-1.5391 Z-1.0392
X0.4196 Y-1.5313 Z-1.0471
X0.4208 Y-1.5219 Z-1.053
X0.4221 Y-1.5114 Z-1.0567
X0.4235 Y-1.5004 Z-1.058
X0.425 Y-1.4892
X0.4262 Y-1.4781
X0.4299 Y-1.4675
X0.4359 Y-1.458
X0.4438 Y-1.4501
X0.4533 Y-1.4442
X0.4638 Y-1.4405
X0.475 Y-1.4392
X0.975
X1.79
X1.8047 Y-1.44
X1.8207 Y-1.4433
X1.8246 Y-1.4445
X1.8396 Y-1.451
X1.8431 Y-1.453
X1.8466 Y-1.4551
X1.855 Y-1.4608
X1.8709 Y-1.4712
X1.8925 Y-1.4839
X1.9148 Y-1.4953
X1.9377 Y-1.5055
X1.9611 Y-1.5143
X1.9851 Y-1.5219
X2.0093 Y-1.5281
X2.0339 Y-1.533
X2.0587 Y-1.5364
X2.0837 Y-1.5385
X2.1052 Y-1.5392
X2.3622
X2.3838 Y-1.5385
X2.4087 Y-1.5364
X2.4335 Y-1.533
X2.4581 Y-1.5281
X2.4824 Y-1.5219
X2.5063 Y-1.5143
X2.5297 Y-1.5055
X2.5526 Y-1.4953
X2.5749 Y-1.4839
X2.5965 Y-1.4713
X2.6125 Y-1.4608
X2.6209 Y-1.4551
X2.6353 Y-1.4474
X2.6507 Y-1.4422
X2.6547 Y-1.4413
X2.6709 Y-1.4393
X3.5007 Y-1.4396
X3.5168 Y-1.4422
X3.5207 Y-1.4433
X3.5359 Y-1.4491
X3.5466 Y-1.4551
X3.555 Y-1.4608
X3.5709 Y-1.4712
X3.5925 Y-1.4839
X3.6148 Y-1.4953
X3.6377 Y-1.5055
X3.6611 Y-1.5143
X3.6851 Y-1.5219
X3.7093 Y-1.5281
X3.7339 Y-1.533
X3.7587 Y-1.5364
X3.7837 Y-1.5385
X3.8052 Y-1.5392
X4.0622
X4.0838 Y-1.5385
X4.1087 Y-1.5364
X4.1335 Y-1.533
X4.1581 Y-1.5281
X4.1824 Y-1.5219
X4.2064 Y-1.5143
X4.2297 Y-1.5055
X4.2527 Y-1.4953
X4.2749 Y-1.4839
X4.2966 Y-1.4712
X4.3125 Y-1.4608
X4.3208 Y-1.4552
X4.3352 Y-1.4475
X4.3507 Y-1.4422
X4.3547 Y-1.4413
X4.3709 Y-1.4393
X5.2007 Y-1.4396
X5.2167 Y-1.4422
X5.2206 Y-1.4433
X5.2359 Y-1.4492
X5.2467 Y-1.4552
X5.255 Y-1.4608
X5.2709 Y-1.4712
X5.2925 Y-1.4839
X5.3148 Y-1.4953
X5.3377 Y-1.5055
X5.3611 Y-1.5143
X5.3849 Y-1.5219
X5.4093 Y-1.5281
X5.434 Y-1.533
X5.4587 Y-1.5364
X5.4837 Y-1.5385
X5.5053 Y-1.5392
X5.7622
X5.7838 Y-1.5385
X5.8087 Y-1.5364
X5.8335 Y-1.533
X5.8581 Y-1.5281
X5.8824 Y-1.5219
X5.9064 Y-1.5143
X5.9297 Y-1.5055
X5.9527 Y-1.4953
X5.9749 Y-1.4839
X5.9966 Y-1.4712
X6.0125 Y-1.4608
X6.0208 Y-1.4552
X6.0352 Y-1.4475
X6.0507 Y-1.4422
X6.0547 Y-1.4413
X6.0709 Y-1.4393
X6.9007 Y-1.4396
X6.9167 Y-1.4422
X6.9206 Y-1.4433
X6.9359 Y-1.4492
X6.9467 Y-1.4552
X6.955 Y-1.4608
X6.9709 Y-1.4712
X6.9925 Y-1.4839
X7.0148 Y-1.4953
X7.0377 Y-1.5055
X7.0611 Y-1.5143
X7.0849 Y-1.5219
X7.1093 Y-1.5281
X7.134 Y-1.533
X7.1587 Y-1.5364
X7.1837 Y-1.5385
X7.2053 Y-1.5392
X7.4622
X7.4838 Y-1.5385
X7.5087 Y-1.5364
X7.5335 Y-1.533
X7.5581 Y-1.5281
X7.5824 Y-1.5219
X7.6064 Y-1.5143
X7.6297 Y-1.5055
X7.6527 Y-1.4953
X7.6749 Y-1.4839
X7.6966 Y-1.4712
X7.7125 Y-1.4608
X7.7208 Y-1.4552
X7.7352 Y-1.4475
X7.7507 Y-1.4422
X7.7547 Y-1.4413
X7.7709 Y-1.4393
X8.6007 Y-1.4396
X8.6167 Y-1.4422
X8.6206 Y-1.4433
X8.6359 Y-1.4492
X8.6467 Y-1.4552
X8.655 Y-1.4608
X8.6709 Y-1.4712
X8.6925 Y-1.4839
X8.7148 Y-1.4953
X8.7377 Y-1.5055
X8.7611 Y-1.5143
X8.7849 Y-1.5219
X8.8093 Y-1.5281
X8.834 Y-1.533
X8.8587 Y-1.5364
X8.8837 Y-1.5385
X8.9053 Y-1.5392
X9.1622
X9.1838 Y-1.5385
X9.2087 Y-1.5364
X9.2335 Y-1.533
X9.2581 Y-1.5281
X9.2824 Y-1.5219
X9.3064 Y-1.5143
X9.3297 Y-1.5055
X9.3527 Y-1.4953
X9.3749 Y-1.4839
X9.3966 Y-1.4712
X9.4125 Y-1.4608
X9.4208 Y-1.4552
X9.4352 Y-1.4475
X9.4507 Y-1.4422
X9.4547 Y-1.4413
X9.4709 Y-1.4393
X10.3007 Y-1.4396
X10.3167 Y-1.4422
X10.3206 Y-1.4433
X10.3359 Y-1.4492
X10.3467 Y-1.4552
X10.355 Y-1.4608
X10.3709 Y-1.4712
X10.3925 Y-1.4839
X10.4148 Y-1.4953
X10.4377 Y-1.5055
X10.4611 Y-1.5143
X10.4849 Y-1.5219
X10.5093 Y-1.5281
X10.534 Y-1.533
X10.5587 Y-1.5364
X10.5837 Y-1.5385
X10.6053 Y-1.5392
X10.8622
X10.8838 Y-1.5385
X10.9087 Y-1.5364
X10.9335 Y-1.533
X10.9581 Y-1.5281
X10.9824 Y-1.5219
X11.0064 Y-1.5143
X11.0297 Y-1.5055
X11.0527 Y-1.4953
X11.0749 Y-1.4839
X11.0966 Y-1.4712
X11.1125 Y-1.4608
X11.1208 Y-1.4552
X11.1352 Y-1.4475
X11.1507 Y-1.4422
X11.1547 Y-1.4413
X11.1709 Y-1.4393
X12.0007 Y-1.4396
X12.0167 Y-1.4422
X12.0206 Y-1.4433
X12.0359 Y-1.4492
X12.0467 Y-1.4552
X12.055 Y-1.4608
X12.0709 Y-1.4712
X12.0925 Y-1.4839
X12.1148 Y-1.4953
X12.1377 Y-1.5055
X12.1611 Y-1.5143
X12.1849 Y-1.5219
X12.2093 Y-1.5281
X12.234 Y-1.533
X12.2587 Y-1.5364
X12.2837 Y-1.5385
X12.3053 Y-1.5392
X12.5622
X12.5838 Y-1.5385
X12.6087 Y-1.5364
X12.6335 Y-1.533
X12.6581 Y-1.5281
X12.6824 Y-1.5219
X12.7064 Y-1.5143
X12.7297 Y-1.5055
X12.7527 Y-1.4953
X12.7749 Y-1.4839
X12.7966 Y-1.4712
X12.8125 Y-1.4608
X12.8208 Y-1.4552
X12.8352 Y-1.4475
X12.8507 Y-1.4422
X12.8547 Y-1.4413
X12.8709 Y-1.4393
X13.7007 Y-1.4396
X13.7167 Y-1.4422
X13.7206 Y-1.4433
X13.7359 Y-1.4492
X13.7467 Y-1.4552
X13.755 Y-1.4608
X13.7709 Y-1.4712
X13.7925 Y-1.4839
X13.8148 Y-1.4953
X13.8377 Y-1.5055
X13.8611 Y-1.5143
X13.8849 Y-1.5219
X13.9093 Y-1.5281
X13.934 Y-1.533
X13.9587 Y-1.5364
X13.9837 Y-1.5385
X14.0053 Y-1.5392
X14.2622
X14.2838 Y-1.5385
X14.3087 Y-1.5364
X14.3335 Y-1.533
X14.3581 Y-1.5281
X14.3824 Y-1.5219
X14.4064 Y-1.5143
X14.4297 Y-1.5055
X14.4527 Y-1.4953
X14.4749 Y-1.4839
X14.4966 Y-1.4712
X14.5125 Y-1.4608
X14.5208 Y-1.4552
X14.5352 Y-1.4475
X14.5507 Y-1.4422
X14.5547 Y-1.4413
X14.5709 Y-1.4393
X15.4007 Y-1.4396
X15.4167 Y-1.4422
X15.4206 Y-1.4433
X15.4359 Y-1.4492
X15.4467 Y-1.4552
X15.455 Y-1.4608
X15.4709 Y-1.4712
X15.4925 Y-1.4839
X15.5148 Y-1.4953
X15.5377 Y-1.5055
X15.5611 Y-1.5143
X15.5849 Y-1.5219
X15.6093 Y-1.5281
X15.6339 Y-1.533
X15.6587 Y-1.5364
X15.6837 Y-1.5385
X15.7053 Y-1.5392
X15.9622
X15.9838 Y-1.5385
X16.0087 Y-1.5364
X16.0335 Y-1.533
X16.0581 Y-1.5281
X16.0824 Y-1.5219
X16.1064 Y-1.5143
X16.1297 Y-1.5055
X16.1527 Y-1.4953
X16.1749 Y-1.4839
X16.1966 Y-1.4712
X16.2125 Y-1.4608
X16.2208 Y-1.4552
X16.2352 Y-1.4475
X16.2507 Y-1.4422
X16.2547 Y-1.4413
X16.2709 Y-1.4393
X17.1007 Y-1.4396
X17.1167 Y-1.4422
X17.1206 Y-1.4433
X17.1359 Y-1.4492
X17.1467 Y-1.4552
X17.155 Y-1.4608
X17.1709 Y-1.4712
X17.1925 Y-1.4839
X17.2148 Y-1.4953
X17.2377 Y-1.5055
X17.2611 Y-1.5143
X17.2849 Y-1.5219
X17.3093 Y-1.5281
X17.334 Y-1.533
X17.3587 Y-1.5364
X17.3837 Y-1.5385
X17.4053 Y-1.5392
X17.6622
X17.6838 Y-1.5385
X17.7087 Y-1.5364
X17.7335 Y-1.533
X17.7581 Y-1.5281
X17.7824 Y-1.5219
X17.8064 Y-1.5143
X17.8297 Y-1.5055
X17.8527 Y-1.4953
X17.8749 Y-1.4839
X17.8966 Y-1.4712
X17.9125 Y-1.4608
X17.9208 Y-1.4552
X17.9352 Y-1.4475
X17.9507 Y-1.4422
X17.9547 Y-1.4413
X17.9709 Y-1.4393
X18.8007 Y-1.4396
X18.8167 Y-1.4422
X18.8206 Y-1.4433
X18.8359 Y-1.4492
X18.8467 Y-1.4552
X18.855 Y-1.4608
X18.8709 Y-1.4712
X18.8925 Y-1.4839
X18.9148 Y-1.4953
X18.9377 Y-1.5055
X18.9611 Y-1.5143
X18.9849 Y-1.5219
X19.0093 Y-1.5281
X19.034 Y-1.533
X19.0587 Y-1.5364
X19.0837 Y-1.5385
X19.1053 Y-1.5392
X19.3622
X19.3838 Y-1.5385
X19.4087 Y-1.5364
X19.4335 Y-1.533
X19.4581 Y-1.5281
X19.4824 Y-1.5219
X19.5064 Y-1.5143
X19.5297 Y-1.5055
X19.5527 Y-1.4953
X19.5749 Y-1.4839
X19.5966 Y-1.4712
X19.6125 Y-1.4608
X19.6208 Y-1.4552
X19.6352 Y-1.4475
X19.6507 Y-1.4422
X19.6547 Y-1.4413
X19.6709 Y-1.4393
X20.5007 Y-1.4396
X20.5167 Y-1.4422
X20.5206 Y-1.4433
X20.5359 Y-1.4492
X20.5467 Y-1.4552
X20.555 Y-1.4608
X20.5709 Y-1.4712
X20.5925 Y-1.4839
X20.6148 Y-1.4953
X20.6377 Y-1.5055
X20.6611 Y-1.5143
X20.6849 Y-1.5219
X20.7093 Y-1.5281
X20.734 Y-1.533
X20.7587 Y-1.5364
X20.7837 Y-1.5385
X20.8053 Y-1.5392
X21.0622
X21.0838 Y-1.5385
X21.1087 Y-1.5364
X21.1335 Y-1.533
X21.1581 Y-1.5281
X21.1824 Y-1.5219
X21.2064 Y-1.5143
X21.2297 Y-1.5055
X21.2527 Y-1.4953
X21.2749 Y-1.4839
X21.2966 Y-1.4712
X21.3125 Y-1.4608
X21.3208 Y-1.4552
X21.3352 Y-1.4475
X21.3507 Y-1.4422
X21.3547 Y-1.4413
X21.3709 Y-1.4393
X22.2007 Y-1.4396
X22.2167 Y-1.4422
X22.2206 Y-1.4433
X22.2359 Y-1.4492
X22.2467 Y-1.4552
X22.255 Y-1.4608
X22.2709 Y-1.4712
X22.2925 Y-1.4839
X22.3148 Y-1.4953
X22.3377 Y-1.5055
X22.3611 Y-1.5143
X22.3849 Y-1.5219
X22.4093 Y-1.5281
X22.4339 Y-1.533
X22.4587 Y-1.5364
X22.4837 Y-1.5385
X22.5053 Y-1.5392
X22.7622
X22.7838 Y-1.5385
X22.8087 Y-1.5364
X22.8335 Y-1.533
X22.8581 Y-1.5281
X22.8824 Y-1.5219
X22.9064 Y-1.5143
X22.9297 Y-1.5055
X22.9527 Y-1.4953
X22.9749 Y-1.4839
X22.9966 Y-1.4712
X23.0125 Y-1.4608
X23.0208 Y-1.4552
X23.0352 Y-1.4475
X23.0507 Y-1.4422
X23.0547 Y-1.4413
X23.0709 Y-1.4393
X23.9007 Y-1.4396
X23.9167 Y-1.4422
X23.9206 Y-1.4433
X23.9359 Y-1.4492
X23.9467 Y-1.4552
X23.955 Y-1.4608
X23.9709 Y-1.4712
X23.9925 Y-1.4839
X24.0148 Y-1.4953
X24.0377 Y-1.5055
X24.0611 Y-1.5143
X24.0849 Y-1.5219
X24.1093 Y-1.5281
X24.1339 Y-1.533
X24.1587 Y-1.5364
X24.1837 Y-1.5385
X24.2053 Y-1.5392
X24.4622
X24.4838 Y-1.5385
X24.5087 Y-1.5364
X24.5335 Y-1.533
X24.5581 Y-1.5281
X24.5824 Y-1.5219
X24.6064 Y-1.5143
X24.6297 Y-1.5055
X24.6527 Y-1.4953
X24.6749 Y-1.4839
X24.6966 Y-1.4712
X24.7125 Y-1.4608
X24.7208 Y-1.4552
X24.7352 Y-1.4475
X24.7507 Y-1.4422
X24.7547 Y-1.4413
X24.7709 Y-1.4393
X25.6007 Y-1.4396
X25.6167 Y-1.4422
X25.6206 Y-1.4433
X25.636 Y-1.4492
X25.6467 Y-1.4552
X25.655 Y-1.4608
X25.6709 Y-1.4712
X25.6925 Y-1.4839
X25.7148 Y-1.4953
X25.7377 Y-1.5055
X25.7611 Y-1.5143
X25.7849 Y-1.5219
X25.8093 Y-1.5281
X25.8339 Y-1.533
X25.8587 Y-1.5364
X25.8837 Y-1.5385
X25.9053 Y-1.5392
X26.1622
X26.1838 Y-1.5385
X26.2087 Y-1.5364
X26.2335 Y-1.533
X26.2581 Y-1.5281
X26.2824 Y-1.5219
X26.3064 Y-1.5143
X26.3297 Y-1.5055
X26.3527 Y-1.4953
X26.3749 Y-1.4839
X26.3966 Y-1.4712
X26.4125 Y-1.4608
X26.4208 Y-1.4552
X26.4352 Y-1.4475
X26.4507 Y-1.4422
X26.4547 Y-1.4413
X26.4709 Y-1.4393
X27.3007 Y-1.4396
X27.3167 Y-1.4422
X27.3206 Y-1.4433
X27.3359 Y-1.4492
X27.3467 Y-1.4552
X27.355 Y-1.4608
X27.3709 Y-1.4712
X27.3925 Y-1.4839
X27.4148 Y-1.4953
X27.4377 Y-1.5055
X27.4611 Y-1.5143
X27.4849 Y-1.5219
X27.5093 Y-1.5281
X27.534 Y-1.533
X27.5587 Y-1.5364
X27.5837 Y-1.5385
X27.6053 Y-1.5392
X27.8622
X27.8838 Y-1.5385
X27.9087 Y-1.5364
X27.9335 Y-1.533
X27.9581 Y-1.5281
X27.9824 Y-1.5219
X28.0064 Y-1.5143
X28.0297 Y-1.5055
X28.0527 Y-1.4953
X28.0749 Y-1.4839
X28.0966 Y-1.4712
X28.1125 Y-1.4608
X28.1208 Y-1.4552
X28.1352 Y-1.4475
X28.1507 Y-1.4422
X28.1547 Y-1.4413
X28.1709 Y-1.4393
X29.0007 Y-1.4396
X29.0167 Y-1.4422
X29.0206 Y-1.4433
X29.0359 Y-1.4492
X29.0467 Y-1.4552
X29.055 Y-1.4608
X29.0709 Y-1.4712
X29.0925 Y-1.4839
X29.1148 Y-1.4953
X29.1377 Y-1.5055
X29.1611 Y-1.5143
X29.1849 Y-1.5219
X29.2093 Y-1.5281
X29.234 Y-1.533
X29.2587 Y-1.5364
X29.2837 Y-1.5385
X29.3053 Y-1.5392
X29.5622
X29.5838 Y-1.5385
X29.6087 Y-1.5364
X29.6335 Y-1.533
X29.6581 Y-1.5281
X29.6824 Y-1.5219
X29.7064 Y-1.5143
X29.7297 Y-1.5055
X29.7527 Y-1.4953
X29.7749 Y-1.4839
X29.7966 Y-1.4712
X29.8125 Y-1.4608
X29.8208 Y-1.4552
X29.8352 Y-1.4475
X29.8507 Y-1.4422
X29.8547 Y-1.4413
X29.8709 Y-1.4393
X30.7007 Y-1.4396
X30.7167 Y-1.4422
X30.7206 Y-1.4433
X30.7359 Y-1.4492
X30.7467 Y-1.4552
X30.755 Y-1.4608
X30.7709 Y-1.4712
X30.7925 Y-1.4839
X30.8148 Y-1.4953
X30.8377 Y-1.5055
X30.8611 Y-1.5143
X30.8849 Y-1.5219
X30.9093 Y-1.5281
X30.934 Y-1.533
X30.9587 Y-1.5364
X30.9837 Y-1.5385
X31.0053 Y-1.5392
X31.2622
X31.2838 Y-1.5385
X31.3087 Y-1.5364
X31.3335 Y-1.533
X31.3581 Y-1.5281
X31.3824 Y-1.5219
X31.4064 Y-1.5143
X31.4297 Y-1.5055
X31.4527 Y-1.4953
X31.4749 Y-1.4839
X31.4966 Y-1.4712
X31.5125 Y-1.4608
X31.5208 Y-1.4552
X31.5352 Y-1.4475
X31.5507 Y-1.4422
X31.5547 Y-1.4413
X31.5709 Y-1.4393
X32.4007 Y-1.4396
X32.4167 Y-1.4422
X32.4206 Y-1.4433
X32.4359 Y-1.4492
X32.4467 Y-1.4552
X32.455 Y-1.4608
X32.4709 Y-1.4712
X32.4925 Y-1.4839
X32.5148 Y-1.4953
X32.5377 Y-1.5055
X32.5611 Y-1.5143
X32.5849 Y-1.5219
X32.6093 Y-1.5281
X32.634 Y-1.533
X32.6587 Y-1.5364
X32.6837 Y-1.5385
X32.7053 Y-1.5392
X32.9622
X32.9838 Y-1.5385
X33.0087 Y-1.5364
X33.0335 Y-1.533
X33.0581 Y-1.5281
X33.0824 Y-1.5219
X33.1064 Y-1.5143
X33.1297 Y-1.5055
X33.1527 Y-1.4953
X33.1749 Y-1.4839
X33.1966 Y-1.4712
X33.2125 Y-1.4608
X33.2208 Y-1.4552
X33.2352 Y-1.4475
X33.2507 Y-1.4422
X33.2547 Y-1.4413
X33.2709 Y-1.4393
X34.1007 Y-1.4396
X34.1167 Y-1.4422
X34.1206 Y-1.4433
X34.1359 Y-1.4492
X34.1467 Y-1.4552
X34.155 Y-1.4608
X34.1709 Y-1.4712
X34.1925 Y-1.4839
X34.2148 Y-1.4953
X34.2377 Y-1.5055
X34.2611 Y-1.5143
X34.2849 Y-1.5219
X34.3093 Y-1.5281
X34.334 Y-1.533
X34.3587 Y-1.5364
X34.3837 Y-1.5385
X34.4053 Y-1.5392
X34.6622
X34.6838 Y-1.5385
X34.7087 Y-1.5364
X34.7335 Y-1.533
X34.7581 Y-1.5281
X34.7824 Y-1.5219
X34.8064 Y-1.5143
X34.8297 Y-1.5055
X34.8527 Y-1.4953
X34.8749 Y-1.4839
X34.8966 Y-1.4712
X34.9125 Y-1.4608
X34.9208 Y-1.4552
X34.9352 Y-1.4475
X34.9507 Y-1.4422
X34.9547 Y-1.4413
X34.9709 Y-1.4393
X35.8007 Y-1.4396
X35.8167 Y-1.4422
X35.8206 Y-1.4433
X35.8359 Y-1.4492
X35.8467 Y-1.4552
X35.855 Y-1.4608
X35.8709 Y-1.4712
X35.8925 Y-1.4839
X35.9148 Y-1.4953
X35.9377 Y-1.5055
X35.9611 Y-1.5143
X35.9849 Y-1.5219
X36.0093 Y-1.5281
X36.0339 Y-1.533
X36.0587 Y-1.5364
X36.0837 Y-1.5385
X36.1053 Y-1.5392
X36.3622
X36.3838 Y-1.5385
X36.4087 Y-1.5364
X36.4335 Y-1.533
X36.4581 Y-1.5281
X36.4824 Y-1.5219
X36.5064 Y-1.5143
X36.5297 Y-1.5055
X36.5527 Y-1.4953
X36.5749 Y-1.4839
X36.5966 Y-1.4712
X36.6125 Y-1.4608
X36.6208 Y-1.4552
X36.6352 Y-1.4475
X36.6507 Y-1.4422
X36.6547 Y-1.4413
X36.6709 Y-1.4393
X37.5007 Y-1.4396
X37.5167 Y-1.4422
X37.5206 Y-1.4433
X37.5359 Y-1.4492
X37.5467 Y-1.4552
X37.555 Y-1.4608
X37.5709 Y-1.4712
X37.5925 Y-1.4839
X37.6148 Y-1.4953
X37.6377 Y-1.5055
X37.6611 Y-1.5143
X37.6849 Y-1.5219
X37.7093 Y-1.5281
X37.7339 Y-1.533
X37.7587 Y-1.5364
X37.7837 Y-1.5385
X37.8053 Y-1.5392
X38.0622
X38.0838 Y-1.5385
X38.1087 Y-1.5364
X38.1335 Y-1.533
X38.1581 Y-1.5281
X38.1824 Y-1.5219
X38.2064 Y-1.5143
X38.2297 Y-1.5055
X38.2527 Y-1.4953
X38.2749 Y-1.4839
X38.2966 Y-1.4712
X38.3125 Y-1.4608
X38.3208 Y-1.4552
X38.3352 Y-1.4475
X38.3507 Y-1.4422
X38.3547 Y-1.4413
X38.3709 Y-1.4393
X39.2007 Y-1.4396
X39.2167 Y-1.4422
X39.2206 Y-1.4433
X39.236 Y-1.4492
X39.2465 Y-1.4551
X39.2556 Y-1.4612
X39.2711 Y-1.4713
X39.2913 Y-1.4832
X39.3146 Y-1.4953
X39.3387 Y-1.5059
X39.3621 Y-1.5146
X39.3848 Y-1.5218
X39.4091 Y-1.5281
X39.4342 Y-1.533
X39.4588 Y-1.5364
X39.4836 Y-1.5385
X39.5051 Y-1.5392
X39.7622
X39.7834 Y-1.5385
X39.8086 Y-1.5365
X39.8343 Y-1.5328
X39.858 Y-1.5281
X39.8818 Y-1.5221
X39.9071 Y-1.5141
X39.9301 Y-1.5053
X39.9527 Y-1.4953
X39.974 Y-1.4843
X39.9968 Y-1.4712
X40.0138 Y-1.4599
X40.0279 Y-1.451
X40.0426 Y-1.4446
X40.0465 Y-1.4434
X40.0511 Y-1.4421
X40.0547 Y-1.4413
X40.0709 Y-1.4393
X40.9007 Y-1.4396
X40.9173 Y-1.4423
X40.9202 Y-1.4431
X40.9354 Y-1.4489
X40.9465 Y-1.4551
X40.9556 Y-1.4612
X40.9711 Y-1.4713
X40.9913 Y-1.4832
X41.0146 Y-1.4953
X41.0387 Y-1.5059
X41.0621 Y-1.5146
X41.0848 Y-1.5218
X41.1091 Y-1.5281
X41.1342 Y-1.533
X41.1588 Y-1.5364
X41.1836 Y-1.5385
X41.2051 Y-1.5392
X41.4622
X41.4834 Y-1.5385
X41.5086 Y-1.5365
X41.5343 Y-1.5328
X41.558 Y-1.5281
X41.5818 Y-1.5221
X41.6071 Y-1.5141
X41.6301 Y-1.5053
X41.6527 Y-1.4953
X41.674 Y-1.4843
X41.6968 Y-1.4712
X41.7138 Y-1.4599
X41.7279 Y-1.451
X41.7426 Y-1.4446
X41.7465 Y-1.4434
X41.7511 Y-1.4421
X41.7547 Y-1.4413
X41.7709 Y-1.4393
X42.6007 Y-1.4396
X42.6173 Y-1.4423
X42.6202 Y-1.4431
X42.6354 Y-1.4489
X42.6465 Y-1.4551
X42.6556 Y-1.4612
X42.6711 Y-1.4713
X42.6913 Y-1.4832
X42.7146 Y-1.4953
X42.7387 Y-1.5059
X42.7621 Y-1.5146
X42.7848 Y-1.5218
X42.8091 Y-1.5281
X42.8342 Y-1.533
X42.8588 Y-1.5364
X42.8836 Y-1.5385
X42.9051 Y-1.5392
X43.1622
X43.1834 Y-1.5385
X43.2086 Y-1.5365
X43.2343 Y-1.5328
X43.258 Y-1.5281
X43.2818 Y-1.5221
X43.3071 Y-1.5141
X43.3301 Y-1.5053
X43.3527 Y-1.4953
X43.374 Y-1.4843
X43.3968 Y-1.4712
X43.4138 Y-1.4599
X43.4279 Y-1.451
X43.4426 Y-1.4446
X43.4465 Y-1.4434
X43.4511 Y-1.4421
X43.4547 Y-1.4413
X43.4709 Y-1.4393
X44.3007 Y-1.4396
X44.3173 Y-1.4423
X44.3202 Y-1.4431
X44.3354 Y-1.4489
X44.3465 Y-1.4551
X44.3556 Y-1.4612
X44.3711 Y-1.4713
X44.3913 Y-1.4832
X44.4146 Y-1.4953
X44.4387 Y-1.5059
X44.4621 Y-1.5146
X44.4848 Y-1.5218
X44.5091 Y-1.5281
X44.5342 Y-1.533
X44.5588 Y-1.5364
X44.5836 Y-1.5385
X44.6051 Y-1.5392
X44.8622
X44.8834 Y-1.5385
X44.9086 Y-1.5365
X44.9343 Y-1.5328
X44.958 Y-1.5281
X44.9818 Y-1.5221
X45.0071 Y-1.5141
X45.0301 Y-1.5053
X45.0527 Y-1.4953
X45.074 Y-1.4843
X45.0968 Y-1.4712
X45.1138 Y-1.4599
X45.1279 Y-1.451
X45.1426 Y-1.4446
X45.1586 Y-1.4406
X45.1709 Y-1.4393
X45.6748 Y-1.4392
X45.6859 Y-1.4405
X45.6965 Y-1.4442
X45.706 Y-1.4501
X45.7139 Y-1.458
X45.7199 Y-1.4675
X45.7236 Y-1.4781
X45.7248 Y-1.4892
X45.7262 Y-1.5003
X45.7276 Y-1.5114 Z-1.0567
X45.729 Y-1.5219 Z-1.053
X45.7302 Y-1.5313 Z-1.0471
X45.7312 Y-1.5391 Z-1.0392
X45.7319 Y-1.545 Z-1.0297
X45.7324 Y-1.5487 Z-1.0191
X45.7325 Y-1.5499 Z-1.008
G0 Z0.658
M5
G53 G0 Z0.

(TRACE5)
M1
T11 M6
S10000 M4
G17 G90 G94
G55
G0 X-0.1247 Y-1.4392
G43 Z0.658 H11
G0 Z0.522
G1 Z-0.358 F50.
X0.7181 Y-1.4396
X0.7349 Y-1.4425
X0.739 Y-1.4436
X0.7547 Y-1.4499
X0.7691 Y-1.4588
X0.7783 Y-1.466
X0.7937 Y-1.4773
X0.816 Y-1.4915
X0.8393 Y-1.5039
X0.8634 Y-1.5146
X0.8884 Y-1.5234
X0.9139 Y-1.5303
X0.9398 Y-1.5352
X0.9661 Y-1.5382
X0.9878 Y-1.5392
X1.2972
X1.3189 Y-1.5382
X1.3452 Y-1.5352
X1.3711 Y-1.5303
X1.3966 Y-1.5234
X1.4216 Y-1.5146
X1.4457 Y-1.5039
X1.469 Y-1.4915
X1.4913 Y-1.4773
X1.5229 Y-1.4541
X1.538 Y-1.4464
X1.5543 Y-1.4415
X1.5711 Y-1.4393
X2.4181 Y-1.4396
X2.4349 Y-1.4425
X2.439 Y-1.4436
X2.4547 Y-1.4499
X2.4691 Y-1.4588
X2.4783 Y-1.466
X2.4937 Y-1.4773
X2.516 Y-1.4915
X2.5393 Y-1.5039
X2.5634 Y-1.5146
X2.5884 Y-1.5234
X2.6139 Y-1.5303
X2.6398 Y-1.5352
X2.6661 Y-1.5382
X2.6878 Y-1.5392
X2.9972
X3.0189 Y-1.5382
X3.0452 Y-1.5352
X3.0711 Y-1.5303
X3.0966 Y-1.5234
X3.1216 Y-1.5146
X3.1457 Y-1.5039
X3.169 Y-1.4915
X3.1913 Y-1.4773
X3.2229 Y-1.4541
X3.238 Y-1.4464
X3.2543 Y-1.4415
X3.2711 Y-1.4393
X4.1181 Y-1.4396
X4.1349 Y-1.4425
X4.139 Y-1.4436
X4.1547 Y-1.4499
X4.1691 Y-1.4588
X4.1785 Y-1.4661
X4.1936 Y-1.4772
X4.2159 Y-1.4914
X4.2394 Y-1.504
X4.2634 Y-1.5145
X4.2884 Y-1.5234
X4.3138 Y-1.5303
X4.3398 Y-1.5352
X4.3662 Y-1.5382
X4.3878 Y-1.5392
X4.6972
X4.7189 Y-1.5382
X4.7452 Y-1.5352
X4.7712 Y-1.5303
X4.7966 Y-1.5234
X4.8216 Y-1.5145
X4.8456 Y-1.504
X4.8691 Y-1.4914
X4.8914 Y-1.4772
X4.9229 Y-1.4541
X4.9381 Y-1.4464
X4.9543 Y-1.4415
X4.9711 Y-1.4393
X5.8181 Y-1.4396
X5.8349 Y-1.4425
X5.839 Y-1.4436
X5.8547 Y-1.4499
X5.8691 Y-1.4588
X5.8785 Y-1.4661
X5.8936 Y-1.4772
X5.9159 Y-1.4914
X5.9394 Y-1.504
X5.9634 Y-1.5145
X5.9884 Y-1.5234
X6.0138 Y-1.5303
X6.0398 Y-1.5352
X6.0662 Y-1.5382
X6.0878 Y-1.5392
X6.3972
X6.4189 Y-1.5382
X6.4452 Y-1.5352
X6.4712 Y-1.5303
X6.4966 Y-1.5234
X6.5216 Y-1.5145
X6.5456 Y-1.504
X6.5691 Y-1.4914
X6.5914 Y-1.4772
X6.6229 Y-1.4541
X6.6381 Y-1.4464
X6.6543 Y-1.4415
X6.6711 Y-1.4393
X7.5181 Y-1.4396
X7.5349 Y-1.4425
X7.539 Y-1.4436
X7.5547 Y-1.4499
X7.5691 Y-1.4588
X7.5785 Y-1.4661
X7.5936 Y-1.4772
X7.6159 Y-1.4914
X7.6394 Y-1.504
X7.6634 Y-1.5145
X7.6884 Y-1.5234
X7.7138 Y-1.5303
X7.7398 Y-1.5352
X7.7662 Y-1.5382
X7.7878 Y-1.5392
X8.0972
X8.1189 Y-1.5382
X8.1452 Y-1.5352
X8.1712 Y-1.5303
X8.1966 Y-1.5234
X8.2216 Y-1.5145
X8.2456 Y-1.504
X8.2691 Y-1.4914
X8.2914 Y-1.4772
X8.3229 Y-1.4541
X8.3381 Y-1.4464
X8.3543 Y-1.4415
X8.3711 Y-1.4393
X9.2181 Y-1.4396
X9.2349 Y-1.4425
X9.239 Y-1.4436
X9.2547 Y-1.4499
X9.2691 Y-1.4588
X9.2785 Y-1.4661
X9.2936 Y-1.4772
X9.3159 Y-1.4914
X9.3394 Y-1.504
X9.3634 Y-1.5145
X9.3884 Y-1.5234
X9.4138 Y-1.5303
X9.4398 Y-1.5352
X9.4662 Y-1.5382
X9.4878 Y-1.5392
X9.7972
X9.8189 Y-1.5382
X9.8452 Y-1.5352
X9.8712 Y-1.5303
X9.8966 Y-1.5234
X9.9216 Y-1.5145
X9.9456 Y-1.504
X9.9691 Y-1.4914
X9.9914 Y-1.4772
X10.0229 Y-1.4541
X10.0381 Y-1.4464
X10.0543 Y-1.4415
X10.0711 Y-1.4393
X10.9181 Y-1.4396
X10.9349 Y-1.4425
X10.939 Y-1.4436
X10.9547 Y-1.4499
X10.9691 Y-1.4588
X10.9785 Y-1.4661
X10.9936 Y-1.4772
X11.0159 Y-1.4914
X11.0394 Y-1.504
X11.0634 Y-1.5145
X11.0884 Y-1.5234
X11.1138 Y-1.5303
X11.1398 Y-1.5352
X11.1662 Y-1.5382
X11.1878 Y-1.5392
X11.4972
X11.5189 Y-1.5382
X11.5452 Y-1.5352
X11.5712 Y-1.5303
X11.5966 Y-1.5234
X11.6216 Y-1.5145
X11.6456 Y-1.504
X11.6691 Y-1.4914
X11.6914 Y-1.4772
X11.7229 Y-1.4541
X11.7381 Y-1.4464
X11.7543 Y-1.4415
X11.7711 Y-1.4393
X12.6181 Y-1.4396
X12.6349 Y-1.4425
X12.639 Y-1.4436
X12.6547 Y-1.4499
X12.6691 Y-1.4588
X12.6785 Y-1.4661
X12.6936 Y-1.4772
X12.7159 Y-1.4914
X12.7394 Y-1.504
X12.7634 Y-1.5145
X12.7884 Y-1.5234
X12.8138 Y-1.5303
X12.8398 Y-1.5352
X12.8662 Y-1.5382
X12.8878 Y-1.5392
X13.1972
X13.2189 Y-1.5382
X13.2452 Y-1.5352
X13.2712 Y-1.5303
X13.2966 Y-1.5234
X13.3216 Y-1.5145
X13.3456 Y-1.504
X13.3691 Y-1.4914
X13.3914 Y-1.4772
X13.4229 Y-1.4541
X13.4381 Y-1.4464
X13.4543 Y-1.4415
X13.4711 Y-1.4393
X14.3181 Y-1.4396
X14.3349 Y-1.4425
X14.339 Y-1.4436
X14.3547 Y-1.4499
X14.3691 Y-1.4588
X14.3785 Y-1.4661
X14.3936 Y-1.4772
X14.4159 Y-1.4914
X14.4394 Y-1.504
X14.4634 Y-1.5145
X14.4884 Y-1.5234
X14.5138 Y-1.5303
X14.5398 Y-1.5352
X14.5662 Y-1.5382
X14.5878 Y-1.5392
X14.8972
X14.9189 Y-1.5382
X14.9452 Y-1.5352
X14.9712 Y-1.5303
X14.9966 Y-1.5234
X15.0216 Y-1.5145
X15.0456 Y-1.504
X15.0691 Y-1.4914
X15.0914 Y-1.4772
X15.1229 Y-1.4541
X15.1381 Y-1.4464
X15.1543 Y-1.4415
X15.1711 Y-1.4393
X16.0181 Y-1.4396
X16.0349 Y-1.4425
X16.039 Y-1.4436
X16.0547 Y-1.4499
X16.0691 Y-1.4588
X16.0785 Y-1.4661
X16.0936 Y-1.4772
X16.1159 Y-1.4914
X16.1394 Y-1.504
X16.1634 Y-1.5145
X16.1884 Y-1.5234
X16.2138 Y-1.5303
X16.2398 Y-1.5352
X16.2662 Y-1.5382
X16.2878 Y-1.5392
X16.5972
X16.6189 Y-1.5382
X16.6452 Y-1.5352
X16.6712 Y-1.5303
X16.6966 Y-1.5234
X16.7216 Y-1.5145
X16.7456 Y-1.504
X16.7691 Y-1.4914
X16.7914 Y-1.4772
X16.8229 Y-1.4541
X16.8381 Y-1.4464
X16.8543 Y-1.4415
X16.8711 Y-1.4393
X17.7181 Y-1.4396
X17.7349 Y-1.4425
X17.739 Y-1.4436
X17.7547 Y-1.4499
X17.7691 Y-1.4588
X17.7785 Y-1.4661
X17.7936 Y-1.4772
X17.8159 Y-1.4914
X17.8394 Y-1.504
X17.8634 Y-1.5145
X17.8884 Y-1.5234
X17.9138 Y-1.5303
X17.9398 Y-1.5352
X17.9662 Y-1.5382
X17.9878 Y-1.5392
X18.2972
X18.3189 Y-1.5382
X18.3452 Y-1.5352
X18.3712 Y-1.5303
X18.3966 Y-1.5234
X18.4216 Y-1.5145
X18.4456 Y-1.504
X18.4691 Y-1.4914
X18.4914 Y-1.4772
X18.5229 Y-1.4541
X18.5381 Y-1.4464
X18.5543 Y-1.4415
X18.5711 Y-1.4393
X19.4181 Y-1.4396
X19.4349 Y-1.4425
X19.439 Y-1.4436
X19.4547 Y-1.4499
X19.4691 Y-1.4588
X19.4785 Y-1.4661
X19.4936 Y-1.4772
X19.5159 Y-1.4914
X19.5394 Y-1.504
X19.5634 Y-1.5145
X19.5884 Y-1.5234
X19.6138 Y-1.5303
X19.6398 Y-1.5352
X19.6662 Y-1.5382
X19.6878 Y-1.5392
X19.9972
X20.0189 Y-1.5382
X20.0452 Y-1.5352
X20.0712 Y-1.5303
X20.0966 Y-1.5234
X20.1216 Y-1.5145
X20.1456 Y-1.504
X20.1691 Y-1.4914
X20.1914 Y-1.4772
X20.2229 Y-1.4541
X20.2381 Y-1.4464
X20.2543 Y-1.4415
X20.2711 Y-1.4393
X21.1181 Y-1.4396
X21.1349 Y-1.4425
X21.139 Y-1.4436
X21.1547 Y-1.4499
X21.1691 Y-1.4588
X21.1785 Y-1.4661
X21.1936 Y-1.4772
X21.2159 Y-1.4914
X21.2394 Y-1.504
X21.2634 Y-1.5145
X21.2884 Y-1.5234
X21.3138 Y-1.5303
X21.3398 Y-1.5352
X21.3662 Y-1.5382
X21.3878 Y-1.5392
X21.6972
X21.7189 Y-1.5382
X21.7452 Y-1.5352
X21.7712 Y-1.5303
X21.7966 Y-1.5234
X21.8216 Y-1.5145
X21.8456 Y-1.504
X21.8691 Y-1.4914
X21.8914 Y-1.4772
X21.9229 Y-1.4541
X21.9381 Y-1.4464
X21.9543 Y-1.4415
X21.9711 Y-1.4393
X22.8181 Y-1.4396
X22.8349 Y-1.4425
X22.839 Y-1.4436
X22.8547 Y-1.4499
X22.8691 Y-1.4588
X22.8785 Y-1.4661
X22.8936 Y-1.4772
X22.9159 Y-1.4914
X22.9394 Y-1.504
X22.9634 Y-1.5145
X22.9884 Y-1.5234
X23.0138 Y-1.5303
X23.0398 Y-1.5352
X23.0662 Y-1.5382
X23.0878 Y-1.5392
X23.3972
X23.4189 Y-1.5382
X23.4452 Y-1.5352
X23.4712 Y-1.5303
X23.4966 Y-1.5234
X23.5216 Y-1.5145
X23.5456 Y-1.504
X23.5691 Y-1.4914
X23.5914 Y-1.4772
X23.6229 Y-1.4541
X23.6381 Y-1.4464
X23.6543 Y-1.4415
X23.6711 Y-1.4393
X24.5181 Y-1.4396
X24.5349 Y-1.4425
X24.539 Y-1.4436
X24.5547 Y-1.4499
X24.5691 Y-1.4588
X24.5785 Y-1.4661
X24.5936 Y-1.4772
X24.6159 Y-1.4914
X24.6394 Y-1.504
X24.6634 Y-1.5145
X24.6884 Y-1.5234
X24.7138 Y-1.5303
X24.7398 Y-1.5352
X24.7662 Y-1.5382
X24.7878 Y-1.5392
X25.0972
X25.1189 Y-1.5382
X25.1452 Y-1.5352
X25.1712 Y-1.5303
X25.1966 Y-1.5234
X25.2216 Y-1.5145
X25.2456 Y-1.504
X25.2691 Y-1.4914
X25.2914 Y-1.4772
X25.3229 Y-1.4541
X25.3381 Y-1.4464
X25.3543 Y-1.4415
X25.3711 Y-1.4393
X26.2181 Y-1.4396
X26.2349 Y-1.4425
X26.239 Y-1.4436
X26.2547 Y-1.4499
X26.2691 Y-1.4588
X26.2785 Y-1.4661
X26.2936 Y-1.4772
X26.3159 Y-1.4914
X26.3394 Y-1.504
X26.3634 Y-1.5145
X26.3884 Y-1.5234
X26.4138 Y-1.5303
X26.4398 Y-1.5352
X26.4662 Y-1.5382
X26.4878 Y-1.5392
X26.7972
X26.8189 Y-1.5382
X26.8452 Y-1.5352
X26.8712 Y-1.5303
X26.8966 Y-1.5234
X26.9216 Y-1.5145
X26.9456 Y-1.504
X26.9691 Y-1.4914
X26.9914 Y-1.4772
X27.0229 Y-1.4541
X27.0381 Y-1.4464
X27.0543 Y-1.4415
X27.0711 Y-1.4393
X27.9181 Y-1.4396
X27.9349 Y-1.4425
X27.939 Y-1.4436
X27.9547 Y-1.4499
X27.9691 Y-1.4588
X27.9785 Y-1.4661
X27.9936 Y-1.4772
X28.0159 Y-1.4914
X28.0394 Y-1.504
X28.0634 Y-1.5145
X28.0884 Y-1.5234
X28.1138 Y-1.5303
X28.1398 Y-1.5352
X28.1662 Y-1.5382
X28.1878 Y-1.5392
X28.4972
X28.5189 Y-1.5382
X28.5452 Y-1.5352
X28.5712 Y-1.5303
X28.5966 Y-1.5234
X28.6216 Y-1.5145
X28.6456 Y-1.504
X28.6691 Y-1.4914
X28.6914 Y-1.4772
X28.7229 Y-1.4541
X28.7381 Y-1.4464
X28.7543 Y-1.4415
X28.7711 Y-1.4393
X29.6181 Y-1.4396
X29.6349 Y-1.4425
X29.639 Y-1.4436
X29.6547 Y-1.4499
X29.6691 Y-1.4588
X29.6785 Y-1.4661
X29.6936 Y-1.4772
X29.7159 Y-1.4914
X29.7394 Y-1.504
X29.7634 Y-1.5145
X29.7884 Y-1.5234
X29.8138 Y-1.5303
X29.8398 Y-1.5352
X29.8662 Y-1.5382
X29.8878 Y-1.5392
X30.1972
X30.2189 Y-1.5382
X30.2452 Y-1.5352
X30.2712 Y-1.5303
X30.2966 Y-1.5234
X30.3216 Y-1.5145
X30.3456 Y-1.504
X30.3691 Y-1.4914
X30.3914 Y-1.4772
X30.4229 Y-1.4541
X30.4381 Y-1.4464
X30.4543 Y-1.4415
X30.4711 Y-1.4393
X31.3181 Y-1.4396
X31.3349 Y-1.4425
X31.339 Y-1.4436
X31.3547 Y-1.4499
X31.3691 Y-1.4588
X31.3785 Y-1.4661
X31.3936 Y-1.4772
X31.4159 Y-1.4914
X31.4394 Y-1.504
X31.4634 Y-1.5145
X31.4884 Y-1.5234
X31.5138 Y-1.5303
X31.5398 Y-1.5352
X31.5662 Y-1.5382
X31.5878 Y-1.5392
X31.8972
X31.9189 Y-1.5382
X31.9452 Y-1.5352
X31.9712 Y-1.5303
X31.9966 Y-1.5234
X32.0216 Y-1.5145
X32.0456 Y-1.504
X32.0691 Y-1.4914
X32.0914 Y-1.4772
X32.1229 Y-1.4541
X32.1381 Y-1.4464
X32.1543 Y-1.4415
X32.1711 Y-1.4393
X33.0181 Y-1.4396
X33.0349 Y-1.4425
X33.039 Y-1.4436
X33.0547 Y-1.4499
X33.0691 Y-1.4588
X33.0785 Y-1.4661
X33.0936 Y-1.4772
X33.1159 Y-1.4914
X33.1394 Y-1.504
X33.1634 Y-1.5145
X33.1884 Y-1.5234
X33.2138 Y-1.5303
X33.2398 Y-1.5352
X33.2662 Y-1.5382
X33.2878 Y-1.5392
X33.5972
X33.6189 Y-1.5382
X33.6452 Y-1.5352
X33.6712 Y-1.5303
X33.6966 Y-1.5234
X33.7216 Y-1.5145
X33.7456 Y-1.504
X33.7691 Y-1.4914
X33.7914 Y-1.4772
X33.8229 Y-1.4541
X33.8381 Y-1.4464
X33.8543 Y-1.4415
X33.8711 Y-1.4393
X34.7181 Y-1.4396
X34.7349 Y-1.4425
X34.739 Y-1.4436
X34.7547 Y-1.4499
X34.7691 Y-1.4588
X34.7785 Y-1.4661
X34.7936 Y-1.4772
X34.8159 Y-1.4914
X34.8394 Y-1.504
X34.8634 Y-1.5145
X34.8884 Y-1.5234
X34.9138 Y-1.5303
X34.9398 Y-1.5352
X34.9662 Y-1.5382
X34.9878 Y-1.5392
X35.2972
X35.3189 Y-1.5382
X35.3452 Y-1.5352
X35.3712 Y-1.5303
X35.3966 Y-1.5234
X35.4216 Y-1.5145
X35.4456 Y-1.504
X35.4691 Y-1.4914
X35.4914 Y-1.4772
X35.5229 Y-1.4541
X35.5381 Y-1.4464
X35.5543 Y-1.4415
X35.5711 Y-1.4393
X36.4181 Y-1.4396
X36.4349 Y-1.4425
X36.439 Y-1.4436
X36.4547 Y-1.4499
X36.4691 Y-1.4588
X36.4785 Y-1.4661
X36.4936 Y-1.4772
X36.5159 Y-1.4914
X36.5394 Y-1.504
X36.5634 Y-1.5145
X36.5884 Y-1.5234
X36.6138 Y-1.5303
X36.6398 Y-1.5352
X36.6662 Y-1.5382
X36.6878 Y-1.5392
X36.9972
X37.0189 Y-1.5382
X37.0452 Y-1.5352
X37.0712 Y-1.5303
X37.0966 Y-1.5234
X37.1216 Y-1.5145
X37.1456 Y-1.504
X37.1691 Y-1.4914
X37.1914 Y-1.4772
X37.2229 Y-1.4541
X37.2381 Y-1.4464
X37.2543 Y-1.4415
X37.2711 Y-1.4393
X38.1181 Y-1.4396
X38.1349 Y-1.4425
X38.139 Y-1.4436
X38.1547 Y-1.4499
X38.1691 Y-1.4588
X38.1785 Y-1.4661
X38.1936 Y-1.4772
X38.2159 Y-1.4914
X38.2394 Y-1.504
X38.2634 Y-1.5145
X38.2884 Y-1.5234
X38.3138 Y-1.5303
X38.3398 Y-1.5352
X38.3662 Y-1.5382
X38.3878 Y-1.5392
X38.6972
X38.7189 Y-1.5382
X38.7452 Y-1.5352
X38.7712 Y-1.5303
X38.7966 Y-1.5234
X38.8216 Y-1.5145
X38.8456 Y-1.504
X38.8691 Y-1.4914
X38.8914 Y-1.4772
X38.9229 Y-1.4541
X38.9381 Y-1.4464
X38.9543 Y-1.4415
X38.9711 Y-1.4393
X39.8184 Y-1.4396
X39.8349 Y-1.4424
X39.8388 Y-1.4436
X39.8541 Y-1.4497
X39.8679 Y-1.458
X39.8804 Y-1.4676
X39.8953 Y-1.4783
X39.9157 Y-1.4913
X39.9383 Y-1.5034
X39.9618 Y-1.514
X39.9888 Y-1.5236
X40.0149 Y-1.5305
X40.0401 Y-1.5353
X40.0661 Y-1.5382
X40.0878 Y-1.5392
X40.3973
X40.4189 Y-1.5382
X40.445 Y-1.5353
X40.4701 Y-1.5305
X40.4962 Y-1.5236
X40.5232 Y-1.514
X40.5468 Y-1.5034
X40.5693 Y-1.4913
X40.5897 Y-1.4783
X40.6063 Y-1.4664
X40.6168 Y-1.458
X40.6339 Y-1.4482
X40.6501 Y-1.4424
X40.6541 Y-1.4415
X40.6712 Y-1.4393
X41.5184 Y-1.4396
X41.5349 Y-1.4424
X41.5388 Y-1.4436
X41.5541 Y-1.4497
X41.5679 Y-1.458
X41.5804 Y-1.4676
X41.5953 Y-1.4783
X41.6157 Y-1.4913
X41.6383 Y-1.5034
X41.6618 Y-1.514
X41.6888 Y-1.5236
X41.7149 Y-1.5305
X41.7401 Y-1.5353
X41.7661 Y-1.5382
X41.7878 Y-1.5392
X42.0973
X42.1189 Y-1.5382
X42.145 Y-1.5353
X42.1701 Y-1.5305
X42.1962 Y-1.5236
X42.2232 Y-1.514
X42.2468 Y-1.5034
X42.2693 Y-1.4913
X42.2897 Y-1.4783
X42.3063 Y-1.4664
X42.3168 Y-1.458
X42.3339 Y-1.4482
X42.3501 Y-1.4424
X42.3541 Y-1.4415
X42.3712 Y-1.4393
X43.2184 Y-1.4396
X43.2349 Y-1.4424
X43.2388 Y-1.4436
X43.2541 Y-1.4497
X43.2679 Y-1.458
X43.2804 Y-1.4676
X43.2953 Y-1.4783
X43.3157 Y-1.4913
X43.3383 Y-1.5034
X43.3618 Y-1.514
X43.3888 Y-1.5236
X43.4149 Y-1.5305
X43.4401 Y-1.5353
X43.4661 Y-1.5382
X43.4878 Y-1.5392
X43.7973
X43.8189 Y-1.5382
X43.845 Y-1.5353
X43.8701 Y-1.5305
X43.8962 Y-1.5236
X43.9232 Y-1.514
X43.9468 Y-1.5034
X43.9693 Y-1.4913
X43.9897 Y-1.4783
X44.0063 Y-1.4664
X44.0168 Y-1.458
X44.0339 Y-1.4482
X44.0501 Y-1.4424
X44.0541 Y-1.4415
X44.0712 Y-1.4393
X45.3252 Y-1.4392
Z0.522
G0 Z0.5222
X-0.1247
G1 Z-1.058 F50.
X0.7181 Y-1.4396
X0.7349 Y-1.4425
X0.739 Y-1.4436
X0.7547 Y-1.4499
X0.7691 Y-1.4588
X0.7783 Y-1.466
X0.7937 Y-1.4773
X0.816 Y-1.4915
X0.8393 Y-1.5039
X0.8634 Y-1.5146
X0.8884 Y-1.5234
X0.9139 Y-1.5303
X0.9398 Y-1.5352
X0.9661 Y-1.5382
X0.9878 Y-1.5392
X1.2972
X1.3189 Y-1.5382
X1.3452 Y-1.5352
X1.3711 Y-1.5303
X1.3966 Y-1.5234
X1.4216 Y-1.5146
X1.4457 Y-1.5039
X1.469 Y-1.4915
X1.4913 Y-1.4773
X1.5229 Y-1.4541
X1.538 Y-1.4464
X1.5543 Y-1.4415
X1.5711 Y-1.4393
X2.4181 Y-1.4396
X2.4349 Y-1.4425
X2.439 Y-1.4436
X2.4547 Y-1.4499
X2.4691 Y-1.4588
X2.4783 Y-1.466
X2.4937 Y-1.4773
X2.516 Y-1.4915
X2.5393 Y-1.5039
X2.5634 Y-1.5146
X2.5884 Y-1.5234
X2.6139 Y-1.5303
X2.6398 Y-1.5352
X2.6661 Y-1.5382
X2.6878 Y-1.5392
X2.9972
X3.0189 Y-1.5382
X3.0452 Y-1.5352
X3.0711 Y-1.5303
X3.0966 Y-1.5234
X3.1216 Y-1.5146
X3.1457 Y-1.5039
X3.169 Y-1.4915
X3.1913 Y-1.4773
X3.2229 Y-1.4541
X3.238 Y-1.4464
X3.2543 Y-1.4415
X3.2711 Y-1.4393
X4.1181 Y-1.4396
X4.1349 Y-1.4425
X4.139 Y-1.4436
X4.1547 Y-1.4499
X4.1691 Y-1.4588
X4.1785 Y-1.4661
X4.1936 Y-1.4772
X4.2159 Y-1.4914
X4.2394 Y-1.504
X4.2634 Y-1.5145
X4.2884 Y-1.5234
X4.3138 Y-1.5303
X4.3398 Y-1.5352
X4.3662 Y-1.5382
X4.3878 Y-1.5392
X4.6972
X4.7189 Y-1.5382
X4.7452 Y-1.5352
X4.7712 Y-1.5303
X4.7966 Y-1.5234
X4.8216 Y-1.5145
X4.8456 Y-1.504
X4.8691 Y-1.4914
X4.8914 Y-1.4772
X4.9229 Y-1.4541
X4.9381 Y-1.4464
X4.9543 Y-1.4415
X4.9711 Y-1.4393
X5.8181 Y-1.4396
X5.8349 Y-1.4425
X5.839 Y-1.4436
X5.8547 Y-1.4499
X5.8691 Y-1.4588
X5.8785 Y-1.4661
X5.8936 Y-1.4772
X5.9159 Y-1.4914
X5.9394 Y-1.504
X5.9634 Y-1.5145
X5.9884 Y-1.5234
X6.0138 Y-1.5303
X6.0398 Y-1.5352
X6.0662 Y-1.5382
X6.0878 Y-1.5392
X6.3972
X6.4189 Y-1.5382
X6.4452 Y-1.5352
X6.4712 Y-1.5303
X6.4966 Y-1.5234
X6.5216 Y-1.5145
X6.5456 Y-1.504
X6.5691 Y-1.4914
X6.5914 Y-1.4772
X6.6229 Y-1.4541
X6.6381 Y-1.4464
X6.6543 Y-1.4415
X6.6711 Y-1.4393
X7.5181 Y-1.4396
X7.5349 Y-1.4425
X7.539 Y-1.4436
X7.5547 Y-1.4499
X7.5691 Y-1.4588
X7.5785 Y-1.4661
X7.5936 Y-1.4772
X7.6159 Y-1.4914
X7.6394 Y-1.504
X7.6634 Y-1.5145
X7.6884 Y-1.5234
X7.7138 Y-1.5303
X7.7398 Y-1.5352
X7.7662 Y-1.5382
X7.7878 Y-1.5392
X8.0972
X8.1189 Y-1.5382
X8.1452 Y-1.5352
X8.1712 Y-1.5303
X8.1966 Y-1.5234
X8.2216 Y-1.5145
X8.2456 Y-1.504
X8.2691 Y-1.4914
X8.2914 Y-1.4772
X8.3229 Y-1.4541
X8.3381 Y-1.4464
X8.3543 Y-1.4415
X8.3711 Y-1.4393
X9.2181 Y-1.4396
X9.2349 Y-1.4425
X9.239 Y-1.4436
X9.2547 Y-1.4499
X9.2691 Y-1.4588
X9.2785 Y-1.4661
X9.2936 Y-1.4772
X9.3159 Y-1.4914
X9.3394 Y-1.504
X9.3634 Y-1.5145
X9.3884 Y-1.5234
X9.4138 Y-1.5303
X9.4398 Y-1.5352
X9.4662 Y-1.5382
X9.4878 Y-1.5392
X9.7972
X9.8189 Y-1.5382
X9.8452 Y-1.5352
X9.8712 Y-1.5303
X9.8966 Y-1.5234
X9.9216 Y-1.5145
X9.9456 Y-1.504
X9.9691 Y-1.4914
X9.9914 Y-1.4772
X10.0229 Y-1.4541
X10.0381 Y-1.4464
X10.0543 Y-1.4415
X10.0711 Y-1.4393
X10.9181 Y-1.4396
X10.9349 Y-1.4425
X10.939 Y-1.4436
X10.9547 Y-1.4499
X10.9691 Y-1.4588
X10.9785 Y-1.4661
X10.9936 Y-1.4772
X11.0159 Y-1.4914
X11.0394 Y-1.504
X11.0634 Y-1.5145
X11.0884 Y-1.5234
X11.1138 Y-1.5303
X11.1398 Y-1.5352
X11.1662 Y-1.5382
X11.1878 Y-1.5392
X11.4972
X11.5189 Y-1.5382
X11.5452 Y-1.5352
X11.5712 Y-1.5303
X11.5966 Y-1.5234
X11.6216 Y-1.5145
X11.6456 Y-1.504
X11.6691 Y-1.4914
X11.6914 Y-1.4772
X11.7229 Y-1.4541
X11.7381 Y-1.4464
X11.7543 Y-1.4415
X11.7711 Y-1.4393
X12.6181 Y-1.4396
X12.6349 Y-1.4425
X12.639 Y-1.4436
X12.6547 Y-1.4499
X12.6691 Y-1.4588
X12.6785 Y-1.4661
X12.6936 Y-1.4772
X12.7159 Y-1.4914
X12.7394 Y-1.504
X12.7634 Y-1.5145
X12.7884 Y-1.5234
X12.8138 Y-1.5303
X12.8398 Y-1.5352
X12.8662 Y-1.5382
X12.8878 Y-1.5392
X13.1972
X13.2189 Y-1.5382
X13.2452 Y-1.5352
X13.2712 Y-1.5303
X13.2966 Y-1.5234
X13.3216 Y-1.5145
X13.3456 Y-1.504
X13.3691 Y-1.4914
X13.3914 Y-1.4772
X13.4229 Y-1.4541
X13.4381 Y-1.4464
X13.4543 Y-1.4415
X13.4711 Y-1.4393
X14.3181 Y-1.4396
X14.3349 Y-1.4425
X14.339 Y-1.4436
X14.3547 Y-1.4499
X14.3691 Y-1.4588
X14.3785 Y-1.4661
X14.3936 Y-1.4772
X14.4159 Y-1.4914
X14.4394 Y-1.504
X14.4634 Y-1.5145
X14.4884 Y-1.5234
X14.5138 Y-1.5303
X14.5398 Y-1.5352
X14.5662 Y-1.5382
X14.5878 Y-1.5392
X14.8972
X14.9189 Y-1.5382
X14.9452 Y-1.5352
X14.9712 Y-1.5303
X14.9966 Y-1.5234
X15.0216 Y-1.5145
X15.0456 Y-1.504
X15.0691 Y-1.4914
X15.0914 Y-1.4772
X15.1229 Y-1.4541
X15.1381 Y-1.4464
X15.1543 Y-1.4415
X15.1711 Y-1.4393
X16.0181 Y-1.4396
X16.0349 Y-1.4425
X16.039 Y-1.4436
X16.0547 Y-1.4499
X16.0691 Y-1.4588
X16.0785 Y-1.4661
X16.0936 Y-1.4772
X16.1159 Y-1.4914
X16.1394 Y-1.504
X16.1634 Y-1.5145
X16.1884 Y-1.5234
X16.2138 Y-1.5303
X16.2398 Y-1.5352
X16.2662 Y-1.5382
X16.2878 Y-1.5392
X16.5972
X16.6189 Y-1.5382
X16.6452 Y-1.5352
X16.6712 Y-1.5303
X16.6966 Y-1.5234
X16.7216 Y-1.5145
X16.7456 Y-1.504
X16.7691 Y-1.4914
X16.7914 Y-1.4772
X16.8229 Y-1.4541
X16.8381 Y-1.4464
X16.8543 Y-1.4415
X16.8711 Y-1.4393
X17.7181 Y-1.4396
X17.7349 Y-1.4425
X17.739 Y-1.4436
X17.7547 Y-1.4499
X17.7691 Y-1.4588
X17.7785 Y-1.4661
X17.7936 Y-1.4772
X17.8159 Y-1.4914
X17.8394 Y-1.504
X17.8634 Y-1.5145
X17.8884 Y-1.5234
X17.9138 Y-1.5303
X17.9398 Y-1.5352
X17.9662 Y-1.5382
X17.9878 Y-1.5392
X18.2972
X18.3189 Y-1.5382
X18.3452 Y-1.5352
X18.3712 Y-1.5303
X18.3966 Y-1.5234
X18.4216 Y-1.5145
X18.4456 Y-1.504
X18.4691 Y-1.4914
X18.4914 Y-1.4772
X18.5229 Y-1.4541
X18.5381 Y-1.4464
X18.5543 Y-1.4415
X18.5711 Y-1.4393
X19.4181 Y-1.4396
X19.4349 Y-1.4425
X19.439 Y-1.4436
X19.4547 Y-1.4499
X19.4691 Y-1.4588
X19.4785 Y-1.4661
X19.4936 Y-1.4772
X19.5159 Y-1.4914
X19.5394 Y-1.504
X19.5634 Y-1.5145
X19.5884 Y-1.5234
X19.6138 Y-1.5303
X19.6398 Y-1.5352
X19.6662 Y-1.5382
X19.6878 Y-1.5392
X19.9972
X20.0189 Y-1.5382
X20.0452 Y-1.5352
X20.0712 Y-1.5303
X20.0966 Y-1.5234
X20.1216 Y-1.5145
X20.1456 Y-1.504
X20.1691 Y-1.4914
X20.1914 Y-1.4772
X20.2229 Y-1.4541
X20.2381 Y-1.4464
X20.2543 Y-1.4415
X20.2711 Y-1.4393
X21.1181 Y-1.4396
X21.1349 Y-1.4425
X21.139 Y-1.4436
X21.1547 Y-1.4499
X21.1691 Y-1.4588
X21.1785 Y-1.4661
X21.1936 Y-1.4772
X21.2159 Y-1.4914
X21.2394 Y-1.504
X21.2634 Y-1.5145
X21.2884 Y-1.5234
X21.3138 Y-1.5303
X21.3398 Y-1.5352
X21.3662 Y-1.5382
X21.3878 Y-1.5392
X21.6972
X21.7189 Y-1.5382
X21.7452 Y-1.5352
X21.7712 Y-1.5303
X21.7966 Y-1.5234
X21.8216 Y-1.5145
X21.8456 Y-1.504
X21.8691 Y-1.4914
X21.8914 Y-1.4772
X21.9229 Y-1.4541
X21.9381 Y-1.4464
X21.9543 Y-1.4415
X21.9711 Y-1.4393
X22.8181 Y-1.4396
X22.8349 Y-1.4425
X22.839 Y-1.4436
X22.8547 Y-1.4499
X22.8691 Y-1.4588
X22.8785 Y-1.4661
X22.8936 Y-1.4772
X22.9159 Y-1.4914
X22.9394 Y-1.504
X22.9634 Y-1.5145
X22.9884 Y-1.5234
X23.0138 Y-1.5303
X23.0398 Y-1.5352
X23.0662 Y-1.5382
X23.0878 Y-1.5392
X23.3972
X23.4189 Y-1.5382
X23.4452 Y-1.5352
X23.4712 Y-1.5303
X23.4966 Y-1.5234
X23.5216 Y-1.5145
X23.5456 Y-1.504
X23.5691 Y-1.4914
X23.5914 Y-1.4772
X23.6229 Y-1.4541
X23.6381 Y-1.4464
X23.6543 Y-1.4415
X23.6711 Y-1.4393
X24.5181 Y-1.4396
X24.5349 Y-1.4425
X24.539 Y-1.4436
X24.5547 Y-1.4499
X24.5691 Y-1.4588
X24.5785 Y-1.4661
X24.5936 Y-1.4772
X24.6159 Y-1.4914
X24.6394 Y-1.504
X24.6634 Y-1.5145
X24.6884 Y-1.5234
X24.7138 Y-1.5303
X24.7398 Y-1.5352
X24.7662 Y-1.5382
X24.7878 Y-1.5392
X25.0972
X25.1189 Y-1.5382
X25.1452 Y-1.5352
X25.1712 Y-1.5303
X25.1966 Y-1.5234
X25.2216 Y-1.5145
X25.2456 Y-1.504
X25.2691 Y-1.4914
X25.2914 Y-1.4772
X25.3229 Y-1.4541
X25.3381 Y-1.4464
X25.3543 Y-1.4415
X25.3711 Y-1.4393
X26.2181 Y-1.4396
X26.2349 Y-1.4425
X26.239 Y-1.4436
X26.2547 Y-1.4499
X26.2691 Y-1.4588
X26.2785 Y-1.4661
X26.2936 Y-1.4772
X26.3159 Y-1.4914
X26.3394 Y-1.504
X26.3634 Y-1.5145
X26.3884 Y-1.5234
X26.4138 Y-1.5303
X26.4398 Y-1.5352
X26.4662 Y-1.5382
X26.4878 Y-1.5392
X26.7972
X26.8189 Y-1.5382
X26.8452 Y-1.5352
X26.8712 Y-1.5303
X26.8966 Y-1.5234
X26.9216 Y-1.5145
X26.9456 Y-1.504
X26.9691 Y-1.4914
X26.9914 Y-1.4772
X27.0229 Y-1.4541
X27.0381 Y-1.4464
X27.0543 Y-1.4415
X27.0711 Y-1.4393
X27.9181 Y-1.4396
X27.9349 Y-1.4425
X27.939 Y-1.4436
X27.9547 Y-1.4499
X27.9691 Y-1.4588
X27.9785 Y-1.4661
X27.9936 Y-1.4772
X28.0159 Y-1.4914
X28.0394 Y-1.504
X28.0634 Y-1.5145
X28.0884 Y-1.5234
X28.1138 Y-1.5303
X28.1398 Y-1.5352
X28.1662 Y-1.5382
X28.1878 Y-1.5392
X28.4972
X28.5189 Y-1.5382
X28.5452 Y-1.5352
X28.5712 Y-1.5303
X28.5966 Y-1.5234
X28.6216 Y-1.5145
X28.6456 Y-1.504
X28.6691 Y-1.4914
X28.6914 Y-1.4772
X28.7229 Y-1.4541
X28.7381 Y-1.4464
X28.7543 Y-1.4415
X28.7711 Y-1.4393
X29.6181 Y-1.4396
X29.6349 Y-1.4425
X29.639 Y-1.4436
X29.6547 Y-1.4499
X29.6691 Y-1.4588
X29.6785 Y-1.4661
X29.6936 Y-1.4772
X29.7159 Y-1.4914
X29.7394 Y-1.504
X29.7634 Y-1.5145
X29.7884 Y-1.5234
X29.8138 Y-1.5303
X29.8398 Y-1.5352
X29.8662 Y-1.5382
X29.8878 Y-1.5392
X30.1972
X30.2189 Y-1.5382
X30.2452 Y-1.5352
X30.2712 Y-1.5303
X30.2966 Y-1.5234
X30.3216 Y-1.5145
X30.3456 Y-1.504
X30.3691 Y-1.4914
X30.3914 Y-1.4772
X30.4229 Y-1.4541
X30.4381 Y-1.4464
X30.4543 Y-1.4415
X30.4711 Y-1.4393
X31.3181 Y-1.4396
X31.3349 Y-1.4425
X31.339 Y-1.4436
X31.3547 Y-1.4499
X31.3691 Y-1.4588
X31.3785 Y-1.4661
X31.3936 Y-1.4772
X31.4159 Y-1.4914
X31.4394 Y-1.504
X31.4634 Y-1.5145
X31.4884 Y-1.5234
X31.5138 Y-1.5303
X31.5398 Y-1.5352
X31.5662 Y-1.5382
X31.5878 Y-1.5392
X31.8972
X31.9189 Y-1.5382
X31.9452 Y-1.5352
X31.9712 Y-1.5303
X31.9966 Y-1.5234
X32.0216 Y-1.5145
X32.0456 Y-1.504
X32.0691 Y-1.4914
X32.0914 Y-1.4772
X32.1229 Y-1.4541
X32.1381 Y-1.4464
X32.1543 Y-1.4415
X32.1711 Y-1.4393
X33.0181 Y-1.4396
X33.0349 Y-1.4425
X33.039 Y-1.4436
X33.0547 Y-1.4499
X33.0691 Y-1.4588
X33.0785 Y-1.4661
X33.0936 Y-1.4772
X33.1159 Y-1.4914
X33.1394 Y-1.504
X33.1634 Y-1.5145
X33.1884 Y-1.5234
X33.2138 Y-1.5303
X33.2398 Y-1.5352
X33.2662 Y-1.5382
X33.2878 Y-1.5392
X33.5972
X33.6189 Y-1.5382
X33.6452 Y-1.5352
X33.6712 Y-1.5303
X33.6966 Y-1.5234
X33.7216 Y-1.5145
X33.7456 Y-1.504
X33.7691 Y-1.4914
X33.7914 Y-1.4772
X33.8229 Y-1.4541
X33.8381 Y-1.4464
X33.8543 Y-1.4415
X33.8711 Y-1.4393
X34.7181 Y-1.4396
X34.7349 Y-1.4425
X34.739 Y-1.4436
X34.7547 Y-1.4499
X34.7691 Y-1.4588
X34.7785 Y-1.4661
X34.7936 Y-1.4772
X34.8159 Y-1.4914
X34.8394 Y-1.504
X34.8634 Y-1.5145
X34.8884 Y-1.5234
X34.9138 Y-1.5303
X34.9398 Y-1.5352
X34.9662 Y-1.5382
X34.9878 Y-1.5392
X35.2972
X35.3189 Y-1.5382
X35.3452 Y-1.5352
X35.3712 Y-1.5303
X35.3966 Y-1.5234
X35.4216 Y-1.5145
X35.4456 Y-1.504
X35.4691 Y-1.4914
X35.4914 Y-1.4772
X35.5229 Y-1.4541
X35.5381 Y-1.4464
X35.5543 Y-1.4415
X35.5711 Y-1.4393
X36.4181 Y-1.4396
X36.4349 Y-1.4425
X36.439 Y-1.4436
X36.4547 Y-1.4499
X36.4691 Y-1.4588
X36.4785 Y-1.4661
X36.4936 Y-1.4772
X36.5159 Y-1.4914
X36.5394 Y-1.504
X36.5634 Y-1.5145
X36.5884 Y-1.5234
X36.6138 Y-1.5303
X36.6398 Y-1.5352
X36.6662 Y-1.5382
X36.6878 Y-1.5392
X36.9972
X37.0189 Y-1.5382
X37.0452 Y-1.5352
X37.0712 Y-1.5303
X37.0966 Y-1.5234
X37.1216 Y-1.5145
X37.1456 Y-1.504
X37.1691 Y-1.4914
X37.1914 Y-1.4772
X37.2229 Y-1.4541
X37.2381 Y-1.4464
X37.2543 Y-1.4415
X37.2711 Y-1.4393
X38.1181 Y-1.4396
X38.1349 Y-1.4425
X38.139 Y-1.4436
X38.1547 Y-1.4499
X38.1691 Y-1.4588
X38.1785 Y-1.4661
X38.1936 Y-1.4772
X38.2159 Y-1.4914
X38.2394 Y-1.504
X38.2634 Y-1.5145
X38.2884 Y-1.5234
X38.3138 Y-1.5303
X38.3398 Y-1.5352
X38.3662 Y-1.5382
X38.3878 Y-1.5392
X38.6972
X38.7189 Y-1.5382
X38.7452 Y-1.5352
X38.7712 Y-1.5303
X38.7966 Y-1.5234
X38.8216 Y-1.5145
X38.8456 Y-1.504
X38.8691 Y-1.4914
X38.8914 Y-1.4772
X38.9229 Y-1.4541
X38.9381 Y-1.4464
X38.9543 Y-1.4415
X38.9711 Y-1.4393
X39.8184 Y-1.4396
X39.8349 Y-1.4424
X39.8388 Y-1.4436
X39.8541 Y-1.4497
X39.8679 Y-1.458
X39.8804 Y-1.4676
X39.8953 Y-1.4783
X39.9157 Y-1.4913
X39.9383 Y-1.5034
X39.9618 Y-1.514
X39.9888 Y-1.5236
X40.0149 Y-1.5305
X40.0401 Y-1.5353
X40.0661 Y-1.5382
X40.0878 Y-1.5392
X40.3973
X40.4189 Y-1.5382
X40.445 Y-1.5353
X40.4701 Y-1.5305
X40.4962 Y-1.5236
X40.5232 Y-1.514
X40.5468 Y-1.5034
X40.5693 Y-1.4913
X40.5897 Y-1.4783
X40.6063 Y-1.4664
X40.6168 Y-1.458
X40.6339 Y-1.4482
X40.6501 Y-1.4424
X40.6541 Y-1.4415
X40.6712 Y-1.4393
X41.5184 Y-1.4396
X41.5349 Y-1.4424
X41.5388 Y-1.4436
X41.5541 Y-1.4497
X41.5679 Y-1.458
X41.5804 Y-1.4676
X41.5953 Y-1.4783
X41.6157 Y-1.4913
X41.6383 Y-1.5034
X41.6618 Y-1.514
X41.6888 Y-1.5236
X41.7149 Y-1.5305
X41.7401 Y-1.5353
X41.7661 Y-1.5382
X41.7878 Y-1.5392
X42.0973
X42.1189 Y-1.5382
X42.145 Y-1.5353
X42.1701 Y-1.5305
X42.1962 Y-1.5236
X42.2232 Y-1.514
X42.2468 Y-1.5034
X42.2693 Y-1.4913
X42.2897 Y-1.4783
X42.3063 Y-1.4664
X42.3168 Y-1.458
X42.3339 Y-1.4482
X42.3501 Y-1.4424
X42.3541 Y-1.4415
X42.3712 Y-1.4393
X43.2184 Y-1.4396
X43.2349 Y-1.4424
X43.2388 Y-1.4436
X43.2541 Y-1.4497
X43.2679 Y-1.458
X43.2804 Y-1.4676
X43.2953 Y-1.4783
X43.3157 Y-1.4913
X43.3383 Y-1.5034
X43.3618 Y-1.514
X43.3888 Y-1.5236
X43.4149 Y-1.5305
X43.4401 Y-1.5353
X43.4661 Y-1.5382
X43.4878 Y-1.5392
X43.7973
X43.8189 Y-1.5382
X43.845 Y-1.5353
X43.8701 Y-1.5305
X43.8962 Y-1.5236
X43.9232 Y-1.514
X43.9468 Y-1.5034
X43.9693 Y-1.4913
X43.9897 Y-1.4783
X44.0063 Y-1.4664
X44.0168 Y-1.458
X44.0339 Y-1.4482
X44.0501 Y-1.4424
X44.0541 Y-1.4415
X44.0712 Y-1.4393
X45.3252 Y-1.4392
Z0.5222
G0 Z0.658

(TRACE5 2)
G0 X45.3252 Y-1.4292
Z0.658
Z-0.6279
G1 Z-1.058 F100.
X44.0708 Y-1.4293
X44.0569 Y-1.4308
X44.052 Y-1.4317
X44.0476 Y-1.4328
X44.0433 Y-1.434
X44.0264 Y-1.4407
X44.0109 Y-1.45
X44.0003 Y-1.4584
X43.9841 Y-1.47
X43.9643 Y-1.4826
X43.9423 Y-1.4944
X43.9195 Y-1.5047
X43.8932 Y-1.514
X43.8679 Y-1.5207
X43.8435 Y-1.5254
X43.8182 Y-1.5282
X43.7971 Y-1.5292
X43.488
X43.4669 Y-1.5282
X43.4416 Y-1.5254
X43.4171 Y-1.5207
X43.3918 Y-1.514
X43.3656 Y-1.5047
X43.3427 Y-1.4944
X43.3208 Y-1.4826
X43.3009 Y-1.47
X43.2684 Y-1.4462
X43.2552 Y-1.4391
X43.2418 Y-1.434
X43.2374 Y-1.4328
X43.233 Y-1.4317
X43.2192 Y-1.4296
X43.0752 Y-1.4292
X42.3708 Y-1.4293
X42.3569 Y-1.4308
X42.352 Y-1.4317
X42.3476 Y-1.4328
X42.3433 Y-1.434
X42.3264 Y-1.4407
X42.3108 Y-1.45
X42.3003 Y-1.4584
X42.2841 Y-1.47
X42.2643 Y-1.4826
X42.2423 Y-1.4944
X42.2195 Y-1.5047
X42.1932 Y-1.514
X42.1679 Y-1.5207
X42.1435 Y-1.5254
X42.1182 Y-1.5282
X42.0971 Y-1.5292
X41.788
X41.7669 Y-1.5282
X41.7416 Y-1.5254
X41.7171 Y-1.5207
X41.6918 Y-1.514
X41.6656 Y-1.5047
X41.6427 Y-1.4944
X41.6208 Y-1.4826
X41.6009 Y-1.47
X41.5684 Y-1.4462
X41.5552 Y-1.4391
X41.5417 Y-1.434
X41.5375 Y-1.4328
X41.533 Y-1.4317
X41.5192 Y-1.4296
X41.3752 Y-1.4292
X40.6708 Y-1.4293
X40.6569 Y-1.4308
X40.652 Y-1.4317
X40.6476 Y-1.4328
X40.6433 Y-1.434
X40.6264 Y-1.4407
X40.6108 Y-1.45
X40.6003 Y-1.4584
X40.5841 Y-1.47
X40.5643 Y-1.4826
X40.5423 Y-1.4944
X40.5195 Y-1.5047
X40.4932 Y-1.514
X40.4679 Y-1.5207
X40.4435 Y-1.5254
X40.4182 Y-1.5282
X40.3971 Y-1.5292
X40.088
X40.0669 Y-1.5282
X40.0416 Y-1.5254
X40.0171 Y-1.5207
X39.9918 Y-1.514
X39.9656 Y-1.5047
X39.9427 Y-1.4944
X39.9208 Y-1.4826
X39.9009 Y-1.47
X39.8684 Y-1.4462
X39.8552 Y-1.4391
X39.8418 Y-1.434
X39.8374 Y-1.4328
X39.833 Y-1.4317
X39.8192 Y-1.4296
X39.6752 Y-1.4292
X38.9707 Y-1.4293
X38.9522 Y-1.4317
X38.9476 Y-1.4328
X38.9431 Y-1.4341
X38.9258 Y-1.441
X38.9099 Y-1.4508
X38.9005 Y-1.4582
X38.8857 Y-1.469
X38.864 Y-1.4828
X38.8412 Y-1.495
X38.8179 Y-1.5052
X38.7936 Y-1.5138
X38.7689 Y-1.5205
X38.7437 Y-1.5253
X38.7181 Y-1.5283
X38.697 Y-1.5292
X38.388
X38.3669 Y-1.5283
X38.3413 Y-1.5253
X38.3161 Y-1.5205
X38.2914 Y-1.5138
X38.2671 Y-1.5052
X38.2438 Y-1.495
X38.221 Y-1.4828
X38.1993 Y-1.469
X38.1674 Y-1.4456
X38.155 Y-1.439
X38.1419 Y-1.4341
X38.1374 Y-1.4328
X38.1328 Y-1.4317
X38.1143 Y-1.4293
X37.2707
X37.2522 Y-1.4317
X37.2476 Y-1.4328
X37.2431 Y-1.4341
X37.2258 Y-1.441
X37.2099 Y-1.4508
X37.2005 Y-1.4582
X37.1857 Y-1.469
X37.164 Y-1.4828
X37.1412 Y-1.495
X37.1179 Y-1.5052
X37.0936 Y-1.5138
X37.0689 Y-1.5205
X37.0437 Y-1.5253
X37.0181 Y-1.5283
X36.997 Y-1.5292
X36.688
X36.6669 Y-1.5283
X36.6413 Y-1.5253
X36.6161 Y-1.5205
X36.5914 Y-1.5138
X36.5671 Y-1.5052
X36.5438 Y-1.495
X36.521 Y-1.4828
X36.4993 Y-1.469
X36.4674 Y-1.4456
X36.455 Y-1.439
X36.4419 Y-1.4341
X36.4374 Y-1.4328
X36.4328 Y-1.4317
X36.4143 Y-1.4293
X35.5707
X35.5522 Y-1.4317
X35.5476 Y-1.4328
X35.5431 Y-1.4341
X35.5258 Y-1.441
X35.5099 Y-1.4508
X35.5005 Y-1.4582
X35.4857 Y-1.469
X35.464 Y-1.4828
X35.4412 Y-1.495
X35.4179 Y-1.5052
X35.3936 Y-1.5138
X35.3689 Y-1.5205
X35.3437 Y-1.5253
X35.3181 Y-1.5283
X35.297 Y-1.5292
X34.988
X34.9669 Y-1.5283
X34.9413 Y-1.5253
X34.9161 Y-1.5205
X34.8914 Y-1.5138
X34.8671 Y-1.5052
X34.8438 Y-1.495
X34.821 Y-1.4828
X34.7993 Y-1.469
X34.7674 Y-1.4456
X34.755 Y-1.439
X34.7419 Y-1.4341
X34.7374 Y-1.4328
X34.7328 Y-1.4317
X34.7143 Y-1.4293
X33.8707
X33.8522 Y-1.4317
X33.8476 Y-1.4328
X33.8431 Y-1.4341
X33.8258 Y-1.441
X33.8099 Y-1.4508
X33.8005 Y-1.4582
X33.7857 Y-1.469
X33.764 Y-1.4828
X33.7412 Y-1.495
X33.7179 Y-1.5052
X33.6936 Y-1.5138
X33.6689 Y-1.5205
X33.6437 Y-1.5253
X33.6181 Y-1.5283
X33.597 Y-1.5292
X33.288
X33.2669 Y-1.5283
X33.2413 Y-1.5253
X33.2161 Y-1.5205
X33.1914 Y-1.5138
X33.1671 Y-1.5052
X33.1438 Y-1.495
X33.121 Y-1.4828
X33.0993 Y-1.469
X33.0674 Y-1.4456
X33.055 Y-1.439
X33.0419 Y-1.4341
X33.0374 Y-1.4328
X33.0328 Y-1.4317
X33.0143 Y-1.4293
X32.1707
X32.1522 Y-1.4317
X32.1476 Y-1.4328
X32.1431 Y-1.4341
X32.1258 Y-1.441
X32.1099 Y-1.4508
X32.1005 Y-1.4582
X32.0857 Y-1.469
X32.064 Y-1.4828
X32.0412 Y-1.495
X32.0179 Y-1.5052
X31.9936 Y-1.5138
X31.9689 Y-1.5205
X31.9437 Y-1.5253
X31.9181 Y-1.5283
X31.897 Y-1.5292
X31.588
X31.5669 Y-1.5283
X31.5413 Y-1.5253
X31.5161 Y-1.5205
X31.4914 Y-1.5138
X31.4671 Y-1.5052
X31.4438 Y-1.495
X31.421 Y-1.4828
X31.3993 Y-1.469
X31.3674 Y-1.4456
X31.355 Y-1.439
X31.3419 Y-1.4341
X31.3374 Y-1.4328
X31.3328 Y-1.4317
X31.3143 Y-1.4293
X30.4707
X30.4522 Y-1.4317
X30.4476 Y-1.4328
X30.4431 Y-1.4341
X30.4258 Y-1.441
X30.4099 Y-1.4508
X30.4005 Y-1.4582
X30.3857 Y-1.469
X30.364 Y-1.4828
X30.3412 Y-1.495
X30.3179 Y-1.5052
X30.2936 Y-1.5138
X30.2689 Y-1.5205
X30.2437 Y-1.5253
X30.2181 Y-1.5283
X30.197 Y-1.5292
X29.888
X29.8669 Y-1.5283
X29.8413 Y-1.5253
X29.8161 Y-1.5205
X29.7914 Y-1.5138
X29.7671 Y-1.5052
X29.7438 Y-1.495
X29.721 Y-1.4828
X29.6993 Y-1.469
X29.6674 Y-1.4456
X29.655 Y-1.439
X29.6419 Y-1.4341
X29.6374 Y-1.4328
X29.6328 Y-1.4317
X29.6143 Y-1.4293
X28.7707
X28.7522 Y-1.4317
X28.7476 Y-1.4328
X28.7431 Y-1.4341
X28.7258 Y-1.441
X28.7099 Y-1.4508
X28.7005 Y-1.4582
X28.6857 Y-1.469
X28.664 Y-1.4828
X28.6412 Y-1.495
X28.6179 Y-1.5052
X28.5936 Y-1.5138
X28.5689 Y-1.5205
X28.5437 Y-1.5253
X28.5181 Y-1.5283
X28.497 Y-1.5292
X28.188
X28.1669 Y-1.5283
X28.1413 Y-1.5253
X28.1161 Y-1.5205
X28.0914 Y-1.5138
X28.0671 Y-1.5052
X28.0438 Y-1.495
X28.021 Y-1.4828
X27.9993 Y-1.469
X27.9674 Y-1.4456
X27.955 Y-1.439
X27.9419 Y-1.4341
X27.9374 Y-1.4328
X27.9328 Y-1.4317
X27.9143 Y-1.4293
X27.0707
X27.0522 Y-1.4317
X27.0476 Y-1.4328
X27.0431 Y-1.4341
X27.0258 Y-1.441
X27.0099 Y-1.4508
X27.0005 Y-1.4582
X26.9857 Y-1.469
X26.964 Y-1.4828
X26.9412 Y-1.495
X26.9179 Y-1.5052
X26.8936 Y-1.5138
X26.8689 Y-1.5205
X26.8437 Y-1.5253
X26.8181 Y-1.5283
X26.797 Y-1.5292
X26.488
X26.4669 Y-1.5283
X26.4413 Y-1.5253
X26.4161 Y-1.5205
X26.3914 Y-1.5138
X26.3671 Y-1.5052
X26.3438 Y-1.495
X26.321 Y-1.4828
X26.2993 Y-1.469
X26.2674 Y-1.4456
X26.255 Y-1.439
X26.2419 Y-1.4341
X26.2374 Y-1.4328
X26.2328 Y-1.4317
X26.2143 Y-1.4293
X25.3707
X25.3522 Y-1.4317
X25.3476 Y-1.4328
X25.3431 Y-1.4341
X25.3258 Y-1.441
X25.3099 Y-1.4508
X25.3005 Y-1.4582
X25.2857 Y-1.469
X25.264 Y-1.4828
X25.2412 Y-1.495
X25.2179 Y-1.5052
X25.1936 Y-1.5138
X25.1689 Y-1.5205
X25.1437 Y-1.5253
X25.1181 Y-1.5283
X25.097 Y-1.5292
X24.788
X24.7669 Y-1.5283
X24.7413 Y-1.5253
X24.7161 Y-1.5205
X24.6914 Y-1.5138
X24.6671 Y-1.5052
X24.6438 Y-1.495
X24.621 Y-1.4828
X24.5993 Y-1.469
X24.5674 Y-1.4456
X24.555 Y-1.439
X24.5419 Y-1.4341
X24.5374 Y-1.4328
X24.5328 Y-1.4317
X24.5143 Y-1.4293
X23.6707
X23.6522 Y-1.4317
X23.6476 Y-1.4328
X23.6431 Y-1.4341
X23.6258 Y-1.441
X23.6099 Y-1.4508
X23.6005 Y-1.4582
X23.5857 Y-1.469
X23.564 Y-1.4828
X23.5412 Y-1.495
X23.5179 Y-1.5052
X23.4936 Y-1.5138
X23.4689 Y-1.5205
X23.4437 Y-1.5253
X23.4181 Y-1.5283
X23.397 Y-1.5292
X23.088
X23.0669 Y-1.5283
X23.0413 Y-1.5253
X23.0161 Y-1.5205
X22.9914 Y-1.5138
X22.9671 Y-1.5052
X22.9438 Y-1.495
X22.921 Y-1.4828
X22.8993 Y-1.469
X22.8674 Y-1.4456
X22.855 Y-1.439
X22.8419 Y-1.4341
X22.8374 Y-1.4328
X22.8328 Y-1.4317
X22.8143 Y-1.4293
X21.9707
X21.9522 Y-1.4317
X21.9476 Y-1.4328
X21.9431 Y-1.4341
X21.9258 Y-1.441
X21.9099 Y-1.4508
X21.9005 Y-1.4582
X21.8857 Y-1.469
X21.864 Y-1.4828
X21.8412 Y-1.495
X21.8179 Y-1.5052
X21.7936 Y-1.5138
X21.7689 Y-1.5205
X21.7437 Y-1.5253
X21.7181 Y-1.5283
X21.697 Y-1.5292
X21.388
X21.3669 Y-1.5283
X21.3413 Y-1.5253
X21.3161 Y-1.5205
X21.2914 Y-1.5138
X21.2671 Y-1.5052
X21.2438 Y-1.495
X21.221 Y-1.4828
X21.1993 Y-1.469
X21.1674 Y-1.4456
X21.155 Y-1.439
X21.1419 Y-1.4341
X21.1374 Y-1.4328
X21.1328 Y-1.4317
X21.1143 Y-1.4293
X20.2707
X20.2522 Y-1.4317
X20.2476 Y-1.4328
X20.2431 Y-1.4341
X20.2258 Y-1.441
X20.2099 Y-1.4508
X20.2005 Y-1.4582
X20.1857 Y-1.469
X20.164 Y-1.4828
X20.1412 Y-1.495
X20.1179 Y-1.5052
X20.0936 Y-1.5138
X20.0689 Y-1.5205
X20.0437 Y-1.5253
X20.0181 Y-1.5283
X19.997 Y-1.5292
X19.688
X19.6669 Y-1.5283
X19.6413 Y-1.5253
X19.6161 Y-1.5205
X19.5914 Y-1.5138
X19.5671 Y-1.5052
X19.5438 Y-1.495
X19.521 Y-1.4828
X19.4993 Y-1.469
X19.4674 Y-1.4456
X19.455 Y-1.439
X19.4419 Y-1.4341
X19.4374 Y-1.4328
X19.4328 Y-1.4317
X19.4143 Y-1.4293
X18.5707
X18.5522 Y-1.4317
X18.5476 Y-1.4328
X18.5431 Y-1.4341
X18.5258 Y-1.441
X18.5099 Y-1.4508
X18.5005 Y-1.4582
X18.4857 Y-1.469
X18.464 Y-1.4828
X18.4412 Y-1.495
X18.4179 Y-1.5052
X18.3936 Y-1.5138
X18.3689 Y-1.5205
X18.3437 Y-1.5253
X18.3181 Y-1.5283
X18.297 Y-1.5292
X17.988
X17.9669 Y-1.5283
X17.9413 Y-1.5253
X17.9161 Y-1.5205
X17.8914 Y-1.5138
X17.8671 Y-1.5052
X17.8438 Y-1.495
X17.821 Y-1.4828
X17.7993 Y-1.469
X17.7674 Y-1.4456
X17.755 Y-1.439
X17.7419 Y-1.4341
X17.7374 Y-1.4328
X17.7328 Y-1.4317
X17.7143 Y-1.4293
X16.8707
X16.8522 Y-1.4317
X16.8476 Y-1.4328
X16.8431 Y-1.4341
X16.8258 Y-1.441
X16.8099 Y-1.4508
X16.8005 Y-1.4582
X16.7857 Y-1.469
X16.764 Y-1.4828
X16.7412 Y-1.495
X16.7179 Y-1.5052
X16.6936 Y-1.5138
X16.6689 Y-1.5205
X16.6437 Y-1.5253
X16.6181 Y-1.5283
X16.597 Y-1.5292
X16.288
X16.2669 Y-1.5283
X16.2413 Y-1.5253
X16.2161 Y-1.5205
X16.1914 Y-1.5138
X16.1671 Y-1.5052
X16.1438 Y-1.495
X16.121 Y-1.4828
X16.0993 Y-1.469
X16.0674 Y-1.4456
X16.055 Y-1.439
X16.0419 Y-1.4341
X16.0374 Y-1.4328
X16.0328 Y-1.4317
X16.0143 Y-1.4293
X15.1707
X15.1522 Y-1.4317
X15.1476 Y-1.4328
X15.1431 Y-1.4341
X15.1258 Y-1.441
X15.1099 Y-1.4508
X15.1005 Y-1.4582
X15.0857 Y-1.469
X15.064 Y-1.4828
X15.0412 Y-1.495
X15.0179 Y-1.5052
X14.9936 Y-1.5138
X14.9689 Y-1.5205
X14.9437 Y-1.5253
X14.9181 Y-1.5283
X14.897 Y-1.5292
X14.588
X14.5669 Y-1.5283
X14.5413 Y-1.5253
X14.5161 Y-1.5205
X14.4914 Y-1.5138
X14.4671 Y-1.5052
X14.4438 Y-1.495
X14.421 Y-1.4828
X14.3993 Y-1.469
X14.3674 Y-1.4456
X14.355 Y-1.439
X14.3419 Y-1.4341
X14.3374 Y-1.4328
X14.3328 Y-1.4317
X14.3143 Y-1.4293
X13.4707
X13.4522 Y-1.4317
X13.4476 Y-1.4328
X13.4431 Y-1.4341
X13.4258 Y-1.441
X13.4099 Y-1.4508
X13.4005 Y-1.4582
X13.3857 Y-1.469
X13.364 Y-1.4828
X13.3412 Y-1.495
X13.3179 Y-1.5052
X13.2936 Y-1.5138
X13.2689 Y-1.5205
X13.2437 Y-1.5253
X13.2181 Y-1.5283
X13.197 Y-1.5292
X12.888
X12.8669 Y-1.5283
X12.8413 Y-1.5253
X12.8161 Y-1.5205
X12.7914 Y-1.5138
X12.7671 Y-1.5052
X12.7438 Y-1.495
X12.721 Y-1.4828
X12.6993 Y-1.469
X12.6674 Y-1.4456
X12.655 Y-1.439
X12.6419 Y-1.4341
X12.6374 Y-1.4328
X12.6328 Y-1.4317
X12.6143 Y-1.4293
X11.7707
X11.7522 Y-1.4317
X11.7476 Y-1.4328
X11.7431 Y-1.4341
X11.7258 Y-1.441
X11.7099 Y-1.4508
X11.7005 Y-1.4582
X11.6857 Y-1.469
X11.664 Y-1.4828
X11.6412 Y-1.495
X11.6179 Y-1.5052
X11.5936 Y-1.5138
X11.5689 Y-1.5205
X11.5437 Y-1.5253
X11.5181 Y-1.5283
X11.497 Y-1.5292
X11.188
X11.1669 Y-1.5283
X11.1413 Y-1.5253
X11.1161 Y-1.5205
X11.0914 Y-1.5138
X11.0671 Y-1.5052
X11.0438 Y-1.495
X11.021 Y-1.4828
X10.9993 Y-1.469
X10.9674 Y-1.4456
X10.955 Y-1.439
X10.9419 Y-1.4341
X10.9374 Y-1.4328
X10.9328 Y-1.4317
X10.9143 Y-1.4293
X10.0707
X10.0522 Y-1.4317
X10.0476 Y-1.4328
X10.0431 Y-1.4341
X10.0258 Y-1.441
X10.0099 Y-1.4508
X10.0005 Y-1.4582
X9.9857 Y-1.469
X9.964 Y-1.4828
X9.9412 Y-1.495
X9.9179 Y-1.5052
X9.8936 Y-1.5138
X9.8689 Y-1.5205
X9.8437 Y-1.5253
X9.8181 Y-1.5283
X9.797 Y-1.5292
X9.488
X9.4669 Y-1.5283
X9.4413 Y-1.5253
X9.4161 Y-1.5205
X9.3914 Y-1.5138
X9.3671 Y-1.5052
X9.3438 Y-1.495
X9.321 Y-1.4828
X9.2993 Y-1.469
X9.2674 Y-1.4456
X9.255 Y-1.439
X9.2419 Y-1.4341
X9.2374 Y-1.4328
X9.2328 Y-1.4317
X9.2143 Y-1.4293
X8.3707
X8.3522 Y-1.4317
X8.3476 Y-1.4328
X8.3431 Y-1.4341
X8.3258 Y-1.441
X8.3099 Y-1.4508
X8.3005 Y-1.4582
X8.2857 Y-1.469
X8.264 Y-1.4828
X8.2412 Y-1.495
X8.2179 Y-1.5052
X8.1936 Y-1.5138
X8.1689 Y-1.5205
X8.1437 Y-1.5253
X8.1181 Y-1.5283
X8.097 Y-1.5292
X7.788
X7.7669 Y-1.5283
X7.7413 Y-1.5253
X7.7161 Y-1.5205
X7.6914 Y-1.5138
X7.6671 Y-1.5052
X7.6438 Y-1.495
X7.621 Y-1.4828
X7.5993 Y-1.469
X7.5674 Y-1.4456
X7.555 Y-1.439
X7.5419 Y-1.4341
X7.5374 Y-1.4328
X7.5328 Y-1.4317
X7.5143 Y-1.4293
X6.6707
X6.6522 Y-1.4317
X6.6476 Y-1.4328
X6.6431 Y-1.4341
X6.6258 Y-1.441
X6.6099 Y-1.4508
X6.6005 Y-1.4582
X6.5857 Y-1.469
X6.564 Y-1.4828
X6.5412 Y-1.495
X6.5179 Y-1.5052
X6.4936 Y-1.5138
X6.4689 Y-1.5205
X6.4437 Y-1.5253
X6.4181 Y-1.5283
X6.397 Y-1.5292
X6.088
X6.0669 Y-1.5283
X6.0413 Y-1.5253
X6.0161 Y-1.5205
X5.9914 Y-1.5138
X5.9671 Y-1.5052
X5.9438 Y-1.495
X5.921 Y-1.4828
X5.8993 Y-1.469
X5.8674 Y-1.4456
X5.855 Y-1.439
X5.8419 Y-1.4341
X5.8374 Y-1.4328
X5.8328 Y-1.4317
X5.8143 Y-1.4293
X4.9707
X4.9522 Y-1.4317
X4.9476 Y-1.4328
X4.9431 Y-1.4341
X4.9258 Y-1.441
X4.9099 Y-1.4508
X4.9005 Y-1.4582
X4.8857 Y-1.469
X4.864 Y-1.4828
X4.8412 Y-1.495
X4.8179 Y-1.5052
X4.7936 Y-1.5138
X4.7689 Y-1.5205
X4.7437 Y-1.5253
X4.7181 Y-1.5283
X4.697 Y-1.5292
X4.388
X4.3669 Y-1.5283
X4.3413 Y-1.5253
X4.3161 Y-1.5205
X4.2914 Y-1.5138
X4.2671 Y-1.5052
X4.2438 Y-1.495
X4.221 Y-1.4828
X4.1993 Y-1.469
X4.1674 Y-1.4456
X4.155 Y-1.439
X4.1419 Y-1.4341
X4.1374 Y-1.4328
X4.1328 Y-1.4317
X4.1143 Y-1.4293
X3.2707
X3.2522 Y-1.4317
X3.2476 Y-1.4328
X3.2431 Y-1.434
X3.2258 Y-1.441
X3.2099 Y-1.4508
X3.2006 Y-1.458
X3.1856 Y-1.469
X3.164 Y-1.4828
X3.1413 Y-1.4949
X3.1179 Y-1.5053
X3.0936 Y-1.5138
X3.0689 Y-1.5205
X3.0437 Y-1.5253
X3.0181 Y-1.5283
X2.997 Y-1.5292
X2.688
X2.6669 Y-1.5283
X2.6413 Y-1.5253
X2.6161 Y-1.5205
X2.5914 Y-1.5138
X2.5671 Y-1.5053
X2.5437 Y-1.4949
X2.521 Y-1.4828
X2.4994 Y-1.469
X2.4674 Y-1.4456
X2.4507 Y-1.4372
X2.4328 Y-1.4317
X2.4143 Y-1.4293
X1.5707
X1.5522 Y-1.4317
X1.5476 Y-1.4328
X1.5431 Y-1.434
X1.5258 Y-1.441
X1.5099 Y-1.4508
X1.5006 Y-1.458
X1.4856 Y-1.469
X1.464 Y-1.4828
X1.4413 Y-1.4949
X1.4179 Y-1.5053
X1.3936 Y-1.5138
X1.3689 Y-1.5205
X1.3437 Y-1.5253
X1.3181 Y-1.5283
X1.297 Y-1.5292
X0.988
X0.9669 Y-1.5283
X0.9413 Y-1.5253
X0.9161 Y-1.5205
X0.8914 Y-1.5138
X0.8671 Y-1.5053
X0.8437 Y-1.4949
X0.821 Y-1.4828
X0.7994 Y-1.469
X0.7674 Y-1.4456
X0.7507 Y-1.4372
X0.7328 Y-1.4317
X0.7143 Y-1.4293
X-0.1247 Y-1.4292
Z-0.6279
G0 Z0.658

M5
G53 G0 Z0.
M30
