(LOWER SHAPING)
(T13 D=0.2362 CR=0. TAPER=45DEG - ZMIN=0.2831 - CHAMFER MILL)
(T14 D=0.125 CR=0. - ZMIN=0.2341 - FLAT END MILL)
(T15 D=0.5 CR=0. - ZMIN=0.1841 - FLAT END MILL)
(T16 D=0.2362 CR=0. - ZMIN=0.1841 - FLAT END MILL)
(T17 D=0.4724 CR=0. - ZMIN=-0.585 - FLAT END MILL)
(T18 D=0.9843 CR=0. TAPER=45DEG - ZMIN=-0.635 - DOVETAIL MILL)
G90 G94 G91.1 G40 G49 G17
G20
G53 G0 Z0.

(POCKET2 5)
T15 M6
S10000 M3
G17 G90 G94
G55
G0 X23.0685 Y3.0475
G43 Z1.2341 H15
G0 Z0.5293
G1 Z0.4075 F50.
Y3.0472 Z0.4021 F100.
Y3.0464 Z0.3968
Y3.0449 Z0.3917
Y3.043 Z0.3867
Y3.0405 Z0.3819
Y3.0375 Z0.3775
Y3.0341 Z0.3734
Y3.0302 Z0.3697
Y3.026 Z0.3664
Y3.0214 Z0.3636
Y3.0166 Z0.3613
Y3.0115 Z0.3595
Y3.0063 Z0.3583
Y3.001 Z0.3576
X23.0693 Y0.8837 Z0.2095
G2 X23.0593 Y0.8551 Z0.2074 I-0.0461 J0.
G1 X23.0567 Y0.8517 Z0.2071
G2 X22.9882 Z0.2016 I-0.0343 J0.0263
G3 X22.7914 Y0.9959 Z0.1843 I-0.3466 J-0.2667
G1 X22.7897 Y0.9965 Z0.1842
X22.7881 Y0.9971 Z0.1841
G3 X22.7486 Y1.0091 I-0.1465 J-0.4121
G2 X22.6877 Y1.0877 I0.0198 J0.0782
G1 X22.7073 Y4.4902
G2 X22.7703 Y4.5529 I0.063 J-0.0004
G1 X23.0054
G2 X23.068 Y4.4903 I0. J-0.0626
G1 X23.0693 Y0.8837
G2 X23.0593 Y0.8551 I-0.0461 J0.
G1 X23.0567 Y0.8517
G2 X22.9882 I-0.0343 J0.0263
G3 X22.7881 Y0.9971 I-0.3466 J-0.2667
X22.6496 Y0.944 I-0.0382 J-0.1075
G2 X22.5059 Y0.9809 I-0.0672 J0.0365
G1 X22.5275 Y4.7341
X23.2491
X23.2505 Y0.7914
X23.2471 Y0.7888
X23.2413 Y0.7841
X23.2357 Y0.7793
X23.2294 Y0.7736
X23.2225 Y0.7669
X23.2168 Y0.7609
X23.2121 Y0.7557
X23.2072 Y0.75
X23.2021 Y0.7436
X23.1979 Y0.7381
X23.1946 Y0.7334
X23.1913 Y0.7287
X23.1883 Y0.724
X23.1861 Y0.7206
X23.1848 Y0.7184
X23.1825 Y0.7145
X23.1793 Y0.7087
X23.1762 Y0.703
X23.1733 Y0.6972
X23.1698 Y0.6894
X23.1657 Y0.6796
X23.1634 Y0.6737
X23.1628 Y0.6721
X23.1615 Y0.6684
X23.1596 Y0.6626
X23.1579 Y0.6568
X23.1563 Y0.6511
X23.1548 Y0.6453
X23.1535 Y0.6396
X23.1523 Y0.6338
X23.1512 Y0.628
X23.1503 Y0.6223
X23.1495 Y0.6165
X23.1489 Y0.6107
X23.1483 Y0.605
X23.1478 Y0.5966
X23.1475 Y0.5851
Y0.5816
X23.1481 Y-1.2394
X23.1482 Y-1.2423
X23.1484 Y-1.2538
X23.1487 Y-1.2595
X23.1491 Y-1.2659
X22.888
X22.8884 Y-1.2584
X22.8886 Y-1.2534
G3 X22.8889 Y-1.2401 I-0.7836 J0.0212
G1 X22.8994 Y0.5809
X22.8993 Y0.5845
X22.8992 Y0.5902
X22.899 Y0.596
X22.8986 Y0.6018
X22.8981 Y0.6075
X22.8974 Y0.6133
X22.8966 Y0.619
X22.8957 Y0.6248
X22.8949 Y0.6297
X22.8941 Y0.6338
X22.8928 Y0.6396
X22.891 Y0.647
X22.8892 Y0.6536
X22.8875 Y0.6594
X22.8856 Y0.6652
X22.8835 Y0.6709
X22.8814 Y0.6767
X22.879 Y0.6824
X22.8765 Y0.6882
X22.8738 Y0.694
X22.872 Y0.6978
X22.8711 Y0.6996
X22.8679 Y0.7054
X22.8624 Y0.7151
G3 X22.8566 Y0.7243 I-0.113 J-0.0643
G1 X22.8506 Y0.7331
X22.8465 Y0.7388
X22.8444 Y0.7416
X22.8411 Y0.7456
X22.8366 Y0.751
X22.8319 Y0.7563
X22.827 Y0.7616
X22.824 Y0.7647
X22.8232 Y0.7656
X22.8201 Y0.7685
X22.8147 Y0.7735
X22.8094 Y0.7783
X22.8041 Y0.7828
X22.8001 Y0.786
X22.7975 Y0.788
X22.7918 Y0.7922
X22.7828 Y0.7984
G3 X22.7737 Y0.8042 I-0.074 J-0.1069
G1 X22.7645 Y0.8095
X22.7586 Y0.8127
X22.7564 Y0.8138
X22.7524 Y0.8158
X22.7466 Y0.8185
X22.7408 Y0.821
X22.7351 Y0.8234
X22.7293 Y0.8256
X22.7235 Y0.8276
X22.7178 Y0.8295
X22.712 Y0.8313
X22.7061 Y0.8329
X22.7002 Y0.8344
X22.6944 Y0.8357
X22.6888 Y0.8369
X22.6831 Y0.8379
X22.6774 Y0.8388
X22.6716 Y0.8396
X22.6658 Y0.8403
X22.6572 Y0.841
X22.6457 Y0.8415
X22.6404 Y0.8416
X22.5051 Y0.8424
X22.5059 Y0.9809
X22.5061 Y0.9837 Z0.1842
X22.5064 Y0.9865 Z0.1845
X22.5069 Y0.9892 Z0.1848
X22.5075 Y0.9919 Z0.1854
X22.5083 Y0.9945 Z0.1861
X22.5092 Y0.997 Z0.1869
X22.5102 Y0.9995 Z0.1879
X22.5113 Y1.0018 Z0.1891
X22.5125 Y1.0039 Z0.1904
X22.5138 Y1.006 Z0.1918
X22.5151 Y1.0079 Z0.1934
X22.5164 Y1.0097 Z0.1951
X22.5178 Y1.0114 Z0.1969
X22.5192 Y1.0129 Z0.1988
X22.5205 Y1.0143 Z0.2008
X22.5218 Y1.0155 Z0.203
X22.5231 Y1.0166 Z0.2052
X22.5243 Y1.0176 Z0.2075
X22.5254 Y1.0185 Z0.21
X22.5265 Y1.0192 Z0.2124
X22.5274 Y1.0199 Z0.215
X22.5282 Y1.0204 Z0.2176
X22.529 Y1.0209 Z0.2203
X22.5296 Y1.0212 Z0.223
X22.53 Y1.0215 Z0.2258
X22.5304 Y1.0217 Z0.2285
X22.5306 Y1.0218 Z0.2313
Y1.0219 Z0.2341
G0 Z0.8341
X21.1607 Y2.6875
Z0.5293
G1 Z0.4075 F50.
Y2.6878 Z0.4021 F100.
Y2.6886 Z0.3968
Y2.69 Z0.3917
Y2.692 Z0.3867
Y2.6945 Z0.3819
Y2.6975 Z0.3775
Y2.7009 Z0.3734
Y2.7048 Z0.3697
X21.1608 Y2.709 Z0.3664
Y2.7136 Z0.3636
Y2.7184 Z0.3613
Y2.7235 Z0.3595
X21.1609 Y2.7287 Z0.3583
Y2.734 Z0.3576
X21.1703 Y4.7341 Z0.2177
X21.4779 Z0.1962
X21.4769 Y4.563 Z0.1843
Y4.5595 Z0.1841
X21.4435 Y-1.227
Y-1.2273
Y-1.2389
Y-1.243
X21.4439 Y-1.2546
X21.4442 Y-1.2611
X21.4446 Y-1.2659
X21.1413
X21.1417 Y-1.2586
X21.1419 Y-1.2535
X21.1421 Y-1.2419
X21.1422 Y-1.2399
X21.1703 Y4.7341
X21.4779
X21.4769 Y4.5595
X21.4767 Y4.5567 Z0.1842
X21.4764 Y4.5539 Z0.1845
X21.4759 Y4.5512 Z0.1848
X21.4752 Y4.5485 Z0.1854
X21.4745 Y4.5459 Z0.1861
X21.4736 Y4.5434 Z0.1869
X21.4726 Y4.541 Z0.1879
X21.4715 Y4.5387 Z0.1891
X21.4703 Y4.5365 Z0.1904
X21.469 Y4.5344 Z0.1918
X21.4677 Y4.5325 Z0.1934
X21.4663 Y4.5307 Z0.1951
X21.4649 Y4.5291 Z0.1969
X21.4636 Y4.5276 Z0.1988
X21.4622 Y4.5262 Z0.2008
X21.4609 Y4.525 Z0.203
X21.4597 Y4.5238 Z0.2052
X21.4584 Y4.5229 Z0.2075
X21.4573 Y4.522 Z0.21
X21.4563 Y4.5212 Z0.2124
X21.4553 Y4.5206 Z0.215
X21.4545 Y4.52 Z0.2176
X21.4538 Y4.5196 Z0.2203
X21.4532 Y4.5192 Z0.223
X21.4527 Y4.5189 Z0.2258
X21.4524 Y4.5187 Z0.2285
X21.4522 Y4.5186 Z0.2313
X21.4521 Z0.2341
G0 Z0.8341
X19.7268 Y3.6531
Z0.5293
G1 Z0.4075 F50.
Y3.6528 Z0.4021 F100.
Y3.652 Z0.3968
Y3.6506 Z0.3917
X19.7267 Y3.6486 Z0.3867
Y3.6461 Z0.3819
Y3.6431 Z0.3775
Y3.6397 Z0.3734
Y3.6358 Z0.3697
Y3.6316 Z0.3664
X19.7266 Y3.627 Z0.3636
Y3.6222 Z0.3613
Y3.6171 Z0.3595
Y3.6119 Z0.3583
X19.7265 Y3.6066 Z0.3576
X19.7149 Y1.144 Z0.1854
G2 X19.71 Y1.1289 Z0.1843 I-0.026 J0.0001
G1 X19.709 Y1.1275 Z0.1842
X19.7078 Y1.1262 Z0.1841
X19.7051 Y1.1237
X19.7021 Y1.1217
X19.7009 Y1.1209
G2 X19.6615 Y1.1434 I-0.0133 J0.0224
G1 X19.6782 Y4.3294
G2 X19.7299 Y4.3291 I0.0259 J-0.0001
G1 X19.7149 Y1.144
G2 X19.7078 Y1.1262 I-0.026 J0.0001
G3 X19.6747 Y0.9627 I0.1143 J-0.1083
G2 X19.532 Y0.8763 I-0.0795 J-0.0298
G3 X19.5134 Y0.8957 I-0.3238 J-0.2903
G2 X19.4806 Y0.9749 I0.0779 J0.0786
G1 X19.499 Y4.4902
G2 X19.562 Y4.5529 I0.063 J-0.0003
G1 X19.8485
G2 X19.9107 Y4.4904 I0. J-0.0622
G1 X19.8947 Y1.0836
G2 X19.8327 Y0.9871 I-0.107 J0.0005
G3 X19.6394 Y0.8141 I0.1867 J-0.403
G2 X19.5786 Y0.8139 I-0.0305 J0.0184
G3 X19.532 Y0.8763 I-0.3704 J-0.2279
X19.4066 Y0.9038 I-0.0818 J-0.0734
G2 X19.2994 Y0.9746 I-0.0304 J0.0704
G1 X19.3191 Y4.7341
X20.0931
X20.0747 Y0.8461
X20.0218 Y0.8464
X20.0188 Y0.8463
X20.0072 Y0.8461
X19.999 Y0.8457
X19.9933 Y0.8452
X19.9875 Y0.8446
X19.9817 Y0.8439
X19.976 Y0.8431
X19.9702 Y0.8421
X19.9644 Y0.8409
X19.9587 Y0.8397
X19.9529 Y0.8383
X19.9471 Y0.8367
X19.9414 Y0.835
X19.9356 Y0.8332
X19.9314 Y0.8318
X19.9289 Y0.8309
X19.9231 Y0.8286
X19.9141 Y0.825
X19.9067 Y0.8217
X19.901 Y0.8189
X19.8952 Y0.8159
X19.8894 Y0.8127
X19.885 Y0.8102
X19.8819 Y0.8083
X19.876 Y0.8046
X19.8676 Y0.7989
X19.8636 Y0.7961
X19.8597 Y0.7931
X19.8523 Y0.7873
X19.8466 Y0.7825
X19.8425 Y0.7788
X19.8365 Y0.7731
X19.8287 Y0.7653
X19.823 Y0.7591
X19.8192 Y0.7548
X19.8145 Y0.749
X19.809 Y0.7418
G3 X19.8032 Y0.7337 I0.1028 J-0.0796
G1 X19.7972 Y0.7246
X19.7936 Y0.7188
X19.7921 Y0.7164
X19.7898 Y0.7123
X19.7868 Y0.7065
X19.7838 Y0.7008
X19.7811 Y0.695
X19.7786 Y0.6894
X19.7763 Y0.6839
X19.7741 Y0.6782
X19.7719 Y0.6721
X19.7699 Y0.6662
X19.7681 Y0.6604
X19.7664 Y0.6547
X19.7649 Y0.6489
X19.7636 Y0.6431
X19.7624 Y0.6374
X19.7613 Y0.6316
X19.7603 Y0.6258
X19.7595 Y0.6201
X19.7588 Y0.6143
X19.7583 Y0.6085
X19.7578 Y0.6028
X19.7575 Y0.5954
G3 X19.7573 Y0.5796 I0.7265 J-0.0185
G1 X19.7487 Y-1.2387
X19.7488 Y-1.2428
X19.7491 Y-1.2544
X19.7494 Y-1.2608
X19.7498 Y-1.2659
X19.4528
X19.4533 Y-1.2585
X19.4535 Y-1.2534
G3 X19.4537 Y-1.24 I-0.7956 J0.0217
G1 X19.4633 Y0.5809
X19.4632 Y0.5841
X19.4631 Y0.5899
X19.4629 Y0.5957
X19.4625 Y0.6014
X19.462 Y0.6072
X19.4614 Y0.613
X19.4606 Y0.6187
X19.4597 Y0.6245
X19.4583 Y0.6324
X19.456 Y0.6426
X19.4546 Y0.6483
X19.4543 Y0.6497
X19.4533 Y0.6533
X19.4515 Y0.6591
X19.4497 Y0.6648
X19.4477 Y0.6706
X19.4455 Y0.6763
X19.4432 Y0.6821
X19.4407 Y0.6879
X19.438 Y0.6936
X19.4355 Y0.6989
X19.433 Y0.7037
X19.4298 Y0.7094
X19.4259 Y0.7162
X19.4221 Y0.7223
X19.4185 Y0.7277
X19.4147 Y0.7332
X19.4107 Y0.7386
X19.4084 Y0.7417
X19.4079 Y0.7423
X19.4053 Y0.7455
X19.4005 Y0.7513
X19.3954 Y0.757
X19.39 Y0.7628
X19.3869 Y0.7661
X19.386 Y0.7669
X19.3828 Y0.77
X19.377 Y0.7754
X19.3712 Y0.7804
X19.3655 Y0.7851
X19.3621 Y0.7878
X19.3613 Y0.7884
X19.3583 Y0.7907
X19.3529 Y0.7946
X19.3475 Y0.7982
X19.3422 Y0.8017
X19.3359 Y0.8056
X19.3286 Y0.8097
X19.3228 Y0.8128
X19.3185 Y0.815
X19.3135 Y0.8174
X19.3078 Y0.82
X19.302 Y0.8225
X19.2987 Y0.8238
X19.2994 Y0.9746
X19.2996 Y0.9774 Z0.1842
X19.2999 Y0.9802 Z0.1845
X19.3004 Y0.9829 Z0.1848
X19.3011 Y0.9856 Z0.1854
X19.3018 Y0.9882 Z0.1861
X19.3027 Y0.9907 Z0.1869
X19.3037 Y0.9931 Z0.1879
X19.3048 Y0.9954 Z0.1891
X19.306 Y0.9976 Z0.1904
X19.3073 Y0.9997 Z0.1918
X19.3086 Y1.0016 Z0.1934
X19.31 Y1.0034 Z0.1951
X19.3113 Y1.0051 Z0.1969
X19.3127 Y1.0066 Z0.1988
X19.3141 Y1.0079 Z0.2008
X19.3154 Y1.0092 Z0.203
X19.3166 Y1.0103 Z0.2052
X19.3178 Y1.0113 Z0.2075
X19.319 Y1.0122 Z0.21
X19.32 Y1.0129 Z0.2124
X19.321 Y1.0136 Z0.215
X19.3218 Y1.0141 Z0.2176
X19.3225 Y1.0146 Z0.2203
X19.3231 Y1.0149 Z0.223
X19.3236 Y1.0152 Z0.2258
X19.3239 Y1.0154 Z0.2285
X19.3241 Y1.0155 Z0.2313
X19.3242 Y1.0156 Z0.2341
G0 Z0.8341
X17.7801 Y1.9955
Z0.5293
G1 Z0.4075 F50.
Y1.9958 Z0.4021 F100.
Y1.9967 Z0.3968
X17.78 Y1.9981 Z0.3917
Y2.0001 Z0.3867
Y2.0025 Z0.3819
Y2.0055 Z0.3775
Y2.009 Z0.3734
Y2.0128 Z0.3697
Y2.0171 Z0.3664
Y2.0216 Z0.3636
X17.7799 Y2.0265 Z0.3613
Y2.0315 Z0.3595
Y2.0367 Z0.3583
Y2.042 Z0.3576
X17.7719 Y4.3259 Z0.1979
G2 X17.819 Y4.3731 Z0.1927 I0.0471 J0.0002
G1 X17.8391 Z0.1913
G2 X17.8861 Y4.3258 Z0.1861 I0. J-0.0471
G1 X17.886 Y4.2992 Z0.1843
Y4.2957 Z0.1841
X17.8695 Y1.143
G2 X17.8155 Y1.1132 I-0.0353 J0.0002
G3 X17.8004 Y1.1223 I-0.2874 J-0.4597
G2 X17.783 Y1.1524 I0.0177 J0.0303
G1 X17.7719 Y4.3259
G2 X17.819 Y4.3731 I0.0471 J0.0002
G1 X17.8391
G2 X17.8861 Y4.3258 I0. J-0.0471
G1 X17.886 Y4.2957
G3 X17.9753 Y4.1603 I0.1462 J-0.0008
G2 X18.0646 Y4.0248 I-0.057 J-0.1347
G1 X18.0487 Y0.9941
G2 X18.0119 Y0.9113 I-0.1129 J0.0006
G3 X17.9291 Y0.8082 I0.2912 J-0.3189
G2 X17.8684 Y0.8081 I-0.0304 J0.0176
G3 X17.8072 Y0.8906 I-0.4116 J-0.2414
X17.7291 Y0.9573 I-0.3205 J-0.2963
X17.6986 Y0.9744 I-0.1247 J-0.1868
X17.6667 Y0.9888 I-0.8591 J-1.8598
G2 X17.6032 Y1.0858 I0.043 J0.0973
G1 X17.5914 Y4.4893
G2 X17.6549 Y4.5531 I0.0636 J0.0002
G1 X18.0035
G2 X18.067 Y4.4893 I0. J-0.0635
G1 X18.0646 Y4.0248
G3 X18.1544 Y3.8886 I0.1471 J-0.0008
G2 X18.2441 Y3.7523 I-0.0573 J-0.1355
G1 X18.2289 Y0.8335
X18.2281 Y0.8333
X18.2237 Y0.8318
X18.2207 Y0.8307
X18.2149 Y0.8284
X18.2064 Y0.8249
X18.1993 Y0.8217
X18.1935 Y0.8189
X18.1877 Y0.8159
X18.182 Y0.8127
X18.1774 Y0.8101
X18.1741 Y0.8081
X18.1683 Y0.8044
X18.1601 Y0.7988
X18.1561 Y0.796
X18.1523 Y0.793
X18.1448 Y0.7871
X18.1391 Y0.7822
X18.135 Y0.7786
X18.129 Y0.7729
X18.1213 Y0.765
X18.1156 Y0.7588
X18.1118 Y0.7544
X18.1071 Y0.7487
X18.1016 Y0.7415
G3 X18.0958 Y0.7334 I0.103 J-0.0793
G1 X18.0897 Y0.7241
X18.0862 Y0.7183
X18.0848 Y0.716
X18.0826 Y0.712
X18.0795 Y0.7063
X18.0766 Y0.7005
X18.0739 Y0.6947
X18.0714 Y0.689
X18.069 Y0.6833
X18.0668 Y0.6775
X18.0647 Y0.6717
X18.0628 Y0.6659
X18.061 Y0.6601
X18.0594 Y0.6544
X18.0579 Y0.6486
X18.0565 Y0.6429
X18.0553 Y0.6371
X18.0543 Y0.6313
X18.0533 Y0.6256
X18.0525 Y0.6198
X18.0518 Y0.614
X18.0513 Y0.6083
X18.0509 Y0.6025
X18.0505 Y0.5953
G3 X18.0503 Y0.5823 I1.116 J-0.0243
G1 X18.0409 Y-1.2271
Y-1.2273
X18.0408 Y-1.2389
X18.0409 Y-1.2429
X18.0412 Y-1.2544
X18.0415 Y-1.2609
X18.0419 Y-1.2659
X17.7529
X17.7533 Y-1.2605
X17.7536 Y-1.2542
X17.7539 Y-1.2427
Y-1.2389
X17.7476 Y0.5821
X17.7475 Y0.5841
X17.7473 Y0.5956
X17.7469 Y0.6033
X17.7465 Y0.6091
X17.7459 Y0.6148
X17.7452 Y0.6206
X17.7444 Y0.6264
X17.7434 Y0.6321
X17.7423 Y0.6379
X17.741 Y0.6437
X17.7396 Y0.6494
X17.7381 Y0.6552
X17.7364 Y0.6609
X17.7346 Y0.6667
X17.7335 Y0.67
X17.7332 Y0.671
X17.7321 Y0.6741
X17.7301 Y0.6794
X17.728 Y0.6847
X17.7258 Y0.69
X17.7233 Y0.6955
X17.7205 Y0.7013
X17.7175 Y0.7071
X17.7144 Y0.7128
X17.7121 Y0.7169
X17.7107 Y0.7193
X17.7071 Y0.7251
X17.701 Y0.7342
G3 X17.6952 Y0.7423 I-0.1083 J-0.0719
G1 X17.6897 Y0.7493
X17.685 Y0.755
X17.681 Y0.7595
X17.6753 Y0.7656
X17.6677 Y0.7732
X17.6616 Y0.7789
X17.6572 Y0.7829
X17.6514 Y0.7877
X17.6444 Y0.7932
G3 X17.6364 Y0.799 I-0.0802 J-0.1023
G1 X17.6274 Y0.805
X17.6216 Y0.8086
X17.619 Y0.8102
X17.6148 Y0.8125
X17.6091 Y0.8157
X17.6033 Y0.8186
X17.5975 Y0.8214
X17.5896 Y0.8249
X17.5795 Y0.829
X17.5737 Y0.8312
X17.5723 Y0.8317
X17.5687 Y0.8328
X17.5629 Y0.8347
X17.5572 Y0.8363
X17.5514 Y0.8379
X17.5456 Y0.8393
X17.5399 Y0.8405
X17.5341 Y0.8416
X17.5283 Y0.8426
X17.5225 Y0.8435
X17.5168 Y0.8442
X17.511 Y0.8448
X17.5052 Y0.8452
X17.4972 Y0.8456
X17.4856 Y0.8458
X17.483
X17.4231 Y0.8456
X17.4095 Y4.7341
X18.2493
X18.2441 Y3.7523
X18.244 Y3.7495 Z0.1842
X18.2437 Y3.7468 Z0.1845
X18.2432 Y3.744 Z0.1848
X18.2425 Y3.7414 Z0.1854
X18.2418 Y3.7388 Z0.1861
X18.2409 Y3.7362 Z0.1869
X18.2399 Y3.7338 Z0.1879
X18.2388 Y3.7315 Z0.1891
X18.2376 Y3.7293 Z0.1904
X18.2363 Y3.7273 Z0.1918
X18.235 Y3.7253 Z0.1934
X18.2336 Y3.7236 Z0.1951
X18.2323 Y3.7219 Z0.1969
X18.2309 Y3.7204 Z0.1988
X18.2295 Y3.719 Z0.2008
X18.2282 Y3.7178 Z0.203
X18.227 Y3.7167 Z0.2052
X18.2258 Y3.7157 Z0.2075
X18.2246 Y3.7148 Z0.21
X18.2236 Y3.7141 Z0.2124
X18.2226 Y3.7134 Z0.215
X18.2218 Y3.7129 Z0.2176
X18.2211 Y3.7124 Z0.2203
X18.2205 Y3.712 Z0.223
X18.22 Y3.7118 Z0.2258
X18.2197 Y3.7116 Z0.2285
X18.2195 Y3.7114 Z0.2313
X18.2194 Z0.2341
G0 Z0.8341
X16.352 Y1.081
Z0.5293
G1 Z0.4075 F50.
Y1.0807 Z0.4021 F100.
Y1.0798 Z0.3968
Y1.0784 Z0.3917
Y1.0764 Z0.3867
X16.3521 Y1.0739 Z0.3819
Y1.071 Z0.3775
Y1.0675 Z0.3734
Y1.0637 Z0.3697
Y1.0594 Z0.3664
Y1.0549 Z0.3636
Y1.05 Z0.3613
X16.3522 Y1.045 Z0.3595
Y1.0398 Z0.3583
Y1.0345 Z0.3576
X16.3601 Y-1.2398 Z0.1986
X16.3602 Y-1.242 Z0.1984
X16.3604 Y-1.2535 Z0.1976
X16.3606 Y-1.2588 Z0.1972
X16.3611 Y-1.2659 Z0.1967
X16.1827 Z0.1843
X16.1792 Z0.1841
X16.0378
X16.0383 Y-1.26
X16.0386 Y-1.254
X16.0388 Y-1.2424
X16.0389 Y-1.2391
X16.0305 Y4.7341
X16.3393
X16.3601 Y-1.2398
X16.3602 Y-1.242
X16.3604 Y-1.2535
X16.3606 Y-1.2588
X16.3611 Y-1.2659
X16.1792
X16.1764 Y-1.2657 Z0.1842
X16.1736 Y-1.2654 Z0.1845
X16.1709 Y-1.265 Z0.1848
X16.1682 Y-1.2644 Z0.1854
X16.1656 Y-1.2636 Z0.1861
X16.163 Y-1.2627 Z0.1869
X16.1606 Y-1.2617 Z0.1879
X16.1583 Y-1.2606 Z0.1891
X16.1561 Y-1.2594 Z0.1904
X16.1541 Y-1.2582 Z0.1918
X16.1521 Y-1.2569 Z0.1934
X16.1503 Y-1.2555 Z0.1951
X16.1487 Y-1.2542 Z0.1969
X16.1472 Y-1.2528 Z0.1988
X16.1458 Y-1.2515 Z0.2008
X16.1445 Y-1.2502 Z0.203
X16.1434 Y-1.2489 Z0.2052
X16.1424 Y-1.2477 Z0.2075
X16.1415 Y-1.2466 Z0.21
X16.1408 Y-1.2455 Z0.2124
X16.1401 Y-1.2446 Z0.215
X16.1396 Y-1.2438 Z0.2176
X16.1391 Y-1.2431 Z0.2203
X16.1387 Y-1.2425 Z0.223
X16.1385 Y-1.242 Z0.2258
X16.1383 Y-1.2416 Z0.2285
X16.1381 Y-1.2414 Z0.2313
Z0.2341
G0 Z0.8341
X14.6532 Y3.6745
Z0.5293
G1 Z0.4075 F50.
Y3.6742 Z0.4021 F100.
Y3.6733 Z0.3968
Y3.6719 Z0.3917
Y3.6699 Z0.3867
Y3.6674 Z0.3819
Y3.6645 Z0.3775
X14.6533 Y3.661 Z0.3734
Y3.6572 Z0.3697
Y3.6529 Z0.3664
Y3.6484 Z0.3636
Y3.6435 Z0.3613
Y3.6385 Z0.3595
Y3.6333 Z0.3583
Y3.6279 Z0.3576
X14.6567 Y1.1642 Z0.1853
G2 X14.6525 Y1.15 Z0.1843 I-0.026 J0.
G1 X14.6515 Y1.1486 Z0.1842
X14.6505 Y1.1472 Z0.1841
G2 X14.6422 Y1.1408 I-0.0197 J0.017
G1 X14.6399 Y1.1397
X14.6376 Y1.1385
G2 X14.5999 Y1.1618 I-0.0117 J0.0232
G1 X14.6082 Y4.3322
G2 X14.6523 I0.0221 J-0.0001
G1 X14.6567 Y1.1642
G2 X14.6505 Y1.1472 I-0.026 J0.
G3 X14.6028 Y0.9967 I0.1527 J-0.1311
G2 X14.5611 Y0.8445 I-0.221 J-0.0213
G3 X14.5372 Y0.8081 I0.3496 J-0.2553
G2 X14.4772 I-0.03 J0.0176
G3 X14.4586 Y0.8368 I-0.3318 J-0.1944
X14.4378 Y0.8641 I-0.4278 J-0.3049
G2 X14.4192 Y0.9166 I0.0641 J0.0523
G1 X14.4286 Y4.4903
G2 X14.4914 Y4.5529 I0.0628 J-0.0002
G1 X14.7694
G2 X14.8321 Y4.4903 I0. J-0.0627
G1 X14.8369 Y1.0873
G2 X14.7757 Y1.0016 I-0.0904 J-0.0001
G3 X14.6391 Y0.9263 I0.1456 J-0.4256
X14.5611 Y0.8445 I0.2716 J-0.337
X14.5799 Y0.6528 I0.1169 J-0.0853
G2 X14.6573 Y0.4764 I-0.1631 J-0.1767
G1 X14.6597 Y-1.2395
Y-1.2422
X14.6599 Y-1.2537
X14.6602 Y-1.2593
X14.6606 Y-1.2659
X14.352
X14.3524 Y-1.259
X14.3527 Y-1.2536
X14.3529 Y-1.2421
Y-1.2396
X14.3577 Y0.5813
X14.3576 Y0.5859
X14.3572 Y0.5974
X14.3567 Y0.606
X14.3561 Y0.6117
X14.3554 Y0.6175
X14.3546 Y0.6233
X14.3536 Y0.629
X14.3525 Y0.6348
X14.3513 Y0.6406
X14.3499 Y0.6463
X14.3484 Y0.6521
X14.3467 Y0.6578
X14.3449 Y0.6636
X14.343 Y0.6694
X14.3415 Y0.6734
X14.3407 Y0.6757
X14.3383 Y0.6815
X14.3344 Y0.6907
X14.3309 Y0.6982
X14.3279 Y0.704
X14.3248 Y0.7097
X14.3215 Y0.7155
X14.3192 Y0.7194
X14.3178 Y0.7215
X14.3156 Y0.725
X14.3125 Y0.7297
X14.3092 Y0.7344
X14.3058 Y0.7391
X14.3016 Y0.7445
X14.2966 Y0.7506
X14.2916 Y0.7563
X14.2866 Y0.7618
X14.2809 Y0.7676
X14.2744 Y0.7739
X14.2679 Y0.7797
X14.2617 Y0.7849
X14.2559 Y0.7895
X14.2506 Y0.7934
X14.2451 Y0.7973
X14.2393 Y0.8012
X14.2388 Y0.8015
X14.2383 Y0.8019
X14.2377 Y0.8022
X14.248 Y4.7341
X15.013
X15.0184 Y0.8439
X14.9224 Y0.8437
G3 X14.9094 Y0.8436 I0.0056 J-0.9949
G1 X14.9022 Y0.8433
X14.8964 Y0.8429
X14.8906 Y0.8424
X14.8849 Y0.8417
X14.8791 Y0.8409
X14.8733 Y0.84
X14.8676 Y0.839
X14.8618 Y0.8378
X14.855 Y0.8362
X14.8472 Y0.8341
X14.8414 Y0.8325
X14.8377 Y0.8313
X14.8329 Y0.8297
X14.8272 Y0.8277
X14.8214 Y0.8255
X14.8156 Y0.8231
X14.8099 Y0.8206
X14.8041 Y0.8179
X14.7982 Y0.8149
X14.792 Y0.8117
X14.7862 Y0.8083
X14.7806 Y0.805
X14.775 Y0.8014
X14.7694 Y0.7977
X14.7637 Y0.7936
X14.7578 Y0.7892
X14.752 Y0.7846
X14.7464 Y0.7798
X14.74 Y0.774
X14.7331 Y0.7673
X14.7273 Y0.7614
X14.7227 Y0.7564
X14.7178 Y0.7506
X14.7125 Y0.7441
X14.7095 Y0.7403
X14.7067 Y0.7364
X14.7005 Y0.7274
X14.6966 Y0.7215
X14.6951 Y0.719
X14.6927 Y0.7149
X14.6894 Y0.7092
X14.6863 Y0.7034
X14.6834 Y0.6976
X14.68 Y0.6903
X14.6762 Y0.6813
X14.6739 Y0.6755
X14.6729 Y0.673
X14.6714 Y0.6688
X14.6695 Y0.6631
X14.6678 Y0.6573
X14.6661 Y0.6515
X14.6646 Y0.6458
X14.6633 Y0.64
X14.6621 Y0.6342
X14.661 Y0.6285
X14.6601 Y0.6227
X14.6593 Y0.617
X14.6586 Y0.6112
X14.658 Y0.6054
X14.6575 Y0.5969
X14.6572 Y0.5854
X14.6571 Y0.5814
X14.6573 Y0.4764
X14.6571 Y0.4736 Z0.1842
X14.6568 Y0.4708 Z0.1845
X14.6563 Y0.4681 Z0.1848
X14.6557 Y0.4654 Z0.1854
X14.655 Y0.4628 Z0.1861
X14.6541 Y0.4603 Z0.1869
X14.6531 Y0.4578 Z0.1879
X14.652 Y0.4555 Z0.1891
X14.6508 Y0.4533 Z0.1904
X14.6496 Y0.4513 Z0.1918
X14.6483 Y0.4493 Z0.1934
X14.6469 Y0.4475 Z0.1951
X14.6456 Y0.4459 Z0.1969
X14.6442 Y0.4444 Z0.1988
X14.6429 Y0.443 Z0.2008
X14.6416 Y0.4417 Z0.203
X14.6403 Y0.4406 Z0.2052
X14.6391 Y0.4396 Z0.2075
X14.638 Y0.4387 Z0.21
X14.637 Y0.438 Z0.2124
X14.636 Y0.4373 Z0.215
X14.6352 Y0.4368 Z0.2176
X14.6345 Y0.4363 Z0.2203
X14.6339 Y0.4359 Z0.223
X14.6334 Y0.4356 Z0.2258
X14.6331 Y0.4354 Z0.2285
X14.6329 Y0.4353 Z0.2313
X14.6328 Z0.2341
G0 Z0.8341
X13.0177 Y3.0606
Z0.5293
G1 Z0.4075 F50.
Y3.0603 Z0.4021 F100.
Y3.0594 Z0.3968
Y3.058 Z0.3917
Y3.056 Z0.3867
Y3.0536 Z0.3819
Y3.0506 Z0.3775
Y3.0471 Z0.3734
Y3.0433 Z0.3697
X13.0176 Y3.039 Z0.3664
Y3.0345 Z0.3636
Y3.0296 Z0.3613
Y3.0246 Z0.3595
Y3.0194 Z0.3583
Y3.0141 Z0.3576
X13.0125 Y1.0596 Z0.2209
G2 X12.9501 Y0.9339 Z0.2108 I-0.1586 J0.0004
G3 X12.8951 Y0.8836 Z0.2055 I0.2524 J-0.3308
X12.8497 Y0.8245 Z0.2003 I0.3258 J-0.2973
G2 X12.787 Y0.824 Z0.1951 I-0.0315 J0.0202
G3 X12.7393 Y0.8847 Z0.1897 I-0.4063 J-0.2702
X12.6817 Y0.9362 Z0.1843 I-0.2955 J-0.2727
G1 X12.6811 Y0.9367
X12.6806 Y0.937 Z0.1842
X12.6802 Y0.9374
X12.6797 Y0.9377
X12.6792 Y0.9381
X12.6788 Y0.9384
X12.6783 Y0.9388 Z0.1841
G2 X12.62 Y1.0586 I0.0928 J0.1193
G1 X12.6319 Y4.4903
G2 X12.6948 Y4.5529 I0.0629 J-0.0002
G1 X12.959
G2 X13.0214 Y4.4904 I0. J-0.0624
G1 X13.0125 Y1.0596
G2 X12.9501 Y0.9339 I-0.1586 J0.0004
G3 X12.8951 Y0.8836 I0.2524 J-0.3308
X12.8497 Y0.8245 I0.3258 J-0.2973
G2 X12.787 Y0.824 I-0.0315 J0.0202
G3 X12.7393 Y0.8847 I-0.4063 J-0.2702
X12.6817 Y0.9362 I-0.2955 J-0.2727
G1 X12.6783 Y0.9388
G3 X12.5542 Y0.9292 I-0.0568 J-0.0731
G2 X12.4385 Y0.9754 I-0.0487 J0.0459
G1 X12.4516 Y4.7341
X13.2033
X13.1931 Y0.844
X13.1901 Y0.8437
X13.1843 Y0.8429
X13.1786 Y0.8421
X13.1728 Y0.841
X13.167 Y0.8399
X13.1613 Y0.8386
X13.1555 Y0.8372
X13.1497 Y0.8356
X13.1439 Y0.8339
X13.1398 Y0.8326
X13.1371 Y0.8317
X13.1313 Y0.8297
X13.1224 Y0.8262
X13.1151 Y0.8231
X13.1093 Y0.8205
X13.1036 Y0.8177
X13.0978 Y0.8147
X13.0928 Y0.8119
X13.0886 Y0.8095
X13.0828 Y0.8059
X13.0755 Y0.8012
G3 X13.0673 Y0.7955 I0.0707 J-0.1091
G1 X13.0584 Y0.7887
X13.0527 Y0.7841
X13.0501 Y0.7818
X13.0464 Y0.7785
X13.0416 Y0.7741
X13.0369 Y0.7695
X13.0321 Y0.7646
X13.0288 Y0.761
X13.0267 Y0.7588
X13.0237 Y0.7554
X13.0198 Y0.7507
X13.0161 Y0.7461
X13.0125 Y0.7414
X13.0087 Y0.7362
X13.0046 Y0.7303
X13.0009 Y0.7245
X12.9974 Y0.7189
X12.9941 Y0.7132
X12.9909 Y0.7074
X12.988 Y0.7017
X12.9852 Y0.6959
X12.9827 Y0.6905
X12.9806 Y0.6856
X12.9783 Y0.6799
X12.9758 Y0.6733
X12.9737 Y0.6671
X12.9719 Y0.6613
X12.9702 Y0.6556
X12.9686 Y0.6498
X12.9672 Y0.644
X12.966 Y0.6383
X12.9648 Y0.6325
X12.9639 Y0.6267
X12.963 Y0.621
X12.9623 Y0.6152
X12.9617 Y0.6094
X12.9612 Y0.6037
X12.9608 Y0.5958
X12.9606 Y0.5843
X12.9605 Y0.582
X12.9558 Y-1.239
Y-1.2426
X12.9561 Y-1.2541
X12.9564 Y-1.2603
X12.9568 Y-1.2659
X12.6705
X12.6709 Y-1.2588
X12.6711 Y-1.2535
X12.6713 Y-1.242
X12.6714 Y-1.2398
X12.6777 Y0.5812
X12.6776 Y0.5863
X12.6772 Y0.5978
G3 X12.6765 Y0.6077 I-0.1299 J-0.0046
G1 X12.6756 Y0.6161
X12.6748 Y0.6218
X12.6743 Y0.625
X12.6735 Y0.6295
X12.6724 Y0.6352
X12.6711 Y0.641
X12.6697 Y0.6467
X12.6682 Y0.6525
X12.6665 Y0.6583
X12.6647 Y0.664
X12.6627 Y0.6698
X12.6606 Y0.6756
X12.6583 Y0.6813
X12.6559 Y0.6871
X12.6533 Y0.6928
X12.6505 Y0.6986
X12.6475 Y0.7044
X12.6444 Y0.7101
X12.641 Y0.7159
X12.6368 Y0.7227
X12.6316 Y0.7306
X12.6275 Y0.7363
X12.6248 Y0.74
X12.6214 Y0.7444
X12.6172 Y0.7495
X12.6128 Y0.7546
X12.6082 Y0.7598
X12.6052 Y0.7629
X12.6039 Y0.7642
X12.6008 Y0.7674
X12.5956 Y0.7723
X12.5905 Y0.777
X12.5853 Y0.7815
X12.5814 Y0.7848
X12.5788 Y0.7869
X12.5731 Y0.7912
X12.5642 Y0.7975
G3 X12.5554 Y0.8033 I-0.0755 J-0.1058
G1 X12.5467 Y0.8085
X12.5409 Y0.8117
X12.538 Y0.8132
X12.5337 Y0.8154
X12.528 Y0.8182
X12.5222 Y0.8208
X12.5164 Y0.8233
X12.5107 Y0.8256
X12.5049 Y0.8277
X12.4991 Y0.8297
X12.4934 Y0.8315
X12.489 Y0.8328
X12.4861 Y0.8336
X12.4803 Y0.8351
X12.4717 Y0.8371
X12.4645 Y0.8385
X12.4587 Y0.8395
X12.453 Y0.8403
X12.4472 Y0.8411
X12.4414 Y0.8417
X12.438 Y0.8419
X12.4385 Y0.9754
X12.4387 Y0.9782 Z0.1842
X12.439 Y0.981 Z0.1845
X12.4395 Y0.9837 Z0.1848
X12.4401 Y0.9864 Z0.1854
X12.4408 Y0.989 Z0.1861
X12.4417 Y0.9915 Z0.1869
X12.4427 Y0.9939 Z0.1879
X12.4439 Y0.9962 Z0.1891
X12.445 Y0.9984 Z0.1904
X12.4463 Y1.0005 Z0.1918
X12.4476 Y1.0024 Z0.1934
X12.449 Y1.0042 Z0.1951
X12.4503 Y1.0058 Z0.1969
X12.4517 Y1.0074 Z0.1988
X12.453 Y1.0087 Z0.2008
X12.4544 Y1.01 Z0.203
X12.4556 Y1.0111 Z0.2052
X12.4568 Y1.0121 Z0.2075
X12.458 Y1.013 Z0.21
X12.459 Y1.0137 Z0.2124
X12.4599 Y1.0144 Z0.215
X12.4608 Y1.0149 Z0.2176
X12.4615 Y1.0154 Z0.2203
X12.4621 Y1.0157 Z0.223
X12.4626 Y1.016 Z0.2258
X12.4629 Y1.0162 Z0.2285
X12.4631 Y1.0163 Z0.2313
X12.4632 Y1.0164 Z0.2341
G0 Z0.8341
X11.1643 Y2.9504
Z0.5293
G1 Z0.4075 F50.
Y2.9501 Z0.4021 F100.
Y2.9492 Z0.3968
Y2.9478 Z0.3917
Y2.9459 Z0.3867
Y2.9434 Z0.3819
Y2.9404 Z0.3775
Y2.937 Z0.3734
Y2.9331 Z0.3697
Y2.9289 Z0.3664
X11.1642 Y2.9243 Z0.3636
Y2.9195 Z0.3613
Y2.9144 Z0.3595
Y2.9092 Z0.3583
Y2.9039 Z0.3576
X11.157 Y0.8514 Z0.2141
G2 X11.1495 Y0.8264 Z0.2122 I-0.0461 J0.0002
G3 X11.1293 Y0.7918 Z0.2094 I0.3629 J-0.2364
G2 X11.072 Y0.7917 Z0.2045 I-0.0286 J0.0151
G3 X10.8636 Y0.9849 Z0.1843 I-0.3841 J-0.2053
G1 X10.862 Y0.9856 Z0.1842
X10.8604 Y0.9863 Z0.1841
G3 X10.8297 Y0.9982 I-0.1724 J-0.4
G2 X10.7685 Y1.0848 I0.03 J0.0861
G1 X10.7881 Y4.4902
G2 X10.8511 Y4.5529 I0.063 J-0.0004
G1 X11.1074
G2 X11.1697 Y4.4904 I0. J-0.0623
G1 X11.157 Y0.8514
G2 X11.1495 Y0.8264 I-0.0461 J0.0002
G3 X11.1293 Y0.7918 I0.3629 J-0.2364
G2 X11.072 Y0.7917 I-0.0286 J0.0151
G3 X10.8604 Y0.9863 I-0.3841 J-0.2053
X10.7283 Y0.9289 I-0.0391 J-0.0906
G2 X10.5866 Y0.954 I-0.0688 J0.0246
G1 X10.6083 Y4.7341
X11.3517
X11.3379 Y0.772
X11.3336 Y0.7677
X11.3298 Y0.7637
X11.3259 Y0.7594
X11.3218 Y0.7548
X11.3179 Y0.7502
X11.3143 Y0.7456
X11.3116 Y0.7421
X11.3099 Y0.7398
X11.307 Y0.7358
X11.3031 Y0.7301
X11.2994 Y0.7243
X11.2958 Y0.7185
X11.2929 Y0.7135
X11.2905 Y0.7092
X11.2876 Y0.7034
X11.284 Y0.6962
X11.2811 Y0.6897
X11.2787 Y0.684
X11.2764 Y0.6782
X11.2743 Y0.6724
X11.2723 Y0.6667
X11.2705 Y0.6609
X11.2688 Y0.6548
X11.2671 Y0.6485
X11.2651 Y0.6398
X11.2631 Y0.6289
X11.2618 Y0.6206
X11.2611 Y0.6148
X11.2605 Y0.609
X11.26 Y0.6033
X11.2597 Y0.5956
X11.2594 Y0.5841
Y0.5821
X11.2531 Y-1.2389
Y-1.2427
X11.2534 Y-1.2542
X11.2537 Y-1.2605
X11.2541 Y-1.2659
X10.9326
X10.933 Y-1.2585
X10.9332 Y-1.2534
G3 X10.9335 Y-1.2401 I-0.7692 J0.0213
G1 X10.944 Y0.5809
Y0.5843
X10.9438 Y0.5901
X10.9436 Y0.5958
X10.9432 Y0.6016
X10.9427 Y0.6073
X10.9421 Y0.6131
X10.9413 Y0.6189
X10.9404 Y0.6246
X10.9394 Y0.6304
X10.9382 Y0.6362
X10.9369 Y0.6419
X10.9355 Y0.6477
X10.9339 Y0.6535
X10.9322 Y0.6592
X10.9303 Y0.665
X10.9283 Y0.6707
X10.9267 Y0.675
X10.9257 Y0.6776
X10.9233 Y0.6834
X10.9193 Y0.6923
X10.9158 Y0.6996
X10.9128 Y0.7053
X10.9096 Y0.7111
X10.9061 Y0.7168
X10.9038 Y0.7206
X10.9027 Y0.7225
X10.9005 Y0.7258
X10.8972 Y0.7307
X10.8937 Y0.7355
X10.89 Y0.7404
X10.8859 Y0.7455
X10.8813 Y0.751
X10.8762 Y0.7568
X10.8706 Y0.7628
X10.8648 Y0.7686
X10.8589 Y0.7741
X10.8523 Y0.7799
X10.845 Y0.7859
X10.8392 Y0.7904
X10.835 Y0.7935
X10.83 Y0.7969
X10.8242 Y0.8007
X10.8185 Y0.8043
X10.8127 Y0.8077
X10.8086 Y0.81
X10.8063 Y0.8113
X10.8005 Y0.8142
X10.7914 Y0.8186
X10.7839 Y0.8219
X10.7781 Y0.8242
X10.7723 Y0.8263
X10.7666 Y0.8283
X10.7586 Y0.8308
X10.7484 Y0.8336
X10.7426 Y0.8351
X10.7413 Y0.8354
X10.7377 Y0.8362
X10.7319 Y0.8373
X10.7262 Y0.8384
X10.7204 Y0.8392
X10.7146 Y0.84
X10.7089 Y0.8406
X10.7031 Y0.8411
X10.6973 Y0.8415
X10.6908 Y0.8417
X10.6793 Y0.8418
X10.6789 Y0.8419
X10.6784
X10.5859 Y0.8424
X10.5866 Y0.954
X10.5867 Y0.9568 Z0.1842
X10.587 Y0.9595 Z0.1845
X10.5875 Y0.9623 Z0.1848
X10.5882 Y0.9649 Z0.1854
X10.5889 Y0.9675 Z0.1861
X10.5898 Y0.9701 Z0.1869
X10.5908 Y0.9725 Z0.1879
X10.592 Y0.9748 Z0.1891
X10.5932 Y0.977 Z0.1904
X10.5944 Y0.979 Z0.1918
X10.5957 Y0.9809 Z0.1934
X10.5971 Y0.9827 Z0.1951
X10.5985 Y0.9844 Z0.1969
X10.5998 Y0.9859 Z0.1988
X10.6012 Y0.9873 Z0.2008
X10.6025 Y0.9885 Z0.203
X10.6038 Y0.9896 Z0.2052
X10.605 Y0.9906 Z0.2075
X10.6061 Y0.9915 Z0.21
X10.6071 Y0.9922 Z0.2124
X10.6081 Y0.9929 Z0.215
X10.6089 Y0.9934 Z0.2176
X10.6096 Y0.9939 Z0.2203
X10.6102 Y0.9943 Z0.223
X10.6107 Y0.9945 Z0.2258
X10.611 Y0.9947 Z0.2285
X10.6112 Y0.9948 Z0.2313
X10.6113 Y0.9949 Z0.2341
G0 Z0.8341
X9.2778 Y2.6688
Z0.5293
G1 Z0.4075 F50.
Y2.6691 Z0.4021 F100.
Y2.6699 Z0.3968
Y2.6713 Z0.3917
X9.2779 Y2.6733 Z0.3867
Y2.6758 Z0.3819
Y2.6788 Z0.3775
Y2.6822 Z0.3734
Y2.6861 Z0.3697
Y2.6903 Z0.3664
X9.278 Y2.6949 Z0.3636
Y2.6997 Z0.3613
Y2.7048 Z0.3595
Y2.71 Z0.3583
X9.2781 Y2.7153 Z0.3576
X9.2886 Y4.7341 Z0.2164
X9.5837 Z0.1958
X9.5828 Y4.5692 Z0.1843
Y4.5657 Z0.1841
X9.5494 Y-1.227
Y-1.2273
Y-1.2388
Y-1.243
X9.5497 Y-1.2545
X9.5501 Y-1.261
X9.5505 Y-1.2659
X9.2565
X9.2569 Y-1.2585
X9.2571 Y-1.2534
G3 X9.2574 Y-1.24 I-0.7916 J0.0217
G1 X9.2886 Y4.7341
X9.5837
X9.5828 Y4.5657
X9.5826 Y4.5629 Z0.1842
X9.5823 Y4.5602 Z0.1845
X9.5818 Y4.5574 Z0.1848
X9.5812 Y4.5548 Z0.1854
X9.5804 Y4.5522 Z0.1861
X9.5795 Y4.5496 Z0.1869
X9.5785 Y4.5472 Z0.1879
X9.5774 Y4.5449 Z0.1891
X9.5762 Y4.5427 Z0.1904
X9.5749 Y4.5407 Z0.1918
X9.5736 Y4.5388 Z0.1934
X9.5722 Y4.537 Z0.1951
X9.5709 Y4.5353 Z0.1969
X9.5695 Y4.5338 Z0.1988
X9.5681 Y4.5324 Z0.2008
X9.5668 Y4.5312 Z0.203
X9.5656 Y4.5301 Z0.2052
X9.5644 Y4.5291 Z0.2075
X9.5632 Y4.5282 Z0.21
X9.5622 Y4.5275 Z0.2124
X9.5612 Y4.5268 Z0.215
X9.5604 Y4.5263 Z0.2176
X9.5597 Y4.5258 Z0.2203
X9.5591 Y4.5254 Z0.223
X9.5586 Y4.5252 Z0.2258
X9.5583 Y4.525 Z0.2285
X9.5581 Y4.5249 Z0.2313
X9.558 Y4.5248 Z0.2341
G0 Z0.8341
X7.7641 Y1.9405
Z0.5293
G1 Z0.4075 F50.
Y1.9408 Z0.4021 F100.
Y1.9417 Z0.3968
Y1.9431 Z0.3917
Y1.9451 Z0.3867
Y1.9476 Z0.3819
Y1.9505 Z0.3775
Y1.954 Z0.3734
Y1.9578 Z0.3697
Y1.9621 Z0.3664
Y1.9666 Z0.3636
Y1.9715 Z0.3613
Y1.9765 Z0.3595
Y1.9817 Z0.3583
X7.7642 Y1.9871 Z0.3576
X7.7691 Y4.3471 Z0.1926
G2 X7.7951 Y4.3731 Z0.1897 I0.026 J-0.0001
G1 X7.8087 Z0.1888
G2 X7.8347 Y4.3469 Z0.1859 I0. J-0.026
G1 X7.8346 Y4.3236 Z0.1843
Y4.3201 Z0.1841
X7.818 Y1.1484
G2 X7.8048 Y1.1259 I-0.026 J0.0001
G1 X7.8015 Y1.124
G2 X7.7624 Y1.1466 I-0.0131 J0.0225
G1 X7.7691 Y4.3471
G2 X7.7951 Y4.3731 I0.026 J-0.0001
G1 X7.8087
G2 X7.8347 Y4.3469 I0. J-0.026
G1 X7.8346 Y4.3201
G3 X7.9239 Y4.1847 I0.1462 J-0.0008
G2 X8.0132 Y4.0492 I-0.057 J-0.1347
G1 X7.9976 Y1.0868
G2 X7.934 Y0.9898 I-0.1065 J0.0006
G3 X7.8294 Y0.9251 I0.178 J-0.4048
X7.7474 Y0.8335 I0.2679 J-0.3224
G2 X7.6815 Y0.833 I-0.0331 J0.0218
G3 X7.6181 Y0.9064 I-0.3576 J-0.2444
G2 X7.5821 Y0.9894 I0.0768 J0.0827
G1 X7.5894 Y4.4892
G2 X7.6534 Y4.5531 I0.064 J-0.0001
G1 X7.952
G2 X8.0155 Y4.4893 I0. J-0.0635
G1 X8.0132 Y4.0492
G3 X8.1029 Y3.913 I0.1471 J-0.0008
G2 X8.1927 Y3.7767 I-0.0573 J-0.1355
G1 X8.1774 Y0.8463
X8.1176 Y0.8466
X8.1147
X8.1032 Y0.8464
X8.0951 Y0.846
X8.0893 Y0.8456
X8.0835 Y0.845
X8.0778 Y0.8443
X8.072 Y0.8434
X8.0662 Y0.8424
X8.0605 Y0.8413
X8.0547 Y0.8401
X8.0489 Y0.8387
X8.0432 Y0.8372
X8.0374 Y0.8355
X8.0316 Y0.8337
X8.0269 Y0.8321
X8.0233 Y0.8308
X8.0175 Y0.8286
X8.0096 Y0.8253
X8.0028 Y0.8222
X7.997 Y0.8195
X7.9912 Y0.8165
X7.9855 Y0.8134
X7.9807 Y0.8106
X7.9768 Y0.8083
X7.971 Y0.8046
X7.9633 Y0.7994
X7.9593 Y0.7966
X7.9555 Y0.7936
X7.9474 Y0.7873
X7.9417 Y0.7825
X7.9382 Y0.7794
X7.9343 Y0.7757
X7.9299 Y0.7715
X7.9258 Y0.7673
X7.9218 Y0.7631
X7.9182 Y0.7591
X7.915 Y0.7554
X7.9103 Y0.7497
X7.9042 Y0.7419
G3 X7.8985 Y0.7338 I0.1028 J-0.0796
G1 X7.893 Y0.7255
X7.8894 Y0.7197
X7.8875 Y0.7165
X7.885 Y0.712
X7.8819 Y0.7062
X7.879 Y0.7005
X7.8763 Y0.6947
X7.8729 Y0.687
X7.8691 Y0.6772
X7.867 Y0.6714
X7.8663 Y0.6697
X7.8651 Y0.6659
X7.8634 Y0.6601
X7.8617 Y0.6544
X7.8602 Y0.6486
X7.8589 Y0.6429
X7.8577 Y0.6371
X7.8566 Y0.6313
X7.8557 Y0.6256
X7.8549 Y0.6198
X7.8542 Y0.614
X7.8537 Y0.6083
X7.8532 Y0.6025
X7.8529 Y0.5953
G3 X7.8527 Y0.5823 I0.9747 J-0.022
G1 X7.8432 Y-1.2271
Y-1.2273
Y-1.2389
Y-1.2429
X7.8436 Y-1.2544
X7.8439 Y-1.2609
X7.8443 Y-1.2659
X7.5732
X7.5736 Y-1.2591
X7.5739 Y-1.2536
X7.5741 Y-1.2421
Y-1.2396
X7.578 Y0.5813
X7.5779 Y0.5836
X7.5778 Y0.5908
X7.5776 Y0.5964
X7.5774 Y0.6007
X7.577 Y0.6058
X7.5764 Y0.6115
X7.5757 Y0.6173
X7.5749 Y0.6231
X7.5739 Y0.6288
X7.5728 Y0.6346
X7.5716 Y0.6404
X7.5703 Y0.6461
X7.5688 Y0.6519
X7.5671 Y0.6576
X7.5653 Y0.6634
X7.5634 Y0.6692
X7.5605 Y0.6768
X7.5567 Y0.6863
X7.5542 Y0.692
X7.5532 Y0.6941
X7.5513 Y0.698
X7.5484 Y0.7038
X7.5453 Y0.7095
X7.542 Y0.7153
X7.5382 Y0.7215
X7.5338 Y0.7283
X7.5299 Y0.734
X7.5264 Y0.7388
X7.5227 Y0.7436
X7.5189 Y0.7484
X7.5149 Y0.7531
X7.5107 Y0.7579
X7.5076 Y0.7613
X7.5057 Y0.7633
X7.5024 Y0.7666
X7.4975 Y0.7714
X7.4927 Y0.7759
X7.4879 Y0.7801
X7.4839 Y0.7835
X7.4808 Y0.786
X7.4751 Y0.7904
X7.4667 Y0.7966
G3 X7.458 Y0.8024 I-0.0765 J-0.1051
G1 X7.4493 Y0.8077
X7.4434 Y0.8111
X7.4407 Y0.8126
X7.4364 Y0.8148
X7.4307 Y0.8177
X7.4249 Y0.8203
X7.4191 Y0.8229
X7.4134 Y0.8252
X7.4076 Y0.8274
X7.4018 Y0.8295
X7.4007 Y0.8298
X7.4089 Y4.7341
X8.1977
X8.1927 Y3.7767
X8.1926 Y3.7739 Z0.1842
X8.1922 Y3.7712 Z0.1845
X8.1918 Y3.7684 Z0.1848
X8.1911 Y3.7658 Z0.1854
X8.1904 Y3.7632 Z0.1861
X8.1895 Y3.7606 Z0.1869
X8.1884 Y3.7582 Z0.1879
X8.1873 Y3.7559 Z0.1891
X8.1861 Y3.7537 Z0.1904
X8.1849 Y3.7517 Z0.1918
X8.1836 Y3.7498 Z0.1934
X8.1822 Y3.748 Z0.1951
X8.1808 Y3.7463 Z0.1969
X8.1795 Y3.7448 Z0.1988
X8.1781 Y3.7434 Z0.2008
X8.1768 Y3.7422 Z0.203
X8.1755 Y3.7411 Z0.2052
X8.1743 Y3.7401 Z0.2075
X8.1732 Y3.7392 Z0.21
X8.1722 Y3.7385 Z0.2124
X8.1712 Y3.7378 Z0.215
X8.1704 Y3.7373 Z0.2176
X8.1697 Y3.7368 Z0.2203
X8.1691 Y3.7364 Z0.223
X8.1686 Y3.7362 Z0.2258
X8.1683 Y3.736 Z0.2285
X8.1681 Y3.7358 Z0.2313
X8.168 Z0.2341
G0 Z0.8341
X5.8773 Y1.947
Z0.5293
G1 Z0.4075 F50.
Y1.9473 Z0.4021 F100.
Y1.9482 Z0.3968
Y1.9496 Z0.3917
Y1.9516 Z0.3867
Y1.954 Z0.3819
Y1.957 Z0.3775
Y1.9605 Z0.3734
Y1.9643 Z0.3697
Y1.9685 Z0.3664
Y1.9731 Z0.3636
Y1.9779 Z0.3613
Y1.983 Z0.3595
Y1.9882 Z0.3583
X5.8774 Y1.9935 Z0.3576
X5.8806 Y4.3381 Z0.1936
G2 X5.9157 Y4.3731 Z0.1898 I0.035 J0.
G1 X5.9207 Z0.1894
G2 X5.9558 Y4.338 Z0.1856 I0. J-0.035
G1 X5.9557 Y4.3189 Z0.1843
Y4.3154 Z0.1841
X5.9491 Y1.1581
G2 X5.8971 Y1.1274 I-0.035 J0.0001
G1 X5.8945 Y1.1289
G2 X5.8762 Y1.1597 I0.0167 J0.0308
G1 X5.8806 Y4.3381
G2 X5.9157 Y4.3731 I0.035 J0.
G1 X5.9207
G2 X5.9558 Y4.338 I0. J-0.035
G1 X5.9557 Y4.3154
G3 X6.0454 Y4.1803 I0.1462 J-0.0003
G2 X6.1352 Y4.0451 I-0.0565 J-0.1349
G1 X6.1287 Y0.9717
G2 X6.0961 Y0.8925 I-0.1129 J0.0002
G3 X6.0634 Y0.8549 I0.2729 J-0.27
X6.0352 Y0.8138 I0.4038 J-0.307
G2 X5.9734 I-0.0309 J0.019
G3 X5.7582 Y0.9942 I-0.3787 J-0.2332
G2 X5.6961 Y1.0861 I0.0367 J0.0918
G1 X5.7008 Y4.4892
G2 X5.7648 Y4.5531 I0.064 J-0.0001
G1 X6.0724
G2 X6.1361 Y4.4893 I0. J-0.0637
G1 X6.1352 Y4.0451
G3 X6.2254 Y3.9091 I0.1471 J-0.0003
G2 X6.3156 Y3.7732 I-0.0568 J-0.1356
G1 X6.3094 Y0.824
X6.3061 Y0.8225
X6.3003 Y0.8199
X6.2945 Y0.817
X6.2885 Y0.8138
X6.2821 Y0.8103
X6.2763 Y0.8068
X6.2712 Y0.8036
X6.2658 Y0.8
X6.2602 Y0.7961
X6.2544 Y0.7918
X6.2485 Y0.7871
X6.2426 Y0.7822
X6.2368 Y0.777
X6.2309 Y0.7715
X6.2249 Y0.7654
X6.2194 Y0.7595
X6.2143 Y0.7537
X6.2096 Y0.748
X6.2051 Y0.7422
X6.202 Y0.7381
X6.2002 Y0.7356
X6.1964 Y0.7299
X6.1906 Y0.7208
X6.1862 Y0.7135
X6.1832 Y0.708
X6.1802 Y0.7023
X6.1772 Y0.6962
X6.1745 Y0.6903
X6.1721 Y0.6846
X6.1698 Y0.6788
X6.1676 Y0.673
X6.1656 Y0.6673
X6.1638 Y0.6615
X6.1621 Y0.6557
X6.1606 Y0.65
X6.1591 Y0.6442
X6.1579 Y0.6385
X6.1567 Y0.6327
X6.1557 Y0.6269
X6.1547 Y0.6197
X6.1537 Y0.611
X6.1531 Y0.6052
X6.1529 Y0.6024
X6.1526 Y0.5959
X6.1524 Y0.5844
Y0.5819
X6.1485 Y-1.239
X6.1486 Y-1.2425
X6.1489 Y-1.2541
X6.1492 Y-1.2601
X6.1496 Y-1.2659
X5.8536
X5.8541 Y-1.2593
X5.8543 Y-1.2537
X5.8546 Y-1.2422
Y-1.2395
X5.8571 Y0.5814
Y0.5854
X5.8567 Y0.597
X5.8562 Y0.6054
X5.8557 Y0.6112
X5.855 Y0.617
X5.8542 Y0.6227
X5.8532 Y0.6285
X5.8522 Y0.6343
X5.851 Y0.64
X5.8496 Y0.6458
X5.8481 Y0.6516
X5.8465 Y0.6573
X5.8447 Y0.6631
X5.8428 Y0.6688
X5.8409 Y0.6742
X5.839 Y0.6792
X5.8366 Y0.6849
X5.8337 Y0.6915
X5.8308 Y0.6977
X5.8279 Y0.7034
X5.8248 Y0.7092
X5.8216 Y0.715
X5.8187 Y0.7198
X5.8162 Y0.7238
X5.8123 Y0.7296
X5.807 Y0.7371
X5.8042 Y0.741
X5.8012 Y0.7447
X5.795 Y0.7523
X5.7901 Y0.758
X5.7864 Y0.762
X5.7807 Y0.7678
X5.7728 Y0.7753
X5.7664 Y0.781
X5.7617 Y0.785
X5.7559 Y0.7895
X5.7492 Y0.7946
X5.7432 Y0.7988
X5.738 Y0.8022
X5.7329 Y0.8054
X5.7278 Y0.8085
X5.7245 Y0.8104
X5.7233 Y0.8111
X5.7198 Y0.8129
X5.714 Y0.8159
X5.7082 Y0.8188
X5.7025 Y0.8214
X5.6967 Y0.8239
X5.6909 Y0.8262
X5.6852 Y0.8283
X5.6794 Y0.8303
X5.6751 Y0.8318
X5.6722 Y0.8326
X5.6665 Y0.8343
X5.6578 Y0.8365
X5.6506 Y0.8382
X5.6448 Y0.8393
X5.639 Y0.8403
X5.6333 Y0.8412
X5.6275 Y0.8419
X5.6217 Y0.8425
X5.616 Y0.843
X5.6102 Y0.8434
X5.6034 Y0.8436
X5.5919 Y0.8437
X5.5914
X5.5909
X5.5147 Y0.8438
X5.5202 Y4.7341
X6.3176
X6.3156 Y3.7732
X6.3154 Y3.7704 Z0.1842
X6.3151 Y3.7676 Z0.1845
X6.3146 Y3.7649 Z0.1848
X6.314 Y3.7622 Z0.1854
X6.3133 Y3.7596 Z0.1861
X6.3124 Y3.7571 Z0.1869
X6.3114 Y3.7547 Z0.1879
X6.3103 Y3.7523 Z0.1891
X6.3091 Y3.7502 Z0.1904
X6.3078 Y3.7481 Z0.1918
X6.3065 Y3.7462 Z0.1934
X6.3052 Y3.7444 Z0.1951
X6.3038 Y3.7427 Z0.1969
X6.3024 Y3.7412 Z0.1988
X6.3011 Y3.7398 Z0.2008
X6.2998 Y3.7386 Z0.203
X6.2985 Y3.7375 Z0.2052
X6.2973 Y3.7365 Z0.2075
X6.2962 Y3.7356 Z0.21
X6.2951 Y3.7348 Z0.2124
X6.2942 Y3.7342 Z0.215
X6.2934 Y3.7336 Z0.2176
X6.2927 Y3.7332 Z0.2203
X6.2921 Y3.7328 Z0.223
X6.2916 Y3.7325 Z0.2258
X6.2912 Y3.7323 Z0.2285
X6.291 Y3.7322 Z0.2313
Z0.2341
G0 Z0.8341
X4.1157 Y2.742
Z0.5293
G1 Z0.4075 F50.
Y2.7422 Z0.4021 F100.
Y2.7431 Z0.3968
Y2.7445 Z0.3917
Y2.7465 Z0.3867
Y2.749 Z0.3819
Y2.7519 Z0.3775
Y2.7554 Z0.3734
Y2.7592 Z0.3697
Y2.7635 Z0.3664
X4.1156 Y2.768 Z0.3636
Y2.7729 Z0.3613
Y2.7779 Z0.3595
Y2.7831 Z0.3583
X4.1155 Y2.7885 Z0.3576
X4.1074 Y4.7341 Z0.2215
X4.452 Z0.1974
X4.4517 Y4.5455 Z0.1843
Y4.542 Z0.1841
X4.4436 Y-1.2391
X4.4437 Y-1.2425
X4.444 Y-1.254
X4.4442 Y-1.26
X4.4447 Y-1.2659
X4.1313
X4.1317 Y-1.2606
X4.1321 Y-1.2543
X4.1324 Y-1.2428
Y-1.2388
X4.1074 Y4.7341
X4.452
X4.4517 Y4.542
X4.4516 Y4.5392 Z0.1842
X4.4512 Y4.5365 Z0.1845
X4.4508 Y4.5337 Z0.1848
X4.4501 Y4.5311 Z0.1854
X4.4494 Y4.5284 Z0.1861
X4.4485 Y4.5259 Z0.1869
X4.4475 Y4.5235 Z0.1879
X4.4464 Y4.5212 Z0.1891
X4.4452 Y4.519 Z0.1904
X4.4439 Y4.5169 Z0.1918
X4.4426 Y4.515 Z0.1934
X4.4413 Y4.5132 Z0.1951
X4.4399 Y4.5116 Z0.1969
X4.4386 Y4.5101 Z0.1988
X4.4372 Y4.5087 Z0.2008
X4.4359 Y4.5074 Z0.203
X4.4347 Y4.5063 Z0.2052
X4.4335 Y4.5053 Z0.2075
X4.4323 Y4.5044 Z0.21
X4.4313 Y4.5037 Z0.2124
X4.4304 Y4.503 Z0.215
X4.4295 Y4.5025 Z0.2176
X4.4288 Y4.502 Z0.2203
X4.4282 Y4.5016 Z0.223
X4.4277 Y4.5014 Z0.2258
X4.4274 Y4.5012 Z0.2285
X4.4272 Y4.501 Z0.2313
X4.4271 Z0.2341
G0 Z0.8341
X2.894 Y3.4325
Z0.5293
G1 Z0.4075 F50.
Y3.4322 Z0.4021 F100.
Y3.4314 Z0.3968
Y3.4299 Z0.3917
Y3.428 Z0.3867
Y3.4255 Z0.3819
Y3.4225 Z0.3775
X2.8941 Y3.4191 Z0.3734
Y3.4152 Z0.3697
Y3.411 Z0.3664
Y3.4064 Z0.3636
Y3.4016 Z0.3613
X2.8942 Y3.3965 Z0.3595
Y3.3913 Z0.3583
Y3.386 Z0.3576
X2.9038 Y1.0845 Z0.1967
G2 X2.8421 Y0.9957 Z0.1886 I-0.0941 J-0.0004
G3 X2.7855 Y0.9702 Z0.1843 I0.1472 J-0.4017
G1 X2.784 Y0.9694 Z0.1842
X2.7825 Y0.9686 Z0.1841
G3 X2.7231 Y0.929 I0.2068 J-0.3745
X2.6306 Y0.8287 I0.2765 J-0.348
G2 X2.5663 Y0.8285 I-0.0322 J0.0216
G3 X2.5443 Y0.8581 I-0.3706 J-0.2518
G2 X2.5306 Y0.8975 I0.048 J0.0389
G1 X2.5619 Y4.4902
G2 X2.6252 Y4.5529 I0.0633 J-0.0006
G1 X2.8267
G2 X2.8896 Y4.4903 I0. J-0.0629
G1 X2.9038 Y1.0845
G2 X2.8421 Y0.9957 I-0.0941 J-0.0004
G3 X2.7825 Y0.9686 I0.1472 J-0.4017
X2.7094 Y0.7837 I0.0755 J-0.1368
G2 X2.7367 Y0.5867 I-0.5422 J-0.1755
G1 Y0.5865
X2.7366 Y0.5811
X2.7442 Y-1.2399
Y-1.242
X2.7445 Y-1.2535
X2.7447 Y-1.2587
X2.7451 Y-1.2659
X2.4448
X2.4452 Y-1.2579
X2.4454 Y-1.2532
X2.4456 Y-1.2417
Y-1.2411
Y-1.2404
X2.4614 Y0.569
Y0.5692
X2.4615 Y0.5807
X2.4614 Y0.5857
X2.4613 Y0.5915
X2.461 Y0.5973
X2.4605 Y0.603
X2.4599 Y0.6088
X2.4592 Y0.6145
X2.4584 Y0.6203
X2.4575 Y0.6261
X2.4564 Y0.6318
X2.4551 Y0.6376
X2.4538 Y0.6434
X2.4522 Y0.6491
X2.4513 Y0.6524
X2.4511 Y0.6533
X2.4493 Y0.6591
X2.4456 Y0.6698
X2.4425 Y0.6779
X2.4401 Y0.6837
X2.4375 Y0.6895
X2.4348 Y0.6952
X2.432 Y0.7007
X2.4293 Y0.7057
X2.426 Y0.7115
X2.4221 Y0.718
X2.4183 Y0.7238
X2.4147 Y0.7292
X2.4109 Y0.7345
X2.4069 Y0.7398
X2.4045 Y0.7429
X2.4038 Y0.7438
X2.401 Y0.7471
X2.396 Y0.7529
X2.3906 Y0.7588
X2.3847 Y0.7648
X2.3789 Y0.7704
X2.3731 Y0.7757
X2.3674 Y0.7806
X2.3616 Y0.7852
X2.3578 Y0.7882
X2.3559 Y0.7896
X2.3525 Y0.792
X2.3485 Y0.7948
X2.3828 Y4.7341
X3.0697
X3.086 Y0.8429
X2.9947 Y0.8425
X2.9911 Y0.8424
X2.9854 Y0.8422
X2.9796 Y0.8419
X2.9738 Y0.8415
X2.968 Y0.8409
X2.9623 Y0.8402
X2.9565 Y0.8394
X2.9507 Y0.8384
X2.9438 Y0.8371
X2.9357 Y0.8352
X2.9299 Y0.8338
X2.9265 Y0.8329
X2.9219 Y0.8315
X2.9161 Y0.8297
X2.9104 Y0.8278
X2.9046 Y0.8257
X2.8988 Y0.8234
X2.8931 Y0.821
X2.8873 Y0.8184
X2.8815 Y0.8156
X2.8772 Y0.8135
X2.8743 Y0.812
X2.8685 Y0.8087
X2.8599 Y0.8036
G3 X2.851 Y0.7979 I0.0662 J-0.1119
G1 X2.842 Y0.7915
X2.8362 Y0.7872
X2.8338 Y0.7852
X2.8299 Y0.782
X2.8246 Y0.7775
X2.8193 Y0.7727
X2.8141 Y0.7677
X2.811 Y0.7646
X2.81 Y0.7635
X2.807 Y0.7604
X2.8022 Y0.7552
X2.7977 Y0.75
X2.7934 Y0.7447
X2.79 Y0.7405
X2.7876 Y0.7372
X2.7835 Y0.7315
X2.778 Y0.7232
X2.7737 Y0.7163
X2.7705 Y0.7109
X2.7673 Y0.7052
X2.7642 Y0.699
X2.7613 Y0.6931
X2.7587 Y0.6873
X2.7562 Y0.6816
X2.7539 Y0.6758
X2.7518 Y0.6701
X2.7498 Y0.6643
X2.7479 Y0.6585
X2.7462 Y0.6528
X2.7447 Y0.647
X2.7433 Y0.6412
X2.742 Y0.6353
X2.7408 Y0.6291
X2.7394 Y0.6205
X2.738 Y0.6094
G3 X2.7371 Y0.598 I0.129 J-0.0162
G1 X2.7367 Y0.5867
X2.7364 Y0.5839 Z0.1842
X2.736 Y0.5812 Z0.1845
X2.7354 Y0.5785 Z0.1848
X2.7347 Y0.5758 Z0.1854
X2.7339 Y0.5732 Z0.1861
X2.7329 Y0.5707 Z0.1869
X2.7318 Y0.5684 Z0.1879
X2.7306 Y0.5661 Z0.1891
X2.7293 Y0.5639 Z0.1904
X2.728 Y0.5619 Z0.1918
X2.7266 Y0.56 Z0.1934
X2.7252 Y0.5583 Z0.1951
X2.7238 Y0.5567 Z0.1969
X2.7224 Y0.5552 Z0.1988
X2.721 Y0.5539 Z0.2008
X2.7196 Y0.5527 Z0.203
X2.7183 Y0.5516 Z0.2052
X2.7171 Y0.5507 Z0.2075
X2.7159 Y0.5498 Z0.21
X2.7149 Y0.5491 Z0.2124
X2.7139 Y0.5485 Z0.215
X2.7131 Y0.548 Z0.2176
X2.7123 Y0.5475 Z0.2203
X2.7117 Y0.5472 Z0.223
X2.7112 Y0.5469 Z0.2258
X2.7109 Y0.5468 Z0.2285
X2.7107 Y0.5466 Z0.2313
X2.7106 Z0.2341
G0 Z0.8341
X0.3473 Y4.3731
Z0.2341
G1 X0.3476 Z0.2285 F100.
X0.3486 Z0.223
X0.3501 Z0.2176
X0.3522 Z0.2124
X0.355 Z0.2075
X0.3582 Z0.203
X0.3619 Z0.1988
X0.3661 Z0.1951
X0.3707 Z0.1918
X0.3756 Z0.1891
X0.3808 Z0.1869
X0.3862 Z0.1854
X0.3917 Z0.1845
X0.3973 Z0.1841
X0.5458
X0.6593
G2 X0.7225 Y4.3094 I0. J-0.0632
G1 X0.6775 Y-0.8409
G2 X0.613 Y-0.9049 I-0.0646 J0.0006
G1 X0.5458
X0.3492
X0.3436 Z0.1845
X0.3381 Z0.1854
X0.3327 Z0.1869
X0.3275 Z0.1891
X0.3226 Z0.1918
X0.3181 Z0.1951
X0.3139 Z0.1988
X0.3101 Z0.203
X0.3069 Z0.2075
X0.3042 Z0.2124
X0.302 Z0.2176
X0.3005 Z0.223
X0.2996 Z0.2285
X0.2992 Z0.2341
G0 Z0.8341
X0.3473 Y4.5531
Z0.2341
G1 X0.3476 Z0.2285 F100.
X0.3486 Z0.223
X0.3501 Z0.2176
X0.3522 Z0.2124
X0.355 Z0.2075
X0.3582 Z0.203
X0.3619 Z0.1988
X0.3661 Z0.1951
X0.3707 Z0.1918
X0.3756 Z0.1891
X0.3808 Z0.1869
X0.3862 Z0.1854
X0.3917 Z0.1845
X0.3973 Z0.1841
X0.5459
X0.8409
G2 X0.9041 Y4.4894 I0. J-0.0632
G1 X0.856 Y-1.0209
G2 X0.7914 Y-1.0849 I-0.0646 J0.0006
G1 X0.5458
X0.3492
X0.3436 Z0.1845
X0.3381 Z0.1854
X0.3327 Z0.1869
X0.3275 Z0.1891
X0.3226 Z0.1918
X0.3181 Z0.1951
X0.3139 Z0.1988
X0.3101 Z0.203
X0.3069 Z0.2075
X0.3042 Z0.2124
X0.302 Z0.2176
X0.3005 Z0.223
X0.2995 Z0.2285
X0.2992 Z0.2341
G0 Z0.8341
X0.3473 Y4.7033
Z0.2291
G1 X0.3476 Z0.2241 F100.
X0.3484 Y4.7034 Z0.2191
X0.3498 Y4.7037 Z0.2143
X0.3517 Y4.704 Z0.2096
X0.3541 Y4.7043 Z0.2052
X0.357 Y4.7048 Z0.2011
X0.3603 Y4.7053 Z0.1973
X0.364 Y4.7059 Z0.194
X0.3681 Y4.7066 Z0.191
X0.3725 Y4.7073 Z0.1886
X0.3771 Y4.708 Z0.1867
X0.3819 Y4.7087 Z0.1853
X0.3868 Y4.7095 Z0.1844
X0.3917 Y4.7103 Z0.1841
X0.538 Y4.7335
X0.5419 Y4.7339
X0.5459 Y4.7341
X1.0872
X1.0352 Y-1.2266
Y-1.227
Y-1.2274
X1.0351 Y-1.2389
X1.0352 Y-1.2434
X1.0356 Y-1.2549
X1.0359 Y-1.2614
X1.0363 Y-1.2659
X0.5459
X0.5419 Y-1.2657
X0.538 Y-1.2653
X0.3438 Y-1.2345
X0.3383 Y-1.2337 Z0.1845
X0.3329 Y-1.2328 Z0.1854
X0.3275 Y-1.2319 Z0.1869
X0.3224 Y-1.2311 Z0.1891
X0.3176 Y-1.2304 Z0.1918
X0.3131 Y-1.2297 Z0.1951
X0.3089 Y-1.229 Z0.1988
X0.3052 Y-1.2284 Z0.203
X0.302 Y-1.2279 Z0.2075
X0.2994 Y-1.2275 Z0.2124
X0.2972 Y-1.2271 Z0.2176
X0.2957 Y-1.2269 Z0.223
X0.2948 Y-1.2268 Z0.2285
X0.2945 Y-1.2267 Z0.2341
G0 Z0.8341
X24.6711 Y1.9245
Z0.5293
G1 Z0.4075 F50.
Y1.9247 Z0.4021 F100.
Y1.9256 Z0.3968
Y1.927 Z0.3917
Y1.929 Z0.3867
Y1.9315 Z0.3819
Y1.9344 Z0.3775
Y1.9379 Z0.3734
Y1.9417 Z0.3697
Y1.946 Z0.3664
Y1.9505 Z0.3636
Y1.9554 Z0.3613
Y1.9604 Z0.3595
Y1.9656 Z0.3583
Y1.971 Z0.3576
X24.6703 Y4.3538 Z0.191
G2 X24.6895 Y4.3731 Z0.1889 I0.0193 J0.
G1 X24.7021 Z0.188
G2 X24.7214 Y4.3538 Z0.1859 I0. J-0.0193
G1 X24.7213 Y4.331 Z0.1843
Y4.3275 Z0.1841
X24.7156 Y1.079
G2 X24.6841 Y1.0642 I-0.0193 J0.
G1 X24.6786 Y1.0686
G2 X24.6714 Y1.0836 I0.012 J0.015
G1 X24.6703 Y4.3538
G2 X24.6895 Y4.3731 I0.0193 J0.
G1 X24.7021
G2 X24.7214 Y4.3538 I0. J-0.0193
G1 X24.7213 Y4.3275
G3 X24.8111 Y4.1924 I0.1462 J-0.0003
G2 X24.9008 Y4.0572 I-0.0565 J-0.1349
G1 X24.8956 Y1.0587
G2 X24.833 Y0.9285 I-0.1671 J0.0003
G3 X24.73 Y0.8096 I0.2716 J-0.3391
G2 X24.6689 I-0.0305 J0.0181
G3 X24.5744 Y0.9223 I-0.392 J-0.2328
X24.5645 Y0.9299 I-0.0806 J-0.0943
G2 X24.5544 Y0.9371 I0.2361 J0.3398
X24.4914 Y1.0622 I0.0926 J0.1251
G1 X24.4902 Y4.4892
G2 X24.554 Y4.5531 I0.0638 J0.
G1 X24.8379
G2 X24.9016 Y4.4892 I0. J-0.0637
G1 X24.9008 Y4.0572
G3 X24.9911 Y3.9213 I0.1471 J-0.0003
G2 X25.0814 Y3.7854 I-0.0568 J-0.1357
G1 X25.0762 Y0.8429
X25.075 Y0.8428
X25.0692 Y0.8419
X25.0634 Y0.841
X25.0576 Y0.8398
X25.0519 Y0.8386
X25.0461 Y0.8372
X25.0403 Y0.8357
X25.0349 Y0.8341
X25.0297 Y0.8325
X25.0239 Y0.8306
X25.0176 Y0.8282
X25.0115 Y0.8259
X25.0057 Y0.8234
X25. Y0.8208
X24.9942 Y0.8181
X24.9877 Y0.8147
X24.9804 Y0.8107
X24.9746 Y0.8073
X24.9704 Y0.8047
X24.9653 Y0.8014
X24.9596 Y0.7974
X24.9538 Y0.7932
X24.948 Y0.7888
X24.9449 Y0.7863
X24.9443 Y0.7858
X24.9413 Y0.7832
X24.9358 Y0.7784
X24.9303 Y0.7733
X24.9248 Y0.768
X24.9215 Y0.7646
X24.9202 Y0.7632
X24.917 Y0.7597
X24.9119 Y0.7539
X24.9071 Y0.7481
X24.9026 Y0.7424
X24.9001 Y0.739
X24.8994 Y0.7381
X24.8972 Y0.735
X24.8935 Y0.7297
X24.8901 Y0.7244
X24.8868 Y0.7191
X24.8828 Y0.7122
X24.8782 Y0.7035
X24.8753 Y0.6977
X24.8739 Y0.6948
X24.872 Y0.6905
X24.8695 Y0.6847
X24.8672 Y0.679
X24.865 Y0.6732
X24.863 Y0.6675
X24.8612 Y0.6617
X24.8595 Y0.6559
X24.8579 Y0.6502
X24.856 Y0.6421
X24.8539 Y0.6316
X24.8528 Y0.6259
X24.8527 Y0.6248
X24.8522 Y0.6213
X24.8514 Y0.6156
X24.8508 Y0.6098
X24.8503 Y0.6041
X24.8499 Y0.596
X24.8496 Y0.5845
Y0.5818
X24.8464 Y-1.2391
X24.8465 Y-1.2425
X24.8467 Y-1.254
X24.847 Y-1.2601
X24.8475 Y-1.2659
X24.5493
X24.5498 Y-1.2597
X24.55 Y-1.2538
X24.5503 Y-1.2423
Y-1.2393
X24.5497 Y0.5817
X24.5496 Y0.5849
X24.5494 Y0.5964
X24.5489 Y0.6047
X24.5484 Y0.6104
X24.5477 Y0.6162
X24.547 Y0.622
X24.5456 Y0.6301
X24.5435 Y0.6405
X24.5423 Y0.6462
X24.542 Y0.6473
X24.5411 Y0.6508
X24.5395 Y0.6565
X24.5378 Y0.6623
X24.5359 Y0.6681
X24.5338 Y0.6738
X24.5317 Y0.6796
X24.5293 Y0.6854
X24.5268 Y0.6911
X24.524 Y0.6971
X24.5209 Y0.7033
X24.5179 Y0.7091
X24.5149 Y0.7144
X24.5116 Y0.7199
X24.508 Y0.7257
X24.5041 Y0.7315
X24.5001 Y0.7372
X24.4976 Y0.7407
X24.4967 Y0.7418
X24.4942 Y0.745
X24.49 Y0.7502
X24.4856 Y0.7554
X24.481 Y0.7606
X24.4773 Y0.7645
X24.4745 Y0.7673
X24.4708 Y0.771
X24.4659 Y0.7756
X24.4611 Y0.78
X24.4562 Y0.7841
X24.4529 Y0.7869
X24.451 Y0.7884
X24.4472 Y0.7913
X24.4415 Y0.7956
X24.4357 Y0.7996
X24.4299 Y0.8034
X24.4254 Y0.8063
X24.4221 Y0.8083
X24.4163 Y0.8115
X24.4081 Y0.8159
X24.4011 Y0.8194
X24.3953 Y0.822
X24.3896 Y0.8245
X24.3838 Y0.8268
X24.3778 Y0.8291
X24.3716 Y0.8312
X24.3658 Y0.8331
X24.3605 Y0.8347
X24.3549 Y0.8362
X24.3492 Y0.8376
X24.3434 Y0.8389
X24.3376 Y0.84
X24.3319 Y0.841
X24.3261 Y0.8419
X24.3203 Y0.8427
X24.3146 Y0.8433
X24.3105 Y0.8437
X24.3091 Y4.7341
X25.083
X25.0814 Y3.7854
X25.0812 Y3.7826 Z0.1842
X25.0809 Y3.7798 Z0.1845
X25.0804 Y3.7771 Z0.1848
X25.0798 Y3.7744 Z0.1854
X25.079 Y3.7718 Z0.1861
X25.0781 Y3.7693 Z0.1869
X25.0771 Y3.7668 Z0.1879
X25.076 Y3.7645 Z0.1891
X25.0748 Y3.7623 Z0.1904
X25.0736 Y3.7603 Z0.1918
X25.0723 Y3.7584 Z0.1934
X25.0709 Y3.7566 Z0.1951
X25.0696 Y3.7549 Z0.1969
X25.0682 Y3.7534 Z0.1988
X25.0669 Y3.752 Z0.2008
X25.0656 Y3.7508 Z0.203
X25.0643 Y3.7496 Z0.2052
X25.0631 Y3.7486 Z0.2075
X25.062 Y3.7478 Z0.21
X25.0609 Y3.747 Z0.2124
X25.06 Y3.7464 Z0.215
X25.0592 Y3.7458 Z0.2176
X25.0584 Y3.7453 Z0.2203
X25.0578 Y3.745 Z0.223
X25.0574 Y3.7447 Z0.2258
X25.057 Y3.7445 Z0.2285
X25.0568 Y3.7444 Z0.2313
Y3.7443 Z0.2341
G0 Z0.8341
X26.7009 Y3.6526
Z0.5293
G1 Z0.4075 F50.
Y3.6523 Z0.4021 F100.
Y3.6514 Z0.3968
Y3.65 Z0.3917
Y3.6481 Z0.3867
Y3.6456 Z0.3819
Y3.6426 Z0.3775
Y3.6392 Z0.3734
Y3.6353 Z0.3697
Y3.6311 Z0.3664
Y3.6265 Z0.3636
Y3.6217 Z0.3613
Y3.6166 Z0.3595
Y3.6114 Z0.3583
Y3.6061 Z0.3576
X26.6974 Y1.1273 Z0.1843
Y1.1238 Z0.1841
X26.6973 Y1.0858
G2 X26.6359 Y0.995 I-0.098 J0.0001
G3 X26.426 Y0.8213 I0.1668 J-0.4151
G2 X26.3638 I-0.0311 J0.0198
G3 X26.3501 Y0.8417 I-0.3987 J-0.254
X26.3351 Y0.8611 I-0.2709 J-0.193
G1 X26.3346 Y0.8617
X26.3341 Y0.8622
G2 X26.3199 Y0.9018 I0.0476 J0.0395
G1 X26.3261 Y4.4903
G2 X26.3889 Y4.5529 I0.0627 J-0.0001
G1 X26.6396
G2 X26.7021 Y4.4903 I0. J-0.0625
G1 X26.6974 Y1.1238
G3 X26.7878 Y0.9878 I0.1472 J-0.0002
G2 X26.8782 Y0.8518 I-0.0568 J-0.1358
G1 Y0.8448
X26.804 Y0.8449
G3 X26.7906 Y0.8448 I0.003 J-0.8392
G1 X26.7831 Y0.8445
X26.7773 Y0.8441
X26.7716 Y0.8435
X26.7658 Y0.8429
X26.76 Y0.8421
X26.7543 Y0.8411
X26.7485 Y0.8401
X26.7427 Y0.8389
X26.737 Y0.8375
X26.7313 Y0.8361
X26.7255 Y0.8345
X26.7197 Y0.8327
X26.7139 Y0.8308
X26.7081 Y0.8287
X26.7024 Y0.8265
X26.6966 Y0.8241
X26.6908 Y0.8216
X26.6851 Y0.8188
X26.6793 Y0.816
X26.6735 Y0.8129
X26.6695 Y0.8107
X26.6674 Y0.8094
X26.6615 Y0.8058
X26.6522 Y0.7998
G3 X26.644 Y0.794 I0.0709 J-0.109
G1 X26.6369 Y0.7885
X26.6311 Y0.7838
X26.6267 Y0.78
X26.6205 Y0.7743
X26.6126 Y0.7666
X26.6069 Y0.7607
X26.6033 Y0.7566
X26.5984 Y0.7508
X26.5925 Y0.7434
X26.5895 Y0.7395
X26.5867 Y0.7356
X26.5811 Y0.7274
X26.5773 Y0.7216
X26.5753 Y0.7182
X26.5727 Y0.7137
X26.5695 Y0.708
X26.5665 Y0.7022
X26.5637 Y0.6964
X26.5605 Y0.6894
X26.557 Y0.681
X26.5547 Y0.6752
X26.5536 Y0.6721
X26.5521 Y0.6676
X26.5502 Y0.6618
X26.5485 Y0.6561
X26.5469 Y0.6503
X26.5455 Y0.6446
X26.5442 Y0.6388
X26.5431 Y0.633
X26.542 Y0.6273
X26.5411 Y0.6215
X26.5404 Y0.6157
X26.5398 Y0.61
X26.5393 Y0.6042
X26.5388 Y0.5961
X26.5386 Y0.5846
X26.5385 Y0.5818
X26.536 Y-1.2391
Y-1.2424
X26.5363 Y-1.254
X26.5366 Y-1.26
X26.537 Y-1.2659
X26.2481
X26.2485 Y-1.2592
X26.2488 Y-1.2537
X26.249 Y-1.2421
Y-1.2395
X26.2522 Y0.5814
Y0.5856
X26.2518 Y0.5971
X26.2513 Y0.6056
X26.2507 Y0.6114
X26.25 Y0.6171
X26.2492 Y0.6229
X26.2483 Y0.6287
X26.2472 Y0.6344
X26.246 Y0.6402
X26.2446 Y0.6459
X26.2431 Y0.6517
X26.2415 Y0.6575
X26.2397 Y0.6632
X26.2378 Y0.669
X26.2354 Y0.6754
X26.2326 Y0.6825
X26.2302 Y0.6883
X26.2282 Y0.6927
X26.2258 Y0.6978
X26.2229 Y0.7036
X26.2198 Y0.7093
X26.2165 Y0.7151
X26.2132 Y0.7206
X26.2098 Y0.7259
X26.2059 Y0.7316
X26.2014 Y0.7379
X26.1986 Y0.7417
X26.1957 Y0.7453
X26.1887 Y0.7538
X26.1836 Y0.7595
X26.1808 Y0.7626
X26.1772 Y0.7662
X26.1729 Y0.7705
X26.1685 Y0.7747
X26.1642 Y0.7786
X26.16 Y0.7822
X26.156 Y0.7855
X26.1503 Y0.79
X26.1427 Y0.7955
X26.1385 Y0.7985
X26.1454 Y4.7341
X26.8836
X26.8782 Y0.8518
Y0.8514 Z0.1842
X26.8781 Y0.851
Y0.8507
X26.878 Y0.8503 Z0.1843
X26.8779 Y0.8499 Z0.1844
X26.8778 Y0.8496 Z0.1845
X26.8777 Y0.8492 Z0.1847
X26.8775 Y0.8489 Z0.1848
X26.8774 Y0.8486 Z0.185
X26.8772 Y0.8483 Z0.1852
X26.8771 Y0.8481 Z0.1854
X26.8769 Y0.8478 Z0.1856
X26.8767 Y0.8476 Z0.1859
X26.8765 Y0.8474 Z0.1861
X26.8764 Y0.8472 Z0.1864
X26.8762 Y0.847 Z0.1867
X26.876 Y0.8468 Z0.187
X26.8759 Y0.8467 Z0.1873
X26.8757 Y0.8466 Z0.1877
X26.8756 Y0.8464 Z0.188
X26.8755 Z0.1883
X26.8754 Y0.8463 Z0.1887
X26.8753 Y0.8462 Z0.1891
X26.8752 Z0.1894
X26.8751 Y0.8461 Z0.1898
Z0.1902
Z0.1906
X26.875 Z0.191
G0 Z0.8341
X28.2356 Y1.0886
Z0.5293
G1 Z0.4075 F50.
Y1.0883 Z0.4021 F100.
Y1.0875 Z0.3968
Y1.086 Z0.3917
Y1.0841 Z0.3867
Y1.0816 Z0.3819
Y1.0786 Z0.3775
Y1.0752 Z0.3734
Y1.0713 Z0.3697
Y1.0671 Z0.3664
Y1.0625 Z0.3636
Y1.0577 Z0.3613
Y1.0526 Z0.3595
Y1.0474 Z0.3583
Y1.0421 Z0.3576
X28.2384 Y-1.2395 Z0.1981
Y-1.2422 Z0.1979
X28.2387 Y-1.2537 Z0.1971
X28.2389 Y-1.2593 Z0.1967
X28.2394 Y-1.2659 Z0.1962
X28.0686 Z0.1843
X28.0651 Z0.1841
X27.9309
X27.9313 Y-1.2593
X27.9315 Y-1.2537
X27.9318 Y-1.2422
Y-1.2395
X27.9402 Y4.7341
X28.2311
X28.2384 Y-1.2395
Y-1.2422
X28.2387 Y-1.2537
X28.2389 Y-1.2593
X28.2394 Y-1.2659
X28.0651
X28.0623 Y-1.2657 Z0.1842
X28.0595 Y-1.2654 Z0.1845
X28.0568 Y-1.265 Z0.1848
X28.0541 Y-1.2644 Z0.1854
X28.0515 Y-1.2636 Z0.1861
X28.049 Y-1.2627 Z0.1869
X28.0466 Y-1.2617 Z0.1879
X28.0443 Y-1.2606 Z0.1891
X28.0421 Y-1.2594 Z0.1904
X28.04 Y-1.2582 Z0.1918
X28.0381 Y-1.2569 Z0.1934
X28.0363 Y-1.2555 Z0.1951
X28.0346 Y-1.2542 Z0.1969
X28.0331 Y-1.2528 Z0.1988
X28.0317 Y-1.2515 Z0.2008
X28.0305 Y-1.2502 Z0.203
X28.0294 Y-1.2489 Z0.2052
X28.0284 Y-1.2477 Z0.2075
X28.0275 Y-1.2466 Z0.21
X28.0267 Y-1.2455 Z0.2124
X28.0261 Y-1.2446 Z0.215
X28.0255 Y-1.2438 Z0.2176
X28.0251 Y-1.2431 Z0.2203
X28.0247 Y-1.2425 Z0.223
X28.0244 Y-1.242 Z0.2258
X28.0242 Y-1.2416 Z0.2285
X28.0241 Y-1.2414 Z0.2313
X28.024 Z0.2341
G0 Z0.8341
X29.6811 Y1.9456
Z0.5293
G1 Z0.4075 F50.
Y1.9459 Z0.4021 F100.
Y1.9468 Z0.3968
Y1.9482 Z0.3917
Y1.9502 Z0.3867
Y1.9527 Z0.3819
Y1.9556 Z0.3775
Y1.9591 Z0.3734
Y1.9629 Z0.3697
Y1.9672 Z0.3664
X29.681 Y1.9717 Z0.3636
Y1.9766 Z0.3613
Y1.9816 Z0.3595
Y1.9868 Z0.3583
Y1.9922 Z0.3576
X29.6781 Y4.338 Z0.1936
G2 X29.7132 Y4.3731 Z0.1897 I0.035 J0.
G1 X29.7173 Z0.1894
G2 X29.7524 Y4.338 Z0.1856 I0. J-0.035
G1 X29.7523 Y4.3194 Z0.1843
Y4.3159 Z0.1841
X29.7468 Y1.1416
G2 X29.7075 Y1.1193 I-0.026 J0.
G3 X29.6954 Y1.1262 I-0.2506 J-0.4222
G2 X29.6821 Y1.1489 I0.0126 J0.0228
G1 X29.6781 Y4.338
G2 X29.7132 Y4.3731 I0.035 J0.
G1 X29.7173
G2 X29.7524 Y4.338 I0. J-0.035
G1 X29.7523 Y4.3159
G3 X29.8421 Y4.1808 I0.1463 J-0.0003
G2 X29.9319 Y4.0456 I-0.0565 J-0.1349
G1 X29.9265 Y0.9737
G2 X29.8937 Y0.8944 I-0.1129 J0.0002
G3 X29.8596 Y0.8553 I0.2894 J-0.2874
X29.8303 Y0.8126 I0.3828 J-0.2939
G2 X29.7688 I-0.0308 J0.0187
G3 X29.565 Y0.9901 I-0.3811 J-0.2318
G2 X29.5021 Y1.0855 I0.0411 J0.0955
G1 X29.498 Y4.4892
G2 X29.5617 Y4.5531 I0.0638 J0.0001
G1 X29.8689
G2 X29.9326 Y4.4892 I0. J-0.0637
G1 X29.9319 Y4.0456
G3 X30.0221 Y3.9097 I0.1471 J-0.0003
G2 X30.1124 Y3.7738 I-0.0568 J-0.1357
G1 X30.1072 Y0.8247
X30.1043 Y0.8235
X30.0986 Y0.8209
X30.0928 Y0.8181
X30.0862 Y0.8148
X30.0789 Y0.8107
X30.0732 Y0.8074
X30.069 Y0.8047
X30.064 Y0.8015
X30.0582 Y0.7975
X30.0524 Y0.7933
X30.0467 Y0.7889
X30.0435 Y0.7864
X30.0428 Y0.7858
X30.0398 Y0.7832
X30.0343 Y0.7785
X30.0289 Y0.7734
X30.0234 Y0.7681
X30.0201 Y0.7647
X30.0187 Y0.7633
X30.0154 Y0.7597
X30.0104 Y0.7539
X30.0056 Y0.7482
X30.0011 Y0.7424
X29.9986 Y0.7391
X29.998 Y0.7383
X29.9958 Y0.7352
X29.9921 Y0.7298
X29.9886 Y0.7245
X29.9853 Y0.7191
X29.9813 Y0.7122
X29.9768 Y0.7038
X29.9739 Y0.698
X29.9724 Y0.6949
X29.9704 Y0.6905
X29.9679 Y0.6848
X29.9656 Y0.679
X29.9635 Y0.6732
X29.9615 Y0.6675
X29.9596 Y0.6617
X29.9579 Y0.6559
X29.9564 Y0.6502
X29.9545 Y0.6423
X29.9524 Y0.6324
X29.9514 Y0.6266
X29.9511 Y0.625
X29.9506 Y0.6214
X29.9499 Y0.6156
X29.9493 Y0.6098
X29.9488 Y0.6041
X29.9483 Y0.596
X29.9481 Y0.5845
Y0.5818
X29.9449 Y-1.2391
Y-1.2425
X29.9452 Y-1.254
X29.9455 Y-1.26
X29.9459 Y-1.2659
X29.6523
X29.6527 Y-1.2599
X29.653 Y-1.2539
X29.6533 Y-1.2424
Y-1.2391
X29.6511 Y0.5818
Y0.5846
X29.6508 Y0.5961
X29.6504 Y0.6043
X29.6499 Y0.61
X29.6492 Y0.6158
X29.6485 Y0.6216
X29.6476 Y0.6273
X29.6466 Y0.6331
X29.6454 Y0.6389
X29.6441 Y0.6446
X29.6422 Y0.6522
X29.6395 Y0.6616
X29.6377 Y0.6674
X29.637 Y0.6695
X29.6355 Y0.6734
X29.6334 Y0.6792
X29.6311 Y0.685
X29.6286 Y0.6907
X29.6259 Y0.6965
X29.6231 Y0.7023
X29.62 Y0.7081
X29.6167 Y0.7142
X29.6132 Y0.72
X29.6097 Y0.7256
X29.606 Y0.7313
X29.602 Y0.7369
X29.598 Y0.7423
X29.5939 Y0.7475
X29.5892 Y0.7533
X29.5836 Y0.7596
X29.5778 Y0.7658
X29.5719 Y0.7717
X29.5657 Y0.7775
X29.5594 Y0.7831
X29.5536 Y0.7879
X29.5484 Y0.7919
X29.543 Y0.7959
X29.5373 Y0.7999
X29.5315 Y0.8037
X29.5256 Y0.8073
X29.5198 Y0.8108
X29.514 Y0.814
X29.5083 Y0.817
X29.5025 Y0.8198
X29.4967 Y0.8224
X29.491 Y0.8249
X29.4852 Y0.8272
X29.4794 Y0.8294
X29.4755 Y0.8308
X29.4733 Y0.8315
X29.4676 Y0.8333
X29.4582 Y0.836
X29.4506 Y0.838
X29.4448 Y0.8393
X29.4391 Y0.8404
X29.4333 Y0.8414
X29.4275 Y0.8423
X29.4217 Y0.8431
X29.416 Y0.8437
X29.4102 Y0.8442
X29.402 Y0.8446
X29.3905 Y0.8448
X29.3875 Y0.8449
X29.3214 Y0.8448
X29.3167 Y4.7341
X30.1141
X30.1124 Y3.7738
X30.1122 Y3.771 Z0.1842
X30.1119 Y3.7682 Z0.1845
X30.1114 Y3.7655 Z0.1848
X30.1108 Y3.7628 Z0.1854
X30.1101 Y3.7602 Z0.1861
X30.1092 Y3.7577 Z0.1869
X30.1082 Y3.7552 Z0.1879
X30.1071 Y3.7529 Z0.1891
X30.1059 Y3.7508 Z0.1904
X30.1046 Y3.7487 Z0.1918
X30.1033 Y3.7468 Z0.1934
X30.102 Y3.745 Z0.1951
X30.1006 Y3.7433 Z0.1969
X30.0992 Y3.7418 Z0.1988
X30.0979 Y3.7404 Z0.2008
X30.0966 Y3.7392 Z0.203
X30.0953 Y3.7381 Z0.2052
X30.0941 Y3.7371 Z0.2075
X30.093 Y3.7362 Z0.21
X30.092 Y3.7354 Z0.2124
X30.091 Y3.7348 Z0.215
X30.0902 Y3.7342 Z0.2176
X30.0895 Y3.7338 Z0.2203
X30.0889 Y3.7334 Z0.223
X30.0884 Y3.7331 Z0.2258
X30.0881 Y3.7329 Z0.2285
X30.0879 Y3.7328 Z0.2313
X30.0878 Z0.2341
G0 Z0.8341
X31.6261 Y3.6697
Z0.5293
G1 Z0.4075 F50.
Y3.6694 Z0.4021 F100.
Y3.6685 Z0.3968
Y3.6671 Z0.3917
Y3.6651 Z0.3867
Y3.6626 Z0.3819
Y3.6597 Z0.3775
Y3.6562 Z0.3734
Y3.6524 Z0.3697
Y3.6481 Z0.3664
Y3.6436 Z0.3636
Y3.6387 Z0.3613
X31.626 Y3.6337 Z0.3595
Y3.6285 Z0.3583
Y3.6231 Z0.3576
X31.6217 Y1.1579 Z0.1852
G2 X31.6191 Y1.1447 Z0.1843 I-0.035 J0.0001
G1 X31.6184 Y1.1431 Z0.1842
X31.6176 Y1.1415 Z0.1841
G2 X31.6039 Y1.1275 I-0.0309 J0.0165
G1 X31.5956 Y1.1228
G2 X31.5416 Y1.1541 I-0.018 J0.0313
G1 X31.5471 Y4.3379
G2 X31.5821 Y4.3729 I0.035 J-0.0001
G1 X31.5922
G2 X31.6273 Y4.3378 I0. J-0.035
G1 X31.6217 Y1.1579
G2 X31.6176 Y1.1415 I-0.035 J0.0001
G3 X31.5977 Y1.0009 I0.1837 J-0.0977
G2 X31.5644 Y0.8629 I-0.1615 J-0.034
G3 X31.5189 Y0.7954 I0.356 J-0.2889
G2 X31.4611 Y0.7957 I-0.0288 J0.0159
G3 X31.4298 Y0.845 I-0.3596 J-0.1938
X31.3921 Y0.8896 I-0.3646 J-0.27
G2 X31.3612 Y0.9665 I0.0797 J0.0767
G1 X31.3674 Y4.4903
G2 X31.4301 Y4.5529 I0.0627 J-0.0001
G1 X31.7451
G2 X31.8076 Y4.4903 I0. J-0.0625
G1 X31.8016 Y1.0854
G2 X31.7394 Y0.9933 I-0.0995 J0.0002
G3 X31.6121 Y0.9134 I0.1608 J-0.3972
X31.5644 Y0.8629 I0.3082 J-0.3394
X31.5736 Y0.6699 I0.1126 J-0.0914
G2 X31.6466 Y0.491 I-0.1815 J-0.1784
G1 X31.6435 Y-1.2391
X31.6436 Y-1.2425
X31.6439 Y-1.254
X31.6442 Y-1.2601
X31.6446 Y-1.2659
X31.3302
X31.3306 Y-1.2592
X31.3308 Y-1.2537
X31.3311 Y-1.2421
Y-1.2395
X31.3343 Y0.5814
X31.3342 Y0.5855
X31.3339 Y0.5971
X31.3333 Y0.6056
X31.3328 Y0.6113
X31.3321 Y0.6171
X31.3313 Y0.6229
X31.3303 Y0.6286
X31.3293 Y0.6344
X31.328 Y0.6402
X31.3267 Y0.6459
X31.3253 Y0.6514
X31.3239 Y0.6565
X31.3221 Y0.6622
X31.32 Y0.6686
X31.3178 Y0.6747
X31.3155 Y0.6805
X31.3131 Y0.6863
X31.3106 Y0.692
X31.307 Y0.6994
X31.3024 Y0.7082
X31.2993 Y0.7139
X31.2977 Y0.7166
X31.2951 Y0.7209
X31.2914 Y0.7266
X31.2875 Y0.7324
X31.2833 Y0.7381
X31.2802 Y0.7424
X31.278 Y0.7451
X31.2751 Y0.7487
X31.2714 Y0.7531
X31.2676 Y0.7575
X31.2635 Y0.7619
X31.2596 Y0.7659
X31.2558 Y0.7697
X31.2517 Y0.7736
X31.2472 Y0.7777
X31.2428 Y0.7816
X31.2383 Y0.7853
X31.2348 Y0.7881
X31.2322 Y0.7902
X31.228 Y0.7933
X31.2222 Y0.7974
X31.2164 Y0.8013
X31.2107 Y0.8049
X31.2063 Y0.8076
X31.2033 Y0.8093
X31.1976 Y0.8124
X31.189 Y0.8168
X31.1818 Y0.8203
X31.1798 Y0.8212
X31.1866 Y4.7341
X31.9892
X31.9824 Y0.845
X31.9141 Y0.8451
X31.9136
X31.9132
X31.9016 Y0.845
X31.8951 Y0.8448
X31.8893 Y0.8445
X31.8835 Y0.8441
X31.8778 Y0.8435
X31.872 Y0.8428
X31.8662 Y0.8419
X31.8605 Y0.8409
X31.8547 Y0.8398
X31.8489 Y0.8386
X31.8432 Y0.8372
X31.8374 Y0.8357
X31.8316 Y0.834
X31.8276 Y0.8328
X31.8254 Y0.832
X31.8196 Y0.83
X31.8103 Y0.8265
X31.8028 Y0.8234
X31.797 Y0.8208
X31.7912 Y0.818
X31.7855 Y0.8151
X31.7804 Y0.8124
X31.7761 Y0.8099
X31.7703 Y0.8064
X31.7631 Y0.8018
X31.7572 Y0.7978
X31.7526 Y0.7945
X31.748 Y0.791
X31.7434 Y0.7874
X31.74 Y0.7846
X31.7376 Y0.7826
X31.734 Y0.7794
X31.729 Y0.7749
X31.7241 Y0.7701
X31.7191 Y0.7651
X31.7158 Y0.7616
X31.7142 Y0.7598
X31.7113 Y0.7565
X31.7071 Y0.7517
X31.7031 Y0.7468
X31.6994 Y0.7419
X31.6957 Y0.7369
X31.6921 Y0.7318
X31.6883 Y0.7261
X31.6843 Y0.7197
X31.6807 Y0.7136
X31.6775 Y0.7078
X31.6745 Y0.702
X31.6717 Y0.6963
X31.6696 Y0.6916
X31.668 Y0.6881
X31.6656 Y0.6824
X31.6626 Y0.6744
X31.6601 Y0.6675
X31.6583 Y0.6617
X31.6566 Y0.6559
X31.655 Y0.6502
X31.6536 Y0.6444
X31.6523 Y0.6386
X31.6512 Y0.6329
X31.6502 Y0.6271
X31.6493 Y0.6213
X31.6485 Y0.6156
X31.6479 Y0.6098
X31.6474 Y0.6041
X31.647 Y0.596
X31.6468 Y0.5845
X31.6467 Y0.5818
X31.6466 Y0.491
X31.6464 Y0.4882 Z0.1842
X31.6461 Y0.4854 Z0.1845
X31.6456 Y0.4827 Z0.1848
X31.645 Y0.48 Z0.1854
X31.6442 Y0.4774 Z0.1861
X31.6434 Y0.4749 Z0.1869
X31.6423 Y0.4725 Z0.1879
X31.6412 Y0.4702 Z0.1891
X31.6401 Y0.468 Z0.1904
X31.6388 Y0.4659 Z0.1918
X31.6375 Y0.464 Z0.1934
X31.6361 Y0.4622 Z0.1951
X31.6348 Y0.4605 Z0.1969
X31.6334 Y0.459 Z0.1988
X31.6321 Y0.4576 Z0.2008
X31.6308 Y0.4564 Z0.203
X31.6295 Y0.4553 Z0.2052
X31.6283 Y0.4543 Z0.2075
X31.6272 Y0.4534 Z0.21
X31.6261 Y0.4526 Z0.2124
X31.6252 Y0.452 Z0.215
X31.6244 Y0.4514 Z0.2176
X31.6236 Y0.451 Z0.2203
X31.623 Y0.4506 Z0.223
X31.6226 Y0.4503 Z0.2258
X31.6222 Y0.4501 Z0.2285
X31.622 Y0.45 Z0.2313
Z0.2341
G0 Z0.8341
X33.3476 Y1.0889
Z0.5293
G1 Z0.4075 F50.
Y1.0886 Z0.4021 F100.
Y1.0878 Z0.3968
Y1.0863 Z0.3917
Y1.0844 Z0.3867
Y1.0819 Z0.3819
Y1.0789 Z0.3775
Y1.0755 Z0.3734
Y1.0716 Z0.3697
Y1.0674 Z0.3664
X33.3477 Y1.0628 Z0.3636
Y1.058 Z0.3613
Y1.0529 Z0.3595
Y1.0477 Z0.3583
Y1.0424 Z0.3576
X33.3533 Y-1.2396 Z0.198
Y-1.2421 Z0.1979
X33.3536 Y-1.2536 Z0.197
X33.3538 Y-1.259 Z0.1967
X33.3542 Y-1.2659 Z0.1962
X33.1838 Z0.1843
X33.1803 Z0.1841
X33.0464
X33.0468 Y-1.2592
X33.0471 Y-1.2537
X33.0473 Y-1.2421
X33.0474 Y-1.2395
X33.0578 Y4.7341
X33.3387
X33.3533 Y-1.2396
Y-1.2421
X33.3536 Y-1.2536
X33.3538 Y-1.259
X33.3542 Y-1.2659
X33.1803
X33.1775 Y-1.2657 Z0.1842
X33.1747 Y-1.2654 Z0.1845
X33.172 Y-1.265 Z0.1848
X33.1693 Y-1.2644 Z0.1854
X33.1667 Y-1.2636 Z0.1861
X33.1642 Y-1.2627 Z0.1869
X33.1617 Y-1.2617 Z0.1879
X33.1594 Y-1.2606 Z0.1891
X33.1572 Y-1.2594 Z0.1904
X33.1552 Y-1.2582 Z0.1918
X33.1532 Y-1.2569 Z0.1934
X33.1514 Y-1.2555 Z0.1951
X33.1498 Y-1.2542 Z0.1969
X33.1483 Y-1.2528 Z0.1988
X33.1469 Y-1.2515 Z0.2008
X33.1456 Y-1.2502 Z0.203
X33.1445 Y-1.2489 Z0.2052
X33.1435 Y-1.2477 Z0.2075
X33.1426 Y-1.2466 Z0.21
X33.1419 Y-1.2455 Z0.2124
X33.1412 Y-1.2446 Z0.215
X33.1407 Y-1.2438 Z0.2176
X33.1402 Y-1.2431 Z0.2203
X33.1398 Y-1.2425 Z0.223
X33.1396 Y-1.242 Z0.2258
X33.1394 Y-1.2416 Z0.2285
X33.1392 Y-1.2414 Z0.2313
Z0.2341
G0 Z0.8341
X34.7506 Y1.9674
Z0.5293
G1 Z0.4075 F50.
Y1.9677 Z0.4021 F100.
Y1.9685 Z0.3968
Y1.9699 Z0.3917
Y1.9719 Z0.3867
Y1.9744 Z0.3819
Y1.9774 Z0.3775
Y1.9808 Z0.3734
Y1.9847 Z0.3697
X34.7505 Y1.9889 Z0.3664
Y1.9935 Z0.3636
Y1.9983 Z0.3613
Y2.0034 Z0.3595
Y2.0086 Z0.3583
Y2.0139 Z0.3576
X34.7448 Y4.338 Z0.1951
G2 X34.7799 Y4.3731 Z0.1912 I0.035 J0.0001
G1 X34.7984 Z0.1899
G2 X34.8335 Y4.3379 Z0.1861 I0. J-0.035
G1 X34.8334 Y4.3121 Z0.1843
Y4.3086 Z0.1841
X34.8218 Y1.1525
G2 X34.7831 Y1.1299 I-0.026 J0.0001
G3 X34.7668 Y1.1386 I-0.2627 J-0.4727
G2 X34.7526 Y1.1617 I0.0118 J0.0232
G1 X34.7448 Y4.338
G2 X34.7799 Y4.3731 I0.035 J0.0001
G1 X34.7984
G2 X34.8335 Y4.3379 I0. J-0.035
G1 X34.8334 Y4.3086
G3 X34.9229 Y4.1733 I0.1462 J-0.0005
G2 X35.0124 Y4.038 I-0.0567 J-0.1348
G1 X35.001 Y0.9396
G2 X34.979 Y0.8831 I-0.0844 J0.0003
G3 X34.925 Y0.81 I0.3294 J-0.2997
G2 X34.8641 I-0.0305 J0.0182
G3 X34.6355 Y0.9997 I-0.3821 J-0.2277
G2 X34.5727 Y1.0895 I0.0332 J0.09
G1 X34.5644 Y4.4893
G2 X34.6281 Y4.5531 I0.0637 J0.0002
G1 X34.9505
G2 X35.014 Y4.4893 I0. J-0.0636
G1 X35.0124 Y4.038
G3 X35.1024 Y3.9019 I0.1471 J-0.0005
G2 X35.1924 Y3.7658 I-0.0571 J-0.1355
G1 X35.1816 Y0.8148
X35.1771 Y0.8123
X35.1719 Y0.8093
X35.1687 Y0.8074
X35.1676 Y0.8068
X35.1642 Y0.8046
X35.1584 Y0.8007
X35.1526 Y0.7967
X35.1469 Y0.7924
X35.1423 Y0.7888
X35.139 Y0.7861
X35.1331 Y0.7811
X35.125 Y0.7735
X35.119 Y0.7677
X35.1152 Y0.7637
X35.1112 Y0.7594
X35.1072 Y0.7548
X35.1034 Y0.7502
X35.0997 Y0.7456
X35.097 Y0.7421
X35.0953 Y0.7398
X35.0924 Y0.7358
X35.0885 Y0.73
X35.0847 Y0.7242
X35.0812 Y0.7185
X35.0783 Y0.7134
X35.076 Y0.7092
X35.073 Y0.7034
X35.0695 Y0.6962
X35.0665 Y0.6897
X35.0641 Y0.6839
X35.0618 Y0.6781
X35.0597 Y0.6724
X35.0577 Y0.6666
X35.0559 Y0.6608
X35.0542 Y0.6548
X35.0525 Y0.6484
X35.0506 Y0.6398
X35.0485 Y0.6289
X35.0472 Y0.6205
X35.0465 Y0.6147
X35.0459 Y0.609
X35.0455 Y0.6032
X35.0451 Y0.5956
X35.0449 Y0.584
Y0.5821
X35.0382 Y-1.2388
X35.0383 Y-1.2427
X35.0386 Y-1.2542
X35.0389 Y-1.2606
X35.0393 Y-1.2659
X34.748
X34.7484 Y-1.2602
X34.7487 Y-1.2541
X34.749 Y-1.2426
Y-1.239
X34.7446 Y0.5819
Y0.5843
X34.7443 Y0.5958
X34.7439 Y0.6038
X34.7434 Y0.6095
X34.7428 Y0.6154
X34.742 Y0.6215
X34.7412 Y0.6274
X34.7402 Y0.633
X34.7391 Y0.6386
X34.7378 Y0.6442
X34.7364 Y0.6499
X34.7349 Y0.6556
X34.7332 Y0.6614
X34.7314 Y0.6672
X34.7294 Y0.6729
X34.7273 Y0.6787
X34.725 Y0.6844
X34.7225 Y0.6902
X34.7206 Y0.6945
X34.7192 Y0.6974
X34.7163 Y0.7032
X34.7117 Y0.7118
X34.7077 Y0.7188
X34.7044 Y0.7241
X34.701 Y0.7295
X34.6973 Y0.7348
X34.6952 Y0.7379
X34.6945 Y0.7387
X34.692 Y0.7421
X34.6876 Y0.7478
X34.6828 Y0.7536
X34.6778 Y0.7594
X34.6745 Y0.763
X34.6731 Y0.7645
X34.6698 Y0.7679
X34.6644 Y0.7732
X34.659 Y0.7782
X34.6536 Y0.7829
X34.6505 Y0.7856
X34.6497 Y0.7862
X34.6465 Y0.7888
X34.6407 Y0.7933
X34.6349 Y0.7975
X34.6292 Y0.8015
X34.6243 Y0.8047
X34.6204 Y0.8071
X34.6146 Y0.8105
X34.607 Y0.8147
X34.6003 Y0.8182
X34.5946 Y0.821
X34.5888 Y0.8236
X34.583 Y0.826
X34.5773 Y0.8283
X34.5717 Y0.8304
X34.5659 Y0.8323
X34.56 Y0.8342
X34.5542 Y0.8359
X34.5484 Y0.8374
X34.5426 Y0.8388
X34.5369 Y0.8401
X34.5311 Y0.8412
X34.5253 Y0.8422
X34.5196 Y0.843
X34.5138 Y0.8437
X34.508 Y0.8443
X34.5023 Y0.8448
X34.4965 Y0.8451
X34.4907 Y0.8453
X34.4859 Y0.8454
X34.3923 Y0.8452
X34.3828 Y4.7341
X35.1959
X35.1924 Y3.7658
X35.1922 Y3.763 Z0.1842
X35.1919 Y3.7602 Z0.1845
X35.1914 Y3.7575 Z0.1848
X35.1908 Y3.7548 Z0.1854
X35.19 Y3.7522 Z0.1861
X35.1891 Y3.7497 Z0.1869
X35.1881 Y3.7473 Z0.1879
X35.187 Y3.745 Z0.1891
X35.1858 Y3.7428 Z0.1904
X35.1846 Y3.7407 Z0.1918
X35.1833 Y3.7388 Z0.1934
X35.1819 Y3.737 Z0.1951
X35.1805 Y3.7354 Z0.1969
X35.1792 Y3.7338 Z0.1988
X35.1778 Y3.7325 Z0.2008
X35.1765 Y3.7312 Z0.203
X35.1753 Y3.7301 Z0.2052
X35.1741 Y3.7291 Z0.2075
X35.1729 Y3.7282 Z0.21
X35.1719 Y3.7275 Z0.2124
X35.1709 Y3.7268 Z0.215
X35.1701 Y3.7263 Z0.2176
X35.1694 Y3.7258 Z0.2203
X35.1688 Y3.7255 Z0.223
X35.1683 Y3.7252 Z0.2258
X35.168 Y3.725 Z0.2285
X35.1678 Y3.7249 Z0.2313
X35.1677 Y3.7248 Z0.2341
G0 Z0.8341
X36.5851 Y1.9524
Z0.5293
G1 Z0.4075 F50.
Y1.9527 Z0.4021 F100.
Y1.9535 Z0.3968
Y1.9549 Z0.3917
Y1.9569 Z0.3867
Y1.9594 Z0.3819
Y1.9624 Z0.3775
Y1.9658 Z0.3734
X36.5852 Y1.9697 Z0.3697
Y1.9739 Z0.3664
Y1.9785 Z0.3636
Y1.9833 Z0.3613
Y1.9883 Z0.3595
Y1.9936 Z0.3583
X36.5853 Y1.9989 Z0.3576
X36.5938 Y4.3382 Z0.194
G2 X36.6289 Y4.3731 Z0.1902 I0.035 J-0.0001
G1 X36.6373 Z0.1896
G2 X36.6723 Y4.3377 Z0.1857 I0. J-0.035
G1 X36.6721 Y4.3169 Z0.1843
X36.672 Y4.3135 Z0.1841
X36.6372 Y1.0925
G2 X36.6276 Y1.0725 I-0.026 J0.0003
G1 X36.6245 Y1.07
G2 X36.5819 Y1.0902 I-0.0165 J0.0201
G1 X36.5938 Y4.3382
G2 X36.6289 Y4.3731 I0.035 J-0.0001
G1 X36.6373
G2 X36.6723 Y4.3377 I0. J-0.035
G1 X36.672 Y4.3135
G3 X36.7606 Y4.1775 I0.1462 J-0.0016
G2 X36.8491 Y4.0415 I-0.0577 J-0.1344
G1 X36.8169 Y1.0677
G2 X36.7525 Y0.9417 I-0.1588 J0.0017
G3 X36.6347 Y0.8085 I0.2536 J-0.3431
G2 X36.5738 Y0.8081 I-0.0306 J0.0174
G3 X36.5247 Y0.8754 I-0.3639 J-0.2134
X36.4637 Y0.9322 I-0.3327 J-0.2966
G2 X36.4018 Y1.0584 I0.0966 J0.1257
G1 X36.4144 Y4.4892
G2 X36.4785 Y4.5531 I0.0642 J-0.0002
G1 X36.7909
G2 X36.854 Y4.4894 I0. J-0.063
G1 X36.8491 Y4.0415
G3 X36.9381 Y3.9048 I0.1471 J-0.0016
G2 X37.0272 Y3.7681 I-0.058 J-0.1351
G1 X36.9956 Y0.8481
X36.9933 Y0.8479
X36.9875 Y0.8473
X36.9817 Y0.8465
X36.9759 Y0.8457
X36.9702 Y0.8447
X36.9644 Y0.8435
X36.9586 Y0.8423
X36.9529 Y0.8409
X36.9471 Y0.8393
X36.9413 Y0.8377
X36.9356 Y0.8358
X36.9298 Y0.8338
X36.9238 Y0.8316
X36.9175 Y0.8291
X36.9116 Y0.8266
X36.9061 Y0.824
X36.9006 Y0.8214
X36.8951 Y0.8185
X36.8898 Y0.8156
X36.8847 Y0.8127
X36.8797 Y0.8096
X36.8746 Y0.8064
X36.8714 Y0.8043
X36.87 Y0.8033
X36.8663 Y0.8007
X36.8606 Y0.7965
X36.8548 Y0.792
X36.849 Y0.7873
X36.8453 Y0.7841
X36.8435 Y0.7825
X36.84 Y0.7793
X36.8349 Y0.7744
X36.83 Y0.7694
X36.8254 Y0.7645
X36.8224 Y0.7612
X36.8209 Y0.7595
X36.8178 Y0.7558
X36.8131 Y0.75
X36.8087 Y0.7443
X36.8045 Y0.7385
X36.8018 Y0.7347
X36.8006 Y0.7329
X36.7985 Y0.7296
X36.7954 Y0.7247
X36.7925 Y0.7199
X36.7898 Y0.715
X36.7869 Y0.7097
X36.784 Y0.7039
X36.7811 Y0.6979
X36.7783 Y0.6917
X36.7759 Y0.6858
X36.7737 Y0.6803
X36.7717 Y0.6748
X36.7699 Y0.6692
X36.7681 Y0.6636
X36.7664 Y0.6578
X36.7649 Y0.6521
X36.7636 Y0.6463
X36.7623 Y0.6405
X36.7612 Y0.6348
X36.7603 Y0.629
X36.7594 Y0.6232
X36.7587 Y0.6175
X36.7582 Y0.6117
X36.7577 Y0.606
X36.7574 Y0.6002
X36.7572 Y0.5947
X36.7568 Y0.5601
Y0.56
X36.7375 Y-1.2264
Y-1.2269
Y-1.2275
Y-1.239
Y-1.2437
X36.7379 Y-1.2552
X36.7383 Y-1.2616
X36.7386 Y-1.2659
X36.4471
X36.4476 Y-1.2588
X36.4478 Y-1.2535
X36.448 Y-1.242
X36.4481 Y-1.2398
X36.4547 Y0.5811
X36.4546 Y0.5863
X36.4542 Y0.5978
X36.4536 Y0.6065
X36.453 Y0.6122
X36.4523 Y0.618
X36.4514 Y0.6238
X36.4505 Y0.6295
X36.4493 Y0.6353
X36.4481 Y0.6411
X36.4466 Y0.647
X36.4451 Y0.6528
X36.4434 Y0.6585
X36.4416 Y0.6642
X36.4397 Y0.6699
X36.4375 Y0.6756
X36.4352 Y0.6814
X36.4328 Y0.6872
X36.4302 Y0.6929
X36.4274 Y0.6987
X36.4244 Y0.7046
X36.4212 Y0.7104
X36.4179 Y0.716
X36.4144 Y0.7217
X36.4106 Y0.7275
X36.4065 Y0.7335
X36.402 Y0.7396
X36.3975 Y0.7454
X36.3929 Y0.751
X36.388 Y0.7566
X36.3828 Y0.7622
X36.3793 Y0.7658
X36.3775 Y0.7676
X36.3739 Y0.7711
X36.3683 Y0.7762
X36.3625 Y0.7813
X36.3566 Y0.7861
X36.3507 Y0.7907
X36.345 Y0.7949
X36.3392 Y0.7988
X36.3334 Y0.8026
X36.3277 Y0.8061
X36.322 Y0.8094
X36.3162 Y0.8126
X36.3104 Y0.8155
X36.3046 Y0.8183
X36.2988 Y0.8209
X36.293 Y0.8234
X36.2873 Y0.8256
X36.2815 Y0.8278
X36.2757 Y0.8297
X36.2699 Y0.8316
X36.264 Y0.8333
X36.2583 Y0.8348
X36.2525 Y0.8362
X36.2468 Y0.8374
X36.2411 Y0.8385
X36.2354 Y0.8395
X36.2296 Y0.8403
X36.2238 Y0.841
X36.22 Y0.8414
X36.2343 Y4.7341
X37.0376
X37.0272 Y3.7681
X37.027 Y3.7653 Z0.1842
X37.0266 Y3.7625 Z0.1845
X37.0261 Y3.7598 Z0.1848
X37.0255 Y3.7571 Z0.1854
X37.0247 Y3.7545 Z0.1861
X37.0238 Y3.752 Z0.1869
X37.0228 Y3.7496 Z0.1879
X37.0217 Y3.7473 Z0.1891
X37.0204 Y3.7451 Z0.1904
X37.0192 Y3.743 Z0.1918
X37.0178 Y3.7411 Z0.1934
X37.0165 Y3.7394 Z0.1951
X37.0151 Y3.7377 Z0.1969
X37.0137 Y3.7362 Z0.1988
X37.0124 Y3.7348 Z0.2008
X37.011 Y3.7336 Z0.203
X37.0098 Y3.7325 Z0.2052
X37.0086 Y3.7315 Z0.2075
X37.0074 Y3.7306 Z0.21
X37.0064 Y3.7299 Z0.2124
X37.0054 Y3.7293 Z0.215
X37.0046 Y3.7287 Z0.2176
X37.0039 Y3.7283 Z0.2203
X37.0033 Y3.7279 Z0.223
X37.0028 Y3.7276 Z0.2258
X37.0025 Y3.7274 Z0.2285
X37.0023 Y3.7273 Z0.2313
X37.0022 Z0.2341
G0 Z0.8341
X38.4306 Y1.1985
Z0.5293
G1 Z0.4075 F50.
Y1.1982 Z0.4021 F100.
Y1.1973 Z0.3968
Y1.1959 Z0.3916
Y1.1939 Z0.3866
Y1.1914 Z0.3818
Y1.1884 Z0.3774
X38.4305 Y1.1849 Z0.3733
Y1.181 Z0.3695
Y1.1768 Z0.3663
Y1.1722 Z0.3635
X38.4304 Y1.1673 Z0.3612
Y1.1622 Z0.3594
Y1.157 Z0.3582
X38.4302 Y1.1545 Z0.3578
X38.4297 Y1.152 Z0.3576
G2 X38.4216 Y1.1412 Z0.3566 I-0.018 J0.0051
G1 X38.4203 Y1.1405 Z0.3565
X38.4165 Y1.1386 Z0.3562
G2 X38.3893 Y1.1553 Z0.3535 I-0.0086 J0.0166
G1 X38.402 Y2.3316 Z0.2713
G2 X38.4369 Y2.3313 Z0.2675 I0.0175 J-0.0002
G1 X38.4304 Y1.157 Z0.1853
G2 X38.4243 Y1.1433 Z0.1843 I-0.0187 J0.0001
G1 X38.423 Y1.1422 Z0.1842
X38.4216 Y1.1412 Z0.1841
X38.4203 Y1.1405
X38.4165 Y1.1386
G2 X38.3893 Y1.1553 I-0.0086 J0.0166
G1 X38.402 Y2.3316
G2 X38.4369 Y2.3313 I0.0175 J-0.0002
G1 X38.4304 Y1.157
G2 X38.4216 Y1.1412 I-0.0187 J0.0001
G3 X38.327 Y1.0583 I0.2013 J-0.3249
G2 X38.2087 Y1.1012 I-0.0516 J0.0422
G1 X38.2454 Y4.4902
G2 X38.3088 Y4.5529 I0.0634 J-0.0007
G1 X38.5668
G2 X38.629 Y4.4904 I0. J-0.0622
G1 X38.61 Y1.0891
G2 X38.5478 Y1.0002 I-0.0953 J0.0005
G3 X38.3262 Y0.8184 I0.1522 J-0.4114
G2 X38.2643 Y0.8177 I-0.0312 J0.0189
G3 X38.2272 Y0.8674 I-0.3505 J-0.2229
G2 X38.2068 Y0.9228 I0.0623 J0.0545
G1 X38.2087 Y1.1012
G3 X38.1196 Y1.238 I-0.1472 J0.0016
G2 X38.0305 Y1.3749 I0.0581 J0.1353
G1 X38.0668 Y4.7341
X38.8115
X38.7898 Y0.8463
X38.7088 Y0.8467
G3 X38.6958 Y0.8466 I-0.0014 J-1.0077
G1 X38.6886 Y0.8464
X38.6828 Y0.846
X38.677 Y0.8456
X38.6713 Y0.8449
X38.6655 Y0.8442
X38.6597 Y0.8433
X38.654 Y0.8423
X38.6482 Y0.8412
X38.6424 Y0.8399
X38.6367 Y0.8385
X38.6309 Y0.8369
X38.6251 Y0.8352
X38.6191 Y0.8333
X38.613 Y0.8311
X38.6072 Y0.829
X38.6018 Y0.8268
X38.5963 Y0.8244
X38.5905 Y0.8218
X38.5847 Y0.819
X38.579 Y0.816
X38.5729 Y0.8126
X38.5666 Y0.8089
X38.5608 Y0.8053
X38.5556 Y0.8018
X38.5504 Y0.7982
X38.5452 Y0.7944
X38.54 Y0.7903
X38.5348 Y0.7861
X38.5316 Y0.7835
X38.5305 Y0.7825
X38.5273 Y0.7796
X38.5219 Y0.7746
X38.5165 Y0.7693
X38.5112 Y0.7637
X38.5081 Y0.7604
X38.5073 Y0.7595
X38.5046 Y0.7564
X38.5002 Y0.7511
X38.496 Y0.7458
X38.492 Y0.7405
X38.4885 Y0.7356
X38.4854 Y0.731
X38.4816 Y0.7253
X38.4774 Y0.7183
X38.4738 Y0.7119
X38.4707 Y0.7062
X38.4678 Y0.7004
X38.4651 Y0.6946
X38.463 Y0.69
X38.4615 Y0.6864
X38.4592 Y0.6807
X38.4563 Y0.6727
X38.454 Y0.6658
X38.4522 Y0.6601
X38.4506 Y0.6543
X38.4491 Y0.6485
X38.4478 Y0.6428
X38.4465 Y0.637
X38.4455 Y0.6312
X38.4445 Y0.6255
X38.4437 Y0.6197
X38.4431 Y0.6139
X38.4425 Y0.6082
X38.4421 Y0.6024
X38.4418 Y0.5953
G3 X38.4416 Y0.5823 I0.9634 J-0.0215
G1 X38.4315 Y-1.2271
Y-1.2273
X38.4314 Y-1.2388
X38.4315 Y-1.2429
X38.4318 Y-1.2545
X38.4322 Y-1.2609
X38.4326 Y-1.2659
X38.1325
X38.1329 Y-1.2576
X38.1331 Y-1.2531
X38.1333 Y-1.2416
Y-1.2411
Y-1.2407
X38.1529 Y0.5687
Y0.5692
X38.153 Y0.5807
X38.1529 Y0.5866
X38.1526 Y0.5924
X38.1523 Y0.5981
X38.1518 Y0.6039
X38.1512 Y0.6097
X38.1505 Y0.6154
X38.1496 Y0.6212
X38.1486 Y0.627
X38.1474 Y0.6327
X38.1462 Y0.6385
X38.1448 Y0.6443
X38.1432 Y0.65
X38.1416 Y0.6556
X38.1399 Y0.661
X38.1379 Y0.6668
X38.1356 Y0.6729
X38.1332 Y0.6788
X38.1308 Y0.6846
X38.1281 Y0.6904
X38.1253 Y0.6961
X38.1219 Y0.7026
X38.1179 Y0.7098
X38.1145 Y0.7155
X38.1118 Y0.7199
X38.1085 Y0.7249
X38.1044 Y0.7307
X38.1001 Y0.7367
X38.0953 Y0.7428
X38.0904 Y0.7486
X38.0855 Y0.7542
X38.0802 Y0.7598
X38.0747 Y0.7654
X38.0714 Y0.7686
X38.0703 Y0.7696
X38.0669 Y0.7727
X38.0611 Y0.7778
X38.0554 Y0.7825
X38.0496 Y0.787
X38.046 Y0.7897
X38.0446 Y0.7907
X38.0414 Y0.7929
X38.0363 Y0.7964
X38.0312 Y0.7997
X38.0262 Y0.8028
X38.0243 Y0.8039
X38.0305 Y1.3749
X38.0306 Y1.3777 Z0.1842
X38.031 Y1.3805 Z0.1845
X38.0315 Y1.3832 Z0.1848
X38.0321 Y1.3859 Z0.1854
X38.0329 Y1.3885 Z0.1861
X38.0338 Y1.391 Z0.1869
X38.0348 Y1.3934 Z0.1879
X38.036 Y1.3957 Z0.1891
X38.0372 Y1.3979 Z0.1904
X38.0384 Y1.3999 Z0.1918
X38.0398 Y1.4018 Z0.1934
X38.0411 Y1.4036 Z0.1951
X38.0425 Y1.4053 Z0.1969
X38.0439 Y1.4068 Z0.1988
X38.0452 Y1.4081 Z0.2008
X38.0466 Y1.4094 Z0.203
X38.0478 Y1.4105 Z0.2052
X38.049 Y1.4115 Z0.2075
X38.0502 Y1.4123 Z0.21
X38.0512 Y1.4131 Z0.2124
X38.0522 Y1.4137 Z0.215
X38.053 Y1.4143 Z0.2176
X38.0537 Y1.4147 Z0.2203
X38.0543 Y1.4151 Z0.223
X38.0548 Y1.4154 Z0.2258
X38.0551 Y1.4156 Z0.2285
X38.0554 Y1.4157 Z0.2313
Z0.2341
G0 Z0.8341
X40.1375 Y1.0845
Z0.5293
G1 Z0.4075 F50.
Y1.0842 Z0.4021 F100.
Y1.0833 Z0.3968
Y1.0819 Z0.3917
Y1.0799 Z0.3867
Y1.0775 Z0.3819
Y1.0745 Z0.3775
Y1.071 Z0.3734
Y1.0672 Z0.3697
Y1.0629 Z0.3664
Y1.0584 Z0.3636
Y1.0535 Z0.3613
Y1.0485 Z0.3595
Y1.0433 Z0.3583
Y1.038 Z0.3576
X40.1383 Y-1.2394 Z0.1984
Y-1.2422 Z0.1982
X40.1386 Y-1.2538 Z0.1973
X40.1388 Y-1.2595 Z0.1969
X40.1392 Y-1.2659 Z0.1965
X39.9643 Z0.1843
X39.9609 Z0.1841
X39.8219
X39.8223 Y-1.2585
X39.8225 Y-1.2534
G3 X39.8228 Y-1.24 I-0.8181 J0.0223
G1 X39.8561 Y4.7341
X40.1362
X40.1383 Y-1.2394
Y-1.2422
X40.1386 Y-1.2538
X40.1388 Y-1.2595
X40.1392 Y-1.2659
X39.9609
X39.9581 Y-1.2657 Z0.1842
X39.9553 Y-1.2654 Z0.1845
X39.9525 Y-1.265 Z0.1848
X39.9499 Y-1.2644 Z0.1854
X39.9473 Y-1.2636 Z0.1861
X39.9447 Y-1.2627 Z0.1869
X39.9423 Y-1.2617 Z0.1879
X39.94 Y-1.2606 Z0.1891
X39.9378 Y-1.2594 Z0.1904
X39.9357 Y-1.2582 Z0.1918
X39.9338 Y-1.2569 Z0.1934
X39.932 Y-1.2555 Z0.1951
X39.9304 Y-1.2542 Z0.1969
X39.9288 Y-1.2528 Z0.1988
X39.9275 Y-1.2515 Z0.2008
X39.9262 Y-1.2502 Z0.203
X39.9251 Y-1.2489 Z0.2052
X39.9241 Y-1.2477 Z0.2075
X39.9232 Y-1.2466 Z0.21
X39.9225 Y-1.2455 Z0.2124
X39.9218 Y-1.2446 Z0.215
X39.9212 Y-1.2438 Z0.2176
X39.9208 Y-1.2431 Z0.2203
X39.9204 Y-1.2425 Z0.223
X39.9201 Y-1.242 Z0.2258
X39.9199 Y-1.2416 Z0.2285
X39.9198 Y-1.2414 Z0.2313
Z0.2341
G0 Z0.8341
X41.5546 Y1.983
Z0.5293
G1 Z0.4075 F50.
Y1.9833 Z0.4021 F100.
Y1.9842 Z0.3968
Y1.9856 Z0.3917
Y1.9876 Z0.3867
Y1.99 Z0.3819
Y1.993 Z0.3775
Y1.9965 Z0.3734
Y2.0003 Z0.3697
X41.5545 Y2.0046 Z0.3664
Y2.0091 Z0.3636
Y2.014 Z0.3613
Y2.019 Z0.3595
Y2.0242 Z0.3583
Y2.0295 Z0.3576
X41.5537 Y4.326 Z0.197
G2 X41.6008 Y4.3731 Z0.1918 I0.0471 J0.
G1 X41.6125 Z0.191
G2 X41.6596 Y4.3257 Z0.1858 I0. J-0.0471
G1 X41.6594 Y4.3033 Z0.1843
Y4.2998 Z0.1841
X41.6375 Y1.1646
G2 X41.5824 Y1.1319 I-0.0374 J0.0003
G1 X41.5739 Y1.1363
G2 X41.5548 Y1.1675 I0.016 J0.0312
G1 X41.5537 Y4.326
G2 X41.6008 Y4.3731 I0.0471 J0.
G1 X41.6125
G2 X41.6596 Y4.3257 I0. J-0.0471
G1 X41.6594 Y4.2998
G3 X41.7485 Y4.1642 I0.1462 J-0.001
G2 X41.8375 Y4.0286 I-0.0572 J-0.1346
G1 X41.8161 Y0.9631
G2 X41.7855 Y0.8866 I-0.1129 J0.0008
G3 X41.7552 Y0.8501 I0.2868 J-0.2691
X41.729 Y0.8104 I0.3819 J-0.28
G2 X41.6679 Y0.8102 I-0.0306 J0.018
G3 X41.4375 Y0.9997 I-0.3793 J-0.2265
G2 X41.3749 Y1.0889 I0.0323 J0.0892
G1 X41.3737 Y4.4892
G2 X41.4375 Y4.5531 I0.0638 J0.
G1 X41.7774
G2 X41.8407 Y4.4893 I0. J-0.0633
G1 X41.8375 Y4.0286
G3 X41.9271 Y3.8922 I0.1471 J-0.001
G2 X42.0166 Y3.7558 I-0.0575 J-0.1354
G1 X41.9961 Y0.8214
X41.9942 Y0.8204
X41.9884 Y0.8175
X41.9826 Y0.8143
X41.9769 Y0.811
X41.9728 Y0.8086
X41.9704 Y0.8071
X41.9646 Y0.8032
X41.9555 Y0.7968
X41.9516 Y0.794
X41.9478 Y0.791
X41.9416 Y0.7859
X41.9358 Y0.7809
X41.9305 Y0.776
X41.9247 Y0.7702
X41.9183 Y0.7636
X41.9126 Y0.7572
X41.9074 Y0.7509
X41.9028 Y0.7452
X41.8989 Y0.7399
X41.895 Y0.7343
X41.8911 Y0.7286
X41.8873 Y0.7225
X41.8836 Y0.7161
X41.8803 Y0.7102
X41.8775 Y0.7047
X41.8748 Y0.6993
X41.8723 Y0.6938
X41.8698 Y0.6882
X41.8675 Y0.6825
X41.8653 Y0.6767
X41.8633 Y0.6709
X41.8613 Y0.665
X41.8595 Y0.659
X41.8579 Y0.6533
X41.8566 Y0.6478
X41.8553 Y0.6421
X41.8541 Y0.6364
X41.8531 Y0.6306
X41.8522 Y0.6248
X41.8514 Y0.6191
X41.8508 Y0.6133
X41.8502 Y0.6075
X41.8499 Y0.6018
X41.8496 Y0.5951
X41.8494 Y0.5835
Y0.583
Y0.5825
X41.8368 Y-1.2269
Y-1.2273
X41.8367 Y-1.2388
X41.8368 Y-1.2431
X41.8371 Y-1.2547
X41.8375 Y-1.2612
X41.8379 Y-1.2659
X41.5487
X41.5492 Y-1.2591
X41.5494 Y-1.2538
X41.5497 Y-1.2423
Y-1.2393
X41.5491 Y0.5817
X41.549 Y0.5844
X41.5488 Y0.5949
X41.5486 Y0.6003
X41.5485 Y0.6013
X41.5483 Y0.6047
X41.5477 Y0.6104
X41.5471 Y0.6162
X41.5463 Y0.622
X41.5454 Y0.6277
X41.5444 Y0.6335
X41.5432 Y0.6392
X41.5419 Y0.645
X41.5405 Y0.6508
X41.5389 Y0.6565
X41.5371 Y0.6623
X41.5352 Y0.6681
X41.5333 Y0.6736
X41.5312 Y0.6791
X41.5289 Y0.6848
X41.5262 Y0.6909
X41.5235 Y0.6969
X41.5206 Y0.7026
X41.5176 Y0.7084
X41.5144 Y0.7142
X41.5102 Y0.7211
X41.5051 Y0.7291
X41.5012 Y0.7348
X41.4987 Y0.7383
X41.4953 Y0.7428
X41.491 Y0.7482
X41.4865 Y0.7536
X41.4818 Y0.759
X41.479 Y0.762
X41.4783 Y0.7628
X41.4753 Y0.7659
X41.4699 Y0.7713
X41.4645 Y0.7764
X41.4591 Y0.7812
X41.4555 Y0.7842
X41.4539 Y0.7855
X41.4507 Y0.7881
X41.4457 Y0.792
X41.4407 Y0.7956
X41.4358 Y0.7991
X41.4299 Y0.803
X41.4232 Y0.8072
X41.4174 Y0.8106
X41.4126 Y0.8132
X41.4073 Y0.816
X41.4016 Y0.8189
X41.3958 Y0.8216
X41.39 Y0.8241
X41.3823 Y0.8271
X41.3727 Y0.8306
X41.3669 Y0.8326
X41.365 Y0.8332
X41.3612 Y0.8343
X41.3554 Y0.8359
X41.3496 Y0.8373
X41.3439 Y0.8386
X41.3381 Y0.8398
X41.3323 Y0.8409
X41.3266 Y0.8418
X41.3208 Y0.8425
X41.315 Y0.8432
X41.3093 Y0.8437
X41.3035 Y0.8441
X41.2977 Y0.8443
X41.2921 Y0.8445
X41.269
X41.2688
X41.194
X41.1926 Y4.7341
X42.0234
X42.0166 Y3.7558
X42.0164 Y3.753 Z0.1842
X42.0161 Y3.7502 Z0.1845
X42.0156 Y3.7475 Z0.1848
X42.015 Y3.7448 Z0.1854
X42.0142 Y3.7422 Z0.1861
X42.0133 Y3.7397 Z0.1869
X42.0123 Y3.7373 Z0.1879
X42.0112 Y3.735 Z0.1891
X42.01 Y3.7328 Z0.1904
X42.0087 Y3.7308 Z0.1918
X42.0074 Y3.7288 Z0.1934
X42.006 Y3.7271 Z0.1951
X42.0047 Y3.7254 Z0.1969
X42.0033 Y3.7239 Z0.1988
X42.0019 Y3.7225 Z0.2008
X42.0006 Y3.7213 Z0.203
X41.9994 Y3.7202 Z0.2052
X41.9982 Y3.7192 Z0.2075
X41.997 Y3.7183 Z0.21
X41.996 Y3.7176 Z0.2124
X41.995 Y3.7169 Z0.215
X41.9942 Y3.7164 Z0.2176
X41.9935 Y3.7159 Z0.2203
X41.9929 Y3.7155 Z0.223
X41.9924 Y3.7153 Z0.2258
X41.9921 Y3.7151 Z0.2285
X41.9919 Y3.715 Z0.2313
X41.9918 Y3.7149 Z0.2341
G0 Z0.8341
X43.5198 Y3.6543
Z0.5293
G1 Z0.4075 F50.
Y3.654 Z0.4021 F100.
Y3.6531 Z0.3968
Y3.6517 Z0.3917
Y3.6498 Z0.3867
Y3.6473 Z0.3819
Y3.6443 Z0.3775
X43.5197 Y3.6408 Z0.3734
Y3.637 Z0.3697
Y3.6328 Z0.3664
Y3.6282 Z0.3636
Y3.6234 Z0.3613
Y3.6183 Z0.3595
Y3.6131 Z0.3583
X43.5196 Y3.6078 Z0.3576
X43.511 Y1.1435 Z0.1853
G2 X43.5058 Y1.1304 Z0.1843 I-0.0193 J0.0001
G1 X43.5045 Y1.1291 Z0.1842
X43.5032 Y1.128 Z0.1841
X43.5013 Y1.1268
X43.4944 Y1.1229
G2 X43.4655 Y1.1397 I-0.0097 J0.0167
G1 X43.4844 Y3.8473
G2 X43.5205 Y3.8471 I0.018 J-0.0001
G1 X43.511 Y1.1435
G2 X43.5032 Y1.128 I-0.0193 J0.0001
G3 X43.4548 Y0.9712 I0.0817 J-0.1111
G2 X43.3148 Y0.8854 I-0.0792 J-0.0279
X43.2842 Y0.9625 I0.0801 J0.0764
G1 X43.3089 Y4.4902
G2 X43.372 Y4.5529 I0.0631 J-0.0004
G1 X43.6404
G2 X43.7027 Y4.4904 I0. J-0.0623
G1 X43.6908 Y1.0843
G2 X43.629 Y0.9897 I-0.1038 J0.0004
G3 X43.4304 Y0.8161 I0.179 J-0.4052
G2 X43.369 Y0.8158 I-0.0308 J0.0188
G3 X43.3151 Y0.8851 I-0.3663 J-0.2291
G1 X43.3148 Y0.8854
G3 X43.1989 Y0.9168 I-0.0838 J-0.0799
G2 X43.1032 Y0.9893 I-0.0208 J0.072
G1 X43.1294 Y4.7341
X43.8848
X43.8712 Y0.8456
X43.8071 Y0.8459
X43.8037 Y0.8458
X43.7979 Y0.8457
X43.7921 Y0.8455
X43.7864 Y0.8451
X43.7806 Y0.8445
X43.7748 Y0.8439
X43.7691 Y0.8431
X43.7633 Y0.8422
X43.7575 Y0.8412
X43.7518 Y0.84
X43.746 Y0.8387
X43.7402 Y0.8372
X43.7329 Y0.8352
X43.7241 Y0.8324
X43.7184 Y0.8304
X43.7156 Y0.8294
X43.7114 Y0.8278
X43.7056 Y0.8254
X43.6998 Y0.8229
X43.6941 Y0.8202
X43.6887 Y0.8176
X43.6837 Y0.815
X43.6787 Y0.8122
X43.6738 Y0.8093
X43.6705 Y0.8074
X43.6689 Y0.8064
X43.6652 Y0.804
X43.6595 Y0.8002
X43.6537 Y0.7961
X43.6479 Y0.7918
X43.6436 Y0.7884
X43.6407 Y0.786
X43.6371 Y0.7829
X43.6328 Y0.7791
X43.6284 Y0.7752
X43.6241 Y0.771
X43.6203 Y0.7671
X43.6169 Y0.7636
X43.613 Y0.7593
X43.6087 Y0.7545
X43.6047 Y0.7496
X43.6008 Y0.7447
X43.5983 Y0.7413
X43.597 Y0.7396
X43.5943 Y0.7359
X43.5904 Y0.7301
X43.5866 Y0.7243
X43.5831 Y0.7186
X43.58 Y0.7131
X43.5772 Y0.7081
X43.5742 Y0.7024
X43.5711 Y0.6959
X43.5683 Y0.6897
X43.5659 Y0.684
X43.5636 Y0.6782
X43.5615 Y0.6724
X43.5596 Y0.6667
X43.5577 Y0.6609
X43.5561 Y0.6552
X43.5546 Y0.6494
X43.5536 Y0.6454
X43.553 Y0.6431
X43.5519 Y0.6374
X43.5502 Y0.6281
X43.549 Y0.6206
X43.5483 Y0.6148
X43.5477 Y0.6091
X43.5473 Y0.6033
X43.5469 Y0.5956
X43.5467 Y0.5841
X43.5466 Y0.5821
X43.5403 Y-1.2389
Y-1.2427
X43.5406 Y-1.2542
X43.541 Y-1.2605
X43.5414 Y-1.2659
X43.2418
X43.2422 Y-1.2582
X43.2424 Y-1.2533
G3 X43.2426 Y-1.2402 I-0.8293 J0.0218
G1 X43.2553 Y0.5807
Y0.5849
X43.2551 Y0.5907
X43.2549 Y0.5964
X43.2545 Y0.6022
X43.2539 Y0.608
X43.2533 Y0.6137
X43.2525 Y0.6195
X43.2516 Y0.6253
X43.2505 Y0.631
X43.2493 Y0.6368
X43.248 Y0.6425
X43.2465 Y0.6483
X43.2449 Y0.6541
X43.2431 Y0.6598
X43.2412 Y0.6656
X43.2392 Y0.6714
X43.237 Y0.677
X43.2348 Y0.6824
X43.2323 Y0.6882
X43.2294 Y0.6943
X43.2265 Y0.7002
X43.2234 Y0.7059
X43.2202 Y0.7117
X43.2167 Y0.7175
X43.2139 Y0.722
X43.2117 Y0.7254
X43.2077 Y0.7312
X43.2016 Y0.7393
X43.1988 Y0.7431
X43.1958 Y0.7467
X43.1903 Y0.7531
X43.1851 Y0.7589
X43.1803 Y0.7639
X43.1745 Y0.7695
X43.1678 Y0.7757
X43.1611 Y0.7814
X43.1544 Y0.7868
X43.1486 Y0.7912
X43.1438 Y0.7946
X43.1385 Y0.7982
X43.1328 Y0.8019
X43.127 Y0.8054
X43.1212 Y0.8087
X43.1172 Y0.8108
X43.1151 Y0.812
X43.1094 Y0.8148
X43.102 Y0.8182
X43.1032 Y0.9893
X43.1034 Y0.9921 Z0.1842
X43.1037 Y0.9948 Z0.1845
X43.1042 Y0.9976 Z0.1848
X43.1049 Y1.0003 Z0.1854
X43.1056 Y1.0029 Z0.1861
X43.1065 Y1.0054 Z0.1869
X43.1075 Y1.0078 Z0.1879
X43.1087 Y1.0101 Z0.1891
X43.1099 Y1.0123 Z0.1904
X43.1111 Y1.0143 Z0.1918
X43.1125 Y1.0163 Z0.1934
X43.1138 Y1.018 Z0.1951
X43.1152 Y1.0197 Z0.1969
X43.1166 Y1.0212 Z0.1988
X43.1179 Y1.0226 Z0.2008
X43.1192 Y1.0238 Z0.203
X43.1205 Y1.0249 Z0.2052
X43.1217 Y1.0259 Z0.2075
X43.1228 Y1.0268 Z0.21
X43.1239 Y1.0275 Z0.2124
X43.1248 Y1.0282 Z0.215
X43.1256 Y1.0287 Z0.2176
X43.1264 Y1.0292 Z0.2203
X43.127 Y1.0295 Z0.223
X43.1274 Y1.0298 Z0.2258
X43.1278 Y1.03 Z0.2285
X43.128 Y1.0301 Z0.2313
X43.1281 Y1.0302 Z0.2341
G0 Z0.8341
X45.6127 Y-0.9049
Z0.2341
G1 X45.6124 Z0.2285 F100.
X45.6114 Z0.223
X45.6099 Z0.2176
X45.6078 Z0.2124
X45.605 Z0.2075
X45.6018 Z0.203
X45.5981 Z0.1988
X45.5939 Z0.1951
X45.5893 Z0.1918
X45.5844 Z0.1891
X45.5792 Z0.1869
X45.5738 Z0.1854
X45.5683 Z0.1845
X45.5627 Z0.1841
X45.4141
X45.3716
G2 X45.308 Y-0.8411 I0. J0.0636
G1 X45.326 Y4.3092
G2 X45.3901 Y4.3731 I0.0641 J-0.0002
G1 X45.4142
X45.6108
X45.6164 Z0.1845
X45.6219 Z0.1854
X45.6273 Z0.1869
X45.6325 Z0.1891
X45.6374 Z0.1918
X45.6419 Z0.1951
X45.6461 Z0.1988
X45.6499 Z0.203
X45.6531 Z0.2075
X45.6558 Z0.2124
X45.658 Z0.2176
X45.6595 Z0.223
X45.6605 Z0.2285
X45.6608 Z0.2341
G0 Z0.8341
X45.6127 Y-1.0849
Z0.2341
G1 X45.6124 Z0.2285 F100.
X45.6114 Z0.223
X45.6099 Z0.2176
X45.6078 Z0.2124
X45.605 Z0.2075
X45.6018 Z0.203
X45.5981 Z0.1988
X45.5939 Z0.1951
X45.5893 Z0.1918
X45.5844 Z0.1891
X45.5792 Z0.1869
X45.5738 Z0.1854
X45.5683 Z0.1845
X45.5627 Z0.1841
X45.4141
X45.191
G2 X45.1274 Y-1.0211 I0. J0.0636
G1 X45.1466 Y4.4892
G2 X45.2108 Y4.5531 I0.0641 J-0.0002
G1 X45.4141
X45.6107
X45.6163 Z0.1845
X45.6219 Z0.1854
X45.6273 Z0.1869
X45.6324 Z0.1891
X45.6373 Z0.1918
X45.6419 Z0.1951
X45.6461 Z0.1988
X45.6498 Z0.203
X45.6531 Z0.2075
X45.6558 Z0.2124
X45.6579 Z0.2176
X45.6595 Z0.223
X45.6604 Z0.2285
X45.6607 Z0.2341
G0 Z0.8341
X45.6127 Y-1.2351
Z0.2291
G1 X45.6124 Z0.2241 F100.
X45.6116 Y-1.2353 Z0.2191
X45.6102 Y-1.2355 Z0.2143
X45.6083 Y-1.2358 Z0.2096
X45.6059 Y-1.2362 Z0.2052
X45.603 Y-1.2366 Z0.2011
X45.5997 Y-1.2371 Z0.1973
X45.596 Y-1.2377 Z0.194
X45.5919 Y-1.2384 Z0.191
X45.5875 Y-1.2391 Z0.1886
X45.5829 Y-1.2398 Z0.1867
X45.5781 Y-1.2406 Z0.1853
X45.5732 Y-1.2413 Z0.1844
X45.5683 Y-1.2421 Z0.1841
X45.422 Y-1.2653
X45.4181 Y-1.2657
X45.4142 Y-1.2659
X44.9447
X44.9451 Y-1.2588
X44.9454 Y-1.2535
X44.9456 Y-1.242
Y-1.2398
X44.9665 Y4.7341
X45.4141
X45.4181 Y4.7339
X45.4219 Y4.7335
X45.6161 Y4.7027
X45.6217 Y4.7018 Z0.1845
X45.6271 Y4.701 Z0.1854
X45.6325 Y4.7001 Z0.1869
X45.6376 Y4.6993 Z0.1891
X45.6424 Y4.6986 Z0.1918
X45.6469 Y4.6978 Z0.1951
X45.6511 Y4.6972 Z0.1988
X45.6548 Y4.6966 Z0.203
X45.658 Y4.6961 Z0.2075
X45.6606 Y4.6957 Z0.2124
X45.6628 Y4.6953 Z0.2176
X45.6643 Y4.6951 Z0.223
X45.6652 Y4.6949 Z0.2285
X45.6655 Z0.2341
G0 Z1.2341
M5
G53 G0 Z0.

(POCKET2 6)
M1
T16 M6
S24000 M3
G17 G90 G94
G55
G0 X0.481 Y4.8904
G43 Z1.2341 H16
G0 Z0.2054
G1 X0.4813 Z0.2021 F50.
X0.482 Y4.8906 Z0.1988
X0.4833 Y4.8908 Z0.1958
X0.485 Y4.891 Z0.1929
X0.4871 Y4.8914 Z0.1904
X0.4896 Y4.8918 Z0.1882
X0.4925 Y4.8922 Z0.1865
X0.4955 Y4.8927 Z0.1852
X0.4987 Y4.8932 Z0.1844
X0.502 Y4.8937 Z0.1841
X0.6919 Y4.9238
X0.6956 Y4.9241
X1.2308
X1.177 Y-1.2364
Y-1.2382
X1.1772 Y-1.246
X1.1773 Y-1.2483
X1.1776 Y-1.2535
X1.1777 Y-1.2549
X1.1779 Y-1.2574
X1.1781 Y-1.2595
X1.1791 Y-1.2672
X1.1794 Y-1.2694
X1.1806 Y-1.2772
X1.1811 Y-1.28
X1.1827 Y-1.2878
X1.1834 Y-1.2908
X1.1855 Y-1.2986
X1.1861 Y-1.3008
X1.1879 Y-1.3065
X1.1883 Y-1.308
X1.189 Y-1.3101
X1.1896 Y-1.3115
X1.1924 Y-1.3193
X1.1934 Y-1.3219
X1.1967 Y-1.3297
X1.1979 Y-1.3324
X1.2016 Y-1.3402
X1.2031 Y-1.3431
X1.2074 Y-1.3508
X1.2082 Y-1.3521
X1.2089 Y-1.3534
X1.2099 Y-1.3551
X1.214 Y-1.3616
X1.2154 Y-1.3637
G3 X1.2216 Y-1.3725 I0.2423 J0.1637
G1 X1.2231 Y-1.3745
X1.2292 Y-1.3822
X1.2316 Y-1.385
X1.2392 Y-1.3935
X1.2419 Y-1.3964
X1.2496 Y-1.404
X1.2525 Y-1.4066
X1.2608 Y-1.4137
X1.2637 Y-1.416
X1.2709 Y-1.4215
X1.2728 Y-1.4229
X1.2761 Y-1.4252
X1.2773 Y-1.426
X1.2818 Y-1.4289
X1.284 Y-1.4303
X1.2921 Y-1.4352
X1.2948 Y-1.4367
X1.3023 Y-1.4406
X1.3049 Y-1.4419
X1.3132 Y-1.4458
X1.3157 Y-1.4469
X1.323 Y-1.4499
X1.3257 Y-1.4509
X1.3335 Y-1.4536
X1.3365 Y-1.4546
X1.3443 Y-1.4569
X1.347 Y-1.4576
X1.3547 Y-1.4595
X1.3572 Y-1.46
X1.365 Y-1.4616
X1.3675 Y-1.462
X1.3753 Y-1.4632
X1.3783 Y-1.4636
X1.3861 Y-1.4644
X1.389 Y-1.4646
X1.3968 Y-1.465
X1.3986
X1.4063 Y-1.4652
X1.4067
X1.407
X2.0677 Y-1.471
X2.0679
X2.0757
X2.0773
X2.0851 Y-1.4708
X2.0882 Y-1.4707
X2.096 Y-1.4701
X2.0985 Y-1.4698
X2.1063 Y-1.4689
X2.1088 Y-1.4686
X2.1166 Y-1.4673
X2.119 Y-1.4668
X2.125 Y-1.4656
X2.1254 Y-1.4655
X2.1257 Y-1.4654
X2.1261
X2.1278 Y-1.465
X2.13 Y-1.4644
X2.1378 Y-1.4624
X2.1406 Y-1.4615
X2.1483 Y-1.4591
X2.1509 Y-1.4582
X2.1587 Y-1.4553
X2.1613 Y-1.4543
X2.169 Y-1.451
X2.1717 Y-1.4498
X2.1795 Y-1.446
X2.1823 Y-1.4445
X2.1901 Y-1.4402
X2.1929 Y-1.4385
X2.2007 Y-1.4337
X2.2034 Y-1.4318
X2.2112 Y-1.4263
X2.2123 Y-1.4255
X2.2143 Y-1.424
X2.2163 Y-1.4225
X2.2221 Y-1.4177
X2.2235 Y-1.4165
X2.227 Y-1.4135
X2.2284 Y-1.4123
X2.2327 Y-1.4083
X2.2342 Y-1.4068
X2.238 Y-1.403
X2.239 Y-1.402
X2.243 Y-1.3979
X2.2447 Y-1.3959
X2.2479 Y-1.3923
X2.2488 Y-1.3913
X2.2534 Y-1.3858
X2.2552 Y-1.3835
G3 X2.2633 Y-1.3724 I-0.2734 J0.2084
G1 X2.2651 Y-1.3698
X2.2701 Y-1.362
X2.2716 Y-1.3595
G3 X2.2766 Y-1.3509 I-0.2701 J0.1592
G1 X2.2777 Y-1.3487
X2.2816 Y-1.3409
X2.2829 Y-1.3381
X2.2863 Y-1.3303
X2.2873 Y-1.3277
X2.2903 Y-1.3199
X2.2912 Y-1.3173
X2.2937 Y-1.3096
X2.2943 Y-1.3076
X2.296 Y-1.3018
X2.2965 Y-1.2999
X2.297 Y-1.2979
X2.2973 Y-1.2964
X2.2991 Y-1.2886
X2.2997 Y-1.2856
X2.301 Y-1.2778
X2.3013 Y-1.2757
X2.3023 Y-1.2679
X2.3027 Y-1.2648
X2.3033 Y-1.257
X2.3034 Y-1.2546
X2.3037 Y-1.2468
Y-1.2452
X2.3196 Y0.5797
Y0.5819
X2.3195 Y0.5858
X2.3192 Y0.5897
X2.3189 Y0.5936
X2.3184 Y0.5975
X2.3177 Y0.6013
X2.317 Y0.6052
X2.3161 Y0.6091
X2.315 Y0.613
X2.3138 Y0.6169
X2.3125 Y0.6208
X2.311 Y0.6246
X2.3097 Y0.6278
X2.3085 Y0.6303
X2.3073 Y0.6329
X2.306 Y0.6355
X2.3045 Y0.6382
X2.303 Y0.6408
X2.3011 Y0.6438
X2.2988 Y0.6473
X2.2964 Y0.6507
X2.2938 Y0.6541
X2.292 Y0.6563
X2.2913 Y0.6572
X2.2892 Y0.6595
X2.2857 Y0.6632
X2.2821 Y0.6667
X2.2786 Y0.6698
X2.2763 Y0.6718
X2.2752 Y0.6727
X2.273 Y0.6744
X2.2696 Y0.6768
X2.2663 Y0.6791
X2.263 Y0.6812
X2.2597 Y0.6831
X2.2566 Y0.6849
X2.2534 Y0.6865
X2.2502 Y0.688
X2.2479 Y0.689
X2.2465 Y0.6896
X2.2438 Y0.6906
X2.24 Y0.692
X2.2361 Y0.6933
X2.2322 Y0.6944
X2.2283 Y0.6954
X2.2244 Y0.6962
X2.2205 Y0.6969
X2.2166 Y0.6975
X2.2127 Y0.6979
X2.2089 Y0.6982
X2.2057 Y0.6984
X2.2426 Y4.9241
X3.2108
X3.2285 Y0.7016
X3.0006 Y0.7006
X3.0003
X3.
X2.9922 Y0.7005
X2.9877 Y0.7003
X2.9838 Y0.6999
X2.98 Y0.6994
X2.9761 Y0.6988
X2.9722 Y0.6981
X2.9683 Y0.6972
X2.9644 Y0.6961
X2.9605 Y0.695
X2.9566 Y0.6936
X2.9527 Y0.6922
X2.9489 Y0.6905
X2.945 Y0.6887
X2.9425 Y0.6875
X2.9413 Y0.6869
X2.939 Y0.6856
X2.9357 Y0.6837
X2.9324 Y0.6817
X2.9291 Y0.6795
X2.9264 Y0.6775
X2.9241 Y0.6757
X2.9218 Y0.6739
X2.9195 Y0.672
X2.9168 Y0.6695
X2.9135 Y0.6665
X2.9109 Y0.6638
X2.9087 Y0.6614
X2.9066 Y0.6591
X2.9047 Y0.6567
X2.9027 Y0.6542
X2.9008 Y0.6516
X2.899 Y0.649
X2.8973 Y0.6464
X2.8956 Y0.6438
X2.8941 Y0.6413
X2.8924 Y0.6381
X2.8904 Y0.6342
X2.8886 Y0.6303
X2.8869 Y0.6264
X2.8855 Y0.6225
X2.8841 Y0.6186
X2.883 Y0.6148
X2.8819 Y0.6109
X2.8813 Y0.6083
X2.881 Y0.6069
X2.8806 Y0.6047
X2.88 Y0.6015
X2.8795 Y0.5982
X2.8791 Y0.595
X2.8788 Y0.5915
X2.8786 Y0.5876
X2.8785 Y0.584
Y0.5723
X2.8861 Y-1.2372
Y-1.2375
X2.8862 Y-1.2453
Y-1.247
X2.8865 Y-1.2548
X2.8867 Y-1.2578
X2.8874 Y-1.2655
X2.8875 Y-1.2669
X2.8878 Y-1.2693
X2.8881 Y-1.2715
X2.8889 Y-1.2769
X2.8892 Y-1.2786
X2.8906 Y-1.2863
X2.8911 Y-1.2889
X2.8929 Y-1.2966
X2.8937 Y-1.2996
X2.8959 Y-1.3073
X2.8967 Y-1.31
X2.8982 Y-1.3147
X2.8984 Y-1.3151
X2.8985 Y-1.3155
X2.8996 Y-1.3186
X2.9004 Y-1.3206
X2.9034 Y-1.3284
X2.9045 Y-1.3311
X2.9082 Y-1.3392
X2.9094 Y-1.3418
X2.9132 Y-1.3492
X2.9146 Y-1.3517
X2.9186 Y-1.3586
X2.9196 Y-1.3603
X2.9201 Y-1.3611
X2.9209 Y-1.3625
X2.926 Y-1.3702
X2.9277 Y-1.3727
G3 X2.9338 Y-1.3809 I0.4317 J0.3126
G1 X2.9356 Y-1.3833
G3 X2.9425 Y-1.3915 I0.427 J0.3488
G1 X2.9445 Y-1.3938
G3 X2.9524 Y-1.4021 I0.332 J0.3052
G1 X2.9544 Y-1.4042
X2.9604 Y-1.4098
X2.9614 Y-1.4107
X2.9638 Y-1.4128
X2.9656 Y-1.4144
X2.971 Y-1.4189
X2.9726 Y-1.4202
X2.9769 Y-1.4235
X2.9782 Y-1.4244
X2.9816 Y-1.4269
X2.9837 Y-1.4284
X2.9915 Y-1.4336
X2.9942 Y-1.4353
X3.0019 Y-1.4399
X3.0041 Y-1.4411
X3.01 Y-1.4443
X3.0123 Y-1.4454
G3 X3.0227 Y-1.4503 I0.1761 J0.364
G1 X3.0255 Y-1.4515
X3.0338 Y-1.4548
X3.0367 Y-1.4559
X3.044 Y-1.4584
X3.0468 Y-1.4592
X3.0545 Y-1.4615
X3.0571 Y-1.4621
X3.0648 Y-1.464
X3.0667 Y-1.4644
X3.0724 Y-1.4656
X3.0749 Y-1.466
G3 X3.0856 Y-1.4677 I0.0597 J0.3623
G1 X3.0888 Y-1.468
X3.0965 Y-1.4687
X3.0991 Y-1.4689
X3.1069 Y-1.4693
X3.109 Y-1.4694
X3.1167 Y-1.4695
X3.1171
X3.1174
X3.1177
X3.7628 Y-1.4668
X3.7643 Y-1.4667
X3.7721 Y-1.4665
X3.7746 Y-1.4664
X3.7824 Y-1.4658
X3.7848 Y-1.4656
X3.7926 Y-1.4647
X3.7953 Y-1.4643
X3.803 Y-1.4631
X3.8061 Y-1.4625
X3.8139 Y-1.4608
X3.8166 Y-1.4602
G3 X3.8292 Y-1.4568 I-0.0877 J0.3461
G1 X3.8318 Y-1.4559
X3.8359 Y-1.4545
X3.8373 Y-1.4541
X3.845 Y-1.4512
X3.8479 Y-1.4501
X3.8562 Y-1.4466
X3.8591 Y-1.4452
X3.8663 Y-1.4417
X3.869 Y-1.4403
X3.8768 Y-1.4359
X3.8794 Y-1.4344
X3.8872 Y-1.4295
X3.8889 Y-1.4284
X3.893 Y-1.4257
X3.8951 Y-1.4241
X3.8988 Y-1.4214
X3.9001 Y-1.4204
X3.9065 Y-1.4154
X3.9081 Y-1.4141
X3.9094 Y-1.413
X3.9109 Y-1.4118
X3.9186 Y-1.4048
X3.9213 Y-1.4022
X3.9291 Y-1.3943
X3.9316 Y-1.3916
X3.9379 Y-1.3843
X3.9388 Y-1.3833
X3.9402 Y-1.3815
X3.9419 Y-1.3794
X3.9464 Y-1.3734
X3.9473 Y-1.3721
X3.9506 Y-1.3675
X3.9522 Y-1.3652
X3.9542 Y-1.362
X3.955 Y-1.3608
X3.9597 Y-1.353
X3.9608 Y-1.3511
G3 X3.9656 Y-1.3423 I-0.2452 J0.1379
G1 X3.9668 Y-1.3399
X3.9705 Y-1.3321
X3.9717 Y-1.3292
X3.9749 Y-1.3215
X3.976 Y-1.3186
X3.9788 Y-1.3108
X3.9796 Y-1.3082
X3.9819 Y-1.3005
X3.9823 Y-1.2991
X3.9828 Y-1.2975
X3.9832 Y-1.296
X3.9847 Y-1.2899
X3.9852 Y-1.2876
X3.9868 Y-1.2798
X3.9873 Y-1.2767
X3.9885 Y-1.269
X3.9888 Y-1.2665
X3.9896 Y-1.2587
X3.9899 Y-1.2557
X3.9903 Y-1.2479
X3.9904 Y-1.2457
X3.9905 Y-1.238
Y-1.2375
Y-1.2371
Y-1.2367
X3.9647 Y4.9241
X4.5941
X4.5855 Y-1.2368
Y-1.2372
Y-1.2375
Y-1.2378
X4.5857 Y-1.2456
Y-1.2476
X4.5861 Y-1.2554
X4.5863 Y-1.2582
X4.5871 Y-1.266
X4.5874 Y-1.2689
X4.5886 Y-1.2767
X4.5891 Y-1.2796
X4.5907 Y-1.2878
X4.5913 Y-1.2903
X4.5931 Y-1.2976
X4.5938 Y-1.3
X4.596 Y-1.3078
X4.5969 Y-1.3106
X4.5996 Y-1.3184
X4.6005 Y-1.3209
X4.6016 Y-1.3234
X4.6017 Y-1.3238
X4.6018 Y-1.3241
X4.604 Y-1.3294
X4.6051 Y-1.3318
X4.6087 Y-1.3396
X4.6094 Y-1.341
X4.6114 Y-1.345
X4.6127 Y-1.3474
X4.6148 Y-1.3512
X4.6156 Y-1.3526
X4.6202 Y-1.3604
X4.6213 Y-1.3621
X4.6223 Y-1.3637
X4.6231 Y-1.3649
X4.6273 Y-1.3711
X4.6286 Y-1.3728
X4.6321 Y-1.3777
X4.6336 Y-1.3796
X4.6359 Y-1.3825
X4.6369 Y-1.3837
X4.6423 Y-1.3901
X4.6443 Y-1.3923
G3 X4.6527 Y-1.4012 I0.3071 J0.2851
G1 X4.6553 Y-1.4037
X4.6631 Y-1.4108
X4.6652 Y-1.4127
G3 X4.6737 Y-1.4196 I0.2372 J0.2821
G1 X4.6758 Y-1.4212
G3 X4.6845 Y-1.4275 I0.1801 J0.2396
G1 X4.6867 Y-1.4291
X4.6947 Y-1.4342
X4.6975 Y-1.4359
X4.7051 Y-1.4401
X4.7079 Y-1.4416
X4.7156 Y-1.4455
X4.7183 Y-1.4467
X4.7261 Y-1.4501
X4.7287 Y-1.4512
X4.7365 Y-1.4541
X4.7381 Y-1.4547
X4.7412 Y-1.4558
X4.7427 Y-1.4563
X4.7474 Y-1.4578
X4.7495 Y-1.4584
X4.7573 Y-1.4606
X4.7603 Y-1.4613
X4.7681 Y-1.463
X4.7708 Y-1.4635
X4.7786 Y-1.4649
X4.7811 Y-1.4652
X4.7888 Y-1.4662
X4.7914 Y-1.4665
X4.7991 Y-1.4672
X4.8022 Y-1.4673
X4.81 Y-1.4676
X4.8118
X5.4802 Y-1.4686
X5.4805
X5.4809
X5.4886 Y-1.4685
X5.4904
X5.4981 Y-1.4682
X5.5011 Y-1.468
X5.5089 Y-1.4673
X5.5116 Y-1.467
X5.5166 Y-1.4663
X5.517 Y-1.4662
X5.5174
X5.5202 Y-1.4657
X5.5221 Y-1.4654
X5.5299 Y-1.464
X5.5324 Y-1.4635
X5.5402 Y-1.4617
X5.5429 Y-1.461
X5.5507 Y-1.4588
X5.5537 Y-1.4578
X5.5615 Y-1.4552
X5.5642 Y-1.4542
X5.572 Y-1.4511
X5.5746 Y-1.45
X5.5824 Y-1.4465
X5.5838 Y-1.4458
X5.5848 Y-1.4454
X5.5861 Y-1.4447
X5.5929 Y-1.4412
X5.5953 Y-1.4399
X5.6027 Y-1.4356
X5.6055 Y-1.4339
X5.6137 Y-1.4285
X5.6162 Y-1.4268
G3 X5.6244 Y-1.4207 I-0.3366 J0.4633
G1 X5.6268 Y-1.4188
G3 X5.6352 Y-1.4117 I-0.2461 J0.3027
G1 X5.6372 Y-1.41
X5.6433 Y-1.4043
X5.6445 Y-1.4031
X5.6462 Y-1.4015
X5.6476 Y-1.4
X5.6533 Y-1.3939
X5.655 Y-1.3921
G3 X5.6623 Y-1.3835 I-0.2319 J0.2035
G1 X5.6641 Y-1.3812
G3 X5.6703 Y-1.3729 I-0.3724 J0.2849
G1 X5.672 Y-1.3705
X5.6772 Y-1.3626
X5.6789 Y-1.3598
X5.6834 Y-1.3522
X5.6847 Y-1.3499
X5.688 Y-1.3436
X5.6888 Y-1.342
X5.6895 Y-1.3405
X5.6902 Y-1.3392
X5.6937 Y-1.3314
X5.6948 Y-1.3288
X5.698 Y-1.321
X5.699 Y-1.3183
X5.7017 Y-1.3105
X5.7026 Y-1.3075
X5.7048 Y-1.2997
X5.7055 Y-1.297
X5.7074 Y-1.2893
X5.7079 Y-1.2868
X5.7094 Y-1.279
X5.7098 Y-1.2765
X5.7109 Y-1.2687
X5.7113 Y-1.2657
X5.712 Y-1.258
X5.7122 Y-1.2551
X5.7126 Y-1.2473
Y-1.2454
X5.7127 Y-1.2377
Y-1.2373
Y-1.237
X5.7153 Y0.5801
X5.7152 Y0.5805
Y0.5809
Y0.5813
X5.7151 Y0.5891
X5.7148 Y0.5941
X5.7144 Y0.598
X5.7138 Y0.6019
X5.7132 Y0.6058
X5.7124 Y0.6097
X5.7114 Y0.6135
X5.7103 Y0.6174
X5.7091 Y0.6213
X5.7077 Y0.6252
X5.7062 Y0.629
X5.7045 Y0.6329
X5.7026 Y0.6368
X5.7006 Y0.6407
X5.6983 Y0.6446
X5.6959 Y0.6485
X5.6932 Y0.6524
X5.6914 Y0.6549
X5.6904 Y0.6562
X5.6885 Y0.6585
X5.6858 Y0.6617
X5.6828 Y0.665
X5.6796 Y0.6682
X5.6771 Y0.6707
X5.6753 Y0.6723
X5.6724 Y0.6747
X5.6685 Y0.6778
X5.6647 Y0.6806
X5.6608 Y0.6832
X5.6567 Y0.6857
X5.6524 Y0.6881
X5.6485 Y0.69
X5.645 Y0.6917
X5.6413 Y0.6932
X5.6374 Y0.6947
X5.6335 Y0.6961
X5.6297 Y0.6972
X5.6258 Y0.6983
X5.6219 Y0.6992
X5.6179 Y0.7
X5.6139 Y0.7006
X5.61 Y0.7011
X5.6062 Y0.7015
X5.6024 Y0.7017
X5.5985 Y0.7018
X5.597
X5.3727 Y0.7021
X5.3786 Y4.924
X6.4599 Y4.9241
X6.451 Y0.7033
X6.4131 Y0.7034
X6.4116
X6.4078 Y0.7033
X6.4039 Y0.7031
X6.4 Y0.7027
X6.3961 Y0.7023
X6.3922 Y0.7016
X6.3881 Y0.7009
X6.3838 Y0.6999
X6.3798 Y0.6988
X6.3761 Y0.6977
X6.3725 Y0.6964
X6.3688 Y0.695
X6.365 Y0.6935
X6.3611 Y0.6917
X6.3572 Y0.6897
X6.3534 Y0.6876
X6.3504 Y0.6858
X6.3483 Y0.6845
X6.3458 Y0.6828
X6.3429 Y0.6808
X6.3401 Y0.6787
X6.3373 Y0.6764
X6.3349 Y0.6745
X6.333 Y0.6728
X6.3311 Y0.671
X6.3293 Y0.6692
X6.3273 Y0.6672
X6.3252 Y0.6649
X6.3232 Y0.6627
X6.3213 Y0.6605
X6.3191 Y0.6577
X6.3166 Y0.6544
X6.3141 Y0.6508
X6.3116 Y0.6469
X6.3094 Y0.643
X6.3073 Y0.6392
X6.3059 Y0.6364
X6.3052 Y0.6349
X6.3041 Y0.6325
X6.3028 Y0.6294
X6.3016 Y0.6263
X6.3005 Y0.6232
X6.2994 Y0.6197
X6.2983 Y0.6159
X6.2973 Y0.612
X6.2965 Y0.6081
X6.2958 Y0.6042
X6.2952 Y0.6003
X6.2948 Y0.5964
X6.2945 Y0.5926
X6.2943 Y0.5885
X6.2942 Y0.5807
Y0.5803
X6.2904 Y-1.2368
Y-1.2372
Y-1.2375
Y-1.2379
X6.2906 Y-1.2456
Y-1.2477
X6.291 Y-1.2554
X6.2913 Y-1.2584
X6.2921 Y-1.2663
X6.2924 Y-1.2691
X6.2935 Y-1.2767
X6.294 Y-1.2796
X6.2956 Y-1.2874
X6.2962 Y-1.2899
X6.2981 Y-1.2976
X6.2988 Y-1.3002
X6.301 Y-1.3079
X6.3019 Y-1.3106
X6.3046 Y-1.3184
X6.3057 Y-1.3214
X6.3089 Y-1.3291
X6.31 Y-1.3317
X6.3128 Y-1.3377
X6.3129 Y-1.338
X6.3131 Y-1.3383
X6.3132 Y-1.3385
X6.3141 Y-1.3403
X6.3151 Y-1.3423
X6.3192 Y-1.3501
X6.3202 Y-1.3518
X6.3229 Y-1.3566
X6.3244 Y-1.359
X6.3263 Y-1.362
X6.3271 Y-1.3632
X6.3323 Y-1.3709
X6.3336 Y-1.3728
G3 X6.3403 Y-1.3815 I0.2523 J0.1849
G1 X6.3417 Y-1.3833
X6.3442 Y-1.3864
X6.3454 Y-1.3877
X6.3495 Y-1.3924
X6.3508 Y-1.3938
X6.3544 Y-1.3976
X6.356 Y-1.3993
G3 X6.3646 Y-1.4076 I0.2244 J0.2238
G1 X6.3668 Y-1.4095
G3 X6.3751 Y-1.4166 I0.2963 J0.3404
G1 X6.3775 Y-1.4185
X6.3853 Y-1.4244
X6.388 Y-1.4263
X6.3958 Y-1.4315
X6.3974 Y-1.4325
X6.4008 Y-1.4346
X6.4028 Y-1.4358
X6.4072 Y-1.4383
X6.4089 Y-1.4393
X6.4167 Y-1.4433
X6.4181 Y-1.444
X6.4206 Y-1.4453
X6.4225 Y-1.4461
X6.4277 Y-1.4485
X6.4297 Y-1.4493
X6.4375 Y-1.4525
X6.4403 Y-1.4535
X6.4481 Y-1.4562
X6.4511 Y-1.4572
X6.4589 Y-1.4594
X6.4615 Y-1.4601
X6.4693 Y-1.4619
X6.4718 Y-1.4625
X6.4795 Y-1.464
X6.4821 Y-1.4644
X6.4899 Y-1.4656
X6.4929 Y-1.4659
X6.5007 Y-1.4667
X6.5036 Y-1.4669
X6.5113 Y-1.4672
X6.5132 Y-1.4673
X6.5209 Y-1.4674
X6.5213
X6.5217
X7.1979 Y-1.4688
X7.1981
X7.2059
X7.2075
X7.2153 Y-1.4685
X7.2185 Y-1.4684
X7.2262 Y-1.4677
X7.2289 Y-1.4674
X7.2374 Y-1.4663
X7.2399 Y-1.4659
X7.2469 Y-1.4647
X7.2494 Y-1.4642
X7.2572 Y-1.4626
X7.2603 Y-1.4618
X7.268 Y-1.4597
X7.2709 Y-1.4588
X7.2792 Y-1.4561
X7.2818 Y-1.4551
X7.2891 Y-1.4524
X7.2915 Y-1.4514
X7.2993 Y-1.448
X7.3015 Y-1.447
X7.3048 Y-1.4454
X7.3051 Y-1.4452
X7.3053 Y-1.4451
X7.3056 Y-1.445
X7.3101 Y-1.4427
X7.3125 Y-1.4414
X7.3203 Y-1.437
X7.3226 Y-1.4357
G3 X7.331 Y-1.4303 I-0.2135 J0.3432
G1 X7.3335 Y-1.4286
G3 X7.3417 Y-1.4226 I-0.3156 J0.4456
G1 X7.3441 Y-1.4208
X7.3518 Y-1.4145
X7.3546 Y-1.4121
X7.3627 Y-1.4046
X7.3655 Y-1.4019
X7.3729 Y-1.3941
X7.3753 Y-1.3914
X7.3819 Y-1.3837
X7.3834 Y-1.3818
X7.3846 Y-1.3802
X7.3854 Y-1.3792
X7.39 Y-1.3729
X7.3916 Y-1.3706
G3 X7.3971 Y-1.3623 I-0.3806 J0.257
G1 X7.3986 Y-1.3599
G3 X7.405 Y-1.3488 I-0.328 J0.1968
G1 X7.4063 Y-1.3463
X7.409 Y-1.3409
X7.4099 Y-1.3391
X7.4134 Y-1.3313
X7.4142 Y-1.3295
X7.4157 Y-1.3259
X7.4164 Y-1.3243
X7.4179 Y-1.3202
X7.4186 Y-1.3182
X7.4213 Y-1.3105
X7.4223 Y-1.3074
X7.4245 Y-1.2997
X7.4251 Y-1.2973
X7.4264 Y-1.2917
X7.4265 Y-1.2913
X7.4266 Y-1.2909
X7.4267 Y-1.2905
X7.4272 Y-1.2883
X7.4275 Y-1.2867
X7.429 Y-1.2789
X7.4294 Y-1.2764
X7.4305 Y-1.2687
X7.4309 Y-1.2657
X7.4316 Y-1.2579
X7.4318 Y-1.2549
X7.4321 Y-1.2472
X7.4322 Y-1.2454
X7.4323 Y-1.2376
Y-1.2373
Y-1.237
X7.4361 Y0.5801
X7.436 Y0.5815
X7.4359 Y0.5892
X7.4355 Y0.5947
X7.435 Y0.5989
X7.4344 Y0.6028
X7.4338 Y0.6063
X7.433 Y0.61
X7.432 Y0.6139
X7.4309 Y0.6178
X7.4297 Y0.6216
X7.4283 Y0.6255
X7.4267 Y0.6294
X7.425 Y0.6333
X7.4231 Y0.6372
