(LOWER SHAPING)
(T13 D=0.2362 CR=0. TAPER=45DEG - ZMIN=0.359 - CHAMFER MILL)
(T14 D=0.125 CR=0. - ZMIN=0.31 - FLAT END MILL)
(T15 D=0.5 CR=0. - ZMIN=0.26 - FLAT END MILL)
(T16 D=0.2362 CR=0. - ZMIN=0.26 - FLAT END MILL)
(T17 D=0.4724 CR=0. - ZMIN=-0.585 - FLAT END MILL)
(T18 D=0.9843 CR=0. TAPER=45DEG - ZMIN=-0.635 - DOVETAIL MILL)
G90 G94 G91.1 G40 G49 G17
G20
G53 G0 Z0.

(POCKET2 5)
T15 M6
S10000 M3
G17 G90 G94
G55
G0 X23.0784 Y3.18
G43 Z1.31 H15
G0 Z0.6052
G1 Z0.4833 F50.
Y3.1797 Z0.478 F100.
Y3.1789 Z0.4727
Y3.1774 Z0.4675
Y3.1755 Z0.4625
Y3.173 Z0.4578
Y3.17 Z0.4534
Y3.1666 Z0.4492
Y3.1627 Z0.4455
Y3.1585 Z0.4422
Y3.1539 Z0.4394
Y3.1491 Z0.4371
Y3.144 Z0.4353
Y3.1388 Z0.4341
Y3.1335 Z0.4335
X23.0791 Y1.0577 Z0.2883
G2 X23.0696 Y1.0296 Z0.2862 I-0.0461 J0.
G3 X23.0501 Y1.0017 Z0.2838 I0.304 J-0.2335
G2 X22.9873 Y1.0016 Z0.2786 I-0.0315 J0.0199
G3 X22.7882 Y1.1689 Z0.2601 I-0.3673 J-0.235
G1 X22.7866 Y1.1695 Z0.26
X22.785 Y1.1702
G3 X22.752 Y1.1822 I-0.165 J-0.4036
G2 X22.6906 Y1.2664 I0.027 J0.0841
G1 X22.6957 Y4.4903
G2 X22.7584 Y4.5529 I0.0627 J-0.0001
G1 X23.0153
G2 X23.0779 Y4.4903 I0. J-0.0626
G1 X23.0791 Y1.0577
G2 X23.0696 Y1.0296 I-0.0461 J0.
G3 X23.0501 Y1.0017 I0.304 J-0.2335
G2 X22.9873 Y1.0016 I-0.0315 J0.0199
G3 X22.785 Y1.1702 I-0.3673 J-0.235
X22.6464 Y1.1306 I-0.0441 J-0.108
G2 X22.5093 Y1.1751 I-0.0614 J0.0444
G1 X22.5149 Y4.7341
X23.259
X23.2603 Y0.9672
X23.2576 Y0.9651
X23.2523 Y0.9607
X23.247 Y0.956
X23.2439 Y0.9532
X23.243 Y0.9524
X23.2398 Y0.9493
X23.2345 Y0.944
X23.2294 Y0.9386
X23.2247 Y0.9333
X23.2216 Y0.9297
X23.2202 Y0.928
X23.2175 Y0.9247
X23.2137 Y0.9198
X23.2101 Y0.9149
X23.2066 Y0.91
X23.2028 Y0.9042
X23.1985 Y0.8974
X23.1951 Y0.8916
X23.1924 Y0.8869
X23.1897 Y0.8816
X23.1868 Y0.8759
X23.1841 Y0.8701
X23.1816 Y0.8643
X23.1785 Y0.8567
X23.175 Y0.847
X23.173 Y0.8412
X23.1724 Y0.8393
X23.1713 Y0.8355
X23.1697 Y0.8297
X23.1682 Y0.824
X23.1669 Y0.8182
X23.1657 Y0.8125
X23.1647 Y0.8067
X23.1637 Y0.8009
X23.163 Y0.7952
X23.1623 Y0.7894
X23.1618 Y0.7836
X23.1614 Y0.7779
X23.1611 Y0.7721
X23.161 Y0.7664
X23.1609 Y0.7549
Y0.7544
X23.1616 Y-1.2394
Y-1.2423
X23.1619 Y-1.2538
X23.1622 Y-1.2595
X23.1626 Y-1.2659
X22.8726
X22.873 Y-1.2592
X22.8733 Y-1.255
G3 X22.8736 Y-1.2415 I-0.5088 J0.0181
G1 Y-1.2395
X22.8767 Y0.7543
Y0.7546
Y0.755
Y0.7665
X22.8765 Y0.7727
X22.8762 Y0.7784
X22.8758 Y0.7842
X22.8752 Y0.79
X22.8745 Y0.7957
X22.8737 Y0.8015
X22.8728 Y0.8072
X22.8717 Y0.813
X22.8709 Y0.817
X22.8704 Y0.8191
X22.869 Y0.8249
X22.8665 Y0.8343
X22.8642 Y0.8418
X22.8623 Y0.8476
X22.8602 Y0.8534
X22.858 Y0.8591
X22.8557 Y0.8646
X22.8534 Y0.8698
X22.851 Y0.875
X22.8484 Y0.8802
X22.8468 Y0.8833
X22.8462 Y0.8845
X22.8443 Y0.8879
X22.841 Y0.8937
X22.8375 Y0.8995
X22.8338 Y0.9052
X22.83 Y0.9109
X22.826 Y0.9164
X22.8217 Y0.9222
X22.8168 Y0.9282
X22.8111 Y0.9348
X22.8044 Y0.9421
X22.7988 Y0.9478
X22.7943 Y0.9521
X22.7886 Y0.9573
X22.7815 Y0.9633
X22.7779 Y0.9663
X22.7742 Y0.9691
X22.7667 Y0.9746
X22.7609 Y0.9786
X22.7569 Y0.9812
X22.752 Y0.9843
X22.7462 Y0.9877
X22.7404 Y0.9909
X22.7346 Y0.9939
X22.7291 Y0.9967
X22.7239 Y0.9991
X22.7181 Y1.0016
X22.7118 Y1.0042
X22.7058 Y1.0065
X22.7 Y1.0085
X22.6943 Y1.0104
X22.6885 Y1.0121
X22.6827 Y1.0137
X22.677 Y1.0151
X22.6712 Y1.0164
X22.6654 Y1.0176
X22.6597 Y1.0187
X22.6539 Y1.0195
X22.6481 Y1.0203
X22.6423 Y1.021
X22.6337 Y1.0216
X22.6222 Y1.0221
X22.6168 Y1.0222
X22.509 Y1.0224
X22.5093 Y1.1751
X22.5094 Y1.1779 Z0.2601
X22.5098 Y1.1807 Z0.2603
X22.5102 Y1.1835 Z0.2607
X22.5108 Y1.1861 Z0.2613
X22.5116 Y1.1887 Z0.262
X22.5125 Y1.1913 Z0.2628
X22.5135 Y1.1937 Z0.2638
X22.5146 Y1.196 Z0.265
X22.5158 Y1.1982 Z0.2662
X22.517 Y1.2002 Z0.2677
X22.5184 Y1.2022 Z0.2692
X22.5197 Y1.204 Z0.2709
X22.5211 Y1.2056 Z0.2727
X22.5224 Y1.2071 Z0.2747
X22.5238 Y1.2085 Z0.2767
X22.5251 Y1.2098 Z0.2788
X22.5263 Y1.2109 Z0.2811
X22.5275 Y1.2119 Z0.2834
X22.5287 Y1.2128 Z0.2858
X22.5297 Y1.2135 Z0.2883
X22.5306 Y1.2142 Z0.2909
X22.5315 Y1.2147 Z0.2935
X22.5322 Y1.2152 Z0.2962
X22.5328 Y1.2155 Z0.2989
X22.5333 Y1.2158 Z0.3016
X22.5336 Y1.216 Z0.3044
X22.5338 Y1.2161 Z0.3072
X22.5339 Y1.2162 Z0.31
G0 Z0.91
X21.1668 Y2.6718
Z0.6052
G1 Z0.4833 F50.
Y2.6721 Z0.478 F100.
Y2.6729 Z0.4727
Y2.6744 Z0.4675
Y2.6763 Z0.4625
Y2.6788 Z0.4578
Y2.6818 Z0.4534
Y2.6852 Z0.4492
Y2.6891 Z0.4455
Y2.6933 Z0.4422
Y2.6979 Z0.4394
Y2.7027 Z0.4371
Y2.7078 Z0.4353
Y2.713 Z0.4341
X21.1669 Y2.7183 Z0.4335
X21.1693 Y4.7341 Z0.2925
X21.4668 Z0.2717
X21.4666 Y4.5686 Z0.2601
Y4.5651 Z0.26
X21.4574 Y-1.2391
X21.4575 Y-1.2425
X21.4578 Y-1.254
X21.458 Y-1.26
X21.4585 Y-1.2659
X21.1611
X21.1615 Y-1.2593
X21.1617 Y-1.2537
X21.162 Y-1.2422
Y-1.2395
X21.1693 Y4.7341
X21.4668
X21.4666 Y4.5651
X21.4664 Y4.5623 Z0.2601
X21.4661 Y4.5596 Z0.2603
X21.4656 Y4.5568 Z0.2607
X21.465 Y4.5541 Z0.2613
X21.4642 Y4.5515 Z0.262
X21.4634 Y4.549 Z0.2628
X21.4623 Y4.5466 Z0.2638
X21.4612 Y4.5443 Z0.265
X21.4601 Y4.5421 Z0.2662
X21.4588 Y4.54 Z0.2677
X21.4575 Y4.5381 Z0.2692
X21.4561 Y4.5363 Z0.2709
X21.4548 Y4.5347 Z0.2727
X21.4534 Y4.5331 Z0.2747
X21.4521 Y4.5318 Z0.2767
X21.4508 Y4.5305 Z0.2788
X21.4495 Y4.5294 Z0.2811
X21.4483 Y4.5284 Z0.2834
X21.4472 Y4.5275 Z0.2858
X21.4461 Y4.5268 Z0.2883
X21.4452 Y4.5261 Z0.2909
X21.4444 Y4.5256 Z0.2935
X21.4436 Y4.5251 Z0.2962
X21.4431 Y4.5247 Z0.2989
X21.4426 Y4.5245 Z0.3016
X21.4422 Y4.5243 Z0.3044
X21.442 Y4.5241 Z0.3072
Z0.31
G0 Z0.91
X19.7206 Y3.8051
Z0.6052
G1 Z0.4833 F50.
Y3.8048 Z0.478 F100.
Y3.8039 Z0.4727
Y3.8025 Z0.4675
Y3.8006 Z0.4625
Y3.7981 Z0.4578
Y3.7951 Z0.4534
Y3.7917 Z0.4492
Y3.7878 Z0.4455
Y3.7836 Z0.4422
Y3.779 Z0.4394
Y3.7742 Z0.4371
Y3.7691 Z0.4353
Y3.7639 Z0.4341
Y3.7586 Z0.4335
X19.7176 Y1.3165 Z0.2627
G2 X19.7085 Y1.3007 Z0.2614 I-0.0184 J0.
G1 X19.7048 Y1.2985 Z0.2611
G2 X19.6919 Y1.2963 Z0.2601 I-0.0092 J0.0159
G1 X19.6903 Y1.2968 Z0.26
X19.6886 Y1.2973
G2 X19.6772 Y1.3144 I0.0069 J0.017
G1 X19.6835 Y4.3361
G2 X19.7213 Y4.336 I0.0189 J0.
G1 X19.7176 Y1.3165
G2 X19.7085 Y1.3007 I-0.0184 J0.
G1 X19.7048 Y1.2985
G2 X19.6886 Y1.2973 I-0.0092 J0.0159
G3 X19.5706 Y1.3415 I-0.8619 J-2.1251
G2 X19.4975 Y1.4441 I0.0351 J0.1024
G1 X19.5038 Y4.4903
G2 X19.5666 Y4.5529 I0.0628 J-0.0001
G1 X19.8389
G2 X19.9014 Y4.4903 I0. J-0.0625
G1 X19.8975 Y1.2607
G2 X19.8354 Y1.1641 I-0.1064 J0.0001
G3 X19.6494 Y1.0023 I0.1827 J-0.3982
G2 X19.5864 I-0.0315 J0.02
G3 X19.5598 Y1.0393 I-0.3333 J-0.2123
X19.5293 Y1.0731 I-0.3426 J-0.2784
G2 X19.4968 Y1.1516 I0.0782 J0.0783
G1 X19.4975 Y1.4441
G3 X19.4072 Y1.5802 I-0.1472 J0.0003
G2 X19.3168 Y1.7162 I0.0569 J0.1358
G1 X19.3232 Y4.7341
X20.0829
X20.0784 Y1.0234
X20.0213 Y1.0235
X20.0162 Y1.0234
X20.0047 Y1.0229
X19.9976 Y1.0225
X19.9948 Y1.0222
X19.989 Y1.0216
X19.9802 Y1.0203
X19.973 Y1.0191
X19.9672 Y1.018
X19.9614 Y1.0167
X19.9557 Y1.0153
X19.9499 Y1.0138
X19.9441 Y1.0121
X19.9384 Y1.0102
X19.9326 Y1.0082
X19.9248 Y1.0053
X19.9151 Y1.0012
X19.9093 Y0.9986
X19.9076 Y0.9978
X19.9038 Y0.9959
X19.898 Y0.9929
X19.8922 Y0.9897
X19.8865 Y0.9864
X19.8803 Y0.9825
X19.8737 Y0.9782
X19.868 Y0.9742
X19.863 Y0.9705
X19.8582 Y0.9668
X19.8536 Y0.963
X19.8491 Y0.9591
X19.8445 Y0.955
X19.841 Y0.9518
X19.8386 Y0.9495
X19.8352 Y0.9461
X19.8308 Y0.9415
X19.8265 Y0.9368
X19.8225 Y0.9322
X19.819 Y0.928
X19.8159 Y0.9242
X19.8116 Y0.9184
X19.8061 Y0.9107
X19.8018 Y0.9043
X19.7986 Y0.8993
X19.7956 Y0.8942
X19.7927 Y0.8892
X19.7909 Y0.886
X19.7902 Y0.8845
X19.7883 Y0.8809
X19.7855 Y0.8752
X19.7829 Y0.8694
X19.7804 Y0.8636
X19.778 Y0.8579
X19.7759 Y0.8521
X19.7739 Y0.8463
X19.772 Y0.8406
X19.7704 Y0.8351
X19.7689 Y0.8299
X19.7675 Y0.8242
X19.766 Y0.8178
X19.7648 Y0.8118
X19.7638 Y0.806
X19.7629 Y0.8002
X19.7621 Y0.7945
X19.7615 Y0.7887
X19.761 Y0.783
X19.7607 Y0.7772
X19.7604 Y0.7714
X19.7603 Y0.7662
X19.7601 Y0.6164
X19.7578 Y-1.2391
X19.7579 Y-1.2424
X19.7581 Y-1.254
X19.7584 Y-1.2599
X19.7588 Y-1.2659
X19.4714
X19.4718 Y-1.2591
X19.472 Y-1.2536
X19.4723 Y-1.2421
Y-1.2396
X19.4765 Y0.7542
Y0.7546
Y0.755
Y0.7665
X19.4763 Y0.7729
X19.476 Y0.7787
X19.4755 Y0.7844
X19.475 Y0.7902
X19.4743 Y0.796
X19.4734 Y0.8017
X19.4725 Y0.8075
X19.4714 Y0.8133
X19.4702 Y0.819
X19.4688 Y0.8248
X19.4673 Y0.8307
X19.4655 Y0.8367
X19.4637 Y0.8425
X19.4618 Y0.8482
X19.4598 Y0.8538
X19.4576 Y0.8594
X19.4552 Y0.8651
X19.4526 Y0.8709
X19.4499 Y0.8767
X19.4469 Y0.8824
X19.4445 Y0.887
X19.4425 Y0.8905
X19.4391 Y0.8963
X19.434 Y0.9043
G3 X19.4283 Y0.9127 I-0.1101 J-0.0692
G1 X19.4218 Y0.9214
X19.4173 Y0.9271
X19.415 Y0.93
X19.4116 Y0.9338
X19.4073 Y0.9386
X19.4027 Y0.9435
X19.3979 Y0.9483
X19.3944 Y0.9516
X19.3924 Y0.9535
X19.389 Y0.9565
X19.3843 Y0.9606
X19.3795 Y0.9645
X19.3747 Y0.9683
X19.3698 Y0.972
X19.3646 Y0.9757
X19.3589 Y0.9795
X19.3525 Y0.9836
X19.3464 Y0.9872
X19.3406 Y0.9904
X19.3349 Y0.9935
X19.3291 Y0.9963
X19.3247 Y0.9984
X19.3215 Y0.9998
X19.3158 Y1.0023
X19.3154 Y1.0024
X19.3168 Y1.7162
X19.317 Y1.719 Z0.2601
X19.3173 Y1.7218 Z0.2603
X19.3178 Y1.7245 Z0.2607
X19.3184 Y1.7272 Z0.2613
X19.3192 Y1.7298 Z0.262
X19.3201 Y1.7324 Z0.2628
X19.3211 Y1.7348 Z0.2638
X19.3222 Y1.7371 Z0.265
X19.3234 Y1.7393 Z0.2662
X19.3246 Y1.7413 Z0.2677
X19.3259 Y1.7433 Z0.2692
X19.3273 Y1.745 Z0.2709
X19.3286 Y1.7467 Z0.2727
X19.33 Y1.7482 Z0.2747
X19.3313 Y1.7496 Z0.2767
X19.3327 Y1.7508 Z0.2788
X19.3339 Y1.752 Z0.2811
X19.3351 Y1.753 Z0.2834
X19.3362 Y1.7538 Z0.2858
X19.3373 Y1.7546 Z0.2883
X19.3382 Y1.7552 Z0.2909
X19.3391 Y1.7558 Z0.2935
X19.3398 Y1.7563 Z0.2962
X19.3404 Y1.7566 Z0.2989
X19.3408 Y1.7569 Z0.3016
X19.3412 Y1.7571 Z0.3044
X19.3414 Y1.7572 Z0.3072
X19.3415 Y1.7573 Z0.31
G0 Z0.91
X17.7914 Y1.9695
Z0.6052
G1 Z0.4833 F50.
Y1.9698 Z0.478 F100.
Y1.9707 Z0.4727
Y1.9721 Z0.4675
Y1.9741 Z0.4625
Y1.9765 Z0.4578
Y1.9795 Z0.4534
Y1.983 Z0.4492
Y1.9868 Z0.4455
Y1.9911 Z0.4422
Y1.9956 Z0.4394
X17.7913 Y2.0005 Z0.4371
Y2.0055 Z0.4353
Y2.0107 Z0.4341
Y2.016 Z0.4335
X17.7844 Y4.3259 Z0.2719
G2 X17.8315 Y4.3731 Z0.2668 I0.0471 J0.0001
G1 X17.8344 Z0.2666
G2 X17.8815 Y4.3259 Z0.2614 I0. J-0.0471
G1 X17.8814 Y4.308 Z0.2601
Y4.3045 Z0.26
X17.8752 Y1.3314
G2 X17.821 Y1.3003 I-0.0361 J0.0001
G1 X17.8168 Y1.3027
X17.8111 Y1.3059
G2 X17.7933 Y1.3364 I0.0172 J0.0305
G1 X17.7844 Y4.3259
G2 X17.8315 Y4.3731 I0.0471 J0.0001
G1 X17.8344
G2 X17.8815 Y4.3259 I0. J-0.0471
G1 X17.8814 Y4.3045
G3 X17.9711 Y4.1693 I0.1463 J-0.0003
G2 X18.0608 Y4.0341 I-0.0565 J-0.1349
G1 X18.0548 Y1.1715
G2 X18.0179 Y1.0882 I-0.1129 J0.0002
G3 X17.9439 Y0.9993 I0.2838 J-0.3118
G2 X17.8806 I-0.0317 J0.0197
G3 X17.6769 Y1.1714 I-0.3675 J-0.2284
G2 X17.6135 Y1.2658 I0.039 J0.0947
G1 X17.604 Y4.4893
G2 X17.6676 Y4.5531 I0.0636 J0.0002
G1 X17.9981
G2 X18.0618 Y4.4893 I0. J-0.0637
G1 X18.0608 Y4.0341
G3 X18.1511 Y3.8982 I0.1471 J-0.0003
G2 X18.2413 Y3.7622 I-0.0568 J-0.1356
G1 X18.2355 Y1.0108
X18.2333 Y1.0101
X18.2275 Y1.0081
X18.2217 Y1.0059
X18.2154 Y1.0033
X18.2084 Y1.0002
X18.2027 Y0.9975
X18.1981 Y0.9952
X18.1929 Y0.9925
X18.1871 Y0.9893
X18.1814 Y0.9858
X18.1756 Y0.9822
X18.171 Y0.9792
X18.1675 Y0.9768
X18.1617 Y0.9725
X18.1536 Y0.9663
X18.1501 Y0.9635
X18.1467 Y0.9605
X18.1407 Y0.9552
X18.135 Y0.9498
X18.1294 Y0.9441
X18.124 Y0.9383
X18.1188 Y0.9325
X18.1159 Y0.929
X18.113 Y0.9254
X18.1066 Y0.9169
X18.1025 Y0.9111
X18.1003 Y0.908
X18.0975 Y0.9036
X18.0939 Y0.8978
X18.0905 Y0.8921
X18.0874 Y0.8863
X18.0845 Y0.8807
X18.0818 Y0.8751
X18.0791 Y0.8694
X18.0765 Y0.8634
X18.0742 Y0.8575
X18.072 Y0.8517
X18.07 Y0.8459
X18.0682 Y0.8402
X18.0665 Y0.8344
X18.065 Y0.8287
X18.0635 Y0.8229
X18.0623 Y0.8171
X18.0611 Y0.8114
X18.0601 Y0.8056
X18.0593 Y0.7998
X18.0585 Y0.7941
X18.058 Y0.7889
X18.0576 Y0.7845
X18.0572 Y0.7787
X18.0569 Y0.7717
X18.0568 Y0.7663
X18.0525 Y-1.239
X18.0526 Y-1.2425
X18.0529 Y-1.254
X18.0532 Y-1.2602
X18.0536 Y-1.2659
X17.7724
X17.7728 Y-1.2604
X17.7731 Y-1.2542
X17.7734 Y-1.2426
Y-1.2389
X17.7675 Y0.7664
X17.7674 Y0.7707
X17.7672 Y0.7764
X17.7668 Y0.7822
X17.7664 Y0.7879
X17.7658 Y0.7937
X17.7651 Y0.7995
X17.7642 Y0.8052
X17.7632 Y0.811
X17.7619 Y0.8177
X17.7602 Y0.8253
X17.7587 Y0.8311
X17.7577 Y0.835
X17.7562 Y0.8398
X17.7544 Y0.8456
X17.7524 Y0.8513
X17.7503 Y0.8571
X17.748 Y0.8629
X17.7456 Y0.8686
X17.743 Y0.8744
X17.7402 Y0.8802
X17.7381 Y0.8842
X17.7368 Y0.8867
X17.7336 Y0.8925
X17.7282 Y0.9016
G3 X17.7224 Y0.9105 I-0.1117 J-0.0664
G1 X17.7163 Y0.9191
X17.712 Y0.9248
X17.7097 Y0.9277
X17.7064 Y0.9317
X17.702 Y0.9367
X17.6974 Y0.9418
X17.6925 Y0.9469
X17.6893 Y0.9501
X17.6879 Y0.9515
X17.6847 Y0.9545
X17.6796 Y0.9591
X17.6746 Y0.9634
X17.6695 Y0.9676
X17.6651 Y0.971
X17.6613 Y0.9738
X17.6556 Y0.9779
X17.6478 Y0.9831
X17.6411 Y0.9873
X17.6353 Y0.9907
X17.6295 Y0.9938
X17.6237 Y0.9968
X17.6179 Y0.9996
X17.6122 Y1.0022
X17.6064 Y1.0047
X17.6007 Y1.007
X17.5949 Y1.0091
X17.5891 Y1.0111
X17.5834 Y1.0129
X17.5776 Y1.0146
X17.5718 Y1.0161
X17.5661 Y1.0176
X17.5603 Y1.0188
X17.5545 Y1.0199
X17.5503 Y1.0207
X17.5478 Y1.0211
X17.542 Y1.0219
X17.533 Y1.023
G3 X17.5228 Y1.0237 I-0.015 J-0.1291
G1 X17.5113 Y1.0242
X17.5061 Y1.0243
X17.4332 Y1.024
X17.4222 Y4.7341
X18.2433
X18.2413 Y3.7622
X18.2411 Y3.7594 Z0.2601
X18.2408 Y3.7567 Z0.2603
X18.2403 Y3.7539 Z0.2607
X18.2397 Y3.7512 Z0.2613
X18.2389 Y3.7486 Z0.262
X18.2381 Y3.7461 Z0.2628
X18.2371 Y3.7437 Z0.2638
X18.2359 Y3.7414 Z0.265
X18.2348 Y3.7392 Z0.2662
X18.2335 Y3.7371 Z0.2677
X18.2322 Y3.7352 Z0.2692
X18.2308 Y3.7334 Z0.2709
X18.2295 Y3.7318 Z0.2727
X18.2281 Y3.7303 Z0.2747
X18.2268 Y3.7289 Z0.2767
X18.2255 Y3.7276 Z0.2788
X18.2242 Y3.7265 Z0.2811
X18.223 Y3.7255 Z0.2834
X18.2219 Y3.7246 Z0.2858
X18.2208 Y3.7239 Z0.2883
X18.2199 Y3.7232 Z0.2909
X18.2191 Y3.7227 Z0.2935
X18.2183 Y3.7222 Z0.2962
X18.2177 Y3.7219 Z0.2989
X18.2173 Y3.7216 Z0.3016
X18.2169 Y3.7214 Z0.3044
X18.2167 Y3.7213 Z0.3072
Y3.7212 Z0.31
G0 Z0.91
X16.0357 Y2.7083
Z0.6052
G1 Z0.4833 F50.
Y2.7086 Z0.478 F100.
Y2.7094 Z0.4727
Y2.7109 Z0.4675
Y2.7128 Z0.4625
Y2.7153 Z0.4578
Y2.7183 Z0.4534
X16.0356 Y2.7217 Z0.4492
Y2.7256 Z0.4455
Y2.7298 Z0.4422
Y2.7344 Z0.4394
X16.0355 Y2.7392 Z0.4371
Y2.7443 Z0.4353
Y2.7495 Z0.4341
X16.0354 Y2.7548 Z0.4335
X16.023 Y4.7341 Z0.2951
X16.3455 Z0.2725
X16.346 Y4.5571 Z0.2601
Y4.5536 Z0.26
X16.3632 Y-1.2397
Y-1.2421
X16.3634 Y-1.2536
X16.3637 Y-1.2589
X16.3641 Y-1.2659
X16.0594
X16.0598 Y-1.2611
X16.0601 Y-1.2546
X16.0604 Y-1.243
X16.0605 Y-1.2386
X16.0603 Y-1.204
Y-1.2039
X16.023 Y4.7341
X16.3455
X16.346 Y4.5536
X16.3458 Y4.5508 Z0.2601
X16.3455 Y4.548 Z0.2603
X16.3451 Y4.5453 Z0.2607
X16.3445 Y4.5426 Z0.2613
X16.3437 Y4.54 Z0.262
X16.3429 Y4.5375 Z0.2628
X16.3419 Y4.5351 Z0.2638
X16.3408 Y4.5327 Z0.265
X16.3396 Y4.5305 Z0.2662
X16.3383 Y4.5285 Z0.2677
X16.337 Y4.5265 Z0.2692
X16.3357 Y4.5247 Z0.2709
X16.3343 Y4.5231 Z0.2727
X16.333 Y4.5216 Z0.2747
X16.3317 Y4.5202 Z0.2767
X16.3304 Y4.5189 Z0.2788
X16.3291 Y4.5178 Z0.2811
X16.3279 Y4.5168 Z0.2834
X16.3268 Y4.5159 Z0.2858
X16.3257 Y4.5152 Z0.2883
X16.3248 Y4.5145 Z0.2909
X16.324 Y4.5139 Z0.2935
X16.3233 Y4.5135 Z0.2962
X16.3227 Y4.5131 Z0.2989
X16.3222 Y4.5128 Z0.3016
X16.3219 Y4.5126 Z0.3044
X16.3217 Y4.5125 Z0.3072
X16.3216 Z0.31
G0 Z0.91
X14.6388 Y3.8485
Z0.6052
G1 Z0.4833 F50.
Y3.8482 Z0.478 F100.
Y3.8474 Z0.4727
X14.6389 Y3.846 Z0.4675
Y3.844 Z0.4625
Y3.8415 Z0.4578
Y3.8385 Z0.4534
Y3.8351 Z0.4492
Y3.8312 Z0.4455
X14.639 Y3.827 Z0.4422
Y3.8224 Z0.4394
Y3.8176 Z0.4371
X14.6391 Y3.8125 Z0.4353
Y3.8073 Z0.4341
Y3.802 Z0.4335
X14.6546 Y1.3396 Z0.2613
G2 X14.6498 Y1.3243 Z0.2601 I-0.026 J-0.0002
G1 X14.6487 Y1.3229 Z0.26
X14.6475 Y1.3216
X14.6453 Y1.3195
X14.6428 Y1.3176
X14.6402 Y1.3161
X14.6395 Y1.3158
G2 X14.6019 Y1.339 I-0.0116 J0.0233
G1 X14.5946 Y4.3334
G2 X14.6358 Y4.3336 I0.0206 J0.0001
G1 X14.6546 Y1.3396
G2 X14.6475 Y1.3216 I-0.026 J-0.0002
G3 X14.5961 Y1.1692 I0.1411 J-0.1325
G2 X14.5559 Y1.0134 I-0.2302 J-0.0237
G3 X14.5404 Y0.9895 I0.3511 J-0.2439
G2 X14.48 I-0.0302 J0.0181
G3 X14.4413 Y1.0445 I-0.3995 J-0.2397
G2 X14.4225 Y1.0969 I0.0639 J0.0526
G1 X14.4142 Y4.4904
G2 X14.4766 Y4.5529 I0.0624 J0.0002
G1 X14.7518
G2 X14.8148 Y4.4902 I0. J-0.0631
G1 X14.8351 Y1.2634
G2 X14.7744 Y1.1776 I-0.0903 J-0.0006
G3 X14.6409 Y1.1041 I0.1487 J-0.4283
X14.5559 Y1.0134 I0.2661 J-0.3346
X14.5787 Y0.8228 I0.1188 J-0.0825
G2 X14.658 Y0.6479 I-0.1565 J-0.1764
G1 X14.6699 Y-1.2401
G3 X14.6701 Y-1.2534 I0.874 J0.0098
G1 X14.6703 Y-1.2584
X14.6708 Y-1.2659
X14.3646
X14.365 Y-1.2602
X14.3653 Y-1.2541
X14.3656 Y-1.2426
X14.3657 Y-1.239
X14.3607 Y0.7663
X14.3606 Y0.7711
X14.3604 Y0.7772
X14.3601 Y0.783
X14.3596 Y0.7884
X14.359 Y0.7939
X14.3583 Y0.7997
X14.3574 Y0.8055
X14.3564 Y0.8112
X14.3553 Y0.817
X14.354 Y0.8228
X14.3526 Y0.8285
X14.3511 Y0.8343
X14.3494 Y0.8401
X14.3475 Y0.8458
X14.3456 Y0.8516
X14.3434 Y0.8573
X14.3411 Y0.8632
X14.3385 Y0.8692
X14.3359 Y0.875
X14.3332 Y0.8805
X14.3303 Y0.8862
X14.3271 Y0.8919
X14.3237 Y0.8977
X14.3202 Y0.9035
X14.3173 Y0.9079
X14.3152 Y0.911
X14.311 Y0.9169
X14.3047 Y0.9252
X14.3018 Y0.9288
X14.2989 Y0.9324
X14.2937 Y0.9383
X14.2883 Y0.944
X14.2828 Y0.9496
X14.277 Y0.9551
X14.271 Y0.9605
X14.2676 Y0.9634
X14.2641 Y0.9663
X14.2561 Y0.9724
X14.2503 Y0.9767
X14.2467 Y0.9792
X14.242 Y0.9823
X14.2415 Y0.9826
X14.2324 Y4.7341
X14.9945
X15.0178 Y1.0208
X14.9218 Y1.0202
X14.9212
X14.9205
X14.909 Y1.02
X14.902 Y1.0197
X14.8962 Y1.0193
X14.8904 Y1.0188
X14.8846 Y1.0181
X14.8789 Y1.0173
X14.8731 Y1.0164
X14.8673 Y1.0153
X14.8616 Y1.0141
X14.8558 Y1.0128
X14.85 Y1.0113
X14.8443 Y1.0097
X14.8385 Y1.0079
X14.8324 Y1.0059
X14.8259 Y1.0036
X14.8202 Y1.0013
X14.8151 Y0.9992
X14.8097 Y0.9968
X14.8039 Y0.9941
X14.7981 Y0.9912
X14.7924 Y0.9881
X14.7864 Y0.9848
X14.7804 Y0.9812
X14.7746 Y0.9775
X14.7691 Y0.9738
X14.7639 Y0.9701
X14.759 Y0.9664
X14.754 Y0.9624
X14.749 Y0.9583
X14.7458 Y0.9555
X14.7442 Y0.9541
X14.7407 Y0.9509
X14.7354 Y0.9459
X14.7303 Y0.9408
X14.7256 Y0.9358
X14.7225 Y0.9324
X14.721 Y0.9307
X14.7182 Y0.9274
X14.7142 Y0.9225
X14.7104 Y0.9175
X14.7067 Y0.9126
X14.703 Y0.9073
X14.6991 Y0.9015
X14.6955 Y0.8957
X14.6921 Y0.89
X14.6889 Y0.8842
X14.6858 Y0.8785
X14.683 Y0.8727
X14.6803 Y0.867
X14.6777 Y0.8611
X14.6753 Y0.8551
X14.6731 Y0.8494
X14.6712 Y0.8438
X14.6693 Y0.8381
X14.6676 Y0.8324
X14.666 Y0.8266
X14.6645 Y0.8208
X14.6632 Y0.8151
X14.662 Y0.8093
X14.661 Y0.8036
X14.6601 Y0.7978
X14.6593 Y0.792
X14.6587 Y0.7863
X14.6581 Y0.7805
X14.6577 Y0.7747
X14.6575 Y0.7671
G3 X14.6574 Y0.7537 I0.8019 J-0.0127
G1 X14.658 Y0.6479
X14.6579 Y0.6451 Z0.2601
X14.6576 Y0.6423 Z0.2603
X14.6571 Y0.6395 Z0.2607
X14.6565 Y0.6369 Z0.2613
X14.6558 Y0.6342 Z0.262
X14.6549 Y0.6317 Z0.2628
X14.654 Y0.6293 Z0.2638
X14.6529 Y0.627 Z0.265
X14.6517 Y0.6248 Z0.2662
X14.6505 Y0.6227 Z0.2677
X14.6492 Y0.6208 Z0.2692
X14.6478 Y0.619 Z0.2709
X14.6465 Y0.6173 Z0.2727
X14.6451 Y0.6158 Z0.2747
X14.6438 Y0.6144 Z0.2767
X14.6425 Y0.6131 Z0.2788
X14.6412 Y0.612 Z0.2811
X14.6401 Y0.611 Z0.2834
X14.6389 Y0.6101 Z0.2858
X14.6379 Y0.6093 Z0.2883
X14.637 Y0.6087 Z0.2909
X14.6361 Y0.6081 Z0.2935
X14.6354 Y0.6076 Z0.2962
X14.6348 Y0.6073 Z0.2989
X14.6344 Y0.607 Z0.3016
X14.634 Y0.6068 Z0.3044
X14.6338 Y0.6067 Z0.3072
Y0.6066 Z0.31
G0 Z0.91
X13.0011 Y3.2359
Z0.6052
G1 Z0.4833 F50.
Y3.2356 Z0.478 F100.
Y3.2347 Z0.4727
Y3.2333 Z0.4675
Y3.2313 Z0.4625
Y3.2288 Z0.4578
Y3.2259 Z0.4534
Y3.2224 Z0.4492
Y3.2186 Z0.4455
Y3.2143 Z0.4422
X13.0012 Y3.2098 Z0.4394
Y3.2049 Z0.4371
Y3.1999 Z0.4353
Y3.1947 Z0.4341
Y3.1893 Z0.4335
X13.006 Y1.2335 Z0.2967
G2 X12.9457 Y1.1075 Z0.2866 I-0.161 J-0.0004
G3 X12.8931 Y1.0583 Z0.2816 I0.2968 J-0.37
X12.8492 Y1.0011 Z0.2765 I0.3034 J-0.2785
G2 X12.7864 Z0.2713 I-0.0314 J0.02
G3 X12.6793 Y1.116 Z0.2602 I-0.3624 J-0.2306
G1 X12.6781 Y1.1169 Z0.2601
X12.6767 Y1.118 Z0.26
X12.6753 Y1.119
G2 X12.6176 Y1.2383 I0.0943 J0.1191
G1 X12.6211 Y4.4903
G2 X12.6837 Y4.5529 I0.0627 J-0.0001
G1 X12.9352
G2 X12.998 Y4.4903 I0. J-0.0628
G1 X13.006 Y1.2335
G2 X12.9457 Y1.1075 I-0.161 J-0.0004
G3 X12.8931 Y1.0583 I0.2968 J-0.37
X12.8492 Y1.0011 I0.3034 J-0.2785
G2 X12.7864 I-0.0314 J0.02
G3 X12.6793 Y1.116 I-0.3624 J-0.2306
G1 X12.6753 Y1.119
G3 X12.5514 Y1.1112 I-0.0576 J-0.0728
G2 X12.4364 Y1.1581 I-0.0479 J0.0469
G1 X12.4401 Y4.7341
X13.1786
X13.1877 Y1.0199
X13.1851 Y1.0195
X13.1793 Y1.0187
X13.1735 Y1.0177
X13.1678 Y1.0166
X13.162 Y1.0153
X13.1562 Y1.0139
X13.1504 Y1.0124
X13.1447 Y1.0107
X13.1389 Y1.0089
X13.1331 Y1.007
X13.1274 Y1.0049
X13.1216 Y1.0026
X13.1183 Y1.0012
X13.1174 Y1.0008
X13.1143 Y0.9995
X13.109 Y0.997
X13.1036 Y0.9944
X13.0983 Y0.9917
X13.093 Y0.9888
X13.0878 Y0.9858
X13.0826 Y0.9827
X13.0773 Y0.9793
X13.0742 Y0.9772
X13.0731 Y0.9765
X13.0697 Y0.9741
X13.0639 Y0.9699
X13.0581 Y0.9654
X13.0524 Y0.9607
X13.0485 Y0.9574
X13.0463 Y0.9555
X13.0428 Y0.9522
X13.0378 Y0.9475
X13.0331 Y0.9428
X13.0287 Y0.9381
X13.0255 Y0.9346
X13.0237 Y0.9326
X13.0204 Y0.9287
X13.0157 Y0.9229
X13.0113 Y0.9171
X13.0071 Y0.9114
X13.0047 Y0.9078
X13.0038 Y0.9066
X13.0017 Y0.9034
X12.9985 Y0.8983
X12.9954 Y0.8931
X12.9925 Y0.888
X12.9896 Y0.8826
X12.9867 Y0.877
X12.984 Y0.8713
X12.9813 Y0.8653
X12.9789 Y0.8595
X12.9766 Y0.8537
X12.9745 Y0.848
X12.9726 Y0.8422
X12.9708 Y0.8364
X12.9691 Y0.8307
X12.9676 Y0.8249
X12.9662 Y0.8192
X12.965 Y0.8134
X12.9639 Y0.8076
X12.9629 Y0.8019
X12.9621 Y0.7961
X12.9614 Y0.7903
X12.9608 Y0.7846
X12.9604 Y0.7788
X12.9601 Y0.773
X12.9599 Y0.7666
X12.9598 Y0.755
Y0.7546
Y0.7542
X12.9647 Y-1.2396
Y-1.2421
X12.965 Y-1.2536
X12.9652 Y-1.259
X12.9656 Y-1.2659
X12.6723
X12.6728 Y-1.2594
X12.673 Y-1.2537
X12.6733 Y-1.2422
Y-1.2394
X12.6754 Y0.7544
Y0.7549
X12.6753 Y0.7665
X12.6752 Y0.7724
X12.6749 Y0.7782
X12.6745 Y0.784
X12.6739 Y0.7897
X12.6733 Y0.7955
X12.6725 Y0.8012
X12.6715 Y0.807
X12.6705 Y0.8128
X12.6693 Y0.8185
X12.6679 Y0.8243
X12.6664 Y0.8301
X12.6648 Y0.8358
X12.663 Y0.8416
X12.6611 Y0.8474
X12.6591 Y0.8531
X12.6568 Y0.8589
X12.6553 Y0.8626
X12.6546 Y0.8642
X12.652 Y0.87
X12.6473 Y0.8799
X12.6432 Y0.8876
X12.64 Y0.8933
X12.6366 Y0.8991
X12.6328 Y0.9049
X12.6289 Y0.9108
X12.6248 Y0.9165
X12.6204 Y0.9223
X12.6158 Y0.9281
X12.6121 Y0.9324
X12.6095 Y0.9354
X12.6062 Y0.9391
X12.6021 Y0.9433
X12.5979 Y0.9476
X12.5935 Y0.9518
X12.5897 Y0.9553
X12.5866 Y0.9581
X12.5823 Y0.9618
X12.5766 Y0.9664
X12.5708 Y0.9709
X12.565 Y0.9751
X12.5592 Y0.9791
X12.5534 Y0.9828
X12.5476 Y0.9863
X12.5419 Y0.9896
X12.5345 Y0.9935
X12.5255 Y0.9979
X12.5197 Y1.0006
X12.5172 Y1.0017
X12.513 Y1.0034
X12.5072 Y1.0057
X12.5015 Y1.0078
X12.4957 Y1.0097
X12.4899 Y1.0115
X12.4842 Y1.0132
X12.4784 Y1.0147
X12.4726 Y1.0161
X12.4669 Y1.0173
X12.4611 Y1.0184
X12.4553 Y1.0194
X12.4496 Y1.0202
X12.4438 Y1.0209
X12.438 Y1.0215
X12.4374
X12.4368 Y1.0216
X12.4362
X12.4364 Y1.1581
X12.4365 Y1.1609 Z0.2601
X12.4369 Y1.1637 Z0.2603
X12.4373 Y1.1664 Z0.2607
X12.4379 Y1.1691 Z0.2613
X12.4387 Y1.1717 Z0.262
X12.4396 Y1.1743 Z0.2628
X12.4406 Y1.1767 Z0.2638
X12.4417 Y1.179 Z0.265
X12.4429 Y1.1812 Z0.2662
X12.4441 Y1.1832 Z0.2677
X12.4454 Y1.1852 Z0.2692
X12.4468 Y1.187 Z0.2709
X12.4481 Y1.1886 Z0.2727
X12.4495 Y1.1901 Z0.2747
X12.4508 Y1.1915 Z0.2767
X12.4522 Y1.1928 Z0.2788
X12.4534 Y1.1939 Z0.2811
X12.4546 Y1.1949 Z0.2834
X12.4557 Y1.1958 Z0.2858
X12.4568 Y1.1965 Z0.2883
X12.4577 Y1.1972 Z0.2909
X12.4586 Y1.1977 Z0.2935
X12.4593 Y1.1982 Z0.2962
X12.4599 Y1.1985 Z0.2989
X12.4603 Y1.1988 Z0.3016
X12.4607 Y1.199 Z0.3044
X12.4609 Y1.1991 Z0.3072
Y1.1992 Z0.31
G0 Z0.91
X10.7623 Y2.5782
Z0.6052
G1 Z0.4833 F50.
Y2.5785 Z0.478 F100.
Y2.5793 Z0.4727
Y2.5807 Z0.4675
Y2.5827 Z0.4625
Y2.5852 Z0.4578
Y2.5882 Z0.4534
Y2.5916 Z0.4492
Y2.5955 Z0.4455
Y2.5997 Z0.4422
Y2.6043 Z0.4394
Y2.6091 Z0.4371
Y2.6142 Z0.4353
Y2.6194 Z0.4341
Y2.6247 Z0.4335
X10.7607 Y4.4892 Z0.3031
G2 X10.8245 Y4.5531 Z0.2961 I0.0638 J0.0001
G1 X11.0892 Z0.2776
G2 X11.153 Y4.4892 Z0.2705 I0. J-0.0638
G1 X11.1529 Y4.3403 Z0.2601
Y4.3368 Z0.26
X11.1494 Y1.0164
G2 X11.1425 Y0.9918 I-0.0471 J0.
G3 X11.1361 Y0.981 I0.2914 J-0.1785
X11.13 Y0.97 I0.4876 J-0.2745
G2 X11.072 I-0.029 J0.0155
G3 X10.8497 Y1.1722 I-0.3945 J-0.2104
X10.8379 Y1.1764 I-0.0476 J-0.114
G2 X10.826 Y1.1803 I0.0891 J0.2942
X10.7635 Y1.2682 I0.0306 J0.088
G1 X10.7607 Y4.4892
G2 X10.8245 Y4.5531 I0.0638 J0.0001
G1 X11.0892
G2 X11.153 Y4.4892 I0. J-0.0638
G1 X11.1529 Y4.3368
G3 X11.2432 Y4.201 I0.1471 J-0.0002
G2 X11.3336 Y4.0651 I-0.0567 J-0.1357
G1 X11.3303 Y0.9414
X11.3237 Y0.9342
X11.318 Y0.9275
X11.3141 Y0.9226
X11.3098 Y0.9169
X11.3051 Y0.9103
X11.301 Y0.9041
X11.2974 Y0.8983
X11.294 Y0.8925
X11.2907 Y0.8866
X11.2877 Y0.8808
X11.2849 Y0.8751
X11.2823 Y0.8694
X11.2798 Y0.8637
X11.2775 Y0.8579
X11.2753 Y0.8522
X11.2733 Y0.8464
X11.2714 Y0.8407
X11.2693 Y0.8335
X11.2671 Y0.825
X11.2657 Y0.8193
X11.2651 Y0.8162
X11.2642 Y0.8118
X11.2632 Y0.8061
X11.2623 Y0.8003
X11.2615 Y0.7945
X11.2609 Y0.7888
X11.2604 Y0.783
X11.26 Y0.7773
X11.2598 Y0.7715
X11.2597 Y0.7662
X11.2596 Y0.697
X11.2576 Y-1.2392
Y-1.2424
X11.2579 Y-1.2539
X11.2582 Y-1.2599
X11.2586 Y-1.2659
X10.9432
X10.9436 Y-1.2598
X10.9439 Y-1.2539
X10.9441 Y-1.2424
X10.9442 Y-1.2392
X10.9424 Y0.7546
Y0.7549
Y0.7664
X10.9423 Y0.7716
X10.942 Y0.7773
X10.9416 Y0.7831
X10.9411 Y0.7889
X10.9405 Y0.7946
X10.9397 Y0.8004
X10.9388 Y0.8062
X10.9378 Y0.8119
X10.9366 Y0.8177
X10.9353 Y0.8235
X10.9339 Y0.8292
X10.9323 Y0.835
X10.9304 Y0.8415
X10.928 Y0.8487
X10.9259 Y0.8544
X10.9243 Y0.8588
X10.9222 Y0.8638
X10.9197 Y0.8696
X10.917 Y0.8753
X10.9142 Y0.8811
X10.9105 Y0.888
X10.906 Y0.8959
X10.9025 Y0.9017
X10.9003 Y0.9052
X10.8971 Y0.9099
X10.8931 Y0.9157
X10.8888 Y0.9214
X10.8842 Y0.9272
X10.8816 Y0.9304
X10.8809 Y0.9312
X10.8782 Y0.9343
X10.8734 Y0.9397
X10.8683 Y0.9451
X10.8629 Y0.9505
X10.8595 Y0.9537
X10.8582 Y0.9549
X10.8547 Y0.958
X10.8489 Y0.963
X10.8431 Y0.9677
X10.8374 Y0.9721
X10.8338 Y0.9747
X10.8324 Y0.9757
X10.8292 Y0.9779
X10.8241 Y0.9813
X10.819 Y0.9845
X10.8139 Y0.9876
X10.8065 Y0.9917
X10.7967 Y0.9968
X10.7909 Y0.9996
X10.7892 Y1.0004
X10.7854 Y1.002
X10.7797 Y1.0044
X10.7739 Y1.0067
X10.7681 Y1.0088
X10.7624 Y1.0107
X10.7566 Y1.0125
X10.7508 Y1.0141
X10.7451 Y1.0156
X10.7393 Y1.017
X10.7335 Y1.0182
X10.7278 Y1.0193
X10.722 Y1.0203
X10.7158 Y1.0211
X10.7093 Y1.0219
X10.7035 Y1.0225
X10.6985 Y1.0228
X10.6912 Y1.0231
X10.6796 Y1.0233
X10.6776
X10.5827 Y1.0232
X10.5794 Y4.7341
X11.3343
X11.3336 Y4.0651
X11.3334 Y4.0623 Z0.2601
X11.3331 Y4.0596 Z0.2603
X11.3326 Y4.0568 Z0.2607
X11.332 Y4.0542 Z0.2613
X11.3313 Y4.0515 Z0.262
X11.3304 Y4.049 Z0.2628
X11.3294 Y4.0466 Z0.2638
X11.3283 Y4.0443 Z0.265
X11.3271 Y4.0421 Z0.2662
X11.3258 Y4.04 Z0.2677
X11.3245 Y4.0381 Z0.2692
X11.3232 Y4.0363 Z0.2709
X11.3218 Y4.0347 Z0.2727
X11.3204 Y4.0331 Z0.2747
X11.3191 Y4.0318 Z0.2767
X11.3178 Y4.0305 Z0.2788
X11.3165 Y4.0294 Z0.2811
X11.3153 Y4.0284 Z0.2834
X11.3142 Y4.0275 Z0.2858
X11.3132 Y4.0268 Z0.2883
X11.3122 Y4.0261 Z0.2909
X11.3114 Y4.0256 Z0.2935
X11.3107 Y4.0251 Z0.2962
X11.3101 Y4.0247 Z0.2989
X11.3096 Y4.0245 Z0.3016
X11.3093 Y4.0243 Z0.3044
X11.3091 Y4.0241 Z0.3072
X11.309 Z0.31
G0 Z0.91
X9.5533 Y1.0959
Z0.6052
G1 Z0.4833 F50.
Y1.0956 Z0.478 F100.
Y1.0947 Z0.4727
Y1.0933 Z0.4675
Y1.0913 Z0.4625
Y1.0888 Z0.4578
Y1.0859 Z0.4534
Y1.0824 Z0.4492
Y1.0786 Z0.4455
Y1.0743 Z0.4422
Y1.0698 Z0.4394
Y1.0649 Z0.4371
Y1.0599 Z0.4353
Y1.0547 Z0.4341
Y1.0493 Z0.4335
X9.5553 Y-1.2394 Z0.2734
Y-1.2422 Z0.2732
X9.5556 Y-1.2537 Z0.2724
X9.5557 Y-1.2562 Z0.2722
X9.5558 Y-1.2588 Z0.2721
X9.556 Y-1.2628 Z0.2718
X9.5562 Y-1.2659 Z0.2716
X9.3927 Z0.2601
X9.3892 Z0.26
X9.2616
X9.2617 Y-1.2651
X9.2619 Y-1.2611
X9.2621 Y-1.2559
X9.2622 Y-1.2533
G3 X9.2624 Y-1.2402 I-0.9934 J0.0246
G1 X9.3051 Y4.7341
X9.5501
X9.5553 Y-1.2394
Y-1.2422
X9.5556 Y-1.2537
X9.5557 Y-1.2562
X9.5558 Y-1.2588
X9.556 Y-1.2628
X9.5562 Y-1.2659
X9.3892
X9.3864 Y-1.2657 Z0.2601
X9.3836 Y-1.2654 Z0.2603
X9.3809 Y-1.265 Z0.2607
X9.3782 Y-1.2644 Z0.2613
X9.3756 Y-1.2636 Z0.262
X9.3731 Y-1.2627 Z0.2628
X9.3707 Y-1.2617 Z0.2638
X9.3684 Y-1.2606 Z0.265
X9.3662 Y-1.2594 Z0.2662
X9.3641 Y-1.2582 Z0.2677
X9.3622 Y-1.2569 Z0.2692
X9.3604 Y-1.2555 Z0.2709
X9.3587 Y-1.2542 Z0.2727
X9.3572 Y-1.2528 Z0.2747
X9.3558 Y-1.2515 Z0.2767
X9.3546 Y-1.2502 Z0.2788
X9.3535 Y-1.2489 Z0.2811
X9.3525 Y-1.2477 Z0.2834
X9.3516 Y-1.2466 Z0.2858
X9.3508 Y-1.2455 Z0.2883
X9.3502 Y-1.2446 Z0.2909
X9.3496 Y-1.2438 Z0.2935
X9.3492 Y-1.2431 Z0.2962
X9.3488 Y-1.2425 Z0.2989
X9.3485 Y-1.242 Z0.3016
X9.3483 Y-1.2416 Z0.3044
X9.3482 Y-1.2414 Z0.3072
Z0.31
G0 Z0.91
X7.8017 Y2.0328
Z0.6052
G1 Z0.4833 F50.
Y2.0324 Z0.4778 F100.
Y2.0315 Z0.4723
Y2.03 Z0.467
Y2.0279 Z0.4618
Y2.0252 Z0.4569
X7.8016 Y2.022 Z0.4524
Y2.0183 Z0.4482
Y2.0142 Z0.4445
Y2.0097 Z0.4412
X7.8015 Y2.0049 Z0.4385
X7.8013 Y2.0024 Z0.4373
X7.8008 Y1.9998 Z0.4363
X7.7998 Y1.9974 Z0.4355
X7.7985 Y1.995 Z0.4347
X7.7969 Y1.9929 Z0.4342
X7.7949 Y1.991 Z0.4337
X7.7926 Y1.9894 Z0.4335
G2 X7.7654 Y2.005 Z0.4308 I-0.0092 J0.0156
G1 X7.7699 Y4.3539 Z0.2666
G2 X7.7892 Y4.3731 Z0.2644 I0.0193 J0.
G1 X7.799 Z0.2638
G2 X7.8183 Y4.3537 Z0.2616 I0. J-0.0193
G1 X7.8182 Y4.3322 Z0.2601
X7.8181 Y4.3287 Z0.26
X7.8015 Y2.0049
G2 X7.7654 Y2.005 I-0.018 J0.0001
G1 X7.7699 Y4.3539
G2 X7.7892 Y4.3731 I0.0193 J0.
G1 X7.799
G2 X7.8183 Y4.3537 I0. J-0.0193
G1 X7.8181 Y4.3287
G3 X7.9072 Y4.1931 I0.1462 J-0.001
G2 X7.9962 Y4.0575 I-0.0572 J-0.1346
G1 X7.9762 Y1.2649
G2 X7.9134 Y1.1659 I-0.1107 J0.0008
G3 X7.8192 Y1.1061 I0.2019 J-0.4216
X7.7426 Y1.0252 I0.2795 J-0.3416
G2 X7.6745 Y1.0249 I-0.0341 J0.025
G3 X7.6198 Y1.0859 I-0.3534 J-0.2623
G2 X7.5838 Y1.1687 I0.0769 J0.0826
G1 X7.5902 Y4.4892
G2 X7.6542 Y4.5531 I0.064 J-0.0001
G1 X7.936
G2 X7.9993 Y4.4893 I0. J-0.0633
G1 X7.9962 Y4.0575
G3 X8.0857 Y3.9211 I0.1471 J-0.0011
G2 X8.1753 Y3.7847 I-0.0575 J-0.1353
G1 X8.1555 Y1.0258
X8.1063 Y1.0261
G3 X8.0929 Y1.026 I-0.0016 J-0.8049
G1 X8.0853 Y1.0258
X8.0795 Y1.0254
X8.0737 Y1.0249
X8.0679 Y1.0242
X8.0622 Y1.0235
X8.0564 Y1.0226
X8.0503 Y1.0215
X8.0438 Y1.0201
X8.0351 Y1.018
X8.0243 Y1.015
X8.016 Y1.0124
X8.0103 Y1.0104
X8.0045 Y1.0082
X7.9987 Y1.0058
X7.9915 Y1.0026
X7.9829 Y0.9985
X7.9771 Y0.9956
X7.9742 Y0.994
X7.9699 Y0.9915
X7.9641 Y0.9881
X7.9583 Y0.9845
X7.9526 Y0.9807
X7.9479 Y0.9774
X7.9442 Y0.9747
X7.9383 Y0.9702
X7.9305 Y0.9637
X7.9239 Y0.9579
X7.9185 Y0.9528
X7.9127 Y0.947
X7.9066 Y0.9404
X7.9015 Y0.9347
X7.8974 Y0.9297
X7.8934 Y0.9246
X7.8895 Y0.9194
X7.8858 Y0.9142
X7.8822 Y0.909
X7.8802 Y0.9058
X7.8795 Y0.9047
X7.8774 Y0.9013
X7.874 Y0.8955
X7.8708 Y0.8898
X7.8677 Y0.884
X7.864 Y0.8761
X7.8595 Y0.8661
X7.8571 Y0.8603
X7.8566 Y0.8588
X7.8552 Y0.8552
X7.8532 Y0.8494
X7.8513 Y0.8437
X7.8496 Y0.8379
X7.848 Y0.8321
X7.8466 Y0.8264
X7.8453 Y0.8206
X7.8441 Y0.8148
X7.8431 Y0.8091
X7.8422 Y0.8033
X7.8414 Y0.7975
X7.8408 Y0.7918
X7.8401 Y0.7832
X7.8396 Y0.7717
X7.8395 Y0.7669
X7.8252 Y-1.2269
Y-1.2273
Y-1.2389
Y-1.2425
X7.8254 Y-1.2512
X7.8255 Y-1.2541
X7.8257 Y-1.2569
X7.8259 Y-1.2613
X7.8263 Y-1.2659
X7.5756
X7.5761 Y-1.2591
X7.5763 Y-1.2537
X7.5765 Y-1.2421
X7.5766 Y-1.2396
X7.5804 Y0.7542
Y0.7546
Y0.755
Y0.7665
X7.5802 Y0.7728
X7.5799 Y0.7786
X7.5794 Y0.7844
X7.5789 Y0.7901
X7.5778 Y0.7982
X7.5762 Y0.8084
X7.5751 Y0.8142
X7.5749 Y0.8154
X7.5741 Y0.8189
X7.5727 Y0.8247
X7.5712 Y0.8305
X7.5696 Y0.8362
X7.5678 Y0.842
X7.5659 Y0.8478
X7.5638 Y0.8535
X7.5615 Y0.8593
X7.5584 Y0.8666
X7.5543 Y0.8755
X7.5515 Y0.8812
X7.5501 Y0.8839
X7.5478 Y0.8881
X7.5445 Y0.8939
X7.541 Y0.8996
X7.5373 Y0.9054
X7.5339 Y0.9105
X7.5307 Y0.9149
X7.5264 Y0.9207
X7.5207 Y0.9278
X7.5149 Y0.9346
X7.509 Y0.9409
X7.5034 Y0.9467
X7.4981 Y0.9518
X7.4923 Y0.9571
X7.4861 Y0.9624
X7.4825 Y0.9653
X7.4788 Y0.9682
X7.4704 Y0.9744
X7.4646 Y0.9784
X7.4615 Y0.9805
X7.4571 Y0.9832
X7.4513 Y0.9867
X7.4455 Y0.99
X7.4398 Y0.993
X7.4337 Y0.9961
X7.4274 Y0.999
X7.4216 Y1.0016
X7.4164 Y1.0037
X7.4109 Y1.0058
X7.4051 Y1.0079
X7.4025 Y1.0088
X7.4097 Y4.7341
X8.182
X8.1753 Y3.7847
X8.1751 Y3.7819 Z0.2601
X8.1748 Y3.7791 Z0.2603
X8.1743 Y3.7764 Z0.2607
X8.1736 Y3.7737 Z0.2613
X8.1729 Y3.7711 Z0.262
X8.172 Y3.7686 Z0.2628
X8.1709 Y3.7662 Z0.2638
X8.1698 Y3.7639 Z0.265
X8.1686 Y3.7617 Z0.2662
X8.1674 Y3.7596 Z0.2677
X8.166 Y3.7577 Z0.2692
X8.1647 Y3.7559 Z0.2709
X8.1633 Y3.7543 Z0.2727
X8.1619 Y3.7528 Z0.2747
X8.1606 Y3.7514 Z0.2767
X8.1593 Y3.7501 Z0.2788
X8.158 Y3.749 Z0.2811
X8.1568 Y3.748 Z0.2834
X8.1557 Y3.7472 Z0.2858
X8.1546 Y3.7464 Z0.2883
X8.1537 Y3.7458 Z0.2909
X8.1528 Y3.7452 Z0.2935
X8.1521 Y3.7448 Z0.2962
X8.1515 Y3.7444 Z0.2989
X8.1511 Y3.7441 Z0.3016
X8.1507 Y3.7439 Z0.3044
X8.1505 Y3.7438 Z0.3072
X8.1504 Z0.31
G0 Z0.91
X5.8873 Y1.9259
Z0.6052
G1 Z0.4833 F50.
Y1.9262 Z0.478 F100.
Y1.927 Z0.4727
Y1.9284 Z0.4675
Y1.9304 Z0.4625
Y1.9329 Z0.4578
Y1.9359 Z0.4534
Y1.9393 Z0.4492
Y1.9432 Z0.4455
Y1.9474 Z0.4422
Y1.952 Z0.4394
Y1.9568 Z0.4371
Y1.9619 Z0.4353
Y1.9671 Z0.4341
Y1.9724 Z0.4335
X5.8868 Y4.3538 Z0.2669
G2 X5.9061 Y4.3731 Z0.2648 I0.0193 J0.
G1 X5.9196 Z0.2639
G2 X5.9389 Y4.3538 Z0.2618 I0. J-0.0193
G1 Y4.3305 Z0.2601
X5.9388 Y4.327 Z0.26
X5.9331 Y1.3184
G2 X5.9042 Y1.3017 I-0.0193 J0.
G1 X5.8973 Y1.3056
G2 X5.8874 Y1.3224 I0.0093 J0.0169
G1 X5.8868 Y4.3538
G2 X5.9061 Y4.3731 I0.0193 J0.
G1 X5.9196
G2 X5.9389 Y4.3538 I0. J-0.0193
G1 X5.9388 Y4.327
G3 X6.0286 Y4.1919 I0.1462 J-0.0003
G2 X6.1183 Y4.0567 I-0.0565 J-0.1349
G1 X6.1127 Y1.128
G2 X6.0888 Y1.0693 I-0.0844 J0.0002
G3 X6.0322 Y0.9964 I0.2972 J-0.2891
G2 X5.9695 Y0.9962 I-0.0314 J0.0194
G3 X5.8832 Y1.0971 I-0.3822 J-0.2397
X5.7707 Y1.1676 I-0.2811 J-0.3235
G2 X5.7074 Y1.2635 I0.041 J0.0959
G1 X5.7068 Y4.4892
G2 X5.7707 Y4.5531 I0.0639 J0.
G1 X6.0554
G2 X6.1192 Y4.4893 I0. J-0.0637
G1 X6.1183 Y4.0567
G3 X6.2086 Y3.9208 I0.1471 J-0.0003
G2 X6.2988 Y3.7848 I-0.0568 J-0.1356
G1 X6.2935 Y0.9978
X6.2931 Y0.9976
X6.2927 Y0.9974
X6.2874 Y0.9947
X6.2821 Y0.9919
X6.2768 Y0.9889
X6.2695 Y0.9846
X6.2605 Y0.9787
X6.2548 Y0.9747
X6.2523 Y0.9729
X6.2481 Y0.9697
X6.2424 Y0.9652
X6.2366 Y0.9603
X6.2308 Y0.9552
X6.2251 Y0.9497
X6.2194 Y0.944
X6.214 Y0.9382
X6.209 Y0.9325
X6.2061 Y0.9291
X6.2053 Y0.9281
X6.2028 Y0.925
X6.1988 Y0.9197
X6.1949 Y0.9144
X6.1913 Y0.9092
X6.1875 Y0.9034
X6.1837 Y0.8972
X6.1803 Y0.8915
X6.1774 Y0.8861
X6.1745 Y0.8806
X6.1717 Y0.8748
X6.1691 Y0.8691
X6.1666 Y0.8633
X6.1637 Y0.8558
X6.1603 Y0.8464
X6.1584 Y0.8406
X6.1578 Y0.8384
X6.1566 Y0.8345
X6.1551 Y0.8287
X6.1537 Y0.823
X6.1524 Y0.8172
X6.1512 Y0.8114
X6.1502 Y0.8057
X6.1494 Y0.7999
X6.1486 Y0.7941
X6.148 Y0.7884
X6.1475 Y0.7826
X6.1472 Y0.7769
X6.1469 Y0.7711
X6.1468 Y0.7663
X6.143 Y-1.2391
Y-1.2425
X6.1433 Y-1.254
X6.1436 Y-1.2601
X6.144 Y-1.2659
X5.8546
X5.855 Y-1.2597
X5.8553 Y-1.2538
X5.8555 Y-1.2423
X5.8556 Y-1.2393
X5.8552 Y0.7545
Y0.7549
Y0.7664
X5.8551 Y0.7719
X5.8548 Y0.7776
X5.8544 Y0.7834
X5.8539 Y0.7892
X5.8532 Y0.7949
X5.8525 Y0.8007
X5.8515 Y0.8065
X5.8505 Y0.8122
X5.8493 Y0.818
X5.848 Y0.8238
X5.8466 Y0.8295
X5.845 Y0.8353
X5.8431 Y0.8413
X5.841 Y0.8477
X5.839 Y0.8535
X5.837 Y0.8586
X5.8347 Y0.8641
X5.8322 Y0.8699
X5.8295 Y0.8756
X5.8267 Y0.8814
X5.8232 Y0.888
X5.819 Y0.8953
X5.8155 Y0.901
X5.8129 Y0.9052
X5.8095 Y0.9102
X5.8054 Y0.916
X5.801 Y0.9219
X5.7962 Y0.9279
X5.7913 Y0.9337
X5.7863 Y0.9393
X5.7809 Y0.945
X5.7752 Y0.9506
X5.7719 Y0.9538
X5.7711 Y0.9545
X5.7679 Y0.9574
X5.7621 Y0.9624
X5.7563 Y0.9671
X5.7506 Y0.9715
X5.7467 Y0.9744
X5.7447 Y0.9758
X5.739 Y0.9796
X5.7294 Y0.9856
X5.7219 Y0.99
X5.7166 Y0.9929
X5.7113 Y0.9957
X5.706 Y0.9982
X5.7028 Y0.9997
X5.702 Y1.0001
X5.6986 Y1.0015
X5.6929 Y1.004
X5.6871 Y1.0062
X5.6813 Y1.0083
X5.6756 Y1.0103
X5.6698 Y1.0121
X5.664 Y1.0137
X5.6583 Y1.0152
X5.6525 Y1.0166
X5.6467 Y1.0179
X5.641 Y1.019
X5.6352 Y1.0199
X5.627 Y1.021
X5.6163 Y1.0221
X5.6105 Y1.0226
X5.6096
X5.6043 Y1.0228
X5.5928 Y1.023
X5.5907
X5.5264
X5.5258 Y4.7341
X6.3006
X6.2988 Y3.7848
X6.2986 Y3.782 Z0.2601
X6.2983 Y3.7793 Z0.2603
X6.2979 Y3.7765 Z0.2607
X6.2972 Y3.7738 Z0.2613
X6.2965 Y3.7712 Z0.262
X6.2956 Y3.7687 Z0.2628
X6.2946 Y3.7663 Z0.2638
X6.2935 Y3.764 Z0.265
X6.2923 Y3.7618 Z0.2662
X6.291 Y3.7597 Z0.2677
X6.2897 Y3.7578 Z0.2692
X6.2884 Y3.756 Z0.2709
X6.287 Y3.7544 Z0.2727
X6.2857 Y3.7528 Z0.2747
X6.2843 Y3.7515 Z0.2767
X6.283 Y3.7502 Z0.2788
X6.2817 Y3.7491 Z0.2811
X6.2805 Y3.7481 Z0.2834
X6.2794 Y3.7472 Z0.2858
X6.2784 Y3.7465 Z0.2883
X6.2774 Y3.7458 Z0.2909
X6.2766 Y3.7453 Z0.2935
X6.2759 Y3.7448 Z0.2962
X6.2753 Y3.7444 Z0.2989
X6.2748 Y3.7442 Z0.3016
X6.2745 Y3.744 Z0.3044
X6.2743 Y3.7438 Z0.3072
X6.2742 Z0.31
G0 Z0.91
X4.1253 Y2.6873
Z0.6052
G1 Z0.4833 F50.
Y2.6876 Z0.478 F100.
Y2.6885 Z0.4727
Y2.6899 Z0.4675
Y2.6919 Z0.4625
Y2.6943 Z0.4578
Y2.6973 Z0.4534
Y2.7008 Z0.4492
Y2.7046 Z0.4455
X4.1252 Y2.7089 Z0.4422
Y2.7134 Z0.4394
Y2.7183 Z0.4371
Y2.7233 Z0.4353
Y2.7285 Z0.4341
Y2.7338 Z0.4335
X4.1214 Y4.7341 Z0.2936
X4.4295 Z0.272
Y4.5637 Z0.2601
Y4.5602 Z0.26
X4.4305 Y-1.2393
X4.4306 Y-1.2423
X4.4308 Y-1.2538
X4.4311 Y-1.2596
X4.4315 Y-1.2659
X4.1318
X4.1322 Y-1.2601
X4.1325 Y-1.254
X4.1328 Y-1.2425
Y-1.2391
X4.1214 Y4.7341
X4.4295
Y4.5602
X4.4294 Y4.5574 Z0.2601
X4.429 Y4.5546 Z0.2603
X4.4286 Y4.5519 Z0.2607
X4.428 Y4.5492 Z0.2613
X4.4272 Y4.5466 Z0.262
X4.4263 Y4.5441 Z0.2628
X4.4253 Y4.5417 Z0.2638
X4.4242 Y4.5393 Z0.265
X4.423 Y4.5371 Z0.2662
X4.4218 Y4.5351 Z0.2677
X4.4205 Y4.5332 Z0.2692
X4.4191 Y4.5314 Z0.2709
X4.4178 Y4.5297 Z0.2727
X4.4164 Y4.5282 Z0.2747
X4.4151 Y4.5268 Z0.2767
X4.4138 Y4.5255 Z0.2788
X4.4125 Y4.5244 Z0.2811
X4.4113 Y4.5234 Z0.2834
X4.4102 Y4.5226 Z0.2858
X4.4092 Y4.5218 Z0.2883
X4.4082 Y4.5211 Z0.2909
X4.4074 Y4.5206 Z0.2935
X4.4067 Y4.5201 Z0.2962
X4.4061 Y4.5198 Z0.2989
X4.4056 Y4.5195 Z0.3016
X4.4053 Y4.5193 Z0.3044
X4.4051 Y4.5192 Z0.3072
X4.405 Y4.5191 Z0.31
G0 Z0.91
X2.8784 Y3.6172
Z0.6052
G1 Z0.4833 F50.
Y3.6169 Z0.478 F100.
Y3.6161 Z0.4727
Y3.6146 Z0.4675
Y3.6127 Z0.4625
Y3.6102 Z0.4578
Y3.6072 Z0.4534
Y3.6038 Z0.4492
Y3.5999 Z0.4455
Y3.5957 Z0.4422
Y3.5911 Z0.4394
Y3.5863 Z0.4371
X2.8785 Y3.5812 Z0.4353
Y3.576 Z0.4341
Y3.5707 Z0.4335
X2.8829 Y1.2624 Z0.2721
G2 X2.8213 Y1.171 Z0.2639 I-0.0983 J-0.0002
G3 X2.773 Y1.148 Z0.2601 I0.1639 J-0.4069
G1 X2.7715 Y1.1472 Z0.26
X2.77 Y1.1463
G3 X2.6225 Y1.0108 I0.2153 J-0.3822
G2 X2.558 Y1.0107 I-0.0323 J0.0221
G3 X2.551 Y1.0206 I-0.2777 J-0.19
X2.5437 Y1.0302 I-0.5319 J-0.3925
G2 X2.5342 Y1.0585 I0.0366 J0.0281
G1 X2.5546 Y4.4902
G2 X2.6176 Y4.5529 I0.063 J-0.0004
G1 X2.814
G2 X2.8767 Y4.4903 I0. J-0.0627
G1 X2.8829 Y1.2624
G2 X2.8213 Y1.171 I-0.0983 J-0.0002
G3 X2.77 Y1.1463 I0.1639 J-0.4069
X2.697 Y0.9613 I0.0774 J-0.1374
G2 X2.7269 Y0.7647 I-0.6138 J-0.1941
G1 Y0.755
Y0.7546
Y0.7542
X2.7307 Y-1.2396
X2.7308 Y-1.2422
X2.731 Y-1.2537
X2.7313 Y-1.2591
X2.7317 Y-1.2659
X2.4421
X2.4425 Y-1.2584
X2.4427 Y-1.2534
G3 X2.443 Y-1.2401 I-0.854 J0.0226
G1 X2.4548 Y0.7537
G3 X2.4547 Y0.7671 I-0.8093 J0.0007
G1 X2.4544 Y0.7747
X2.454 Y0.7804
X2.4535 Y0.7862
X2.4529 Y0.792
X2.4521 Y0.7977
X2.4512 Y0.8035
X2.4501 Y0.8093
X2.449 Y0.815
X2.4476 Y0.8208
X2.4462 Y0.8265
X2.4446 Y0.8323
X2.4429 Y0.8381
X2.4402 Y0.8459
X2.4365 Y0.8558
X2.4343 Y0.8616
X2.4336 Y0.8632
X2.4319 Y0.8669
X2.4292 Y0.8727
X2.4264 Y0.8784
X2.4233 Y0.8842
X2.4193 Y0.8913
X2.4142 Y0.8997
X2.4105 Y0.9054
X2.4083 Y0.9085
X2.4052 Y0.913
X2.4009 Y0.9188
X2.3962 Y0.9247
X2.3911 Y0.9307
X2.3857 Y0.9368
X2.38 Y0.9427
X2.3742 Y0.9484
X2.3683 Y0.9538
X2.3625 Y0.9589
X2.3568 Y0.9636
X2.3525 Y0.967
X2.3748 Y4.7341
X3.0574
X3.0646 Y1.0222
X2.995 Y1.0221
X2.9947
X2.9831
X2.9777 Y1.0219
X2.9719 Y1.0216
X2.9662 Y1.0212
X2.9604 Y1.0207
X2.9546 Y1.0201
X2.9489 Y1.0193
X2.9431 Y1.0184
X2.9373 Y1.0173
X2.9316 Y1.0161
X2.9258 Y1.0148
X2.92 Y1.0133
X2.9143 Y1.0117
X2.9085 Y1.01
X2.9027 Y1.0081
X2.897 Y1.006
X2.8912 Y1.0038
X2.887 Y1.0021
X2.8843 Y1.001
X2.8785 Y0.9984
X2.8696 Y0.9941
X2.8623 Y0.9903
X2.8566 Y0.9871
X2.8505 Y0.9834
X2.8442 Y0.9794
X2.8383 Y0.9754
X2.8328 Y0.9715
X2.8273 Y0.9673
X2.8218 Y0.9629
X2.8173 Y0.9591
X2.8136 Y0.9559
X2.8078 Y0.9505
X2.7999 Y0.9427
X2.7944 Y0.9368
X2.7911 Y0.9331
X2.7873 Y0.9286
X2.7829 Y0.9233
X2.7788 Y0.9179
X2.7749 Y0.9126
X2.7727 Y0.9095
X2.7721 Y0.9086
X2.77 Y0.9054
X2.7663 Y0.8996
X2.7628 Y0.8938
X2.7595 Y0.8881
X2.7558 Y0.8812
X2.7518 Y0.8731
X2.7491 Y0.8673
X2.7476 Y0.8639
X2.7458 Y0.8593
X2.7435 Y0.8535
X2.7414 Y0.8477
X2.7395 Y0.842
X2.7377 Y0.8362
X2.7361 Y0.8304
X2.7346 Y0.8247
X2.7332 Y0.8189
X2.732 Y0.8132
X2.7309 Y0.8074
X2.7299 Y0.8016
X2.7291 Y0.7959
X2.7284 Y0.7901
X2.7279 Y0.7843
X2.7274 Y0.7786
X2.7271 Y0.7728
X2.727 Y0.7665
X2.7269 Y0.7647
X2.7268 Y0.7619 Z0.2601
X2.7265 Y0.7592 Z0.2603
X2.726 Y0.7564 Z0.2607
X2.7254 Y0.7538 Z0.2613
X2.7246 Y0.7511 Z0.262
X2.7237 Y0.7486 Z0.2628
X2.7227 Y0.7462 Z0.2638
X2.7216 Y0.7439 Z0.265
X2.7204 Y0.7417 Z0.2662
X2.7191 Y0.7397 Z0.2677
X2.7178 Y0.7377 Z0.2692
X2.7165 Y0.7359 Z0.2709
X2.7151 Y0.7343 Z0.2727
X2.7137 Y0.7328 Z0.2747
X2.7124 Y0.7314 Z0.2767
X2.7111 Y0.7302 Z0.2788
X2.7098 Y0.729 Z0.2811
X2.7086 Y0.728 Z0.2834
X2.7075 Y0.7272 Z0.2858
X2.7064 Y0.7264 Z0.2883
X2.7055 Y0.7258 Z0.2909
X2.7047 Y0.7252 Z0.2935
X2.7039 Y0.7248 Z0.2962
X2.7033 Y0.7244 Z0.2989
X2.7029 Y0.7241 Z0.3016
X2.7025 Y0.7239 Z0.3044
X2.7023 Y0.7238 Z0.3072
Z0.31
G0 Z0.91
X0.3473 Y4.3731
Z0.31
G1 X0.3476 Z0.3044 F100.
X0.3486 Z0.2989
X0.3501 Z0.2935
X0.3522 Z0.2883
X0.355 Z0.2834
X0.3582 Z0.2788
X0.3619 Z0.2747
X0.3661 Z0.2709
X0.3707 Z0.2677
X0.3756 Z0.265
X0.3808 Z0.2628
X0.3862 Z0.2613
X0.3917 Z0.2603
X0.3973 Z0.26
X0.5458
X0.6276
G2 X0.691 Y4.3093 I0. J-0.0634
G1 X0.6604 Y-0.8409
G2 X0.5961 Y-0.9049 I-0.0643 J0.0004
G1 X0.5458
X0.3492
X0.3436 Z0.2603
X0.3381 Z0.2613
X0.3327 Z0.2628
X0.3275 Z0.265
X0.3226 Z0.2677
X0.3181 Z0.2709
X0.3139 Z0.2747
X0.3101 Z0.2788
X0.3069 Z0.2834
X0.3042 Z0.2883
X0.302 Z0.2935
X0.3005 Z0.2989
X0.2995 Z0.3044
X0.2992 Z0.31
G0 Z0.91
X0.3473 Y4.5531
Z0.31
G1 X0.3476 Z0.3044 F100.
X0.3486 Z0.2989
X0.3501 Z0.2935
X0.3522 Z0.2883
X0.355 Z0.2834
X0.3582 Z0.2788
X0.3619 Z0.2747
X0.3661 Z0.2709
X0.3707 Z0.2677
X0.3756 Z0.265
X0.3808 Z0.2628
X0.3862 Z0.2613
X0.3917 Z0.2603
X0.3973 Z0.26
X0.5459
X0.8086
G2 X0.872 Y4.4893 I0. J-0.0634
G1 X0.8393 Y-1.0209
G2 X0.775 Y-1.0849 I-0.0643 J0.0004
G1 X0.5459
X0.3493
X0.3437 Z0.2603
X0.3381 Z0.2613
X0.3327 Z0.2628
X0.3276 Z0.265
X0.3227 Z0.2677
X0.3181 Z0.2709
X0.3139 Z0.2747
X0.3102 Z0.2788
X0.3069 Z0.2834
X0.3042 Z0.2883
X0.3021 Z0.2935
X0.3005 Z0.2989
X0.2996 Z0.3044
X0.2993 Z0.31
G0 Z0.91
X0.3473 Y4.7033
Z0.305
G1 X0.3476 Z0.3 F100.
X0.3484 Y4.7034 Z0.295
X0.3498 Y4.7037 Z0.2901
X0.3517 Y4.704 Z0.2855
X0.3541 Y4.7043 Z0.2811
X0.357 Y4.7048 Z0.277
X0.3603 Y4.7053 Z0.2732
X0.364 Y4.7059 Z0.2698
X0.3681 Y4.7066 Z0.2669
X0.3725 Y4.7073 Z0.2645
X0.3771 Y4.708 Z0.2625
X0.3819 Y4.7087 Z0.2611
X0.3868 Y4.7095 Z0.2603
X0.3917 Y4.7103 Z0.26
X0.538 Y4.7335
X0.5419 Y4.7339
X0.5459 Y4.7341
X1.0545
X1.0191 Y-1.227
Y-1.2273
Y-1.2388
Y-1.243
X1.0194 Y-1.2545
X1.0197 Y-1.2593
X1.0199 Y-1.2633
X1.0201 Y-1.2659
X0.5459
X0.5419 Y-1.2657
X0.538 Y-1.2653
X0.3438 Y-1.2345
X0.3383 Y-1.2337 Z0.2603
X0.3329 Y-1.2328 Z0.2613
X0.3275 Y-1.2319 Z0.2628
X0.3224 Y-1.2311 Z0.265
X0.3176 Y-1.2304 Z0.2677
X0.313 Y-1.2297 Z0.2709
X0.3089 Y-1.229 Z0.2747
X0.3052 Y-1.2284 Z0.2788
X0.302 Y-1.2279 Z0.2834
X0.2993 Y-1.2275 Z0.2883
X0.2972 Y-1.2271 Z0.2935
X0.2957 Y-1.2269 Z0.2989
X0.2948 Y-1.2268 Z0.3044
X0.2945 Y-1.2267 Z0.31
G0 Z0.91
X24.7261 Y3.5731
Z0.6052
G1 Z0.4833 F50.
Y3.5728 Z0.478 F100.
Y3.572 Z0.4727
Y3.5706 Z0.4675
Y3.5686 Z0.4625
X24.726 Y3.5661 Z0.4578
Y3.5631 Z0.4534
Y3.5597 Z0.4492
Y3.5558 Z0.4455
Y3.5516 Z0.4422
Y3.547 Z0.4394
Y3.5422 Z0.4371
X24.7259 Y3.5371 Z0.4353
Y3.5319 Z0.4341
Y3.5266 Z0.4335
X24.7231 Y2.7704 Z0.3806
G2 X24.6872 Y2.7705 Z0.3766 I-0.018 J0.0001
G1 X24.6866 Y4.3539 Z0.2659
G2 X24.7058 Y4.3731 Z0.2638 I0.0192 J0.
G1 X24.7097 Z0.2635
G2 X24.7289 Y4.3538 Z0.2614 I0. J-0.0192
G1 Y4.3354 Z0.2601
Y4.3319 Z0.26
X24.7231 Y2.7704
G2 X24.6872 Y2.7705 I-0.018 J0.0001
G1 X24.6866 Y4.3539
G2 X24.7058 Y4.3731 I0.0192 J0.
G1 X24.7097
G2 X24.7289 Y4.3538 I0. J-0.0192
G1 Y4.3319
G3 X24.8184 Y4.1965 I0.1462 J-0.0005
G2 X24.9079 Y4.0612 I-0.0567 J-0.1348
G1 X24.8975 Y1.2368
G2 X24.8352 Y1.1051 I-0.1716 J0.0006
G3 X24.7409 Y0.9974 I0.2834 J-0.3433
G2 X24.6782 Y0.9973 I-0.0314 J0.0197
G3 X24.5696 Y1.1156 I-0.3818 J-0.2416
G2 X24.5077 Y1.2403 I0.0949 J0.1248
G1 X24.5066 Y4.4892
G2 X24.5704 Y4.5531 I0.0638 J0.
G1 X24.8458
G2 X24.9094 Y4.4893 I0. J-0.0636
G1 X24.9079 Y4.0612
G3 X24.9979 Y3.9251 I0.1471 J-0.0005
G2 X25.0879 Y3.789 I-0.0571 J-0.1355
G1 X25.0777 Y1.0218
X25.0771 Y1.0217
X25.0765 Y1.0216
X25.0739 Y1.0212
X25.0681 Y1.0202
X25.0592 Y1.0184
X25.0519 Y1.0167
X25.0461 Y1.0151
X25.0403 Y1.0135
X25.0346 Y1.0117
X25.0288 Y1.0097
X25.023 Y1.0076
X25.0173 Y1.0053
X25.0115 Y1.0029
X25.0067 Y1.0007
X25.0028 Y0.9989
X24.997 Y0.996
X24.9893 Y0.9919
X24.9827 Y0.9881
X24.9769 Y0.9846
X24.9711 Y0.9809
X24.9654 Y0.9769
X24.9596 Y0.9727
X24.9538 Y0.9682
X24.948 Y0.9635
X24.9423 Y0.9585
X24.9383 Y0.9549
X24.9361 Y0.9529
X24.9326 Y0.9494
X24.9276 Y0.9444
X24.923 Y0.9394
X24.9185 Y0.9344
X24.9157 Y0.9311
X24.9145 Y0.9296
X24.9116 Y0.926
X24.9071 Y0.9202
X24.903 Y0.9144
X24.899 Y0.9087
X24.8961 Y0.9043
X24.8942 Y0.9012
X24.8908 Y0.8955
X24.8861 Y0.887
X24.8824 Y0.8798
X24.8796 Y0.8741
X24.877 Y0.8683
X24.8746 Y0.8626
X24.8726 Y0.8575
X24.871 Y0.8532
X24.869 Y0.8475
X24.8667 Y0.8402
X24.8648 Y0.8337
X24.8633 Y0.828
X24.8619 Y0.8222
X24.8606 Y0.8165
X24.8595 Y0.8107
X24.8586 Y0.8049
X24.8577 Y0.7992
X24.857 Y0.7934
X24.8564 Y0.7876
X24.856 Y0.7819
X24.8557 Y0.7761
X24.8555 Y0.7703
X24.8554 Y0.7665
X24.848 Y-1.2388
X24.8481 Y-1.2427
X24.8484 Y-1.2542
X24.8487 Y-1.2606
X24.8491 Y-1.2659
X24.5643
X24.5647 Y-1.2597
X24.565 Y-1.2538
X24.5653 Y-1.2423
Y-1.2393
X24.5646 Y0.7545
Y0.7549
Y0.7664
X24.5644 Y0.7718
X24.5642 Y0.7776
X24.5638 Y0.7833
X24.5633 Y0.7891
X24.5626 Y0.7949
X24.5618 Y0.8006
X24.5609 Y0.8064
X24.5599 Y0.8122
X24.5587 Y0.8179
X24.5574 Y0.8237
X24.556 Y0.8294
X24.5544 Y0.8352
X24.5528 Y0.8404
X24.5513 Y0.845
X24.5493 Y0.8508
X24.5467 Y0.8577
X24.5442 Y0.864
X24.5417 Y0.8698
X24.539 Y0.8755
X24.5361 Y0.8813
X24.5329 Y0.8874
X24.5293 Y0.8938
X24.5259 Y0.8995
X24.5226 Y0.9047
X24.5191 Y0.91
X24.5152 Y0.9156
X24.5108 Y0.9214
X24.5061 Y0.9273
X24.5012 Y0.9332
X24.4961 Y0.939
X24.4905 Y0.9448
X24.4844 Y0.9508
X24.4785 Y0.9563
X24.4727 Y0.9614
X24.467 Y0.9661
X24.4612 Y0.9706
X24.457 Y0.9737
X24.4545 Y0.9755
X24.4488 Y0.9793
X24.4398 Y0.9851
X24.4324 Y0.9895
X24.4269 Y0.9925
X24.4211 Y0.9955
X24.4151 Y0.9984
X24.4093 Y1.0011
X24.4035 Y1.0035
X24.3977 Y1.0058
X24.392 Y1.008
X24.3862 Y1.0099
X24.3804 Y1.0118
X24.3747 Y1.0135
X24.3689 Y1.015
X24.3631 Y1.0164
X24.3574 Y1.0177
X24.3516 Y1.0188
X24.3458 Y1.0198
X24.3379 Y1.0209
X24.3277 Y1.022
X24.3272 Y1.0221
X24.3268
X24.3255 Y4.7341
X25.0913
X25.0879 Y3.789
X25.0877 Y3.7862 Z0.2601
X25.0874 Y3.7835 Z0.2603
X25.0869 Y3.7807 Z0.2607
X25.0863 Y3.7781 Z0.2613
X25.0855 Y3.7755 Z0.262
X25.0846 Y3.7729 Z0.2628
X25.0836 Y3.7705 Z0.2638
X25.0825 Y3.7682 Z0.265
X25.0813 Y3.766 Z0.2662
X25.08 Y3.764 Z0.2677
X25.0787 Y3.762 Z0.2692
X25.0774 Y3.7602 Z0.2709
X25.076 Y3.7586 Z0.2727
X25.0747 Y3.7571 Z0.2747
X25.0733 Y3.7557 Z0.2767
X25.072 Y3.7545 Z0.2788
X25.0707 Y3.7533 Z0.2811
X25.0695 Y3.7524 Z0.2834
X25.0684 Y3.7515 Z0.2858
X25.0674 Y3.7507 Z0.2883
X25.0664 Y3.7501 Z0.2909
X25.0656 Y3.7495 Z0.2935
X25.0649 Y3.7491 Z0.2962
X25.0643 Y3.7487 Z0.2989
X25.0638 Y3.7484 Z0.3016
X25.0635 Y3.7482 Z0.3044
X25.0633 Y3.7481 Z0.3072
X25.0632 Z0.31
G0 Z0.91
X26.7064 Y3.8281
Z0.6052
G1 Z0.4833 F50.
Y3.8278 Z0.478 F100.
Y3.827 Z0.4727
Y3.8255 Z0.4675
Y3.8236 Z0.4625
Y3.8211 Z0.4578
Y3.8181 Z0.4534
Y3.8147 Z0.4492
Y3.8108 Z0.4455
Y3.8066 Z0.4422
X26.7063 Y3.802 Z0.4394
Y3.7972 Z0.4371
Y3.7921 Z0.4353
Y3.7869 Z0.4341
Y3.7816 Z0.4335
X26.702 Y1.3028 Z0.2601
Y1.2993 Z0.26
X26.7019 Y1.2643
G2 X26.6404 Y1.173 I-0.0988 J0.0002
G3 X26.5251 Y1.1046 I0.1699 J-0.4174
X26.4357 Y1.0048 I0.2753 J-0.3369
G2 X26.3724 I-0.0316 J0.0206
G3 X26.3593 Y1.0235 I-0.2988 J-0.1946
X26.3452 Y1.0415 I-0.3924 J-0.2929
G2 X26.3312 Y1.081 I0.0478 J0.0392
G1 X26.3437 Y4.4903
G2 X26.4065 Y4.5529 I0.0629 J-0.0002
G1 X26.6451
G2 X26.7075 Y4.4903 I0. J-0.0625
G1 X26.702 Y1.2993
G3 X26.7923 Y1.1633 I0.1472 J-0.0003
G2 X26.8827 Y1.0272 I-0.0569 J-0.1358
G1 Y1.0236
X26.804 Y1.0237
X26.7996 Y1.0236
X26.7938 Y1.0234
X26.7881 Y1.0231
X26.7823 Y1.0227
X26.7781 Y1.0223
X26.7755 Y1.022
X26.7697 Y1.0212
X26.7608 Y1.0199
X26.7535 Y1.0185
X26.7477 Y1.0173
X26.7419 Y1.0159
X26.7362 Y1.0144
X26.7304 Y1.0127
X26.7246 Y1.0109
X26.7188 Y1.009
X26.7131 Y1.0068
X26.7062 Y1.0041
X26.6981 Y1.0006
X26.6924 Y0.998
X26.6889 Y0.9963
X26.6842 Y0.9939
X26.6785 Y0.9907
X26.6727 Y0.9874
X26.6669 Y0.9839
X26.6617 Y0.9805
X26.657 Y0.9774
X26.6512 Y0.9732
X26.6444 Y0.968
X26.6408 Y0.9652
X26.6373 Y0.9623
X26.6301 Y0.9559
X26.6244 Y0.9506
X26.6201 Y0.9463
X26.6146 Y0.9406
X26.6082 Y0.9333
X26.6024 Y0.9264
X26.5973 Y0.9199
X26.5931 Y0.9141
X26.5896 Y0.9091
X26.5861 Y0.9038
X26.5825 Y0.898
X26.5791 Y0.8922
X26.576 Y0.8865
X26.5737 Y0.8823
X26.5724 Y0.8797
X26.5697 Y0.8739
X26.5657 Y0.865
X26.5627 Y0.8576
X26.5606 Y0.8519
X26.5586 Y0.8461
X26.5567 Y0.8404
X26.555 Y0.8346
X26.5534 Y0.8288
X26.552 Y0.8231
X26.5507 Y0.8173
X26.5498 Y0.8125
X26.5491 Y0.8086
X26.5481 Y0.8029
X26.5471 Y0.7952
X26.5463 Y0.7885
X26.5458 Y0.7827
X26.5455 Y0.777
X26.5453 Y0.7712
X26.5452 Y0.7662
X26.5416 Y-1.2391
X26.5417 Y-1.2425
X26.542 Y-1.254
X26.5422 Y-1.2601
X26.5427 Y-1.2659
X26.2563
X26.2567 Y-1.2588
X26.2569 Y-1.2535
X26.2572 Y-1.242
Y-1.2398
X26.2645 Y0.754
Y0.7546
Y0.7552
X26.2644 Y0.7667
X26.2642 Y0.7736
X26.2639 Y0.7794
X26.2634 Y0.7851
X26.2628 Y0.7909
X26.2621 Y0.7967
X26.2612 Y0.8024
X26.2602 Y0.8082
X26.2591 Y0.8139
X26.2579 Y0.8197
X26.2565 Y0.8255
X26.2549 Y0.8312
X26.2532 Y0.837
X26.2514 Y0.8428
X26.2494 Y0.8485
X26.2473 Y0.8543
X26.245 Y0.8601
X26.2434 Y0.864
X26.2424 Y0.8662
X26.2397 Y0.872
X26.2351 Y0.8813
X26.2311 Y0.8888
X26.2278 Y0.8944
X26.2243 Y0.9002
X26.2204 Y0.9061
X26.2164 Y0.9119
X26.2122 Y0.9177
X26.2077 Y0.9235
X26.203 Y0.9292
X26.1994 Y0.9334
X26.197 Y0.9361
X26.1936 Y0.9398
X26.1891 Y0.9444
X26.1846 Y0.9488
X26.1801 Y0.953
X26.1766 Y0.9562
X26.174 Y0.9585
X26.1699 Y0.9619
X26.1641 Y0.9665
X26.1583 Y0.9709
X26.1526 Y0.975
X26.1496 Y0.9771
X26.1634 Y4.7341
X26.8892
X26.8827 Y1.0272
Y1.027
Y1.0269
X26.8826 Y1.0267 Z0.2601
Y1.0265
Y1.0263
X26.8825 Y1.0261 Z0.2602
X26.8824 Y1.0259 Z0.2603
Y1.0258 Z0.2604
X26.8823 Y1.0256
X26.8822 Y1.0255 Z0.2605
X26.8821 Y1.0253 Z0.2607
X26.882 Y1.0252 Z0.2608
X26.8819 Y1.0251 Z0.2609
X26.8818 Y1.025 Z0.261
Y1.0249 Z0.2612
X26.8817 Y1.0248 Z0.2613
X26.8816 Y1.0247 Z0.2615
X26.8815 Y1.0246 Z0.2616
X26.8814 Z0.2618
Y1.0245 Z0.262
X26.8813 Y1.0244 Z0.2622
X26.8812 Z0.2624
Z0.2625
X26.8811 Y1.0243 Z0.2627
Z0.2629
Z0.2631
Z0.2633
Z0.2635
G0 Z0.91
X28.2409 Y1.0914
Z0.6052
G1 Z0.4833 F50.
Y1.0911 Z0.478 F100.
Y1.0902 Z0.4727
Y1.0888 Z0.4675
Y1.0868 Z0.4625
Y1.0843 Z0.4578
X28.241 Y1.0814 Z0.4534
Y1.0779 Z0.4492
Y1.0741 Z0.4455
Y1.0698 Z0.4422
Y1.0653 Z0.4394
Y1.0604 Z0.4371
Y1.0554 Z0.4353
Y1.0502 Z0.4341
Y1.0448 Z0.4335
X28.2434 Y-1.2394 Z0.2737
Y-1.2422 Z0.2735
X28.2437 Y-1.2537 Z0.2727
X28.2439 Y-1.2593 Z0.2723
X28.2443 Y-1.2659 Z0.2719
X28.0763 Z0.2601
X28.0728 Z0.26
X27.9413
X27.9417 Y-1.2592
X27.9419 Y-1.2537
X27.9422 Y-1.2421
Y-1.2395
X27.9527 Y4.7341
X28.2371
X28.2434 Y-1.2394
Y-1.2422
X28.2437 Y-1.2537
X28.2439 Y-1.2593
X28.2443 Y-1.2659
X28.0728
X28.0701 Y-1.2657 Z0.2601
X28.0673 Y-1.2654 Z0.2603
X28.0645 Y-1.265 Z0.2607
X28.0619 Y-1.2644 Z0.2613
X28.0592 Y-1.2636 Z0.262
X28.0567 Y-1.2627 Z0.2628
X28.0543 Y-1.2617 Z0.2638
X28.052 Y-1.2606 Z0.265
X28.0498 Y-1.2594 Z0.2662
X28.0477 Y-1.2582 Z0.2677
X28.0458 Y-1.2569 Z0.2692
X28.044 Y-1.2555 Z0.2709
X28.0424 Y-1.2542 Z0.2727
X28.0408 Y-1.2528 Z0.2747
X28.0395 Y-1.2515 Z0.2767
X28.0382 Y-1.2502 Z0.2788
X28.0371 Y-1.2489 Z0.2811
X28.0361 Y-1.2477 Z0.2834
X28.0352 Y-1.2466 Z0.2858
X28.0344 Y-1.2455 Z0.2883
X28.0338 Y-1.2446 Z0.2909
X28.0332 Y-1.2438 Z0.2935
X28.0328 Y-1.2431 Z0.2962
X28.0324 Y-1.2425 Z0.2989
X28.0321 Y-1.242 Z0.3016
X28.0319 Y-1.2416 Z0.3044
X28.0318 Y-1.2414 Z0.3072
Z0.31
G0 Z0.91
X29.6941 Y1.938
Z0.6052
G1 Z0.4833 F50.
Y1.9383 Z0.478 F100.
Y1.9392 Z0.4727
Y1.9406 Z0.4675
Y1.9426 Z0.4625
Y1.9451 Z0.4578
Y1.948 Z0.4534
Y1.9515 Z0.4492
Y1.9553 Z0.4455
Y1.9596 Z0.4422
Y1.9641 Z0.4394
Y1.969 Z0.4371
Y1.974 Z0.4353
Y1.9792 Z0.4341
Y1.9846 Z0.4335
X29.6916 Y4.347 Z0.2683
G2 X29.7176 Y4.3731 Z0.2654 I0.026 J0.
G1 X29.7296 Z0.2646
G2 X29.7556 Y4.347 Z0.2617 I0. J-0.026
G1 X29.7555 Y4.3245 Z0.2601
Y4.321 Z0.26
X29.7482 Y1.3279
G2 X29.7094 Y1.3053 I-0.026 J0.0001
G1 X29.7081 Y1.3061
G2 X29.6947 Y1.3287 I0.0127 J0.0227
G1 X29.6916 Y4.347
G2 X29.7176 Y4.3731 I0.026 J0.
G1 X29.7296
G2 X29.7556 Y4.347 I0. J-0.026
G1 X29.7555 Y4.321
G3 X29.8452 Y4.1858 I0.1462 J-0.0004
G2 X29.9349 Y4.0506 I-0.0566 J-0.1349
G1 X29.9278 Y1.1492
G2 X29.8957 Y1.0707 I-0.1129 J0.0003
G3 X29.8409 Y1.0012 I0.3062 J-0.2983
G2 X29.7774 Y1.0014 I-0.0317 J0.0203
G3 X29.6904 Y1.1008 I-0.3624 J-0.2292
X29.5778 Y1.1696 I-0.2853 J-0.3403
G2 X29.5148 Y1.2644 I0.0401 J0.0949
G1 X29.5114 Y4.4892
G2 X29.5752 Y4.5531 I0.0638 J0.0001
G1 X29.8723
G2 X29.9359 Y4.4893 I0. J-0.0637
G1 X29.9349 Y4.0506
G3 X30.025 Y3.9146 I0.1471 J-0.0004
G2 X30.1152 Y3.7786 I-0.0569 J-0.1356
G1 X30.1084 Y1.0022
X30.1064 Y1.0013
X30.1024 Y0.9995
X30.0966 Y0.9966
X30.0891 Y0.9927
X30.0825 Y0.9891
X30.0767 Y0.9856
X30.0707 Y0.9818
X30.0644 Y0.9776
X30.0586 Y0.9734
X30.053 Y0.9692
X30.0475 Y0.9648
X30.042 Y0.9601
X30.0378 Y0.9564
X30.0349 Y0.9538
X30.0312 Y0.9502
X30.0266 Y0.9457
X30.0223 Y0.9411
X30.0182 Y0.9366
X30.0151 Y0.9331
X30.013 Y0.9306
X30.0097 Y0.9265
X30.0052 Y0.9208
X30.001 Y0.915
X29.997 Y0.9092
X29.9945 Y0.9056
X29.9936 Y0.9041
X29.9916 Y0.9008
X29.9885 Y0.8958
X29.9857 Y0.8908
X29.9829 Y0.8858
X29.9802 Y0.8804
X29.9774 Y0.8746
X29.9747 Y0.8689
X29.9723 Y0.8631
X29.9708 Y0.8595
X29.9703 Y0.8582
X29.9682 Y0.8525
X29.9648 Y0.8423
X29.9623 Y0.8343
X29.9608 Y0.8285
X29.9594 Y0.8228
X29.9581 Y0.817
X29.957 Y0.8112
X29.956 Y0.8055
X29.9551 Y0.7997
X29.9544 Y0.794
X29.9538 Y0.7882
X29.9533 Y0.7824
X29.9529 Y0.7767
X29.9527 Y0.7709
X29.9526 Y0.7663
X29.9477 Y-1.239
X29.9478 Y-1.2426
X29.9481 Y-1.2541
X29.9484 Y-1.2602
X29.9488 Y-1.2659
X29.6673
X29.6674 Y-1.2634
X29.6677 Y-1.2582
X29.6679 Y-1.2539
X29.6682 Y-1.2424
Y-1.2392
X29.6661 Y0.7546
Y0.7549
Y0.7664
X29.666 Y0.7715
X29.6657 Y0.7773
X29.6654 Y0.783
X29.6649 Y0.7888
X29.6642 Y0.7945
X29.6635 Y0.8003
X29.6626 Y0.8061
X29.6615 Y0.8118
X29.6604 Y0.8176
X29.6591 Y0.8234
X29.6577 Y0.8291
X29.6561 Y0.8349
X29.6544 Y0.8406
X29.6525 Y0.8464
X29.6505 Y0.8522
X29.6483 Y0.8579
X29.6469 Y0.8615
X29.6464 Y0.8628
X29.6438 Y0.8686
X29.639 Y0.8788
X29.635 Y0.8867
X29.6318 Y0.8925
X29.6284 Y0.8982
X29.6248 Y0.904
X29.621 Y0.9098
X29.6169 Y0.9156
X29.6126 Y0.9213
X29.6081 Y0.9271
X29.6043 Y0.9317
X29.6014 Y0.935
X29.5981 Y0.9388
X29.5943 Y0.9428
X29.5903 Y0.9469
X29.5861 Y0.951
X29.5823 Y0.9546
X29.5787 Y0.9579
X29.5743 Y0.9617
X29.569 Y0.9661
X29.5637 Y0.9702
X29.5584 Y0.9741
X29.5552 Y0.9764
X29.5543 Y0.9771
X29.551 Y0.9793
X29.5452 Y0.9831
X29.5394 Y0.9866
X29.5336 Y0.99
X29.5271 Y0.9935
X29.5196 Y0.9973
X29.5138 Y1.
X29.5097 Y1.0019
X29.5048 Y1.0039
X29.499 Y1.0062
X29.4933 Y1.0084
X29.4875 Y1.0103
X29.4817 Y1.0122
X29.476 Y1.0138
X29.4702 Y1.0154
X29.4644 Y1.0168
X29.4587 Y1.018
X29.4529 Y1.0192
X29.4471 Y1.0201
X29.4414 Y1.021
X29.4368 Y1.0216
X29.4334 Y1.022
X29.4276 Y1.0225
X29.4195 Y1.023
X29.4116 Y1.0233
X29.4001 Y1.0234
X29.3996
X29.3991
X29.3341 Y1.0233
X29.3302 Y4.7341
X30.1175
X30.1152 Y3.7786
X30.115 Y3.7758 Z0.2601
X30.1147 Y3.7731 Z0.2603
X30.1142 Y3.7703 Z0.2607
X30.1136 Y3.7677 Z0.2613
X30.1129 Y3.765 Z0.262
X30.112 Y3.7625 Z0.2628
X30.111 Y3.7601 Z0.2638
X30.1099 Y3.7578 Z0.265
X30.1087 Y3.7556 Z0.2662
X30.1074 Y3.7536 Z0.2677
X30.1061 Y3.7516 Z0.2692
X30.1048 Y3.7498 Z0.2709
X30.1034 Y3.7482 Z0.2727
X30.102 Y3.7467 Z0.2747
X30.1007 Y3.7453 Z0.2767
X30.0994 Y3.744 Z0.2788
X30.0981 Y3.7429 Z0.2811
X30.0969 Y3.7419 Z0.2834
X30.0958 Y3.7411 Z0.2858
X30.0947 Y3.7403 Z0.2883
X30.0938 Y3.7396 Z0.2909
X30.093 Y3.7391 Z0.2935
X30.0922 Y3.7386 Z0.2962
X30.0917 Y3.7383 Z0.2989
X30.0912 Y3.738 Z0.3016
X30.0908 Y3.7378 Z0.3044
X30.0906 Y3.7377 Z0.3072
Y3.7376 Z0.31
G0 Z0.91
X31.556 Y1.9413
Z0.6052
G1 Z0.4833 F50.
Y1.9416 Z0.478 F100.
Y1.9425 Z0.4727
Y1.9439 Z0.4675
Y1.9459 Z0.4625
Y1.9484 Z0.4578
Y1.9513 Z0.4534
Y1.9548 Z0.4492
Y1.9586 Z0.4455
Y1.9629 Z0.4422
Y1.9674 Z0.4394
Y1.9723 Z0.4371
X31.5561 Y1.9773 Z0.4353
Y1.9825 Z0.4341
Y1.9878 Z0.4335
X31.5619 Y4.3471 Z0.2685
G2 X31.5879 Y4.3731 Z0.2656 I0.026 J-0.0001
G1 X31.602 Z0.2646
G2 X31.628 Y4.347 Z0.2618 I0. J-0.026
G1 Y4.3234 Z0.2601
Y4.3199 Z0.26
X31.6207 Y1.3329
G2 X31.6069 Y1.31 I-0.026 J0.0001
G3 X31.5935 Y1.3025 I0.232 J-0.4328
G2 X31.5545 Y1.3251 I-0.013 J0.0225
G1 X31.5619 Y4.3471
G2 X31.5879 Y4.3731 I0.026 J-0.0001
G1 X31.602
G2 X31.628 Y4.347 I0. J-0.026
G1 Y4.3199
G3 X31.7176 Y4.1847 I0.1462 J-0.0004
G2 X31.8073 Y4.0495 I-0.0566 J-0.1349
G1 X31.8005 Y1.2662
G2 X31.7379 Y1.173 I-0.101 J0.0002
G3 X31.5242 Y0.9901 I0.1713 J-0.4165
G2 X31.4626 Y0.9902 I-0.0308 J0.0186
G3 X31.4112 Y1.0594 I-0.3734 J-0.2238
G1 X31.4082 Y1.0624
X31.4052 Y1.0655
G2 X31.374 Y1.1436 I0.0818 J0.0779
G1 X31.3822 Y4.4892
G2 X31.4463 Y4.5531 I0.0641 J-0.0002
G1 X31.7447
G2 X31.8084 Y4.4893 I0. J-0.0637
G1 X31.8073 Y4.0495
G3 X31.8975 Y3.9135 I0.1471 J-0.0004
G2 X31.9876 Y3.7775 I-0.0569 J-0.1356
G1 X31.9809 Y1.0238
X31.9027 Y1.024
X31.899
X31.8932 Y1.0238
X31.8875 Y1.0236
X31.8817 Y1.0232
X31.8758 Y1.0226
X31.8698 Y1.0219
X31.8641 Y1.0211
X31.8585 Y1.0202
X31.8529 Y1.0192
X31.8471 Y1.018
X31.8413 Y1.0166
X31.8356 Y1.0152
X31.8298 Y1.0136
X31.824 Y1.0118
X31.8182 Y1.0099
X31.8125 Y1.0078
X31.8048 Y1.0048
X31.7952 Y1.0007
X31.7894 Y0.998
X31.7875 Y0.9971
X31.7836 Y0.9951
X31.7779 Y0.992
X31.7721 Y0.9888
X31.7663 Y0.9853
X31.7604 Y0.9816
X31.7544 Y0.9775
X31.7487 Y0.9734
X31.7431 Y0.9692
X31.7361 Y0.9635
X31.7277 Y0.9561
X31.722 Y0.9509
X31.7189 Y0.9478
X31.7153 Y0.9442
X31.7113 Y0.9399
X31.7075 Y0.9357
X31.7039 Y0.9315
X31.7001 Y0.9269
X31.6962 Y0.9218
X31.6919 Y0.9161
X31.6874 Y0.9096
X31.6833 Y0.9034
X31.6798 Y0.8977
X31.6763 Y0.8916
X31.6729 Y0.8853
X31.6698 Y0.8794
X31.6672 Y0.8739
X31.6647 Y0.8684
X31.6624 Y0.8629
X31.6601 Y0.8573
X31.658 Y0.8516
X31.656 Y0.8458
X31.6542 Y0.84
X31.6519 Y0.832
X31.6493 Y0.8216
X31.648 Y0.8158
X31.6478 Y0.8147
X31.6471 Y0.8112
X31.6461 Y0.8055
X31.6453 Y0.7997
X31.6445 Y0.7939
X31.6439 Y0.7882
X31.6435 Y0.7824
X31.6431 Y0.7766
X31.6429 Y0.7709
X31.6428 Y0.7663
X31.6379 Y-1.239
Y-1.2426
X31.6382 Y-1.2541
X31.6385 Y-1.2602
X31.6389 Y-1.2659
X31.3395
X31.3399 Y-1.259
X31.3401 Y-1.2536
X31.3404 Y-1.2421
Y-1.2396
X31.3453 Y0.7542
Y0.7546
Y0.755
X31.3452 Y0.7666
X31.3451 Y0.773
X31.3447 Y0.7788
X31.3443 Y0.7846
X31.3437 Y0.7903
X31.343 Y0.7961
X31.3422 Y0.8019
X31.3412 Y0.8076
X31.3401 Y0.8134
X31.3385 Y0.8207
X31.3363 Y0.8295
X31.3348 Y0.8352
X31.3339 Y0.8379
X31.3326 Y0.8422
X31.3306 Y0.848
X31.3285 Y0.8537
X31.3263 Y0.8595
X31.3239 Y0.8652
X31.3213 Y0.871
X31.3185 Y0.8768
X31.3156 Y0.8825
X31.3136 Y0.8863
X31.3126 Y0.8881
X31.3107 Y0.8915
X31.3078 Y0.8963
X31.3048 Y0.9012
X31.3017 Y0.906
X31.2974 Y0.9122
X31.2918 Y0.9197
X31.2874 Y0.9255
X31.284 Y0.9295
X31.2804 Y0.9337
X31.2765 Y0.938
X31.2724 Y0.9424
X31.2681 Y0.9467
X31.2644 Y0.9503
X31.2614 Y0.9531
X31.2557 Y0.9582
X31.2472 Y0.9652
X31.2436 Y0.9682
X31.2398 Y0.971
X31.2336 Y0.9754
X31.2278 Y0.9793
X31.2225 Y0.9827
X31.2169 Y0.9861
X31.2112 Y0.9894
X31.2054 Y0.9925
X31.1996 Y0.9954
X31.1946 Y0.9978
X31.1927 Y0.9986
X31.2018 Y4.7341
X31.99
X31.9876 Y3.7775
X31.9875 Y3.7747 Z0.2601
X31.9872 Y3.772 Z0.2603
X31.9867 Y3.7692 Z0.2607
X31.9861 Y3.7665 Z0.2613
X31.9853 Y3.7639 Z0.262
X31.9844 Y3.7614 Z0.2628
X31.9834 Y3.759 Z0.2638
X31.9823 Y3.7567 Z0.265
X31.9811 Y3.7545 Z0.2662
X31.9799 Y3.7524 Z0.2677
X31.9786 Y3.7505 Z0.2692
X31.9772 Y3.7487 Z0.2709
X31.9758 Y3.7471 Z0.2727
X31.9745 Y3.7456 Z0.2747
X31.9731 Y3.7442 Z0.2767
X31.9718 Y3.7429 Z0.2788
X31.9706 Y3.7418 Z0.2811
X31.9694 Y3.7408 Z0.2834
X31.9682 Y3.7399 Z0.2858
X31.9672 Y3.7392 Z0.2883
X31.9663 Y3.7385 Z0.2909
X31.9654 Y3.738 Z0.2935
X31.9647 Y3.7375 Z0.2962
X31.9641 Y3.7372 Z0.2989
X31.9636 Y3.7369 Z0.3016
X31.9633 Y3.7367 Z0.3044
X31.9631 Y3.7366 Z0.3072
X31.963 Y3.7365 Z0.31
G0 Z0.91
X33.3413 Y1.0965
Z0.6052
G1 Z0.4833 F50.
Y1.0962 Z0.478 F100.
Y1.0954 Z0.4727
X33.3414 Y1.094 Z0.4675
Y1.092 Z0.4625
Y1.0895 Z0.4578
Y1.0865 Z0.4534
Y1.0831 Z0.4492
Y1.0792 Z0.4455
Y1.075 Z0.4422
Y1.0704 Z0.4394
Y1.0656 Z0.4371
Y1.0606 Z0.4353
Y1.0553 Z0.4341
X33.3415 Y1.05 Z0.4335
X33.3466 Y-1.2396 Z0.2734
X33.3467 Y-1.2421 Z0.2732
X33.3469 Y-1.2536 Z0.2724
X33.3472 Y-1.259 Z0.272
X33.3476 Y-1.2659 Z0.2715
X33.1848 Z0.2601
X33.1813 Z0.26
X33.0549
X33.0554 Y-1.259
X33.0556 Y-1.2536
X33.0558 Y-1.2421
X33.0559 Y-1.2396
X33.0705 Y4.7341
X33.3331
X33.3466 Y-1.2396
X33.3467 Y-1.2421
X33.3469 Y-1.2536
X33.3472 Y-1.259
X33.3476 Y-1.2659
X33.1813
X33.1785 Y-1.2657 Z0.2601
X33.1757 Y-1.2654 Z0.2603
X33.173 Y-1.265 Z0.2607
X33.1703 Y-1.2644 Z0.2613
X33.1677 Y-1.2636 Z0.262
X33.1651 Y-1.2627 Z0.2628
X33.1627 Y-1.2617 Z0.2638
X33.1604 Y-1.2606 Z0.265
X33.1582 Y-1.2594 Z0.2662
X33.1562 Y-1.2582 Z0.2677
X33.1542 Y-1.2569 Z0.2692
X33.1524 Y-1.2555 Z0.2709
X33.1508 Y-1.2542 Z0.2727
X33.1493 Y-1.2528 Z0.2747
X33.1479 Y-1.2515 Z0.2767
X33.1466 Y-1.2502 Z0.2788
X33.1455 Y-1.2489 Z0.2811
X33.1445 Y-1.2477 Z0.2834
X33.1436 Y-1.2466 Z0.2858
X33.1429 Y-1.2455 Z0.2883
X33.1422 Y-1.2446 Z0.2909
X33.1417 Y-1.2438 Z0.2935
X33.1412 Y-1.2431 Z0.2962
X33.1408 Y-1.2425 Z0.2989
X33.1405 Y-1.242 Z0.3016
X33.1403 Y-1.2416 Z0.3044
X33.1402 Y-1.2414 Z0.3072
Z0.31
G0 Z0.91
X34.7606 Y1.9409
Z0.6052
G1 Z0.4833 F50.
Y1.9412 Z0.478 F100.
Y1.942 Z0.4727
Y1.9434 Z0.4675
Y1.9454 Z0.4625
Y1.9479 Z0.4578
Y1.9509 Z0.4534
Y1.9543 Z0.4492
Y1.9582 Z0.4455
Y1.9624 Z0.4422
Y1.967 Z0.4394
Y1.9718 Z0.4371
X34.7605 Y1.9768 Z0.4353
Y1.9821 Z0.4341
Y1.9874 Z0.4335
X34.7552 Y4.338 Z0.2691
G2 X34.7902 Y4.3731 Z0.2652 I0.035 J0.0001
G1 X34.7913
G2 X34.8263 Y4.3381 Z0.2613 I0. J-0.035
G1 Y4.3211 Z0.2601
Y4.3176 Z0.26
X34.8284 Y1.3349
G2 X34.7902 Y1.3119 I-0.026 J0.
G1 X34.7859 Y1.3141
G3 X34.7763 Y1.3191 I-0.2707 J-0.5134
G2 X34.762 Y1.3423 I0.0117 J0.0232
G1 X34.7552 Y4.338
G2 X34.7902 Y4.3731 I0.035 J0.0001
G1 X34.7913
G2 X34.8263 Y4.3381 I0. J-0.035
G1 Y4.3176
G3 X34.9164 Y4.1826 I0.1463 J0.0001
G2 X35.0065 Y4.0477 I-0.0562 J-0.135
G1 X35.0085 Y1.1306
G2 X34.9843 Y1.0713 I-0.0844 J-0.0001
G3 X34.9312 Y1.0055 I0.3084 J-0.3034
G2 X34.8669 Y1.0056 I-0.0321 J0.0211
G3 X34.6454 Y1.1795 I-0.3688 J-0.2417
G2 X34.5822 Y1.2685 I0.0313 J0.0892
G1 X34.5748 Y4.4893
G2 X34.6385 Y4.5531 I0.0637 J0.0001
G1 X34.9423
G2 X35.0062 Y4.4892 I0. J-0.0639
G1 X35.0065 Y4.0477
G3 X35.0971 Y3.912 I0.1471 J0.0001
G2 X35.1877 Y3.7763 I-0.0565 J-0.1358
G1 X35.1896 Y0.9984
X35.1878 Y0.9975
X35.1778 Y0.9924
X35.1702 Y0.9883
X35.1649 Y0.9852
X35.1597 Y0.982
X35.1545 Y0.9786
X35.1513 Y0.9765
X35.1502 Y0.9757
X35.1468 Y0.9732
X35.141 Y0.9689
X35.1353 Y0.9644
X35.1295 Y0.9596
X35.1257 Y0.9563
X35.1239 Y0.9546
X35.1204 Y0.9513
X35.1153 Y0.9464
X35.1104 Y0.9414
X35.1058 Y0.9364
X35.1029 Y0.9331
X35.1015 Y0.9315
X35.0985 Y0.9279
X35.0939 Y0.9221
X35.0896 Y0.9164
X35.0855 Y0.9106
X35.0827 Y0.9066
X35.0812 Y0.9043
X35.0777 Y0.8986
X35.0722 Y0.8893
X35.0681 Y0.8818
X35.0653 Y0.876
X35.0626 Y0.8703
X35.06 Y0.8645
X35.0584 Y0.8608
X35.0578 Y0.8591
X35.0556 Y0.8534
X35.0522 Y0.8435
X35.0497 Y0.8357
X35.0481 Y0.8299
X35.0466 Y0.8241
X35.0453 Y0.8184
X35.0441 Y0.8126
X35.043 Y0.8069
X35.0421 Y0.8011
X35.0413 Y0.7953
X35.0406 Y0.7896
X35.0401 Y0.7838
X35.0397 Y0.778
X35.0394 Y0.7723
X35.0393 Y0.7664
X35.0392 Y0.7549
Y0.7544
X35.0406 Y-1.2394
Y-1.2422
X35.0409 Y-1.2537
X35.0412 Y-1.2594
X35.0416 Y-1.2659
X34.7615
X34.7619 Y-1.2602
X34.7622 Y-1.2541
X34.7625 Y-1.2426
Y-1.239
X34.7579 Y0.7663
Y0.771
X34.7576 Y0.7767
X34.7573 Y0.7825
X34.7568 Y0.7882
X34.7562 Y0.794
X34.7555 Y0.7998
X34.7546 Y0.8055
X34.7536 Y0.8113
X34.7526 Y0.8162
X34.7518 Y0.8204
X34.7504 Y0.8261
X34.7485 Y0.8335
X34.7465 Y0.8401
X34.7447 Y0.8459
X34.7427 Y0.8516
X34.7406 Y0.8574
X34.7383 Y0.8632
X34.7358 Y0.8689
X34.733 Y0.875
X34.7299 Y0.8815
X34.7268 Y0.8874
X34.7238 Y0.8928
X34.7206 Y0.8983
X34.7172 Y0.9037
X34.713 Y0.9101
X34.7078 Y0.9174
X34.7035 Y0.9231
X34.7002 Y0.9273
X34.6966 Y0.9317
X34.6927 Y0.9362
X34.6886 Y0.9408
X34.6843 Y0.9453
X34.6808 Y0.9488
X34.6783 Y0.9512
X34.6748 Y0.9545
X34.6703 Y0.9586
X34.6658 Y0.9625
X34.6613 Y0.9662
X34.6566 Y0.97
X34.6516 Y0.9737
X34.6458 Y0.9778
X34.6393 Y0.9822
X34.6331 Y0.9861
X34.6273 Y0.9895
X34.6216 Y0.9927
X34.6158 Y0.9957
X34.6122 Y0.9975
X34.6107 Y0.9982
X34.605 Y1.0008
X34.5949 Y1.0051
X34.5869 Y1.0082
X34.5812 Y1.0103
X34.5754 Y1.0121
X34.5696 Y1.0139
X34.5639 Y1.0154
X34.5581 Y1.0169
X34.5523 Y1.0182
X34.5466 Y1.0194
X34.541 Y1.0204
X34.5355 Y1.0212
X34.5297 Y1.022
X34.5236 Y1.0227
X34.5177 Y1.0232
X34.512 Y1.0236
X34.5062 Y1.0238
X34.5004 Y1.0239
X34.4975 Y1.024
X34.4017 Y1.0237
X34.3933 Y4.7341
X35.187
X35.1877 Y3.7763
X35.1875 Y3.7735 Z0.2601
X35.1872 Y3.7707 Z0.2603
X35.1868 Y3.768 Z0.2607
X35.1861 Y3.7653 Z0.2613
X35.1854 Y3.7627 Z0.262
X35.1845 Y3.7602 Z0.2628
X35.1835 Y3.7578 Z0.2638
X35.1824 Y3.7555 Z0.265
X35.1812 Y3.7533 Z0.2662
X35.18 Y3.7512 Z0.2677
X35.1787 Y3.7493 Z0.2692
X35.1773 Y3.7475 Z0.2709
X35.176 Y3.7458 Z0.2727
X35.1746 Y3.7443 Z0.2747
X35.1733 Y3.7429 Z0.2767
X35.172 Y3.7417 Z0.2788
X35.1707 Y3.7405 Z0.2811
X35.1695 Y3.7395 Z0.2834
X35.1684 Y3.7387 Z0.2858
X35.1673 Y3.7379 Z0.2883
X35.1664 Y3.7372 Z0.2909
X35.1656 Y3.7367 Z0.2935
X35.1649 Y3.7362 Z0.2962
X35.1643 Y3.7359 Z0.2989
X35.1638 Y3.7356 Z0.3016
X35.1635 Y3.7354 Z0.3044
X35.1633 Y3.7353 Z0.3072
X35.1632 Y3.7352 Z0.31
G0 Z0.91
X36.5923 Y1.953
Z0.6052
G1 Z0.4833 F50.
Y1.9533 Z0.478 F100.
Y1.9541 Z0.4727
Y1.9556 Z0.4675
Y1.9575 Z0.4625
Y1.96 Z0.4578
Y1.963 Z0.4534
Y1.9664 Z0.4492
Y1.9703 Z0.4455
Y1.9745 Z0.4422
Y1.9791 Z0.4394
Y1.9839 Z0.4371
Y1.989 Z0.4353
Y1.9942 Z0.4341
X36.5922 Y1.9995 Z0.4335
X36.5906 Y4.338 Z0.2699
G2 X36.6257 Y4.3731 Z0.2661 I0.035 J0.
G1 X36.6345 Z0.2655
G2 X36.6695 Y4.3377 Z0.2616 I0. J-0.035
G1 X36.6693 Y4.3167 Z0.2601
Y4.3132 Z0.26
X36.6368 Y1.2665
G2 X36.6297 Y1.2517 I-0.0193 J0.0002
G1 X36.6244 Y1.2474
G2 X36.5928 Y1.2622 I-0.0123 J0.0148
G1 X36.5906 Y4.338
G2 X36.6257 Y4.3731 I0.035 J0.
G1 X36.6345
G2 X36.6695 Y4.3377 I0. J-0.035
G1 X36.6693 Y4.3132
G3 X36.7578 Y4.1773 I0.1462 J-0.0016
G2 X36.8464 Y4.0413 I-0.0577 J-0.1344
G1 X36.8166 Y1.2457
G2 X36.7524 Y1.1192 I-0.1601 J0.0017
G3 X36.6403 Y0.9944 I0.2571 J-0.3436
G2 X36.5785 Y0.9938 I-0.0311 J0.0185
G3 X36.5325 Y1.056 I-0.409 J-0.2546
X36.4761 Y1.1091 I-0.301 J-0.2628
G2 X36.4128 Y1.2382 I0.1001 J0.1292
G1 X36.4105 Y4.4892
G2 X36.4743 Y4.5531 I0.0638 J0.
G1 X36.7881
G2 X36.8512 Y4.4894 I0. J-0.063
G1 X36.8464 Y4.0413
G3 X36.9354 Y3.9046 I0.1471 J-0.0016
G2 X37.0245 Y3.7679 I-0.058 J-0.1351
G1 X36.9953 Y1.0265
X36.9919 Y1.0262
X36.9861 Y1.0255
X36.9803 Y1.0247
X36.9746 Y1.0238
X36.9688 Y1.0228
X36.963 Y1.0216
X36.9573 Y1.0202
X36.9515 Y1.0188
X36.9457 Y1.0172
X36.94 Y1.0154
X36.9342 Y1.0135
X36.9284 Y1.0114
X36.9227 Y1.0092
X36.9169 Y1.0069
X36.9113 Y1.0044
X36.9059 Y1.0019
X36.9001 Y0.999
X36.894 Y0.9958
X36.888 Y0.9924
X36.8823 Y0.989
X36.8765 Y0.9853
X36.8707 Y0.9815
X36.8653 Y0.9776
X36.8603 Y0.9738
X36.8545 Y0.9692
X36.848 Y0.9638
X36.8416 Y0.958
X36.8353 Y0.9519
X36.8295 Y0.9461
X36.8243 Y0.9404
X36.8193 Y0.9346
X36.8145 Y0.9288
X36.8104 Y0.9234
X36.8069 Y0.9185
X36.8035 Y0.9137
X36.8003 Y0.9088
X36.7981 Y0.9055
X36.797 Y0.9037
X36.7947 Y0.8999
X36.7914 Y0.8941
X36.7883 Y0.8884
X36.7854 Y0.8826
X36.7818 Y0.8749
X36.7776 Y0.8652
X36.7753 Y0.8594
X36.7746 Y0.8576
X36.7732 Y0.8538
X36.7713 Y0.848
X36.7695 Y0.8423
X36.7678 Y0.8365
X36.7663 Y0.8307
X36.7649 Y0.825
X36.7637 Y0.8192
X36.7626 Y0.8134
X36.7616 Y0.8077
X36.7608 Y0.8019
X36.7601 Y0.7961
X36.7595 Y0.7904
X36.759 Y0.7821
X36.7586 Y0.7706
X36.7585 Y0.7674
X36.7373 Y-1.2264
Y-1.227
Y-1.2275
X36.7372 Y-1.239
X36.7373 Y-1.2437
X36.7377 Y-1.2552
X36.7381 Y-1.2616
X36.7384 Y-1.2659
X36.463
X36.4634 Y-1.2598
X36.4637 Y-1.2539
X36.464 Y-1.2424
Y-1.2392
X36.4626 Y0.7546
Y0.7549
Y0.7664
X36.4623 Y0.7745
X36.4615 Y0.7861
X36.4607 Y0.7947
X36.4599 Y0.8005
X36.459 Y0.8062
X36.458 Y0.812
X36.4568 Y0.8178
X36.4555 Y0.8235
X36.4541 Y0.8293
X36.4525 Y0.835
X36.4507 Y0.8408
X36.4489 Y0.8466
X36.4468 Y0.8523
X36.4447 Y0.8581
X36.4422 Y0.8641
X36.4394 Y0.8705
X36.4367 Y0.8762
X36.4342 Y0.8814
X36.4313 Y0.8869
X36.4281 Y0.8927
X36.4247 Y0.8984
X36.421 Y0.9042
X36.4181 Y0.9086
X36.416 Y0.9117
X36.4118 Y0.9176
X36.4053 Y0.926
X36.4025 Y0.9295
X36.3995 Y0.933
X36.3944 Y0.9387
X36.389 Y0.9445
X36.3831 Y0.9503
X36.3774 Y0.9557
X36.3717 Y0.9607
X36.3682 Y0.9637
X36.3646 Y0.9665
X36.3561 Y0.973
X36.3503 Y0.9772
X36.3472 Y0.9793
X36.3429 Y0.9821
X36.3371 Y0.9857
X36.3313 Y0.9891
X36.3256 Y0.9923
X36.3199 Y0.9953
X36.3144 Y0.9979
X36.3087 Y1.0006
X36.3026 Y1.0032
X36.2967 Y1.0056
X36.291 Y1.0078
X36.2852 Y1.0098
X36.2794 Y1.0116
X36.2736 Y1.0133
X36.2679 Y1.0149
X36.2621 Y1.0163
X36.2563 Y1.0176
X36.2506 Y1.0188
X36.2448 Y1.0198
X36.239 Y1.0207
X36.2333 Y1.0214
X36.2328 Y1.0215
X36.2324
X36.2319 Y1.0216
X36.2293 Y4.7341
X37.0348
X37.0245 Y3.7679
X37.0243 Y3.7651 Z0.2601
X37.024 Y3.7624 Z0.2603
X37.0235 Y3.7596 Z0.2607
X37.0228 Y3.757 Z0.2613
X37.022 Y3.7544 Z0.262
X37.0211 Y3.7518 Z0.2628
X37.0201 Y3.7494 Z0.2638
X37.019 Y3.7471 Z0.265
X37.0178 Y3.745 Z0.2662
X37.0165 Y3.7429 Z0.2677
X37.0152 Y3.741 Z0.2692
X37.0138 Y3.7392 Z0.2709
X37.0124 Y3.7376 Z0.2727
X37.0111 Y3.7361 Z0.2747
X37.0097 Y3.7347 Z0.2767
X37.0084 Y3.7335 Z0.2788
X37.0071 Y3.7324 Z0.2811
X37.0059 Y3.7314 Z0.2834
X37.0048 Y3.7305 Z0.2858
X37.0037 Y3.7298 Z0.2883
X37.0028 Y3.7291 Z0.2909
X37.0019 Y3.7286 Z0.2935
X37.0012 Y3.7281 Z0.2962
X37.0006 Y3.7277 Z0.2989
X37.0001 Y3.7275 Z0.3016
X36.9998 Y3.7273 Z0.3044
X36.9996 Y3.7272 Z0.3072
X36.9995 Y3.7271 Z0.31
G0 Z0.91
X38.6217 Y3.8396
Z0.6052
G1 Z0.4833 F50.
Y3.8394 Z0.478 F100.
Y3.8385 Z0.4727
Y3.8371 Z0.4675
Y3.8351 Z0.4625
Y3.8326 Z0.4578
X38.6216 Y3.8297 Z0.4534
Y3.8262 Z0.4492
Y3.8224 Z0.4455
Y3.8181 Z0.4422
Y3.8136 Z0.4394
X38.6215 Y3.8087 Z0.4371
Y3.8037 Z0.4353
Y3.7985 Z0.4341
Y3.7931 Z0.4335
X38.6098 Y1.3144 Z0.2601
Y1.3109 Z0.26
X38.6096 Y1.2673
G2 X38.5476 Y1.1785 I-0.0952 J0.0004
G3 X38.3355 Y1.0114 I0.1541 J-0.4138
G2 X38.271 Y1.011 I-0.0324 J0.022
G3 X38.2545 Y1.0329 I-0.336 J-0.235
X38.2369 Y1.0537 I-0.4249 J-0.3416
G2 X38.2213 Y1.0955 I0.0462 J0.0411
G1 X38.2574 Y4.4902
G2 X38.3208 Y4.5529 I0.0634 J-0.0007
G1 X38.5625
G2 X38.6248 Y4.4904 I0. J-0.0622
G1 X38.6098 Y1.3109
G3 X38.6997 Y1.1746 I0.1472 J-0.0007
G2 X38.7897 Y1.0383 I-0.0573 J-0.1356
G1 X38.7896 Y1.0246
X38.7087 Y1.025
G3 X38.6959 Y1.0249 I-0.0011 J-1.1205
G1 X38.6888 Y1.0247
X38.683 Y1.0243
X38.6773 Y1.0239
X38.6715 Y1.0233
X38.6648 Y1.0224
X38.6573 Y1.0212
X38.6515 Y1.0202
X38.6475 Y1.0194
X38.6426 Y1.0183
X38.6369 Y1.0169
X38.6311 Y1.0153
X38.6253 Y1.0136
X38.6196 Y1.0118
X38.6138 Y1.0098
X38.608 Y1.0076
X38.6023 Y1.0053
X38.5958 Y1.0026
X38.5886 Y0.9992
X38.5828 Y0.9964
X38.5785 Y0.9941
X38.5734 Y0.9913
X38.5677 Y0.9879
X38.5619 Y0.9844
X38.5561 Y0.9806
X38.5518 Y0.9776
X38.5488 Y0.9755
X38.543 Y0.9711
X38.5344 Y0.9642
X38.5276 Y0.9584
X38.5226 Y0.9538
X38.5168 Y0.9481
X38.5103 Y0.9413
X38.5051 Y0.9355
X38.5011 Y0.9307
X38.4971 Y0.9258
X38.4931 Y0.9206
X38.4894 Y0.9155
X38.4858 Y0.9103
X38.4837 Y0.9071
X38.4829 Y0.9059
X38.4807 Y0.9025
X38.4772 Y0.8967
X38.4739 Y0.8909
X38.4709 Y0.8852
X38.4672 Y0.8777
X38.463 Y0.8686
X38.4605 Y0.8628
X38.4595 Y0.8604
X38.458 Y0.8563
X38.4559 Y0.8506
X38.454 Y0.8448
X38.4522 Y0.8391
X38.4505 Y0.8333
X38.449 Y0.8275
X38.4477 Y0.8218
X38.4465 Y0.816
X38.4454 Y0.8102
X38.4444 Y0.8045
X38.4436 Y0.7987
X38.4429 Y0.7929
X38.4424 Y0.7872
X38.4419 Y0.7814
X38.4416 Y0.7757
X38.4415 Y0.7699
X38.4414 Y0.7666
X38.432 Y-1.2387
Y-1.2428
X38.4323 Y-1.2544
X38.4327 Y-1.2608
X38.4331 Y-1.2659
X38.1474
X38.1478 Y-1.2576
X38.148 Y-1.2531
X38.1482 Y-1.2416
Y-1.2411
Y-1.2407
X38.1694 Y0.7531
Y0.7569
X38.1692 Y0.7684
X38.1689 Y0.7752
X38.1687 Y0.7778
X38.1682 Y0.7835
X38.1671 Y0.7925
X38.1661 Y0.7999
X38.1651 Y0.8056
X38.1639 Y0.8114
X38.1626 Y0.8172
X38.1612 Y0.8229
X38.1597 Y0.8287
X38.158 Y0.8345
X38.1561 Y0.8402
X38.1541 Y0.846
X38.152 Y0.8517
X38.1496 Y0.8577
X38.1469 Y0.8639
X38.1442 Y0.8698
X38.1415 Y0.8753
X38.1386 Y0.8809
X38.1356 Y0.8864
X38.1312 Y0.8937
X38.1254 Y0.9027
X38.1216 Y0.9084
X38.1198 Y0.911
X38.1166 Y0.9151
X38.1121 Y0.9209
X38.1073 Y0.9268
X38.1021 Y0.9327
X38.0966 Y0.9386
X38.0908 Y0.9444
X38.085 Y0.9498
X38.0793 Y0.9549
X38.0734 Y0.9599
X38.0673 Y0.9646
X38.0615 Y0.9689
X38.056 Y0.9728
X38.0506 Y0.9764
X38.0453 Y0.9797
X38.0396 Y0.9832
X38.0389 Y0.9836
X38.0788 Y4.7341
X38.8071
X38.7897 Y1.0383
X38.7896 Y1.0375
Y1.0367 Z0.2601
X38.7895 Y1.036 Z0.2602
X38.7893 Y1.0353 Z0.2603
X38.7891 Y1.0346 Z0.2605
X38.7889 Y1.0339 Z0.2608
X38.7887 Y1.0332 Z0.261
X38.7884 Y1.0325 Z0.2614
X38.7881 Y1.0319 Z0.2617
X38.7878 Y1.0314 Z0.2621
X38.7874 Y1.0308 Z0.2625
X38.7871 Y1.0303 Z0.263
X38.7867 Y1.0299 Z0.2635
X38.7864 Y1.0294 Z0.264
X38.786 Y1.029 Z0.2646
X38.7857 Y1.0287 Z0.2651
X38.7853 Y1.0284 Z0.2657
X38.785 Y1.0281 Z0.2664
X38.7847 Y1.0278 Z0.267
X38.7844 Y1.0276 Z0.2677
X38.7842 Y1.0274 Z0.2684
X38.784 Y1.0273 Z0.2691
X38.7838 Y1.0271 Z0.2699
X38.7836 Y1.027 Z0.2706
X38.7835 Y1.0269 Z0.2713
X38.7834 Z0.2721
Y1.0268 Z0.2729
X38.7833 Z0.2736
G0 Z0.91
X40.1467 Y1.0864
Z0.6052
G1 Z0.4833 F50.
Y1.0861 Z0.478 F100.
Y1.0852 Z0.4727
Y1.0838 Z0.4675
Y1.0818 Z0.4625
Y1.0793 Z0.4578
Y1.0764 Z0.4534
Y1.0729 Z0.4492
X40.1468 Y1.0691 Z0.4455
Y1.0648 Z0.4422
Y1.0603 Z0.4394
Y1.0554 Z0.4371
Y1.0504 Z0.4353
Y1.0452 Z0.4341
Y1.0398 Z0.4335
X40.1512 Y-1.2396 Z0.2741
Y-1.2421 Z0.2739
X40.1515 Y-1.2537 Z0.2731
X40.1517 Y-1.2591 Z0.2727
X40.1521 Y-1.2659 Z0.2722
X39.9791 Z0.2601
X39.9756 Z0.26
X39.8388
X39.8393 Y-1.2586
X39.8395 Y-1.2535
X39.8397 Y-1.2419
Y-1.2399
X39.8679 Y4.7341
X40.1397
X40.1512 Y-1.2396
Y-1.2421
X40.1515 Y-1.2537
X40.1517 Y-1.2591
X40.1521 Y-1.2659
X39.9756
X39.9728 Y-1.2657 Z0.2601
X39.9701 Y-1.2654 Z0.2603
X39.9673 Y-1.265 Z0.2607
X39.9646 Y-1.2644 Z0.2613
X39.962 Y-1.2636 Z0.262
X39.9595 Y-1.2627 Z0.2628
X39.9571 Y-1.2617 Z0.2638
X39.9548 Y-1.2606 Z0.265
X39.9526 Y-1.2594 Z0.2662
X39.9505 Y-1.2582 Z0.2677
X39.9486 Y-1.2569 Z0.2692
X39.9468 Y-1.2555 Z0.2709
X39.9451 Y-1.2542 Z0.2727
X39.9436 Y-1.2528 Z0.2747
X39.9422 Y-1.2515 Z0.2767
X39.941 Y-1.2502 Z0.2788
X39.9399 Y-1.2489 Z0.2811
X39.9389 Y-1.2477 Z0.2834
X39.938 Y-1.2466 Z0.2858
X39.9372 Y-1.2455 Z0.2883
X39.9366 Y-1.2446 Z0.2909
X39.936 Y-1.2438 Z0.2935
X39.9356 Y-1.2431 Z0.2962
X39.9352 Y-1.2425 Z0.2989
X39.9349 Y-1.242 Z0.3016
X39.9347 Y-1.2416 Z0.3044
X39.9346 Y-1.2414 Z0.3072
Z0.31
G0 Z0.91
X41.5676 Y1.9795
Z0.6052
G1 Z0.4833 F50.
Y1.9798 Z0.478 F100.
X41.5675 Y1.9806 Z0.4727
Y1.9821 Z0.4675
Y1.984 Z0.4625
Y1.9865 Z0.4578
Y1.9895 Z0.4534
Y1.9929 Z0.4492
Y1.9968 Z0.4455
Y2.001 Z0.4422
Y2.0056 Z0.4394
Y2.0104 Z0.4371
Y2.0155 Z0.4353
Y2.0207 Z0.4341
Y2.026 Z0.4335
X41.563 Y4.3259 Z0.2726
G2 X41.6101 Y4.3731 Z0.2675 I0.0471 J0.0001
G1 X41.6194 Z0.2668
G2 X41.6665 Y4.3256 Z0.2616 I0. J-0.0471
G1 X41.6663 Y4.3044 Z0.2601
Y4.301 Z0.26
X41.6404 Y1.3399
G2 X41.5887 Y1.3094 I-0.035 J0.0003
G1 X41.5873 Y1.3101
G2 X41.5688 Y1.341 I0.0165 J0.0309
G1 X41.563 Y4.3259
G2 X41.6101 Y4.3731 I0.0471 J0.0001
G1 X41.6194
G2 X41.6665 Y4.3256 I0. J-0.0471
G1 X41.6663 Y4.301
G3 X41.7551 Y4.1652 I0.1462 J-0.0013
G2 X41.8439 Y4.0294 I-0.0574 J-0.1345
G1 X41.8187 Y1.1397
G2 X41.7891 Y1.0645 I-0.1129 J0.001
G3 X41.7328 Y0.9877 I0.3258 J-0.2978
G2 X41.6721 Y0.9876 I-0.0304 J0.0177
G3 X41.4516 Y1.1749 I-0.3805 J-0.2243
G2 X41.3889 Y1.2667 I0.0361 J0.092
G1 X41.3827 Y4.4893
G2 X41.4465 Y4.5531 I0.0637 J0.0001
G1 X41.7847
G2 X41.8479 Y4.4894 I0. J-0.0632
G1 X41.8439 Y4.0294
G3 X41.9332 Y3.8929 I0.1471 J-0.0013
G2 X42.0225 Y3.7563 I-0.0577 J-0.1353
G1 X41.9985 Y0.9994
X41.9943 Y0.9973
X41.9884 Y0.9942
X41.9829 Y0.991
X41.9773 Y0.9877
X41.9718 Y0.9841
X41.9656 Y0.98
X41.959 Y0.9751
X41.9532 Y0.9707
X41.9483 Y0.9668
X41.9418 Y0.9611
X41.9336 Y0.9535
X41.9279 Y0.9479
X41.9245 Y0.9443
X41.9194 Y0.9386
X41.9126 Y0.9306
X41.9097 Y0.927
X41.9069 Y0.9233
X41.9021 Y0.9168
X41.8981 Y0.911
X41.8949 Y0.906
X41.8916 Y0.9007
X41.8882 Y0.8949
X41.8851 Y0.8891
X41.8821 Y0.8834
X41.8796 Y0.8784
X41.8777 Y0.8742
X41.8752 Y0.8684
X41.8722 Y0.8611
X41.8697 Y0.8546
X41.8677 Y0.8488
X41.8659 Y0.843
X41.8642 Y0.8373
X41.8627 Y0.8315
X41.8612 Y0.8257
X41.86 Y0.82
X41.8588 Y0.8142
X41.8578 Y0.8085
X41.857 Y0.8027
X41.8562 Y0.7969
X41.8556 Y0.7912
X41.855 Y0.7827
X41.8545 Y0.7712
X41.8544 Y0.7671
X41.837 Y-1.2266
Y-1.227
Y-1.2274
Y-1.2389
X41.8371 Y-1.2434
X41.8374 Y-1.2549
X41.8378 Y-1.2614
X41.8382 Y-1.2659
X41.5549
X41.5553 Y-1.2601
X41.5556 Y-1.254
X41.5559 Y-1.2425
X41.556 Y-1.2391
X41.5521 Y0.7663
X41.552 Y0.7711
X41.5518 Y0.7769
X41.5514 Y0.7826
X41.5509 Y0.7884
X41.5503 Y0.7942
X41.5496 Y0.7999
X41.5487 Y0.8057
X41.5477 Y0.8115
X41.5468 Y0.8162
X41.546 Y0.8199
X41.5446 Y0.8257
X41.5426 Y0.8335
X41.5406 Y0.8403
X41.5387 Y0.846
X41.5367 Y0.8518
X41.5346 Y0.8576
X41.5323 Y0.8633
X41.5298 Y0.8691
X41.5271 Y0.8751
X41.524 Y0.8813
X41.521 Y0.8871
X41.5179 Y0.8927
X41.5146 Y0.8982
X41.5112 Y0.9038
X41.507 Y0.9101
X41.502 Y0.9172
X41.4977 Y0.923
X41.4942 Y0.9274
X41.4905 Y0.9318
X41.4867 Y0.9362
X41.4827 Y0.9407
X41.4785 Y0.9451
X41.475 Y0.9486
X41.4722 Y0.9513
X41.4687 Y0.9546
X41.4643 Y0.9586
X41.4599 Y0.9624
X41.4555 Y0.966
X41.4507 Y0.9698
X41.4454 Y0.9737
X41.4397 Y0.9778
X41.4334 Y0.982
X41.4273 Y0.9858
X41.4216 Y0.9892
X41.4158 Y0.9925
X41.41 Y0.9955
X41.4062 Y0.9974
X41.4044 Y0.9983
X41.3987 Y1.0009
X41.389 Y1.005
X41.3812 Y1.008
X41.3754 Y1.0101
X41.3697 Y1.0119
X41.3639 Y1.0137
X41.3581 Y1.0153
X41.3524 Y1.0167
X41.3466 Y1.018
X41.3408 Y1.0192
X41.3345 Y1.0203
X41.3278 Y1.0213
X41.322 Y1.0221
X41.3172 Y1.0226
X41.312 Y1.023
X41.3062 Y1.0234
X41.3004 Y1.0236
X41.2947 Y1.0238
X41.2917
X41.2084 Y1.0236
X41.2013 Y4.7341
X42.031
X42.0225 Y3.7563
X42.0223 Y3.7535 Z0.2601
X42.022 Y3.7508 Z0.2603
X42.0215 Y3.748 Z0.2607
X42.0209 Y3.7453 Z0.2613
X42.0201 Y3.7427 Z0.262
X42.0192 Y3.7402 Z0.2628
X42.0182 Y3.7378 Z0.2638
X42.0171 Y3.7355 Z0.265
X42.0158 Y3.7333 Z0.2662
X42.0146 Y3.7313 Z0.2677
X42.0133 Y3.7294 Z0.2692
X42.0119 Y3.7276 Z0.2709
X42.0105 Y3.7259 Z0.2727
X42.0091 Y3.7244 Z0.2747
X42.0078 Y3.7231 Z0.2767
X42.0065 Y3.7218 Z0.2788
X42.0052 Y3.7207 Z0.2811
X42.004 Y3.7197 Z0.2834
X42.0029 Y3.7189 Z0.2858
X42.0018 Y3.7181 Z0.2883
X42.0009 Y3.7175 Z0.2909
X42. Y3.7169 Z0.2935
X41.9993 Y3.7165 Z0.2962
X41.9987 Y3.7161 Z0.2989
X41.9982 Y3.7158 Z0.3016
X41.9979 Y3.7156 Z0.3044
X41.9977 Y3.7155 Z0.3072
X41.9976 Z0.31
G0 Z0.91
X43.4876 Y2.0359
Z0.6052
G1 Z0.4833 F50.
Y2.0361 Z0.478 F100.
Y2.037 Z0.4727
Y2.0384 Z0.4675
Y2.0404 Z0.4625
Y2.0429 Z0.4578
X43.4877 Y2.0458 Z0.4534
Y2.0493 Z0.4492
Y2.0531 Z0.4455
X43.4878 Y2.0574 Z0.4422
Y2.0619 Z0.4394
X43.4879 Y2.0668 Z0.4371
Y2.0718 Z0.4353
Y2.077 Z0.4341
X43.488 Y2.0824 Z0.4335
X43.4952 Y2.908 Z0.3757
G2 X43.5118 Y2.9243 Z0.3739 I0.0164 J-0.0001
X43.5281 Y2.9078 Z0.3721 I-0.0001 J-0.0164
G1 X43.52 Y1.3218 Z0.2612
G2 X43.5136 Y1.3082 Z0.2601 I-0.0176 J0.0001
G1 X43.5123 Y1.3073 Z0.26
X43.511 Y1.3065
X43.5107 Y1.3063
X43.5075 Y1.3046
G2 X43.4813 Y1.32 I-0.0086 J0.0153
G1 X43.4952 Y2.908
G2 X43.5281 Y2.9078 I0.0164 J-0.0001
G1 X43.52 Y1.3218
G2 X43.511 Y1.3065 I-0.0176 J0.0001
G1 X43.5107 Y1.3063
G3 X43.428 Y1.207 I0.088 J-0.1573
G2 X43.3006 Y1.2286 I-0.062 J0.0211
G1 X43.3291 Y4.4902
G2 X43.3923 Y4.5529 I0.0633 J-0.0006
G1 X43.6538
G2 X43.716 Y4.4904 I0. J-0.0622
G1 X43.6997 Y1.2638
G2 X43.6371 Y1.1687 I-0.1044 J0.0005
G3 X43.5288 Y1.1006 I0.1733 J-0.396
X43.4446 Y1.0042 I0.2916 J-0.3395
G2 X43.3813 Y1.0039 I-0.0317 J0.0205
G3 X43.3581 Y1.0359 I-0.3627 J-0.2394
X43.3318 Y1.0654 I-0.2939 J-0.235
G2 X43.2999 Y1.1442 I0.0787 J0.0778
G1 X43.3006 Y1.2286
G3 X43.2112 Y1.3653 I-0.1472 J0.0013
G2 X43.1218 Y1.502 I0.0578 J0.1354
G1 X43.15 Y4.7341
X43.8984
X43.8796 Y1.0249
X43.8188 Y1.0252
X43.8149 Y1.0251
X43.8033 Y1.0248
X43.7949 Y1.0243
X43.7891 Y1.0238
X43.7833 Y1.0232
X43.7776 Y1.0224
X43.7725 Y1.0216
X43.768 Y1.0208
X43.7622 Y1.0196
X43.7551 Y1.0181
X43.7487 Y1.0165
X43.743 Y1.0149
X43.7372 Y1.0131
X43.7314 Y1.0112
X43.7257 Y1.0092
X43.7199 Y1.007
X43.7141 Y1.0046
X43.7083 Y1.0021
X43.7037 Y0.9999
X43.7002 Y0.9982
X43.6944 Y0.9952
X43.6864 Y0.9908
X43.6797 Y0.9869
X43.6743 Y0.9835
X43.669 Y0.98
X43.6636 Y0.9762
X43.6605 Y0.974
X43.6597 Y0.9734
X43.6564 Y0.9708
X43.6507 Y0.9662
X43.6449 Y0.9614
X43.6391 Y0.9562
X43.6357 Y0.953
X43.6345 Y0.9518
X43.6311 Y0.9484
X43.6256 Y0.9428
X43.6204 Y0.937
X43.6154 Y0.9312
X43.6107 Y0.9253
X43.6063 Y0.9196
X43.6022 Y0.9138
X43.5983 Y0.908
X43.5948 Y0.9026
X43.5916 Y0.8975
X43.5884 Y0.8917
X43.5849 Y0.8853
X43.5818 Y0.8792
X43.5791 Y0.8735
X43.5765 Y0.8677
X43.5742 Y0.8619
X43.5714 Y0.8548
X43.5685 Y0.8463
X43.5666 Y0.8405
X43.5657 Y0.8375
X43.5645 Y0.8331
X43.563 Y0.8274
X43.5617 Y0.8216
X43.5605 Y0.8158
X43.5594 Y0.8101
X43.5584 Y0.8043
X43.5576 Y0.7985
X43.5569 Y0.7928
X43.5564 Y0.787
X43.556 Y0.7813
X43.5557 Y0.7755
X43.5555 Y0.7697
Y0.7667
X43.5453 Y-1.2386
X43.5454 Y-1.2429
X43.5457 Y-1.2544
X43.546 Y-1.2609
X43.5464 Y-1.2659
X43.2563
X43.2567 Y-1.2579
X43.2569 Y-1.2532
X43.2571 Y-1.2417
Y-1.2411
Y-1.2404
X43.2745 Y0.7534
Y0.7563
X43.2743 Y0.7678
X43.274 Y0.776
X43.2735 Y0.7817
X43.273 Y0.7875
X43.2723 Y0.7933
X43.2714 Y0.799
X43.2705 Y0.8048
X43.2694 Y0.8105
X43.2681 Y0.8163
X43.2667 Y0.8221
X43.2652 Y0.8278
X43.2635 Y0.8338
X43.2616 Y0.8399
X43.2596 Y0.8458
X43.2576 Y0.8513
X43.2554 Y0.8569
X43.253 Y0.8625
X43.2505 Y0.8682
X43.2477 Y0.8739
X43.2448 Y0.8797
X43.2417 Y0.8855
X43.2394 Y0.8894
X43.2382 Y0.8916
X43.2345 Y0.8974
X43.2284 Y0.9068
G3 X43.2225 Y0.9149 I-0.1085 J-0.0716
G1 X43.2172 Y0.9218
X43.2125 Y0.9275
X43.2084 Y0.9321
X43.2027 Y0.9383
X43.1952 Y0.9458
X43.1892 Y0.9515
X43.1847 Y0.9555
X43.1789 Y0.9603
X43.1719 Y0.9659
X43.168 Y0.9688
X43.1639 Y0.9717
X43.155 Y0.9776
X43.1492 Y0.9813
X43.1466 Y0.9829
X43.1424 Y0.9853
X43.1366 Y0.9885
X43.1308 Y0.9915
X43.1251 Y0.9943
X43.1174 Y0.9977
X43.1176 Y1.0217
X43.1218 Y1.502
X43.122 Y1.5048 Z0.2601
X43.1223 Y1.5076 Z0.2603
X43.1228 Y1.5103 Z0.2607
X43.1234 Y1.513 Z0.2613
X43.1242 Y1.5156 Z0.262
X43.1251 Y1.5181 Z0.2628
X43.1261 Y1.5205 Z0.2638
X43.1273 Y1.5228 Z0.265
X43.1285 Y1.525 Z0.2662
X43.1297 Y1.527 Z0.2677
X43.1311 Y1.529 Z0.2692
X43.1324 Y1.5307 Z0.2709
X43.1338 Y1.5324 Z0.2727
X43.1352 Y1.5339 Z0.2747
X43.1365 Y1.5353 Z0.2767
X43.1378 Y1.5365 Z0.2788
X43.1391 Y1.5376 Z0.2811
X43.1403 Y1.5386 Z0.2834
X43.1415 Y1.5395 Z0.2858
X43.1425 Y1.5402 Z0.2883
X43.1434 Y1.5409 Z0.2909
X43.1443 Y1.5414 Z0.2935
X43.145 Y1.5419 Z0.2962
X43.1456 Y1.5422 Z0.2989
X43.1461 Y1.5425 Z0.3016
X43.1464 Y1.5427 Z0.3044
X43.1466 Y1.5428 Z0.3072
X43.1467 Z0.31
G0 Z0.91
X45.6127 Y-0.9049
Z0.31
G1 X45.6124 Z0.3044 F100.
X45.6114 Z0.2989
X45.6099 Z0.2935
X45.6078 Z0.2883
X45.605 Z0.2834
X45.6018 Z0.2788
X45.5981 Z0.2747
X45.5939 Z0.2709
X45.5893 Z0.2677
X45.5844 Z0.265
X45.5792 Z0.2628
X45.5738 Z0.2613
X45.5683 Z0.2603
X45.5627 Z0.26
X45.4141
X45.3864
G2 X45.323 Y-0.8411 I0. J0.0635
G1 X45.349 Y4.3092
G2 X45.4133 Y4.3731 I0.0643 J-0.0003
G1 X45.4142
X45.6108
X45.6164 Z0.2603
X45.6219 Z0.2613
X45.6273 Z0.2628
X45.6325 Z0.265
X45.6374 Z0.2677
X45.6419 Z0.2709
X45.6461 Z0.2747
X45.6499 Z0.2788
X45.6531 Z0.2834
X45.6558 Z0.2883
X45.658 Z0.2935
X45.6595 Z0.2989
X45.6605 Z0.3044
X45.6608 Z0.31
G0 Z0.91
X45.6127 Y-1.0849
Z0.31
G1 X45.6124 Z0.3044 F100.
X45.6114 Z0.2989
X45.6099 Z0.2935
X45.6078 Z0.2883
X45.605 Z0.2834
X45.6018 Z0.2788
X45.5981 Z0.2747
X45.5939 Z0.2709
X45.5893 Z0.2677
X45.5844 Z0.265
X45.5792 Z0.2628
X45.5738 Z0.2613
X45.5683 Z0.2603
X45.5627 Z0.26
X45.4141
X45.2055
G2 X45.1421 Y-1.0211 I0. J0.0635
G1 X45.1699 Y4.4892
G2 X45.2342 Y4.5531 I0.0643 J-0.0003
G1 X45.4141
X45.6107
X45.6163 Z0.2603
X45.6219 Z0.2613
X45.6273 Z0.2628
X45.6324 Z0.265
X45.6373 Z0.2677
X45.6419 Z0.2709
X45.6461 Z0.2747
X45.6498 Z0.2788
X45.6531 Z0.2834
X45.6558 Z0.2883
X45.6579 Z0.2935
X45.6595 Z0.2989
X45.6604 Z0.3044
X45.6607 Z0.31
G0 Z0.91
X45.6127 Y-1.2351
Z0.305
G1 X45.6124 Z0.3 F100.
X45.6116 Y-1.2353 Z0.295
X45.6102 Y-1.2355 Z0.2901
X45.6083 Y-1.2358 Z0.2855
X45.6059 Y-1.2362 Z0.2811
X45.603 Y-1.2366 Z0.277
X45.5997 Y-1.2371 Z0.2732
X45.596 Y-1.2377 Z0.2698
X45.5919 Y-1.2384 Z0.2669
X45.5875 Y-1.2391 Z0.2645
X45.5829 Y-1.2398 Z0.2625
X45.5781 Y-1.2406 Z0.2611
X45.5732 Y-1.2413 Z0.2603
X45.5683 Y-1.2421 Z0.26
X45.422 Y-1.2653
X45.4181 Y-1.2657
X45.4142 Y-1.2659
X44.959
X44.9595 Y-1.2585
X44.9597 Y-1.2534
X44.9599 Y-1.2419
Y-1.24
X44.9902 Y4.7341
X45.4142
X45.4181 Y4.7339
X45.422 Y4.7335
X45.6162 Y4.7027
X45.6217 Y4.7018 Z0.2603
X45.6272 Y4.701 Z0.2613
X45.6325 Y4.7001 Z0.2628
X45.6376 Y4.6993 Z0.265
X45.6424 Y4.6986 Z0.2677
X45.647 Y4.6978 Z0.2709
X45.6511 Y4.6972 Z0.2747
X45.6548 Y4.6966 Z0.2788
X45.658 Y4.6961 Z0.2834
X45.6607 Y4.6957 Z0.2883
X45.6628 Y4.6953 Z0.2935
X45.6643 Y4.6951 Z0.2989
X45.6652 Y4.6949 Z0.3044
X45.6656 Z0.31
G0 Z1.31
M5
G53 G0 Z0.

(POCKET2 6)
M1
T16 M6
S24000 M3
G17 G90 G94
G55
G0 X0.481 Y4.8904
G43 Z1.31 H16
G0 Z0.2813
G1 X0.4813 Y4.8905 Z0.2779 F50.
X0.482 Y4.8906 Z0.2747
X0.4833 Y4.8908 Z0.2716
X0.485 Y4.891 Z0.2688
X0.4872 Y4.8914 Z0.2662
X0.4897 Y4.8918 Z0.2641
X0.4925 Y4.8922 Z0.2623
X0.4955 Y4.8927 Z0.261
X0.4987 Y4.8932 Z0.2603
X0.502 Y4.8937 Z0.26
X0.6919 Y4.9238
X0.6956 Y4.9241
X1.1975
X1.1609 Y-1.2366
X1.161 Y-1.2381
X1.1611 Y-1.2458
X1.1612 Y-1.2482
X1.1617 Y-1.256
X1.1619 Y-1.2583
X1.1622 Y-1.2622
X1.1624 Y-1.2639
X1.1629 Y-1.2678
X1.1631 Y-1.2691
X1.1643 Y-1.2769
X1.1649 Y-1.2799
X1.1665 Y-1.2877
X1.1671 Y-1.2905
X1.1691 Y-1.2983
X1.1698 Y-1.3009
X1.1723 Y-1.3089
X1.1732 Y-1.3115
X1.1758 Y-1.3189
X1.1769 Y-1.3216
X1.1801 Y-1.3293
X1.1814 Y-1.3323
X1.1851 Y-1.34
X1.1865 Y-1.3428
X1.1907 Y-1.3506
X1.1915 Y-1.3519
X1.1932 Y-1.3549
X1.1945 Y-1.357
X1.1975 Y-1.3618
X1.1987 Y-1.3635
X1.2034 Y-1.3704
X1.2043 Y-1.3717
X1.205 Y-1.3726
X1.2061 Y-1.3742
X1.2122 Y-1.3819
X1.2132 Y-1.3832
X1.2143 Y-1.3845
X1.2158 Y-1.3862
G3 X1.2244 Y-1.3958 I0.2523 J0.2187
G1 X1.2264 Y-1.3978
G3 X1.2347 Y-1.4059 I0.312 J0.3135
G1 X1.2371 Y-1.408
X1.2448 Y-1.4147
X1.2476 Y-1.4169
X1.2554 Y-1.4228
X1.2566 Y-1.4237
X1.2581 Y-1.4247
X1.26 Y-1.426
X1.2663 Y-1.4302
X1.2684 Y-1.4315
G3 X1.2772 Y-1.4367 I0.1518 J0.2462
G1 X1.279 Y-1.4377
X1.2868 Y-1.4418
X1.2888 Y-1.4428
X1.2944 Y-1.4455
X1.2969 Y-1.4466
G3 X1.3076 Y-1.451 I0.1794 J0.4223
G1 X1.3104 Y-1.452
X1.3181 Y-1.4548
X1.3212 Y-1.4557
X1.3289 Y-1.458
X1.3316 Y-1.4587
X1.3394 Y-1.4605
X1.3419 Y-1.4611
X1.3497 Y-1.4626
X1.3522 Y-1.463
X1.3599 Y-1.4642
X1.363 Y-1.4646
X1.3707 Y-1.4653
X1.3737 Y-1.4655
X1.3814 Y-1.4659
X1.3832 Y-1.466
X1.391 Y-1.4661
X1.3913
X1.3916
X2.0678 Y-1.4701
X2.0682
X2.0686
X2.0763
X2.0781 Y-1.47
X2.0859 Y-1.4697
X2.0888 Y-1.4696
X2.0966 Y-1.4689
X2.0996 Y-1.4686
X2.1074 Y-1.4675
X2.1097 Y-1.4671
X2.1165 Y-1.4659
X2.1191 Y-1.4654
X2.1279 Y-1.4634
X2.1306 Y-1.4627
X2.1384 Y-1.4605
X2.1414 Y-1.4596
X2.1492 Y-1.457
X2.1508 Y-1.4564
X2.1536 Y-1.4554
X2.1554 Y-1.4547
X2.1604 Y-1.4527
X2.1624 Y-1.4518
X2.1701 Y-1.4483
X2.1717 Y-1.4476
X2.1763 Y-1.4454
X2.1788 Y-1.4441
X2.182 Y-1.4423
X2.1832 Y-1.4417
X2.191 Y-1.4372
X2.1932 Y-1.4358
G3 X2.2017 Y-1.4303 I-0.2245 J0.3541
G1 X2.2039 Y-1.4287
X2.2098 Y-1.4245
X2.2109 Y-1.4237
X2.2128 Y-1.4222
X2.2147 Y-1.4207
X2.2225 Y-1.4142
X2.2253 Y-1.4117
X2.2334 Y-1.4041
X2.2361 Y-1.4013
X2.2436 Y-1.3933
X2.2459 Y-1.3907
X2.2521 Y-1.3832
X2.2539 Y-1.3809
G3 X2.2599 Y-1.3726 I-0.3952 J0.296
G1 X2.2616 Y-1.3702
G3 X2.2671 Y-1.3617 I-0.3184 J0.2127
G1 X2.2684 Y-1.3595
X2.2729 Y-1.3517
X2.2742 Y-1.3493
X2.2762 Y-1.3455
X2.2763 Y-1.3452
X2.2765 Y-1.3449
X2.2766 Y-1.3447
X2.2786 Y-1.3407
X2.2796 Y-1.3385
X2.283 Y-1.3307
X2.2839 Y-1.3286
X2.2863 Y-1.3226
X2.2871 Y-1.3204
G3 X2.2906 Y-1.31 I-0.3699 J0.1309
G1 X2.2915 Y-1.3073
X2.2937 Y-1.2995
X2.2944 Y-1.2964
X2.2962 Y-1.2887
X2.2965 Y-1.2874
X2.2971 Y-1.2843
X2.2975 Y-1.2819
X2.2983 Y-1.2773
X2.2984 Y-1.276
X2.2995 Y-1.2682
X2.2998 Y-1.2653
X2.3005 Y-1.2575
X2.3007 Y-1.2547
X2.301 Y-1.2469
Y-1.245
X2.3038 Y-0.7713
X2.3129 Y0.7584
Y0.7588
Y0.7591
Y0.7594
Y0.7633
X2.3127 Y0.7671
X2.3124 Y0.7709
X2.312 Y0.7748
X2.3115 Y0.7787
X2.3108 Y0.7826
X2.31 Y0.7865
X2.309 Y0.7904
X2.3079 Y0.7942
X2.3067 Y0.7981
X2.3053 Y0.802
X2.3039 Y0.8054
X2.3027 Y0.8083
X2.3013 Y0.8113
X2.2999 Y0.8142
X2.2986 Y0.8166
X2.2975 Y0.8185
X2.2958 Y0.8214
X2.2933 Y0.8253
X2.2907 Y0.8292
X2.2877 Y0.8331
X2.2856 Y0.8358
X2.2842 Y0.8374
X2.282 Y0.8398
X2.2789 Y0.8432
X2.2757 Y0.8463
X2.2725 Y0.8491
X2.2702 Y0.8511
X2.2688 Y0.8523
X2.2661 Y0.8544
X2.2622 Y0.8572
X2.2583 Y0.8598
X2.2544 Y0.8622
X2.2512 Y0.864
X2.2486 Y0.8654
X2.246 Y0.8667
X2.2434 Y0.8679
X2.2408 Y0.869
X2.2382 Y0.8701
X2.235 Y0.8713
X2.2311 Y0.8726
X2.2272 Y0.8738
X2.2233 Y0.8748
X2.2195 Y0.8757
X2.2156 Y0.8765
X2.2117 Y0.8771
X2.2101 Y0.8773
X2.2341 Y4.9241
X3.1989
X3.2067 Y0.8806
X2.9852 Y0.8802
X2.9819 Y0.8801
X2.9782 Y0.8799
X2.9743 Y0.8795
X2.9703 Y0.879
X2.9663 Y0.8784
X2.9624 Y0.8776
X2.9585 Y0.8767
X2.9546 Y0.8757
X2.9508 Y0.8745
X2.9469 Y0.8732
X2.943 Y0.8717
X2.9391 Y0.8701
X2.936 Y0.8686
X2.9335 Y0.8675
X2.9311 Y0.8662
X2.9287 Y0.8649
X2.926 Y0.8633
X2.9231 Y0.8615
X2.9197 Y0.8592
X2.9159 Y0.8565
X2.912 Y0.8534
X2.908 Y0.85
X2.9051 Y0.8473
X2.9032 Y0.8454
X2.9013 Y0.8435
X2.8996 Y0.8416
X2.8971 Y0.8388
X2.894 Y0.8351
X2.892 Y0.8325
X2.891 Y0.8311
X2.8894 Y0.8288
X2.8873 Y0.8256
X2.8854 Y0.8224
X2.8835 Y0.8192
X2.8817 Y0.8157
X2.8798 Y0.8118
X2.8781 Y0.8079
X2.8765 Y0.804
X2.8756 Y0.8015
X2.8752 Y0.8004
X2.8745 Y0.7982
X2.8734 Y0.7949
X2.8725 Y0.7915
X2.8717 Y0.7882
X2.871 Y0.7846
X2.8703 Y0.7807
X2.8697 Y0.7768
X2.8693 Y0.773
X2.869 Y0.7678
X2.8688 Y0.76
Y0.7587
X2.8726 Y-1.237
Y-1.2373
Y-1.2376
X2.8727 Y-1.2454
X2.8728 Y-1.2472
X2.8731 Y-1.255
X2.8733 Y-1.2579
X2.874 Y-1.2657
X2.8744 Y-1.2687
X2.8755 Y-1.2765
X2.8759 Y-1.2789
X2.8774 Y-1.2867
X2.8779 Y-1.2892
X2.8797 Y-1.297
X2.8804 Y-1.2997
X2.8826 Y-1.3074
X2.8836 Y-1.3105
X2.8863 Y-1.3182
X2.8873 Y-1.321
G3 X2.8921 Y-1.3327 I0.3558 J0.1377
G1 X2.8932 Y-1.3353
X2.8955 Y-1.34
X2.8963 Y-1.3417
X2.9003 Y-1.3495
X2.9014 Y-1.3515
G3 X2.9066 Y-1.3603 I0.2406 J0.1347
G1 X2.9079 Y-1.3625
X2.9127 Y-1.3697
X2.9146 Y-1.3725
X2.9208 Y-1.3809
X2.9228 Y-1.3833
G3 X2.9297 Y-1.3916 I0.4082 J0.337
G1 X2.9317 Y-1.3938
G3 X2.9397 Y-1.4022 I0.3282 J0.3053
G1 X2.9418 Y-1.4042
G3 X2.9512 Y-1.4128 I0.2277 J0.2393
G1 X2.953 Y-1.4144
X2.9554 Y-1.4164
X2.9569 Y-1.4176
X2.9646 Y-1.4236
X2.9673 Y-1.4256
X2.9751 Y-1.431
X2.9767 Y-1.432
X2.9799 Y-1.4341
X2.9819 Y-1.4353
X2.9864 Y-1.438
X2.9882 Y-1.439
X2.996 Y-1.4432
X2.9987 Y-1.4446
X3.0065 Y-1.4483
X3.0094 Y-1.4496
X3.0172 Y-1.4529
X3.0196 Y-1.4538
X3.0243 Y-1.4555
X3.0246 Y-1.4556
X3.0249 Y-1.4557
X3.0253 Y-1.4559
X3.0284 Y-1.4569
X3.0303 Y-1.4576
X3.0381 Y-1.4599
X3.0406 Y-1.4606
X3.0484 Y-1.4626
X3.051 Y-1.4632
X3.0588 Y-1.4648
X3.0619 Y-1.4654
X3.0697 Y-1.4666
X3.0724 Y-1.4669
X3.0802 Y-1.4678
X3.0827 Y-1.468
X3.0904 Y-1.4685
X3.0929 Y-1.4686
X3.1007 Y-1.4687
X3.102
X3.7627 Y-1.4675
X3.7642
X3.7719 Y-1.4672
X3.7743 Y-1.4671
X3.7812 Y-1.4667
X3.7837 Y-1.4665
X3.7923 Y-1.4655
X3.7951 Y-1.4651
X3.8029 Y-1.4639
X3.806 Y-1.4633
X3.8138 Y-1.4617
X3.8165 Y-1.461
X3.8242 Y-1.459
X3.8263 Y-1.4584
X3.8326 Y-1.4565
X3.8355 Y-1.4556
X3.8448 Y-1.4522
X3.8476 Y-1.4511
X3.8554 Y-1.4478
X3.8583 Y-1.4465
X3.8661 Y-1.4427
X3.869 Y-1.4412
X3.8782 Y-1.4361
X3.8812 Y-1.4343
X3.8875 Y-1.4303
X3.8892 Y-1.4292
X3.8947 Y-1.4254
X3.8965 Y-1.4242
X3.8987 Y-1.4225
X3.9002 Y-1.4214
X3.908 Y-1.4152
X3.9107 Y-1.4129
X3.9185 Y-1.406
X3.9198 Y-1.4048
X3.9206 Y-1.4041
X3.9223 Y-1.4024
X3.9298 Y-1.3946
X3.9324 Y-1.3919
X3.9395 Y-1.3835
X3.9418 Y-1.3807
X3.9473 Y-1.3735
X3.9482 Y-1.3722
X3.9505 Y-1.3689
X3.9521 Y-1.3667
X3.955 Y-1.3622
X3.9561 Y-1.3604
X3.961 Y-1.3523
X3.9625 Y-1.3496
X3.9664 Y-1.3422
X3.9676 Y-1.3397
X3.9713 Y-1.3319
X3.9725 Y-1.3291
X3.9757 Y-1.3213
X3.9768 Y-1.3184
X3.9795 Y-1.3106
X3.9804 Y-1.3079
X3.9826 Y-1.3001
X3.9833 Y-1.2976
X3.9852 Y-1.2898
X3.9858 Y-1.2873
X3.9873 Y-1.2796
X3.9878 Y-1.2767
X3.989 Y-1.269
X3.9894 Y-1.2661
X3.9901 Y-1.2583
X3.9903 Y-1.2554
X3.9907 Y-1.2477
X3.9908 Y-1.2456
X3.9909 Y-1.2378
Y-1.2375
Y-1.2372
Y-1.2368
X3.9791 Y4.9241
X4.5713
X4.5724 Y-1.2369
Y-1.2373
Y-1.2377
X4.5725 Y-1.2455
X4.5726 Y-1.2474
X4.5729 Y-1.2552
X4.5731 Y-1.258
X4.5739 Y-1.2658
X4.5742 Y-1.2684
X4.5746 Y-1.2715
X4.5747 Y-1.2718
Y-1.2721
X4.5754 Y-1.2769
X4.5758 Y-1.2792
X4.5774 Y-1.287
X4.5779 Y-1.2895
X4.5798 Y-1.2973
X4.5804 Y-1.2998
X4.5827 Y-1.3076
X4.5836 Y-1.3106
X4.5863 Y-1.3183
X4.5874 Y-1.3212
X4.5905 Y-1.329
X4.5916 Y-1.3316
X4.5952 Y-1.3393
X4.5965 Y-1.342
X4.6006 Y-1.3497
X4.6018 Y-1.3519
X4.6053 Y-1.358
X4.6068 Y-1.3604
G3 X4.6135 Y-1.3706 I0.3542 J0.2272
G1 X4.6151 Y-1.3729
G3 X4.6214 Y-1.3813 I0.3241 J0.2369
G1 X4.6232 Y-1.3835
G3 X4.6305 Y-1.3922 I0.2333 J0.191
G1 X4.6321 Y-1.3939
X4.6367 Y-1.3988
X4.6381 Y-1.4002
X4.641 Y-1.4031
X4.6421 Y-1.4042
X4.647 Y-1.4088
X4.649 Y-1.4105
G3 X4.6575 Y-1.4177 I0.2343 J0.2684
G1 X4.6598 Y-1.4195
G3 X4.668 Y-1.4257 I0.3086 J0.4037
G1 X4.6704 Y-1.4274
G3 X4.6809 Y-1.4343 I0.2244 J0.33
G1 X4.6833 Y-1.4357
X4.6892 Y-1.4391
X4.6914 Y-1.4403
X4.6998 Y-1.4447
X4.7025 Y-1.446
X4.7096 Y-1.4492
X4.7121 Y-1.4503
X4.7199 Y-1.4534
X4.7227 Y-1.4545
X4.7305 Y-1.4571
X4.7335 Y-1.4581
X4.7413 Y-1.4603
X4.7439 Y-1.461
X4.7517 Y-1.4628
X4.7542 Y-1.4633
X4.7619 Y-1.4648
X4.7642 Y-1.4652
X4.7704 Y-1.4661
X4.7719 Y-1.4664
X4.7735 Y-1.4666
X4.7754 Y-1.4668
X4.7831 Y-1.4675
X4.786 Y-1.4677
X4.7937 Y-1.468
X4.7956 Y-1.4681
X4.8033 Y-1.4682
X4.8037
X4.8041
X5.4803 Y-1.4681
X5.4807
X5.4884 Y-1.468
X5.4901
X5.4978 Y-1.4677
X5.501 Y-1.4675
G3 X5.512 Y-1.4665 I-0.0317 J0.4071
G1 X5.5146 Y-1.4662
X5.52 Y-1.4654
X5.5217 Y-1.4651
X5.5295 Y-1.4637
X5.532 Y-1.4632
X5.5398 Y-1.4615
X5.5428 Y-1.4607
X5.5505 Y-1.4586
X5.5532 Y-1.4578
X5.5583 Y-1.4561
X5.5587 Y-1.4559
X5.5591 Y-1.4558
X5.5617 Y-1.4549
X5.5638 Y-1.4542
X5.5716 Y-1.4512
X5.5742 Y-1.4501
X5.5819 Y-1.4466
X5.5846 Y-1.4454
X5.5923 Y-1.4415
X5.5951 Y-1.44
X5.6029 Y-1.4356
X5.6057 Y-1.4339
X5.6134 Y-1.4288
X5.6159 Y-1.4271
G3 X5.6242 Y-1.4211 I-0.3106 J0.4336
G1 X5.6265 Y-1.4193
G3 X5.6348 Y-1.4125 I-0.3533 J0.4371
G1 X5.637 Y-1.4105
G3 X5.6454 Y-1.4027 I-0.3112 J0.3425
G1 X5.6474 Y-1.4006
X5.6537 Y-1.3941
X5.6546 Y-1.3931
X5.6562 Y-1.3914
X5.6577 Y-1.3896
X5.6628 Y-1.3835
X5.6641 Y-1.3818
X5.6669 Y-1.3783
X5.6678 Y-1.3771
X5.6709 Y-1.3729
X5.6724 Y-1.3707
X5.6776 Y-1.3629
X5.6793 Y-1.3602
X5.6839 Y-1.3524
X5.6849 Y-1.3507
X5.6875 Y-1.3459
X5.6888 Y-1.3435
G3 X5.6944 Y-1.3316 I-0.3106 J0.1535
G1 X5.6954 Y-1.3293
X5.6981 Y-1.3227
X5.6988 Y-1.3209
X5.6993 Y-1.3197
X5.6998 Y-1.3183
X5.7025 Y-1.3105
X5.7034 Y-1.3077
X5.7056 Y-1.2999
X5.7063 Y-1.2973
X5.7082 Y-1.2895
X5.7085 Y-1.2881
X5.709 Y-1.2855
X5.7094 Y-1.2839
X5.7103 Y-1.2787
X5.7107 Y-1.2766
X5.7118 Y-1.2689
X5.7122 Y-1.2659
X5.7129 Y-1.2581
X5.7131 Y-1.2552
X5.7135 Y-1.2475
X5.7136 Y-1.2455
X5.7137 Y-1.2378
Y-1.2373
Y-1.2369
X5.7133 Y0.7588
Y0.7592
Y0.7596
X5.7132 Y0.7674
X5.713 Y0.772
X5.7126 Y0.7759
X5.7121 Y0.7798
X5.7115 Y0.7837
X5.7108 Y0.7874
X5.7099 Y0.7911
X5.7089 Y0.7949
X5.7077 Y0.7991
X5.7063 Y0.8031
X5.7048 Y0.807
X5.7032 Y0.8109
X5.7014 Y0.8147
X5.6995 Y0.8185
X5.6975 Y0.8221
X5.6953 Y0.8256
X5.693 Y0.8292
X5.6901 Y0.8333
X5.6866 Y0.8378
X5.684 Y0.841
X5.6822 Y0.8429
X5.6801 Y0.8451
X5.6776 Y0.8477
X5.6744 Y0.8507
X5.6705 Y0.854
X5.6666 Y0.8571
X5.6627 Y0.8599
X5.66 Y0.8618
X5.6584 Y0.8628
X5.6561 Y0.8642
X5.653 Y0.866
X5.6499 Y0.8677
X5.6468 Y0.8693
X5.6433 Y0.8709
X5.6394 Y0.8726
X5.6355 Y0.874
X5.6316 Y0.8754
X5.6283 Y0.8764
X5.6255 Y0.8772
X5.6227 Y0.8779
X5.62 Y0.8785
X5.6175 Y0.879
X5.6152 Y0.8794
X5.6122 Y0.8799
X5.6083 Y0.8804
X5.6044 Y0.8808
X5.6005 Y0.881
X5.5969 Y0.8811
X5.5502
X5.3846
X5.3839 Y4.9241
X6.4429
X6.4351 Y0.8819
X6.4131
X6.4129
X6.4051
X6.4017 Y0.8818
X6.3978 Y0.8816
X6.3939 Y0.8812
X6.39 Y0.8807
X6.3866 Y0.8802
X6.3838 Y0.8796
X6.3809 Y0.879
X6.3781 Y0.8784
X6.3756 Y0.8777
X6.3735 Y0.8771
X6.3706 Y0.8762
X6.3667 Y0.8749
X6.3628 Y0.8734
X6.3589 Y0.8717
X6.3551 Y0.87
X6.3513 Y0.868
X6.3474 Y0.8659
X6.3434 Y0.8634
X6.3394 Y0.8608
X6.3356 Y0.858
X6.3317 Y0.8549
X6.3278 Y0.8515
X6.3251 Y0.8491
X6.3237 Y0.8477
X6.3212 Y0.8451
X6.3178 Y0.8413
X6.3145 Y0.8375
X6.3115 Y0.8334
X6.3087 Y0.8295
X6.3062 Y0.8256
X6.3039 Y0.8217
X6.3018 Y0.8178
X6.3 Y0.8141
X6.2983 Y0.8104
X6.2967 Y0.8065
X6.2952 Y0.8024
X6.2939 Y0.7984
X6.2928 Y0.7945
X6.2918 Y0.7906
X6.291 Y0.7868
X6.2903 Y0.7829
X6.2897 Y0.779
X6.2893 Y0.7751
X6.289 Y0.7712
X6.2888 Y0.7671
X6.2887 Y0.7593
Y0.7591
Y0.7589
X6.2849 Y-1.2368
Y-1.2372
Y-1.2375
Y-1.2379
X6.285 Y-1.2456
X6.2851 Y-1.2477
X6.2855 Y-1.2554
X6.2857 Y-1.2583
X6.2865 Y-1.2661
X6.2868 Y-1.269
X6.288 Y-1.2767
X6.2885 Y-1.2796
X6.29 Y-1.2873
X6.2906 Y-1.2898
X6.2925 Y-1.2976
X6.2929 Y-1.2993
X6.2939 Y-1.3027
X6.2943 Y-1.3043
X6.2957 Y-1.3086
X6.2963 Y-1.3106
X6.299 Y-1.3184
X6.3001 Y-1.3214
G3 X6.3043 Y-1.3314 I0.3609 J0.1426
G1 X6.3053 Y-1.3337
X6.3084 Y-1.3401
X6.3095 Y-1.3423
X6.3136 Y-1.35
X6.3143 Y-1.3513
X6.3149 Y-1.3523
X6.3158 Y-1.354
X6.3199 Y-1.3607
X6.321 Y-1.3625
X6.3247 Y-1.3681
X6.3264 Y-1.3705
X6.3279 Y-1.3726
X6.3288 Y-1.3737
X6.335 Y-1.3819
X6.3372 Y-1.3846
X6.3435 Y-1.392
X6.3452 Y-1.3938
X6.3466 Y-1.3953
X6.3476 Y-1.3964
X6.3538 Y-1.4026
X6.3553 Y-1.4041
X6.3569 Y-1.4056
X6.3583 Y-1.4069
X6.3654 Y-1.4131
X6.3681 Y-1.4154
X6.3765 Y-1.4221
X6.3779 Y-1.4231
X6.3794 Y-1.4242
X6.3813 Y-1.4255
X6.3875 Y-1.4298
X6.3892 Y-1.4309
X6.3947 Y-1.4344
X6.3971 Y-1.4358
G3 X6.408 Y-1.4418 I0.1924 J0.3366
G1 X6.4103 Y-1.443
X6.4149 Y-1.4453
X6.4153 Y-1.4454
X6.4156 Y-1.4456
X6.4159 Y-1.4457
X6.419 Y-1.4472
X6.4214 Y-1.4482
X6.4291 Y-1.4515
X6.4321 Y-1.4526
X6.4407 Y-1.4556
X6.4435 Y-1.4566
X6.4505 Y-1.4586
X6.4527 Y-1.4593
X6.4605 Y-1.4613
X6.4631 Y-1.4619
X6.4708 Y-1.4635
X6.4739 Y-1.4641
X6.4817 Y-1.4653
X6.4846 Y-1.4656
X6.4927 Y-1.4665
X6.4953 Y-1.4667
X6.5026 Y-1.4672
X6.5049
X6.5127 Y-1.4674
X6.5131
X6.5135
X6.5139
X7.2057 Y-1.4688
X7.2071
X7.2149 Y-1.4686
X7.2174 Y-1.4685
X7.2252 Y-1.468
X7.2277 Y-1.4677
X7.2354 Y-1.4669
X7.2381 Y-1.4665
X7.2459 Y-1.4653
X7.249 Y-1.4648
X7.2568 Y-1.4632
X7.2595 Y-1.4625
X7.2672 Y-1.4605
X7.2698 Y-1.4598
X7.2775 Y-1.4574
X7.2793 Y-1.4568
X7.2821 Y-1.4559
X7.2825 Y-1.4557
X7.2829 Y-1.4556
X7.2833 Y-1.4554
X7.2883 Y-1.4536
X7.2906 Y-1.4527
X7.2984 Y-1.4495
X7.3013 Y-1.4481
X7.3091 Y-1.4444
X7.3119 Y-1.443
X7.3196 Y-1.4387
X7.3214 Y-1.4377
X7.3256 Y-1.4352
X7.3274 Y-1.4341
X7.331 Y-1.4318
X7.3328 Y-1.4306
X7.3406 Y-1.4252
X7.3433 Y-1.4232
X7.351 Y-1.4171
X7.3523 Y-1.4161
X7.3544 Y-1.4144
X7.3563 Y-1.4127
G3 X7.3656 Y-1.4042 I-0.233 J0.2637
G1 X7.3677 Y-1.4021
G3 X7.3756 Y-1.3938 I-0.3333 J0.3259
G1 X7.3777 Y-1.3915
X7.3843 Y-1.3837
X7.3864 Y-1.3809
X7.3922 Y-1.3732
X7.3932 Y-1.3718
X7.394 Y-1.3707
X7.3951 Y-1.369
X7.3995 Y-1.3624
X7.4009 Y-1.3601
G3 X7.4059 Y-1.3515 I-0.2723 J0.1649
G1 X7.407 Y-1.3495
X7.411 Y-1.3417
X7.412 Y-1.3397
X7.4147 Y-1.3341
X7.4157 Y-1.3316
G3 X7.42 Y-1.321 I-0.3954 J0.1659
G1 X7.4211 Y-1.3182
X7.4237 Y-1.3104
X7.4247 Y-1.3074
X7.4269 Y-1.2997
X7.4276 Y-1.297
X7.4294 Y-1.2892
X7.4299 Y-1.2867
X7.4314 Y-1.2789
X7.4318 Y-1.2764
X7.4329 Y-1.2687
X7.4333 Y-1.2657
X7.434 Y-1.2579
X7.4342 Y-1.255
X7.4345 Y-1.2472
X7.4346 Y-1.2454
X7.4347 Y-1.2376
Y-1.2373
Y-1.237
X7.4385 Y0.7587
Y0.76
X7.4383 Y0.7678
X7.438 Y0.773
X7.4376 Y0.7769
X7.437 Y0.7808
X7.4363 Y0.7846
X7.4357 Y0.7879
X7.435 Y0.7906
X7.4343 Y0.7933
X7.4335 Y0.7961
X7.4327 Y0.7986
X7.4319 Y0.8009
X7.4308 Y0.8041
X7.4292 Y0.8079
X7.4275 Y0.8118
X7.4256 Y0.8157
X7.4238 Y0.8191
X7.4222 Y0.822
X7.4204 Y0.8249
X7.4185 Y0.8278
X7.4169 Y0.8302
X7.4154 Y0.8322
X7.4133 Y0.835
X7.4104 Y0.8385
X7.4072 Y0.8421
X7.4038 Y0.8457
X7.4 Y0.8493
X7.3957 Y0.853
X7.3918 Y0.8561
X7.3883 Y0.8587
X7.3848 Y0.8611
X7.3814 Y0.8632
X7.3775 Y0.8654
X7.3731 Y0.8677
X7.369 Y0.8697
X7.3651 Y0.8714
X7.3612 Y0.8729
X7.3573 Y0.8742
X7.3535 Y0.8754
X7.3496 Y0.8765
X7.3457 Y0.8774
X7.3418 Y0.8782
X7.3375 Y0.8789
X7.3327 Y0.8795
X7.3288 Y0.8799
X7.3258 Y0.88
X7.3225 Y0.8801
X7.2992 Y0.8802
X7.2604 Y0.8803
X7.2681 Y4.9241
X8.3253
X8.2964 Y0.8829
X8.1 Y0.8843
X8.0978
X8.0939 Y0.8841
X8.09 Y0.8839
X8.0861 Y0.8835
X8.0822 Y0.883
X8.0783 Y0.8824
X8.0744 Y0.8816
X8.0706 Y0.8807
X8.0669 Y0.8797
X8.0636 Y0.8787
X8.0602 Y0.8775
X8.0568 Y0.8763
X8.0546 Y0.8754
X8.0536 Y0.875
X8.0511 Y0.8739
X8.0472 Y0.8721
X8.0433 Y0.8701
X8.0395 Y0.8679
X8.0363 Y0.866
X8.0339 Y0.8644
X8.0315 Y0.8627
X8.0291 Y0.861
X8.0264 Y0.8589
X8.0234 Y0.8565
X8.0206 Y0.8541
X8.0179 Y0.8516
X8.0152 Y0.8489
X8.0125 Y0.846
X8.01 Y0.8432
X8.0076 Y0.8404
X8.0055 Y0.8377
X8.0037 Y0.8352
