(UPPER SHAPING)
(T12 D=0.2362 CR=0. TAPER=45DEG - ZMIN=0.222 - CHAMFER MILL)
(T14 D=0.125 CR=0. - ZMIN=0.163 - FLAT END MILL)
(T15 D=0.5 CR=0. - ZMIN=0.113 - FLAT END MILL)
(T16 D=0.2362 CR=0. - ZMIN=0.113 - FLAT END MILL)
(T17 D=0.4724 CR=0. - ZMIN=-0.585 - FLAT END MILL)
(T18 D=0.9843 CR=0. TAPER=45DEG - ZMIN=-0.615 - DOVETAIL MILL)
G90 G94 G91.1 G40 G49 G17
G20
G53 G0 Z0.

(POCKET2 3)
T15 M6
S12000 M3
G17 G90 G94
G55
G0 X23.0447 Y1.9521
G43 Z1.163 H15
G0 Z0.4582
G1 Z0.3363 F50.
Y1.9524 Z0.331
Y1.9532 Z0.3257
Y1.9546 Z0.3205
Y1.9566 Z0.3155
Y1.9591 Z0.3108
Y1.9621 Z0.3063
Y1.9655 Z0.3022
Y1.9694 Z0.2985
Y1.9736 Z0.2952
Y1.9782 Z0.2924
X23.0448 Y1.983 Z0.2901
Y1.9881 Z0.2883
Y1.9933 Z0.2871
Y1.9986 Z0.2864
X23.0497 Y4.3378 Z0.1229
G2 X23.0847 Y4.3728 Z0.119 I0.035 J-0.0001
G1 X23.0933 Z0.1184
G2 X23.1283 Y4.3376 Z0.1146 I0. J-0.035
G1 X23.1282 Y4.3168 Z0.1131
Y4.3133 Z0.113
X23.1119 Y1.2039 F100.
G2 X23.0991 Y1.1816 I-0.026 J0.0001
G3 X23.0829 Y1.1717 I0.3333 J-0.5637
G2 X23.0431 Y1.1939 I-0.0138 J0.0221
G1 X23.0497 Y4.3378
G2 X23.0847 Y4.3728 I0.035 J-0.0001
G1 X23.0933
G2 X23.1283 Y4.3376 I0. J-0.035
G1 X23.1282 Y4.3133
G3 X23.2175 Y4.1778 I0.1462 J-0.0008
G2 X23.3068 Y4.0423 I-0.057 J-0.1347
G1 X23.2916 Y1.1453
G2 X23.2289 Y1.0466 I-0.1099 J0.0006
G3 X23.1202 Y0.9747 I0.1986 J-0.4182
X23.0368 Y0.8746 I0.2876 J-0.3241
G2 X22.9747 Y0.8745 I-0.0311 J0.0188
G3 X22.9398 Y0.9235 I-0.3434 J-0.2083
X22.8985 Y0.9673 I-0.3777 J-0.315
G2 X22.8628 Y1.0499 I0.0772 J0.0824
G1 X22.87 Y4.4889
G2 X22.934 Y4.5528 I0.064 J-0.0001
G1 X23.2457
G2 X23.3091 Y4.489 I0. J-0.0635
G1 X23.3068 Y4.0423
G3 X23.3966 Y3.9061 I0.1471 J-0.0008
G2 X23.4864 Y3.7699 I-0.0573 J-0.1355
G1 X23.4714 Y0.9063
X23.4247 Y0.9065
X23.4244
X23.4129 Y0.9066
X23.4078 Y0.9065
X23.402 Y0.9063
X23.3962 Y0.9059
X23.3904 Y0.9055
X23.3847 Y0.9049
X23.3789 Y0.9041
X23.3731 Y0.9033
X23.3674 Y0.9023
X23.3616 Y0.9012
X23.3558 Y0.8999
X23.3501 Y0.8985
X23.3443 Y0.8969
X23.3385 Y0.8953
X23.3328 Y0.8934
X23.327 Y0.8914
X23.3212 Y0.8893
X23.3163 Y0.8874
X23.3122 Y0.8857
X23.3064 Y0.8831
X23.299 Y0.8796
X23.2924 Y0.8762
X23.2866 Y0.873
X23.2808 Y0.8697
X23.2751 Y0.8661
X23.2713 Y0.8637
X23.2694 Y0.8624
X23.266 Y0.8601
X23.2612 Y0.8567
X23.2563 Y0.8531
X23.2515 Y0.8493
X23.2466 Y0.8452
X23.2416 Y0.8409
X23.2358 Y0.8356
X23.2293 Y0.8292
X23.2237 Y0.8234
X23.2191 Y0.8183
X23.2161 Y0.8148
X23.2133 Y0.8113
X23.2064 Y0.8025
X23.202 Y0.7967
X23.2002 Y0.794
X23.1973 Y0.7898
X23.1936 Y0.784
X23.1901 Y0.7782
X23.1869 Y0.7725
X23.1839 Y0.767
X23.1812 Y0.7617
X23.1785 Y0.756
X23.1757 Y0.7497
X23.1731 Y0.7437
X23.1709 Y0.7379
X23.1688 Y0.7321
X23.1669 Y0.7264
X23.1651 Y0.7206
X23.1635 Y0.7148
X23.162 Y0.7091
X23.1606 Y0.7033
X23.1591 Y0.696
X23.1576 Y0.6873
X23.1567 Y0.6815
X23.1563 Y0.6787
X23.1558 Y0.6745
X23.1553 Y0.6687
X23.1549 Y0.663
X23.1546 Y0.6572
X23.1544 Y0.6513
X23.1542 Y0.6283
Y0.6281
X23.1445 Y-1.2274
Y-1.2277
Y-1.2392
Y-1.2433
X23.1448 Y-1.2549
X23.1452 Y-1.2613
X23.1456 Y-1.2662
X22.8543
X22.8547 Y-1.2596
X22.855 Y-1.254
X22.8552 Y-1.2425
Y-1.2399
X22.8592 Y0.6386
Y0.641
X22.859 Y0.6525
X22.8586 Y0.6604
X22.8582 Y0.6661
X22.8576 Y0.6719
X22.8569 Y0.6777
X22.8561 Y0.6834
X22.8551 Y0.6892
X22.854 Y0.695
X22.8528 Y0.7007
X22.8514 Y0.7065
X22.8499 Y0.7122
X22.8482 Y0.718
X22.8464 Y0.7238
X22.8445 Y0.7294
X22.8426 Y0.7348
X22.8403 Y0.7406
X22.8378 Y0.7467
X22.8351 Y0.7526
X22.8324 Y0.7584
X22.8294 Y0.7641
X22.8263 Y0.7699
X22.8232 Y0.7753
X22.8201 Y0.7805
X22.8164 Y0.7863
X22.8121 Y0.7926
X22.8081 Y0.7981
X22.8047 Y0.8026
X22.8011 Y0.8072
X22.7973 Y0.8117
X22.7943 Y0.8152
X22.7922 Y0.8176
X22.7888 Y0.8213
X22.7841 Y0.8262
X22.7794 Y0.8308
X22.7747 Y0.8352
X22.771 Y0.8385
X22.7684 Y0.8408
X22.7627 Y0.8454
X22.7538 Y0.8524
X22.7499 Y0.8553
X22.7458 Y0.8581
X22.7388 Y0.8627
X22.733 Y0.8663
X22.7285 Y0.869
X22.7233 Y0.8718
X22.7176 Y0.8749
X22.7118 Y0.8777
X22.706 Y0.8804
X22.6992 Y0.8834
X22.6913 Y0.8865
X22.6855 Y0.8886
X22.6819 Y0.8899
X22.6815 Y0.89
X22.6895 Y4.7338
X23.4914
X23.4864 Y3.7699
X23.4862 Y3.7671 Z0.1131
X23.4859 Y3.7643 Z0.1133
X23.4854 Y3.7616 Z0.1137
X23.4848 Y3.7589 Z0.1142
X23.484 Y3.7563 Z0.1149
X23.4831 Y3.7538 Z0.1158
X23.4821 Y3.7514 Z0.1168
X23.481 Y3.7491 Z0.1179
X23.4798 Y3.7469 Z0.1192
X23.4785 Y3.7448 Z0.1206
X23.4772 Y3.7429 Z0.1222
X23.4758 Y3.7411 Z0.1239
X23.4745 Y3.7394 Z0.1257
X23.4731 Y3.7379 Z0.1276
X23.4717 Y3.7366 Z0.1297
X23.4704 Y3.7353 Z0.1318
X23.4692 Y3.7342 Z0.134
X23.468 Y3.7332 Z0.1364
X23.4668 Y3.7323 Z0.1388
X23.4658 Y3.7316 Z0.1413
X23.4649 Y3.7309 Z0.1438
X23.464 Y3.7304 Z0.1465
X23.4633 Y3.7299 Z0.1491
X23.4627 Y3.7296 Z0.1518
X23.4622 Y3.7293 Z0.1546
X23.4619 Y3.7291 Z0.1574
X23.4617 Y3.729 Z0.1602
X23.4616 Y3.7289 Z0.163
G0 Z0.763
X24.8403 Y1.089
Z0.4582
G1 Z0.3363 F50.
Y1.0887 Z0.331
Y1.0879 Z0.3257
Y1.0864 Z0.3205
Y1.0845 Z0.3155
Y1.082 Z0.3108
Y1.079 Z0.3063
Y1.0756 Z0.3022
X24.8402 Y1.0717 Z0.2985
Y1.0675 Z0.2952
Y1.0629 Z0.2924
Y1.0581 Z0.2901
Y1.053 Z0.2883
Y1.0478 Z0.2871
X24.8401 Y1.0425 Z0.2864
X24.8322 Y-1.2392 Z0.1269
Y-1.2432 Z0.1266
X24.8325 Y-1.2547 Z0.1258
X24.8329 Y-1.2611 Z0.1253
X24.8333 Y-1.2662 Z0.125
X24.6632 Z0.1131
X24.6598 Z0.113
X24.5253 F100.
X24.5257 Y-1.259
X24.526 Y-1.2539
X24.5262 Y-1.2424
Y-1.2403
X24.5575 Y4.7338
X24.853
X24.8322 Y-1.2392
Y-1.2432
X24.8325 Y-1.2547
X24.8329 Y-1.2611
X24.8333 Y-1.2662
X24.6598
X24.657 Y-1.2661 Z0.1131
X24.6542 Y-1.2658 Z0.1133
X24.6514 Y-1.2653 Z0.1137
X24.6488 Y-1.2647 Z0.1142
X24.6462 Y-1.2639 Z0.1149
X24.6436 Y-1.263 Z0.1158
X24.6412 Y-1.262 Z0.1168
X24.6389 Y-1.2609 Z0.1179
X24.6367 Y-1.2598 Z0.1192
X24.6346 Y-1.2585 Z0.1206
X24.6327 Y-1.2572 Z0.1222
X24.6309 Y-1.2558 Z0.1239
X24.6293 Y-1.2545 Z0.1257
X24.6277 Y-1.2531 Z0.1276
X24.6264 Y-1.2518 Z0.1297
X24.6251 Y-1.2505 Z0.1318
X24.624 Y-1.2492 Z0.134
X24.623 Y-1.248 Z0.1364
X24.6221 Y-1.2469 Z0.1388
X24.6214 Y-1.2459 Z0.1413
X24.6207 Y-1.2449 Z0.1438
X24.6201 Y-1.2441 Z0.1465
X24.6197 Y-1.2434 Z0.1491
X24.6193 Y-1.2428 Z0.1518
X24.619 Y-1.2423 Z0.1546
X24.6188 Y-1.242 Z0.1574
X24.6187 Y-1.2418 Z0.1602
Y-1.2417 Z0.163
G0 Z0.763
X26.2188 Y1.9253
Z0.4582
G1 Z0.3363 F50.
Y1.9256 Z0.331
Y1.9265 Z0.3257
Y1.9279 Z0.3205
Y1.9298 Z0.3155
Y1.9323 Z0.3108
Y1.9353 Z0.3063
Y1.9387 Z0.3022
Y1.9426 Z0.2985
X26.2189 Y1.9468 Z0.2952
Y1.9514 Z0.2924
Y1.9562 Z0.2901
Y1.9613 Z0.2883
Y1.9665 Z0.2871
Y1.9718 Z0.2864
X26.2272 Y4.3468 Z0.1204
G2 X26.2533 Y4.3728 Z0.1175 I0.026 J-0.0001
G1 X26.2569 Z0.1172
G2 X26.2829 Y4.3466 Z0.1144 I0. J-0.026
G1 X26.2828 Y4.3283 Z0.1131
Y4.3248 Z0.113
X26.2677 Y1.2361 F100.
G2 X26.2412 Y1.2183 I-0.0193 J0.0001
G1 X26.238 Y1.2196
G3 X26.2288 Y1.2232 I-0.1839 J-0.4552
G2 X26.2164 Y1.2413 I0.0069 J0.018
G1 X26.2272 Y4.3468
G2 X26.2533 Y4.3728 I0.026 J-0.0001
G1 X26.2569
G2 X26.2829 Y4.3466 I0. J-0.026
G1 X26.2828 Y4.3248
G3 X26.3721 Y4.1894 I0.1462 J-0.0007
G2 X26.4615 Y4.0539 I-0.0569 J-0.1347
G1 X26.4461 Y0.9143
G2 X26.4401 Y0.8947 I-0.035 J0.0002
G1 X26.4379 Y0.8915
G2 X26.3727 Y0.8909 I-0.0328 J0.0218
G3 X26.2616 Y1.004 I-0.3827 J-0.2649
X26.1177 Y1.0705 I-0.2455 J-0.3417
X26.108 Y1.0726 I-0.0335 J-0.1348
G2 X26.0983 Y1.0744 I0.0634 J0.3641
X26.0361 Y1.1508 I0.0154 J0.0761
G1 X26.0477 Y4.4889
G2 X26.1119 Y4.5528 I0.0641 J-0.0002
G1 X26.4001
G2 X26.4636 Y4.489 I0. J-0.0635
G1 X26.4615 Y4.0539
G3 X26.5513 Y3.9177 I0.1471 J-0.0007
G2 X26.6411 Y3.7815 I-0.0572 J-0.1355
G1 X26.6268 Y0.8361
X26.6213 Y0.8309
X26.6157 Y0.8251
X26.61 Y0.8189
X26.6042 Y0.8122
X26.5983 Y0.8048
X26.594 Y0.799
X26.591 Y0.7948
X26.5877 Y0.7899
X26.584 Y0.7841
X26.5805 Y0.7784
X26.5772 Y0.7726
X26.5748 Y0.7682
X26.5732 Y0.7651
X26.5704 Y0.7594
X26.5665 Y0.7509
X26.5634 Y0.7438
X26.5612 Y0.738
X26.5591 Y0.7322
X26.5572 Y0.7265
X26.5554 Y0.7207
X26.5537 Y0.715
X26.5522 Y0.7092
X26.5509 Y0.7034
X26.55 Y0.6995
X26.5495 Y0.6973
X26.5485 Y0.6915
X26.547 Y0.6822
X26.5461 Y0.6746
X26.5455 Y0.6688
X26.5451 Y0.6631
X26.5448 Y0.6573
X26.5446 Y0.6516
X26.5445 Y0.64
X26.5354 Y-1.2275
Y-1.2277
X26.5353 Y-1.2392
X26.5354 Y-1.2423
G3 X26.5357 Y-1.2552 I0.6383 J0.0115
G1 X26.536 Y-1.2613
X26.5364 Y-1.2662
X26.2607
X26.2611 Y-1.2593
X26.2614 Y-1.254
X26.2616 Y-1.2424
X26.2617 Y-1.2401
X26.2682 Y0.6385
Y0.6414
X26.268 Y0.6529
X26.2676 Y0.661
X26.2671 Y0.6668
X26.2665 Y0.6726
X26.2658 Y0.6783
X26.2645 Y0.6865
X26.2624 Y0.697
X26.2612 Y0.7027
X26.261 Y0.7037
X26.2601 Y0.7071
X26.2586 Y0.7129
X26.2569 Y0.7187
X26.255 Y0.7244
X26.2531 Y0.7302
X26.2509 Y0.736
X26.2486 Y0.7417
X26.2462 Y0.7475
X26.2433 Y0.7538
X26.24 Y0.7606
X26.237 Y0.7663
X26.2343 Y0.771
X26.2313 Y0.7763
X26.2277 Y0.7821
X26.2239 Y0.7878
X26.22 Y0.7936
X26.2172 Y0.7974
X26.2159 Y0.7992
X26.2133 Y0.8026
X26.2094 Y0.8074
X26.2053 Y0.8123
X26.2011 Y0.8171
X26.1972 Y0.8213
X26.1938 Y0.8248
X26.1899 Y0.8287
X26.1856 Y0.8328
X26.1812 Y0.8368
X26.1768 Y0.8407
X26.1732 Y0.8437
X26.1704 Y0.8459
X26.1662 Y0.8492
X26.1604 Y0.8535
X26.1546 Y0.8576
X26.1489 Y0.8614
X26.145 Y0.8638
X26.1431 Y0.865
X26.1374 Y0.8683
X26.1278 Y0.8736
X26.12 Y0.8775
X26.1143 Y0.8801
X26.1085 Y0.8826
X26.1027 Y0.8849
X26.098 Y0.8867
X26.0945 Y0.888
X26.0887 Y0.8899
X26.0808 Y0.8924
X26.0739 Y0.8943
X26.0681 Y0.8957
X26.0623 Y0.897
X26.0566 Y0.8982
X26.0508 Y0.8992
X26.045 Y0.9001
X26.0393 Y0.9009
X26.0335 Y0.9015
X26.0249 Y0.9021
X26.0133 Y0.9026
X26.0083 Y0.9027
X25.8542 Y0.9033
X25.8676 Y4.7338
X26.6458
X26.6411 Y3.7815
X26.641 Y3.7788 Z0.1131
X26.6407 Y3.776 Z0.1133
X26.6402 Y3.7732 Z0.1137
X26.6396 Y3.7706 Z0.1142
X26.6388 Y3.768 Z0.1149
X26.6379 Y3.7654 Z0.1158
X26.6369 Y3.763 Z0.1168
X26.6358 Y3.7607 Z0.1179
X26.6346 Y3.7585 Z0.1192
X26.6333 Y3.7565 Z0.1206
X26.632 Y3.7546 Z0.1222
X26.6306 Y3.7528 Z0.1239
X26.6293 Y3.7511 Z0.1257
X26.6279 Y3.7496 Z0.1276
X26.6266 Y3.7482 Z0.1297
X26.6252 Y3.747 Z0.1318
X26.624 Y3.7459 Z0.134
X26.6228 Y3.7449 Z0.1364
X26.6216 Y3.744 Z0.1388
X26.6206 Y3.7432 Z0.1413
X26.6197 Y3.7426 Z0.1438
X26.6188 Y3.742 Z0.1465
X26.6181 Y3.7416 Z0.1491
X26.6175 Y3.7412 Z0.1518
X26.617 Y3.7409 Z0.1546
X26.6167 Y3.7408 Z0.1574
X26.6165 Y3.7406 Z0.1602
X26.6164 Z0.163
G0 Z0.763
X28.0169 Y1.9807
Z0.4582
G1 Z0.3363 F50.
Y1.981 Z0.331
Y1.9819 Z0.3257
Y1.9833 Z0.3205
Y1.9853 Z0.3155
Y1.9878 Z0.3108
Y1.9907 Z0.3063
Y1.9942 Z0.3022
Y1.998 Z0.2985
X28.017 Y2.0023 Z0.2952
Y2.0068 Z0.2924
Y2.0117 Z0.2901
Y2.0167 Z0.2883
X28.0171 Y2.0219 Z0.2871
Y2.0273 Z0.2864
X28.0283 Y4.326 Z0.1257
G2 X28.0754 Y4.3728 Z0.1205 I0.0471 J-0.0002
G1 X28.0858 Z0.1198
G2 X28.1329 Y4.3255 Z0.1146 I0. J-0.0471
G1 X28.1328 Y4.3037 Z0.1131
X28.1327 Y4.3002 Z0.113
X28.1163 Y1.1599 F100.
G2 X28.0598 Y1.1324 I-0.035 J0.0002
G3 X28.0333 Y1.1519 I-0.4014 J-0.5176
G2 X28.013 Y1.1909 I0.0268 J0.0387
G1 X28.0283 Y4.326
G2 X28.0754 Y4.3728 I0.0471 J-0.0002
G1 X28.0858
G2 X28.1329 Y4.3255 I0. J-0.0471
G1 X28.1327 Y4.3002
G3 X28.222 Y4.1648 I0.1462 J-0.0008
G2 X28.3113 Y4.0293 I-0.057 J-0.1347
G1 X28.2961 Y1.1237
G2 X28.2321 Y0.9964 I-0.1602 J0.0008
G3 X28.1189 Y0.8677 I0.2512 J-0.3348
G2 X28.058 Y0.8671 I-0.0306 J0.0175
G3 X28.0171 Y0.9266 I-0.4794 J-0.2852
X27.9674 Y0.979 I-0.3038 J-0.2389
X27.9328 Y1.0044 I-0.168 J-0.1926
X27.8958 Y1.026 I-0.5316 J-0.8684
G2 X27.8327 Y1.1338 I0.0596 J0.1072
G1 X27.8491 Y4.4888
G2 X27.9134 Y4.5528 I0.0643 J-0.0003
G1 X28.2503
G2 X28.3137 Y4.489 I0. J-0.0635
G1 X28.3113 Y4.0293
G3 X28.4011 Y3.8931 I0.1471 J-0.0008
G2 X28.4909 Y3.7568 I-0.0573 J-0.1355
G1 X28.476 Y0.9055
X28.4725 Y0.9051
X28.4667 Y0.9044
X28.4609 Y0.9036
X28.4552 Y0.9026
X28.4494 Y0.9015
X28.4436 Y0.9003
X28.4379 Y0.8989
X28.4321 Y0.8974
X28.4263 Y0.8958
X28.4206 Y0.894
X28.4148 Y0.8921
X28.409 Y0.89
X28.4037 Y0.8879
X28.3987 Y0.8858
X28.3929 Y0.8833
X28.3864 Y0.8802
X28.3802 Y0.8771
X28.3744 Y0.874
X28.3686 Y0.8707
X28.3629 Y0.8672
X28.3586 Y0.8645
X28.3559 Y0.8627
X28.35 Y0.8586
X28.3413 Y0.8521
X28.3376 Y0.8492
X28.334 Y0.8463
X28.3282 Y0.8412
X28.3224 Y0.836
X28.3167 Y0.8304
X28.3111 Y0.8247
X28.3056 Y0.8187
X28.2998 Y0.8119
X28.2938 Y0.8042
X28.2894 Y0.7984
X28.2867 Y0.7945
X28.2835 Y0.7897
X28.2798 Y0.784
X28.2763 Y0.7782
X28.273 Y0.7724
X28.2705 Y0.7678
X28.2686 Y0.7642
X28.2658 Y0.7585
X28.2622 Y0.7505
X28.2593 Y0.7436
X28.2571 Y0.7378
X28.255 Y0.7321
X28.2531 Y0.7263
X28.2513 Y0.7206
X28.2496 Y0.7148
X28.2481 Y0.709
X28.2468 Y0.7033
X28.2458 Y0.6985
X28.245 Y0.6948
X28.244 Y0.689
X28.2429 Y0.6812
X28.242 Y0.6745
X28.2415 Y0.6687
X28.241 Y0.6629
X28.2407 Y0.6572
X28.2406 Y0.6513
X28.2404 Y0.6283
Y0.6281
X28.2307 Y-1.2274
Y-1.2277
Y-1.2392
Y-1.2434
X28.231 Y-1.2549
X28.2312 Y-1.2585
X28.2313 Y-1.2597
X28.2315 Y-1.2628
X28.2318 Y-1.2662
X27.9286
X27.929 Y-1.2591
X27.9292 Y-1.2539
X27.9294 Y-1.2424
X27.9295 Y-1.2403
X27.9387 Y0.6383
X27.9386 Y0.6417
X27.9384 Y0.6532
G3 X27.9377 Y0.6638 I-0.13 J-0.0028
G1 X27.9367 Y0.6738
X27.936 Y0.6796
X27.9357 Y0.681
X27.9352 Y0.6846
X27.9341 Y0.6904
X27.933 Y0.6962
X27.9317 Y0.7019
X27.9303 Y0.7077
X27.9287 Y0.7135
X27.927 Y0.7192
X27.9251 Y0.725
X27.9231 Y0.7308
X27.9209 Y0.7365
X27.9186 Y0.7423
X27.9161 Y0.748
X27.9144 Y0.7519
X27.9135 Y0.7539
X27.9105 Y0.7597
X27.9054 Y0.7692
X27.9013 Y0.7764
X27.8982 Y0.7814
X27.895 Y0.7863
X27.8916 Y0.7913
X27.8893 Y0.7946
X27.8881 Y0.7962
X27.8853 Y0.7999
X27.8808 Y0.8057
X27.876 Y0.8115
X27.8709 Y0.8172
X27.8679 Y0.8204
X27.8672 Y0.8212
X27.864 Y0.8245
X27.8582 Y0.8302
X27.8524 Y0.8355
X27.8466 Y0.8406
X27.8408 Y0.8454
X27.8351 Y0.8498
X27.8294 Y0.854
X27.8236 Y0.858
X27.8182 Y0.8615
X27.8132 Y0.8646
X27.8075 Y0.868
X27.8009 Y0.8716
X27.7948 Y0.8748
X27.789 Y0.8776
X27.7832 Y0.8802
X27.7775 Y0.8827
X27.7709 Y0.8852
X27.7635 Y0.8879
X27.7577 Y0.8899
X27.7536 Y0.8911
X27.7486 Y0.8926
X27.7429 Y0.8941
X27.7371 Y0.8955
X27.7313 Y0.8968
X27.7256 Y0.8979
X27.7198 Y0.8989
X27.714 Y0.8998
X27.7083 Y0.9005
X27.7025 Y0.9011
X27.6967 Y0.9015
X27.6909 Y0.9019
X27.6852 Y0.9021
X27.6811 Y0.9022
X27.6506 Y0.9023
X27.6693 Y4.7338
X28.496
X28.4909 Y3.7568
X28.4907 Y3.754 Z0.1131
X28.4904 Y3.7513 Z0.1133
X28.4899 Y3.7485 Z0.1137
X28.4893 Y3.7459 Z0.1142
X28.4885 Y3.7433 Z0.1149
X28.4876 Y3.7407 Z0.1158
X28.4866 Y3.7383 Z0.1168
X28.4855 Y3.736 Z0.1179
X28.4843 Y3.7338 Z0.1192
X28.483 Y3.7318 Z0.1206
X28.4817 Y3.7298 Z0.1222
X28.4804 Y3.7281 Z0.1239
X28.479 Y3.7264 Z0.1257
X28.4776 Y3.7249 Z0.1276
X28.4763 Y3.7235 Z0.1297
X28.475 Y3.7223 Z0.1318
X28.4737 Y3.7212 Z0.134
X28.4725 Y3.7202 Z0.1364
X28.4714 Y3.7193 Z0.1388
X28.4703 Y3.7186 Z0.1413
X28.4694 Y3.7179 Z0.1438
X28.4686 Y3.7174 Z0.1465
X28.4678 Y3.7169 Z0.1491
X28.4672 Y3.7165 Z0.1518
X28.4668 Y3.7163 Z0.1546
X28.4664 Y3.7161 Z0.1574
X28.4662 Y3.7159 Z0.1602
Z0.163
G0 Z0.763
X29.9343 Y3.6961
Z0.4582
G1 Z0.3363 F50.
Y3.6958 Z0.331
Y3.695 Z0.3257
Y3.6935 Z0.3205
Y3.6916 Z0.3155
Y3.6891 Z0.3108
Y3.6861 Z0.3063
Y3.6827 Z0.3022
Y3.6788 Z0.2985
Y3.6746 Z0.2952
Y3.67 Z0.2924
Y3.6652 Z0.2901
Y3.6601 Z0.2883
Y3.6549 Z0.2871
X29.9342 Y3.6496 Z0.2864
X29.93 Y1.2303 Z0.1173
G2 X29.9107 Y1.199 Z0.1146 I-0.035 J0.0001
G3 X29.8992 Y1.1931 Z0.1136 I0.221 J-0.4387
G1 X29.8957 Y1.1914 Z0.1134
X29.892 Y1.1901 Z0.1131
X29.8903 Y1.1897 Z0.113
X29.8886 Y1.1893
G2 X29.8446 Y1.2259 I-0.0069 J0.0364 F100.
G1 X29.8608 Y4.3217
G2 X29.9354 Y4.3215 I0.0373 J-0.0002
G1 X29.93 Y1.2303
G2 X29.9107 Y1.199 I-0.035 J0.0001
G3 X29.8992 Y1.1931 I0.221 J-0.4387
G2 X29.8886 Y1.1893 I-0.0175 J0.0327
G3 X29.7868 Y1.1143 I0.027 J-0.1432
G2 X29.6642 Y1.1451 I-0.0575 J0.0305
G1 X29.6817 Y4.4899
G2 X29.7447 Y4.5526 I0.063 J-0.0003
G1 X30.0533
G2 X30.1157 Y4.49 I0. J-0.0625
G1 X30.1099 Y1.1485
G2 X30.0481 Y1.0622 I-0.0914 J0.0002
G3 X29.9145 Y0.9881 I0.1411 J-0.4118
X29.8141 Y0.873 I0.2845 J-0.3497
G2 X29.7535 Y0.8727 I-0.0304 J0.0185
G3 X29.7263 Y0.9121 I-0.4281 J-0.2669
X29.695 Y0.9483 I-0.3168 J-0.242
G2 X29.6635 Y1.0261 I0.0792 J0.0772
G1 X29.6642 Y1.1451
G3 X29.5743 Y1.2815 I-0.1472 J0.0008
G2 X29.4844 Y1.4178 I0.0573 J0.1356
G1 X29.5018 Y4.7338
X30.2973
X30.2907 Y0.9049
X30.1954 Y0.9051
X30.1923 Y0.905
X30.1808 Y0.9048
X30.1725 Y0.9044
X30.1667 Y0.9039
X30.161 Y0.9032
X30.1552 Y0.9025
X30.1494 Y0.9016
X30.1437 Y0.9006
X30.1379 Y0.8994
X30.1321 Y0.8981
X30.1264 Y0.8967
X30.1206 Y0.8951
X30.1148 Y0.8934
X30.1091 Y0.8915
X30.1033 Y0.8895
X30.0976 Y0.8874
X30.0919 Y0.8851
X30.086 Y0.8826
X30.0802 Y0.8799
X30.0745 Y0.8771
X30.0687 Y0.8741
X30.0629 Y0.8709
X30.0576 Y0.8678
X30.0528 Y0.8648
X30.047 Y0.861
X30.0403 Y0.8563
X30.0364 Y0.8535
X30.0327 Y0.8506
X30.0242 Y0.8437
X30.0184 Y0.8388
X30.0154 Y0.8361
X30.0117 Y0.8325
X30.0072 Y0.8281
X30.003 Y0.8238
X29.9989 Y0.8194
X29.9954 Y0.8154
X29.9923 Y0.8118
X29.9877 Y0.8061
X29.9817 Y0.7981
G3 X29.9759 Y0.7899 I0.1036 J-0.0786
G1 X29.9704 Y0.7813
X29.9669 Y0.7755
X29.9652 Y0.7726
X29.9628 Y0.7682
X29.9598 Y0.7624
X29.957 Y0.7567
X29.9543 Y0.7509
X29.9519 Y0.7453
X29.9497 Y0.7397
X29.9475 Y0.734
X29.9454 Y0.728
X29.9435 Y0.7221
X29.9418 Y0.7163
X29.9402 Y0.7106
X29.9388 Y0.7048
X29.9375 Y0.699
X29.9363 Y0.6933
X29.9353 Y0.6875
X29.9344 Y0.6817
X29.9337 Y0.676
X29.933 Y0.6702
X29.9326 Y0.6645
X29.9322 Y0.6587
X29.9319 Y0.6518
X29.9318 Y0.6403
Y0.6397
Y0.6391
X29.9285 Y-1.2394
X29.9286 Y-1.2429
X29.9289 Y-1.2545
X29.9292 Y-1.2606
X29.9296 Y-1.2662
X29.6267
X29.6271 Y-1.259
X29.6273 Y-1.2539
X29.6276 Y-1.2423
Y-1.2403
X29.6374 Y0.6382
Y0.6418
X29.6371 Y0.6534
X29.6367 Y0.6618
X29.6362 Y0.6675
X29.6355 Y0.6733
X29.6348 Y0.679
X29.6339 Y0.6848
X29.6328 Y0.6906
X29.6317 Y0.6963
X29.6304 Y0.7021
X29.6294 Y0.706
X29.6289 Y0.7081
X29.6273 Y0.7139
X29.6244 Y0.7233
X29.6218 Y0.7309
X29.6196 Y0.7367
X29.6172 Y0.7424
X29.6147 Y0.7482
X29.6116 Y0.755
X29.6076 Y0.7629
X29.6045 Y0.7686
X29.6024 Y0.7723
X29.5996 Y0.777
X29.596 Y0.7828
X29.5922 Y0.7886
X29.5881 Y0.7943
X29.5852 Y0.7984
X29.5834 Y0.8007
X29.5806 Y0.8042
X29.5769 Y0.8088
X29.573 Y0.8134
X29.5689 Y0.818
X29.5649 Y0.8221
X29.5613 Y0.8259
X29.5573 Y0.8298
X29.5529 Y0.8338
X29.5486 Y0.8377
X29.5442 Y0.8414
X29.5406 Y0.8444
X29.5378 Y0.8467
X29.5335 Y0.85
X29.5277 Y0.8542
X29.522 Y0.8581
X29.5162 Y0.8619
X29.5122 Y0.8644
X29.51 Y0.8657
X29.5043 Y0.8689
X29.4949 Y0.8739
X29.4873 Y0.8776
X29.4816 Y0.8802
X29.4844 Y1.4178
X29.4846 Y1.4206 Z0.1131
X29.4849 Y1.4234 Z0.1133
X29.4854 Y1.4261 Z0.1137
X29.486 Y1.4288 Z0.1142
X29.4868 Y1.4314 Z0.1149
X29.4877 Y1.4339 Z0.1158
X29.4887 Y1.4364 Z0.1168
X29.4898 Y1.4387 Z0.1179
X29.491 Y1.4408 Z0.1192
X29.4923 Y1.4429 Z0.1206
X29.4936 Y1.4448 Z0.1222
X29.4949 Y1.4466 Z0.1239
X29.4963 Y1.4483 Z0.1257
X29.4977 Y1.4498 Z0.1276
X29.499 Y1.4512 Z0.1297
X29.5003 Y1.4524 Z0.1318
X29.5016 Y1.4535 Z0.134
X29.5028 Y1.4545 Z0.1364
X29.5039 Y1.4554 Z0.1388
X29.505 Y1.4561 Z0.1413
X29.5059 Y1.4568 Z0.1438
X29.5068 Y1.4573 Z0.1465
X29.5075 Y1.4578 Z0.1491
X29.5081 Y1.4581 Z0.1518
X29.5085 Y1.4584 Z0.1546
X29.5089 Y1.4586 Z0.1574
X29.5091 Y1.4587 Z0.1602
X29.5092 Y1.4588 Z0.163
G0 Z0.763
X31.31 Y2.7404
Z0.4582
G1 Z0.3363 F50.
Y2.7407 Z0.331
Y2.7416 Z0.3257
Y2.743 Z0.3205
Y2.7449 Z0.3155
Y2.7474 Z0.3108
Y2.7504 Z0.3063
Y2.7538 Z0.3022
Y2.7577 Z0.2985
X31.3101 Y2.7619 Z0.2952
Y2.7665 Z0.2924
Y2.7713 Z0.2901
Y2.7764 Z0.2883
Y2.7816 Z0.2871
Y2.7869 Z0.2864
X31.3135 Y4.7338 Z0.1503
X31.6568 Z0.1263
X31.6561 Y4.5452 Z0.1131
Y4.5417 Z0.113
X31.6349 Y-1.2391 F100.
X31.635 Y-1.2432
X31.6353 Y-1.2547
X31.6356 Y-1.2611
X31.636 Y-1.2662
X31.3021
X31.3025 Y-1.2597
X31.3028 Y-1.2541
X31.303 Y-1.2426
X31.3031 Y-1.2399
X31.3135 Y4.7338
X31.6568
X31.6561 Y4.5417
X31.6559 Y4.5389 Z0.1131
X31.6556 Y4.5361 Z0.1133
X31.6551 Y4.5334 Z0.1137
X31.6545 Y4.5307 Z0.1142
X31.6537 Y4.5281 Z0.1149
X31.6528 Y4.5256 Z0.1158
X31.6518 Y4.5231 Z0.1168
X31.6507 Y4.5208 Z0.1179
X31.6495 Y4.5186 Z0.1192
X31.6483 Y4.5166 Z0.1206
X31.647 Y4.5147 Z0.1222
X31.6456 Y4.5129 Z0.1239
X31.6442 Y4.5112 Z0.1257
X31.6429 Y4.5097 Z0.1276
X31.6415 Y4.5083 Z0.1297
X31.6402 Y4.5071 Z0.1318
X31.639 Y4.506 Z0.134
X31.6378 Y4.505 Z0.1364
X31.6366 Y4.5041 Z0.1388
X31.6356 Y4.5033 Z0.1413
X31.6346 Y4.5027 Z0.1438
X31.6338 Y4.5021 Z0.1465
X31.6331 Y4.5017 Z0.1491
X31.6325 Y4.5013 Z0.1518
X31.632 Y4.501 Z0.1546
X31.6317 Y4.5008 Z0.1574
X31.6315 Y4.5007 Z0.1602
X31.6314 Z0.163
G0 Z0.763
X33.1276 Y3.6524
Z0.4582
G1 Z0.3363 F50.
Y3.6521 Z0.331
Y3.6513 Z0.3257
Y3.6499 Z0.3205
Y3.6479 Z0.3155
Y3.6454 Z0.3108
Y3.6424 Z0.3063
Y3.639 Z0.3022
Y3.6351 Z0.2985
Y3.6309 Z0.2952
Y3.6263 Z0.2924
Y3.6215 Z0.2901
Y3.6165 Z0.2883
Y3.6112 Z0.2871
Y3.6059 Z0.2864
X33.1251 Y1.2293 Z0.1202
G2 X33.0701 Y1.1955 Z0.1148 I-0.0379 J0.
G1 X33.0654 Y1.1979 Z0.1145
X33.0583 Y1.2014 Z0.1139
G2 X33.0488 Y1.2082 Z0.1131 I0.0154 J0.0315
G1 X33.0476 Y1.2095 Z0.113
X33.0465 Y1.2108
G2 X33.0387 Y1.233 I0.0272 J0.0221 F100.
G1 X33.05 Y4.3206
G2 X33.1283 Y4.3204 I0.0392 J-0.0001
G1 X33.1251 Y1.2293
G2 X33.0701 Y1.1955 I-0.0379 J0.
G1 X33.0654 Y1.1979
X33.0583 Y1.2014
G2 X33.0465 Y1.2108 I0.0154 J0.0315
G3 X32.9381 Y1.2797 I-0.1567 J-0.127
G2 X32.8592 Y1.3809 I0.0249 J0.1008
G1 X32.8706 Y4.49
G2 X32.9335 Y4.5526 I0.0629 J-0.0002
G1 X33.246
G2 X33.3085 Y4.49 I0. J-0.0625
G1 X33.3049 Y1.0277
G2 X33.2744 Y0.9516 I-0.1106 J0.0001
G3 X33.2454 Y0.9184 I0.3831 J-0.3642
X33.2198 Y0.8826 I0.3068 J-0.2464
G2 X33.157 Y0.8825 I-0.0314 J0.0199
G3 X33.0541 Y0.994 I-0.3579 J-0.2273
X32.9193 Y1.0635 I-0.2713 J-0.3605
G2 X32.8583 Y1.1471 I0.0264 J0.0833
G1 X32.8592 Y1.3809
G3 X32.7691 Y1.5171 I-0.1472 J0.0005
G2 X32.679 Y1.6533 I0.0571 J0.1357
G1 X32.6903 Y4.7338
X33.4899
X33.4859 Y0.8824
X33.4806 Y0.88
X33.4748 Y0.8772
X33.4691 Y0.8742
X33.4623 Y0.8705
X33.4546 Y0.8659
X33.4489 Y0.8623
X33.4451 Y0.8597
X33.4402 Y0.8563
X33.4345 Y0.8521
X33.4287 Y0.8476
X33.4229 Y0.8428
X33.4171 Y0.8377
X33.4114 Y0.8324
X33.4056 Y0.8266
X33.3998 Y0.8205
X33.3945 Y0.8146
X33.3897 Y0.8088
X33.3851 Y0.8031
X33.3808 Y0.7973
X33.3775 Y0.7926
X33.3751 Y0.7891
X33.3714 Y0.7834
X33.3666 Y0.7754
X33.3627 Y0.7685
X33.3597 Y0.7627
X33.3568 Y0.757
X33.3542 Y0.7512
X33.3524 Y0.7471
X33.3514 Y0.7447
X33.3491 Y0.739
X33.3457 Y0.7298
X33.3432 Y0.7224
X33.3415 Y0.7166
X33.3399 Y0.7108
X33.3385 Y0.7051
X33.3372 Y0.6993
X33.336 Y0.6936
X33.335 Y0.6878
X33.3341 Y0.682
X33.3333 Y0.6763
X33.3327 Y0.6705
X33.3322 Y0.6647
X33.3318 Y0.659
X33.3315 Y0.6519
G3 X33.3314 Y0.6385 I0.994 J-0.017
G1 X33.3294 Y-1.2395
Y-1.2424
G3 X33.3298 Y-1.2553 I0.6633 J0.0101
G1 X33.33 Y-1.2604
X33.3304 Y-1.2662
X33.039
X33.0394 Y-1.2593
X33.0396 Y-1.254
X33.0399 Y-1.2424
Y-1.2401
X33.0468 Y0.6384
Y0.6414
X33.0465 Y0.6529
X33.0461 Y0.6611
X33.0456 Y0.6668
X33.045 Y0.6726
X33.0443 Y0.6784
X33.0435 Y0.6841
X33.0425 Y0.6899
X33.0413 Y0.6956
X33.0401 Y0.7014
X33.0386 Y0.7072
X33.0371 Y0.7129
X33.0354 Y0.7187
X33.0336 Y0.7245
X33.0308 Y0.7323
X33.027 Y0.742
X33.0246 Y0.7477
X33.0238 Y0.7495
X33.0221 Y0.7533
X33.0193 Y0.759
X33.0163 Y0.7648
X33.0131 Y0.7706
X33.0092 Y0.7773
X33.0044 Y0.7849
X33.0006 Y0.7906
X32.9978 Y0.7945
X32.9944 Y0.7992
X32.9902 Y0.8046
X32.9859 Y0.8099
X32.9812 Y0.8153
X32.9785 Y0.8183
X32.9778 Y0.8191
X32.9747 Y0.8223
X32.9693 Y0.8278
X32.9639 Y0.833
X32.9585 Y0.8379
X32.9551 Y0.8409
X32.9538 Y0.842
X32.9506 Y0.8446
X32.9455 Y0.8486
X32.9404 Y0.8525
X32.9353 Y0.8561
X32.9297 Y0.8599
X32.9237 Y0.8637
X32.9179 Y0.8672
X32.9124 Y0.8703
X32.9068 Y0.8733
X32.901 Y0.8762
X32.8953 Y0.879
X32.8895 Y0.8815
X32.8827 Y0.8843
X32.8749 Y0.8873
X32.8692 Y0.8893
X32.8654 Y0.8905
X32.8606 Y0.892
X32.8549 Y0.8936
X32.8491 Y0.8951
X32.8433 Y0.8965
X32.8376 Y0.8977
X32.8318 Y0.8988
X32.826 Y0.8997
X32.8203 Y0.9005
X32.8145 Y0.9012
X32.8087 Y0.9018
X32.803 Y0.9022
X32.7972 Y0.9025
X32.7915 Y0.9026
X32.78 Y0.9027
X32.7795
X32.6763 Y0.9031
X32.679 Y1.6533
X32.6792 Y1.6561 Z0.1131
X32.6795 Y1.6589 Z0.1133
X32.68 Y1.6616 Z0.1137
X32.6806 Y1.6643 Z0.1142
X32.6814 Y1.6669 Z0.1149
X32.6823 Y1.6694 Z0.1158
X32.6833 Y1.6718 Z0.1168
X32.6844 Y1.6741 Z0.1179
X32.6856 Y1.6763 Z0.1192
X32.6868 Y1.6784 Z0.1206
X32.6881 Y1.6803 Z0.1222
X32.6895 Y1.6821 Z0.1239
X32.6909 Y1.6838 Z0.1257
X32.6922 Y1.6853 Z0.1276
X32.6936 Y1.6866 Z0.1297
X32.6949 Y1.6879 Z0.1318
X32.6961 Y1.689 Z0.134
X32.6973 Y1.69 Z0.1364
X32.6985 Y1.6909 Z0.1388
X32.6995 Y1.6916 Z0.1413
X32.7005 Y1.6923 Z0.1438
X32.7013 Y1.6928 Z0.1465
X32.702 Y1.6933 Z0.1491
X32.7026 Y1.6936 Z0.1518
X32.7031 Y1.6939 Z0.1546
X32.7034 Y1.6941 Z0.1574
X32.7036 Y1.6942 Z0.1602
X32.7037 Y1.6943 Z0.163
G0 Z0.763
X34.8908 Y1.9774
Z0.4582
G1 Z0.3363 F50.
Y1.9777 Z0.331
Y1.9785 Z0.3257
Y1.98 Z0.3205
Y1.9819 Z0.3155
Y1.9844 Z0.3108
Y1.9874 Z0.3063
Y1.9908 Z0.3022
Y1.9947 Z0.2985
Y1.9989 Z0.2952
Y2.0035 Z0.2924
Y2.0083 Z0.2901
X34.8909 Y2.0134 Z0.2883
Y2.0186 Z0.2871
Y2.0239 Z0.2864
X34.8933 Y4.3258 Z0.1255
G2 X34.9403 Y4.3728 Z0.1203 I0.0471 J0.
G1 X34.9487 Z0.1197
G2 X34.9957 Y4.3256 Z0.1145 I0. J-0.0471
G1 Y4.3049 Z0.1131
Y4.3015 Z0.113
X34.9898 Y1.2182 F100.
G2 X34.9667 Y1.1778 I-0.0471 J0.0001
G3 X34.9433 Y1.1632 I0.2886 J-0.4882
G2 X34.89 Y1.1918 I-0.019 J0.0286
G1 X34.8933 Y4.3258
G2 X34.9403 Y4.3728 I0.0471 J0.
G1 X34.9487
G2 X34.9957 Y4.3256 I0. J-0.0471
G1 Y4.3015
G3 X35.0854 Y4.1663 I0.1463 J-0.0003
G2 X35.1752 Y4.0311 I-0.0565 J-0.1349
G1 X35.1696 Y1.1451
G2 X35.1063 Y1.048 I-0.1064 J0.0002
G3 X34.9058 Y0.8689 I0.1777 J-0.4009
G2 X34.8447 Y0.8685 I-0.0307 J0.0179
G3 X34.7593 Y0.9724 I-0.3968 J-0.2389
G2 X34.7099 Y1.0842 I0.1015 J0.1116
G1 X34.7134 Y4.4889
G2 X34.7774 Y4.5528 I0.064 J-0.0001
G1 X35.1123
G2 X35.176 Y4.4889 I0. J-0.0637
G1 X35.1752 Y4.0311
G3 X35.2654 Y3.8952 I0.1471 J-0.0003
G2 X35.3556 Y3.7593 I-0.0568 J-0.1356
G1 X35.3502 Y0.9051
X35.2939 Y0.9052
X35.2936
X35.2933
X35.2817 Y0.9051
X35.2756 Y0.905
X35.2698 Y0.9047
X35.2641 Y0.9043
X35.2583 Y0.9037
X35.2525 Y0.903
X35.2468 Y0.9022
X35.241 Y0.9013
X35.2352 Y0.9002
X35.2295 Y0.899
X35.2237 Y0.8977
X35.2179 Y0.8962
X35.2122 Y0.8945
X35.204 Y0.8919
X35.1934 Y0.8882
X35.1877 Y0.886
X35.1867 Y0.8856
X35.1833 Y0.8841
X35.1775 Y0.8816
X35.1718 Y0.8788
X35.166 Y0.8759
X35.1583 Y0.8717
X35.1487 Y0.8661
X35.143 Y0.8625
X35.1411 Y0.8612
X35.1372 Y0.8585
X35.1314 Y0.8544
X35.1256 Y0.85
X35.1199 Y0.8453
X35.1162 Y0.8422
X35.1145 Y0.8408
X35.1112 Y0.8378
X35.1063 Y0.8332
X35.1013 Y0.8284
X35.0964 Y0.8233
X35.0931 Y0.8198
X35.0915 Y0.818
X35.0882 Y0.8142
X35.0835 Y0.8084
X35.0789 Y0.8027
X35.0747 Y0.7969
X35.0721 Y0.7934
X35.0713 Y0.7921
X35.0692 Y0.789
X35.0658 Y0.7838
X35.0627 Y0.7787
X35.0597 Y0.7735
X35.0568 Y0.7683
X35.0541 Y0.7631
X35.0514 Y0.7578
X35.049 Y0.7525
X35.0476 Y0.7494
X35.0471 Y0.7484
X35.0457 Y0.745
X35.0434 Y0.7393
X35.0413 Y0.7335
X35.0393 Y0.7277
X35.0374 Y0.722
X35.0357 Y0.7162
X35.0341 Y0.7104
X35.0327 Y0.7047
X35.0314 Y0.6989
X35.0303 Y0.6932
X35.0292 Y0.6874
X35.0284 Y0.6816
X35.0276 Y0.6759
X35.027 Y0.6701
X35.0265 Y0.6643
X35.0261 Y0.6586
X35.0259 Y0.6518
X35.0258 Y0.6403
Y0.6397
Y0.6392
X35.0222 Y-1.2394
Y-1.243
X35.0225 Y-1.2545
X35.0228 Y-1.2606
X35.0232 Y-1.2662
X34.7222
X34.7226 Y-1.2599
X34.7229 Y-1.2541
X34.7232 Y-1.2426
Y-1.2398
X34.7252 Y0.6388
X34.7251 Y0.6407
X34.725 Y0.6523
X34.7247 Y0.6599
X34.7242 Y0.6657
X34.7237 Y0.6714
X34.723 Y0.6772
X34.7222 Y0.6829
X34.7213 Y0.6887
X34.7202 Y0.6945
X34.719 Y0.7002
X34.7175 Y0.7064
X34.7158 Y0.713
X34.7141 Y0.7187
X34.7126 Y0.7237
X34.7108 Y0.7291
X34.7087 Y0.7348
X34.7065 Y0.7406
X34.7041 Y0.7463
X34.7016 Y0.752
X34.699 Y0.7575
X34.6961 Y0.7633
X34.6929 Y0.7693
X34.6896 Y0.7752
X34.6861 Y0.7809
X34.6824 Y0.7867
X34.6785 Y0.7925
X34.6746 Y0.7979
X34.6707 Y0.803
X34.6661 Y0.8088
X34.6607 Y0.8152
X34.6549 Y0.8216
X34.6488 Y0.8279
X34.6429 Y0.8336
X34.6371 Y0.8388
X34.6314 Y0.8438
X34.6256 Y0.8485
X34.6202 Y0.8526
X34.6152 Y0.8562
X34.6103 Y0.8596
X34.6053 Y0.8629
X34.602 Y0.865
X34.6004 Y0.866
X34.5967 Y0.8681
X34.5909 Y0.8714
X34.5851 Y0.8745
X34.5794 Y0.8774
X34.5714 Y0.8811
X34.5612 Y0.8855
X34.5553 Y0.8877
X34.5541 Y0.8882
X34.5505 Y0.8894
X34.5448 Y0.8914
X34.539 Y0.8932
X34.5332 Y0.8948
X34.5287 Y0.896
X34.5327 Y4.7338
X35.3575
X35.3556 Y3.7593
X35.3555 Y3.7565 Z0.1131
X35.3552 Y3.7537 Z0.1133
X35.3547 Y3.751 Z0.1137
X35.3541 Y3.7483 Z0.1142
X35.3533 Y3.7457 Z0.1149
X35.3524 Y3.7431 Z0.1158
X35.3514 Y3.7407 Z0.1168
X35.3503 Y3.7384 Z0.1179
X35.3491 Y3.7362 Z0.1192
X35.3479 Y3.7342 Z0.1206
X35.3466 Y3.7322 Z0.1222
X35.3452 Y3.7304 Z0.1239
X35.3439 Y3.7288 Z0.1257
X35.3425 Y3.7273 Z0.1276
X35.3412 Y3.7259 Z0.1297
X35.3398 Y3.7246 Z0.1318
X35.3386 Y3.7235 Z0.134
X35.3374 Y3.7225 Z0.1364
X35.3362 Y3.7217 Z0.1388
X35.3352 Y3.7209 Z0.1413
X35.3343 Y3.7202 Z0.1438
X35.3334 Y3.7197 Z0.1465
X35.3327 Y3.7192 Z0.1491
X35.3321 Y3.7189 Z0.1518
X35.3317 Y3.7186 Z0.1546
X35.3313 Y3.7184 Z0.1574
X35.3311 Y3.7183 Z0.1602
X35.331 Y3.7182 Z0.163
G0 Z0.763
X36.727 Y1.0874
Z0.4582
G1 Z0.3363 F50.
Y1.0871 Z0.331
Y1.0862 Z0.3257
X36.7271 Y1.0848 Z0.3205
Y1.0829 Z0.3155
Y1.0804 Z0.3108
Y1.0774 Z0.3063
Y1.074 Z0.3022
Y1.0701 Z0.2985
X36.7272 Y1.0659 Z0.2952
Y1.0613 Z0.2924
Y1.0565 Z0.2901
X36.7273 Y1.0514 Z0.2883
Y1.0462 Z0.2871
Y1.0409 Z0.2864
X36.7413 Y-1.2404 Z0.1269
Y-1.241
Y-1.2417 Z0.1268
Y-1.2423
X36.7415 Y-1.2538 Z0.126
X36.7417 Y-1.2589 Z0.1256
X36.7422 Y-1.2662 Z0.1251
X36.5705 Z0.1131
X36.5671 Z0.113
X36.4324 F100.
X36.4328 Y-1.2597
X36.4331 Y-1.2541
X36.4333 Y-1.2425
X36.4334 Y-1.2399
X36.4449 Y4.7338
X36.7048
X36.7413 Y-1.2404
G3 X36.7415 Y-1.2538 I0.7592 J0.0081
G1 X36.7417 Y-1.2589
X36.7422 Y-1.2662
X36.5671
X36.5643 Y-1.2661 Z0.1131
X36.5615 Y-1.2658 Z0.1133
X36.5587 Y-1.2653 Z0.1137
X36.5561 Y-1.2647 Z0.1142
X36.5534 Y-1.2639 Z0.1149
X36.5509 Y-1.263 Z0.1158
X36.5485 Y-1.262 Z0.1168
X36.5462 Y-1.2609 Z0.1179
X36.544 Y-1.2598 Z0.1192
X36.5419 Y-1.2585 Z0.1206
X36.54 Y-1.2572 Z0.1222
X36.5382 Y-1.2558 Z0.1239
X36.5366 Y-1.2545 Z0.1257
X36.535 Y-1.2531 Z0.1276
X36.5337 Y-1.2518 Z0.1297
X36.5324 Y-1.2505 Z0.1318
X36.5313 Y-1.2492 Z0.134
X36.5303 Y-1.248 Z0.1364
X36.5294 Y-1.2469 Z0.1388
X36.5286 Y-1.2459 Z0.1413
X36.528 Y-1.2449 Z0.1438
X36.5274 Y-1.2441 Z0.1465
X36.527 Y-1.2434 Z0.1491
X36.5266 Y-1.2428 Z0.1518
X36.5263 Y-1.2423 Z0.1546
X36.5261 Y-1.242 Z0.1574
X36.526 Y-1.2418 Z0.1602
Y-1.2417 Z0.163
G0 Z0.763
X38.1155 Y2.0074
Z0.4582
G1 Z0.3363 F50.
Y2.0077 Z0.331
Y2.0086 Z0.3257
Y2.01 Z0.3205
Y2.012 Z0.3155
Y2.0144 Z0.3108
Y2.0174 Z0.3063
X38.1154 Y2.0209 Z0.3022
Y2.0247 Z0.2985
Y2.0289 Z0.2952
Y2.0335 Z0.2924
X38.1153 Y2.0383 Z0.2901
Y2.0434 Z0.2883
Y2.0486 Z0.2871
X38.1152 Y2.0539 Z0.2864
X38.1014 Y4.3254 Z0.1276
G2 X38.1484 Y4.3728 Z0.1224 I0.0471 J0.0003
G1 X38.1767 Z0.1204
G2 X38.2238 Y4.3255 Z0.1152 I0. J-0.0471
G1 X38.2237 Y4.2949 Z0.1131
X38.2236 Y4.2914 Z0.113
X38.2119 Y1.226 F100.
G2 X38.1569 Y1.1934 I-0.0372 J0.0001
G3 X38.1398 Y1.2022 I-0.2336 J-0.4327
G2 X38.1203 Y1.2335 I0.0155 J0.0314
G1 X38.1014 Y4.3254
G2 X38.1484 Y4.3728 I0.0471 J0.0003
G1 X38.1767
G2 X38.2238 Y4.3255 I0. J-0.0471
G1 X38.2236 Y4.2914
G3 X38.3131 Y4.1561 I0.1462 J-0.0006
G2 X38.4026 Y4.0207 I-0.0568 J-0.1348
G1 X38.391 Y0.9961
G2 X38.3692 Y0.9398 I-0.0844 J0.0003
G3 X38.3094 Y0.8543 I0.3105 J-0.281
G2 X38.2511 I-0.0291 J0.0155
G3 X38.0043 Y1.0643 I-0.3892 J-0.2074
G2 X37.9407 Y1.1523 I0.0299 J0.0885
G1 X37.9204 Y4.489
G2 X37.9838 Y4.5528 I0.0634 J0.0004
G1 X38.3408
G2 X38.4044 Y4.489 I0. J-0.0636
G1 X38.4026 Y4.0207
G3 X38.4926 Y3.8846 I0.1471 J-0.0006
G2 X38.5826 Y3.7485 I-0.0571 J-0.1355
G1 X38.5715 Y0.8731
X38.571 Y0.8728
X38.5652 Y0.8695
X38.5594 Y0.866
X38.5559 Y0.8637
X38.5544 Y0.8628
X38.5512 Y0.8605
X38.5461 Y0.857
X38.5411 Y0.8532
X38.536 Y0.8493
X38.5311 Y0.8453
X38.5264 Y0.8413
X38.5206 Y0.836
X38.5138 Y0.8294
X38.5082 Y0.8236
X38.5037 Y0.8187
X38.4996 Y0.814
X38.4959 Y0.8095
X38.4924 Y0.805
X38.489 Y0.8006
X38.4864 Y0.797
X38.4846 Y0.7944
X38.4818 Y0.7903
X38.4781 Y0.7845
X38.4745 Y0.7788
X38.4712 Y0.773
X38.4682 Y0.7675
X38.4656 Y0.7624
X38.4628 Y0.7566
X38.4599 Y0.7502
X38.4573 Y0.7442
X38.4551 Y0.7384
X38.453 Y0.7326
X38.451 Y0.7269
X38.4492 Y0.7211
X38.4475 Y0.7154
X38.446 Y0.7096
X38.4446 Y0.7038
X38.4432 Y0.6973
X38.4418 Y0.6899
X38.4409 Y0.6841
X38.4403 Y0.68
X38.4397 Y0.675
X38.4391 Y0.6692
X38.4387 Y0.6635
X38.4384 Y0.6577
X38.4382 Y0.6516
X38.4381 Y0.6401
Y0.6397
Y0.6394
X38.4309 Y-1.2391
Y-1.2432
X38.4312 Y-1.2547
X38.4316 Y-1.2611
X38.432 Y-1.2662
X38.1323
X38.1326 Y-1.2615
X38.133 Y-1.255
X38.1333 Y-1.2435
X38.1334 Y-1.239
X38.1333 Y-1.216
Y-1.2158
X38.122 Y0.6397
Y0.64
X38.1219 Y0.6516
X38.1217 Y0.6568
X38.1214 Y0.6626
X38.121 Y0.6683
X38.1205 Y0.6741
X38.1198 Y0.6799
X38.119 Y0.6856
X38.1181 Y0.6914
X38.117 Y0.6971
X38.1158 Y0.7029
X38.1145 Y0.7087
X38.113 Y0.7144
X38.1114 Y0.7202
X38.1096 Y0.726
X38.1077 Y0.7317
X38.1056 Y0.7375
X38.1034 Y0.7433
X38.1019 Y0.747
X38.1012 Y0.7487
X38.0986 Y0.7545
X38.0939 Y0.7643
X38.0898 Y0.772
X38.0866 Y0.7777
X38.0832 Y0.7835
X38.0794 Y0.7893
X38.0755 Y0.7951
X38.0714 Y0.8009
X38.0671 Y0.8067
X38.0624 Y0.8124
X38.0587 Y0.8168
X38.056 Y0.8199
X38.0527 Y0.8236
X38.0487 Y0.8278
X38.0445 Y0.832
X38.0401 Y0.8362
X38.0364 Y0.8397
X38.0332 Y0.8426
X38.0288 Y0.8463
X38.0232 Y0.8509
X38.0174 Y0.8553
X38.0115 Y0.8596
X38.0057 Y0.8636
X37.9999 Y0.8673
X37.9941 Y0.8708
X37.9884 Y0.8741
X37.9811 Y0.878
X37.9723 Y0.8823
X37.9665 Y0.885
X37.9638 Y0.8862
X37.9595 Y0.8879
X37.9538 Y0.8902
X37.948 Y0.8923
X37.9422 Y0.8942
X37.9364 Y0.896
X37.9307 Y0.8977
X37.9249 Y0.8992
X37.9191 Y0.9006
X37.9134 Y0.9018
X37.9076 Y0.9029
X37.9018 Y0.9039
X37.8961 Y0.9047
X37.8903 Y0.9054
X37.8845 Y0.906
X37.8788 Y0.9064
X37.873 Y0.9067
X37.8663 Y0.9069
X37.8547
X37.8542
X37.8537
X37.7612 Y0.9064
X37.7379 Y4.7338
X38.5863
X38.5826 Y3.7485
X38.5824 Y3.7457 Z0.1131
X38.5821 Y3.743 Z0.1133
X38.5816 Y3.7402 Z0.1137
X38.581 Y3.7375 Z0.1142
X38.5802 Y3.7349 Z0.1149
X38.5793 Y3.7324 Z0.1158
X38.5783 Y3.73 Z0.1168
X38.5772 Y3.7277 Z0.1179
X38.576 Y3.7255 Z0.1192
X38.5747 Y3.7234 Z0.1206
X38.5734 Y3.7215 Z0.1222
X38.5721 Y3.7197 Z0.1239
X38.5707 Y3.7181 Z0.1257
X38.5693 Y3.7166 Z0.1276
X38.568 Y3.7152 Z0.1297
X38.5667 Y3.7139 Z0.1318
X38.5654 Y3.7128 Z0.134
X38.5642 Y3.7118 Z0.1364
X38.5631 Y3.711 Z0.1388
X38.5621 Y3.7102 Z0.1413
X38.5611 Y3.7096 Z0.1438
X38.5603 Y3.709 Z0.1465
X38.5596 Y3.7085 Z0.1491
X38.559 Y3.7082 Z0.1518
X38.5585 Y3.7079 Z0.1546
X38.5582 Y3.7077 Z0.1574
X38.5579 Y3.7076 Z0.1602
Z0.163
G0 Z0.763
X40.0432 Y3.6473
Z0.4582
G1 Z0.3363 F50.
Y3.647 Z0.331
Y3.6462 Z0.3257
Y3.6447 Z0.3205
Y3.6428 Z0.3155
Y3.6403 Z0.3108
Y3.6373 Z0.3063
Y3.6339 Z0.3022
Y3.63 Z0.2985
Y3.6258 Z0.2952
Y3.6212 Z0.2924
X40.0431 Y3.6164 Z0.2901
Y3.6113 Z0.2883
Y3.6061 Z0.2871
Y3.6008 Z0.2864
X40.0363 Y1.1647 Z0.1161
G2 X40.0257 Y1.1438 Z0.1144 I-0.026 J0.0001
G1 X40.0183 Y1.1382 Z0.1137
X40.0158 Y1.1365 Z0.1135
X40.0131 Y1.1351 Z0.1133
X40.0103 Y1.134 Z0.1131
X40.0086 Y1.1336 Z0.113
X40.0069 Y1.1332
G2 X39.9765 Y1.159 I-0.0044 J0.0257 F100.
G1 X39.9886 Y4.3273
G2 X40.0451 Y4.3271 I0.0282 J-0.0001
G1 X40.0363 Y1.1647
G2 X40.0257 Y1.1438 I-0.026 J0.0001
G1 X40.0183 Y1.1382
G2 X40.0069 Y1.1332 I-0.0158 J0.0207
G3 X39.9214 Y1.0613 I0.0187 J-0.109
G2 X39.8098 Y1.0565 I-0.0568 J0.0202
X39.7963 Y1.1189 I0.1354 J0.0619
G1 X39.8092 Y4.49
G2 X39.8721 Y4.5526 I0.0629 J-0.0002
G1 X40.1632
G2 X40.2256 Y4.49 I0. J-0.0624
G1 X40.2162 Y1.1286
G2 X40.1543 Y1.0142 I-0.1373 J0.0004
G3 X40.0272 Y0.8865 I0.2422 J-0.3684
G2 X39.964 Y0.8861 I-0.0317 J0.0205
G3 X39.9226 Y0.9397 I-0.3964 J-0.2636
X39.8736 Y0.9864 I-0.3168 J-0.2831
X39.8651 Y0.9927 I-0.069 J-0.0849
G2 X39.8565 Y0.9987 I0.1122 J0.169
X39.8098 Y1.0565 I0.0886 J0.1196
G3 X39.7001 Y1.1623 I-0.1895 J-0.0866
G2 X39.6158 Y1.2892 I0.0525 J0.1264
G1 X39.629 Y4.7338
X40.4075
X40.3968 Y0.9055
X40.3915
X40.3848 Y0.9053
X40.379 Y0.9049
X40.3733 Y0.9045
X40.3675 Y0.9039
X40.3617 Y0.9032
X40.356 Y0.9023
X40.3502 Y0.9014
X40.3444 Y0.9002
X40.3387 Y0.899
X40.3329 Y0.8976
X40.3271 Y0.8961
X40.3214 Y0.8944
X40.3132 Y0.8917
X40.3026 Y0.8879
X40.2969 Y0.8856
X40.2959 Y0.8852
X40.2925 Y0.8837
X40.2867 Y0.8811
X40.281 Y0.8784
X40.2752 Y0.8754
X40.2677 Y0.8712
X40.2584 Y0.8656
X40.2527 Y0.862
X40.2504 Y0.8605
X40.2464 Y0.8576
X40.2406 Y0.8534
X40.2348 Y0.849
X40.2291 Y0.8442
X40.2256 Y0.8413
X40.2244 Y0.8403
X40.2212 Y0.8373
X40.216 Y0.8325
X40.2108 Y0.8273
X40.2057 Y0.8219
X40.2026 Y0.8185
X40.2015 Y0.8173
X40.1985 Y0.8138
X40.1938 Y0.8081
X40.1893 Y0.8023
X40.1851 Y0.7965
X40.1823 Y0.7925
X40.1808 Y0.7904
X40.1771 Y0.7847
X40.1715 Y0.7753
X40.1672 Y0.7677
X40.1642 Y0.7619
X40.1613 Y0.7559
X40.1584 Y0.7494
X40.1559 Y0.7435
X40.1538 Y0.7381
X40.1517 Y0.7326
X40.1499 Y0.7272
X40.1481 Y0.7216
X40.1464 Y0.7158
X40.1449 Y0.7101
X40.1435 Y0.7043
X40.1422 Y0.6986
X40.1411 Y0.6928
X40.1401 Y0.687
X40.1392 Y0.6813
X40.1385 Y0.6755
X40.1379 Y0.6697
X40.1374 Y0.664
X40.137 Y0.6582
X40.1368 Y0.6517
X40.1367 Y0.6402
Y0.6397
Y0.6393
X40.1315 Y-1.2393
Y-1.2431
X40.1318 Y-1.2546
X40.1321 Y-1.2609
X40.1325 Y-1.2662
X39.848
X39.8484 Y-1.2592
X39.8486 Y-1.2539
X39.8489 Y-1.2424
Y-1.2401
X39.8561 Y0.6384
Y0.6414
X39.8559 Y0.653
X39.8555 Y0.6612
X39.855 Y0.6669
X39.8544 Y0.6727
X39.8536 Y0.6785
X39.8525 Y0.6855
X39.851 Y0.6938
X39.8498 Y0.6995
X39.8491 Y0.7028
X39.848 Y0.7073
X39.8464 Y0.713
X39.8447 Y0.7188
X39.8429 Y0.7246
X39.8409 Y0.7303
X39.8387 Y0.7361
X39.8364 Y0.7419
X39.834 Y0.7476
X39.8313 Y0.7534
X39.8286 Y0.7591
X39.8256 Y0.7649
X39.8224 Y0.7707
X39.819 Y0.7764
X39.8155 Y0.7822
X39.8117 Y0.788
X39.8077 Y0.7937
X39.8052 Y0.7971
X39.8044 Y0.7982
X39.802 Y0.8014
X39.7979 Y0.8066
X39.7935 Y0.8118
X39.7889 Y0.8171
X39.7852 Y0.8211
X39.7824 Y0.824
X39.7787 Y0.8277
X39.774 Y0.8323
X39.7693 Y0.8366
X39.7646 Y0.8407
X39.7611 Y0.8436
X39.759 Y0.8453
X39.7551 Y0.8484
X39.7493 Y0.8527
X39.7435 Y0.8568
X39.7377 Y0.8606
X39.7335 Y0.8633
X39.7309 Y0.8649
X39.7252 Y0.8683
X39.7163 Y0.8731
X39.7089 Y0.8769
X39.7031 Y0.8795
X39.6974 Y0.8821
X39.6916 Y0.8844
X39.6865 Y0.8864
X39.682 Y0.888
X39.6763 Y0.8899
X39.6692 Y0.8921
X39.6628 Y0.8939
X39.657 Y0.8954
X39.6512 Y0.8967
X39.6454 Y0.8979
X39.6397 Y0.8989
X39.6339 Y0.8998
X39.6281 Y0.9006
X39.6224 Y0.9013
X39.6143 Y0.9019
X39.6158 Y1.2892
X39.6159 Y1.292 Z0.1131
X39.6163 Y1.2948 Z0.1133
X39.6167 Y1.2975 Z0.1137
X39.6174 Y1.3002 Z0.1142
X39.6181 Y1.3028 Z0.1149
X39.619 Y1.3053 Z0.1158
X39.62 Y1.3077 Z0.1168
X39.6211 Y1.31 Z0.1179
X39.6223 Y1.3122 Z0.1192
X39.6236 Y1.3143 Z0.1206
X39.6249 Y1.3162 Z0.1222
X39.6263 Y1.318 Z0.1239
X39.6276 Y1.3197 Z0.1257
X39.629 Y1.3212 Z0.1276
X39.6303 Y1.3225 Z0.1297
X39.6316 Y1.3238 Z0.1318
X39.6329 Y1.3249 Z0.134
X39.6341 Y1.3259 Z0.1364
X39.6352 Y1.3268 Z0.1388
X39.6363 Y1.3275 Z0.1413
X39.6372 Y1.3282 Z0.1438
X39.6381 Y1.3287 Z0.1465
X39.6388 Y1.3292 Z0.1491
X39.6394 Y1.3296 Z0.1518
X39.6398 Y1.3298 Z0.1546
X39.6402 Y1.33 Z0.1574
X39.6404 Y1.3301 Z0.1602
X39.6405 Y1.3302 Z0.163
G0 Z0.763
X41.7857 Y1.97
Z0.4582
G1 Z0.3363 F50.
Y1.9703 Z0.331
Y1.9712 Z0.3257
Y1.9726 Z0.3205
Y1.9746 Z0.3155
Y1.9771 Z0.3108
Y1.98 Z0.3063
Y1.9835 Z0.3022
X41.7858 Y1.9873 Z0.2985
Y1.9916 Z0.2952
Y1.9961 Z0.2924
Y2.001 Z0.2901
Y2.006 Z0.2883
Y2.0112 Z0.2871
Y2.0166 Z0.2864
X41.7923 Y4.3378 Z0.1241
G2 X41.8274 Y4.3728 Z0.1203 I0.035 J-0.0001
G1 X41.8478 Z0.1188
G2 X41.8828 Y4.3374 Z0.115 I0. J-0.035
G1 X41.8826 Y4.3106 Z0.1131
X41.8825 Y4.3072 Z0.113
X41.8547 Y1.238 F100.
G2 X41.835 Y1.2068 I-0.035 J0.0003
G1 X41.8341 Y1.2064
G2 X41.7837 Y1.2379 I-0.0154 J0.0315
G1 X41.7923 Y4.3378
G2 X41.8274 Y4.3728 I0.035 J-0.0001
G1 X41.8478
G2 X41.8828 Y4.3374 I0. J-0.035
G1 X41.8825 Y4.3072
G3 X41.9713 Y4.1713 I0.1462 J-0.0013
G2 X42.0601 Y4.0355 I-0.0575 J-0.1345
G1 X42.0339 Y1.1541
G2 X41.9702 Y1.0676 I-0.0917 J0.0008
G3 X41.8263 Y0.9888 I0.1305 J-0.4085
X41.7211 Y0.8629 I0.2926 J-0.3515
G2 X41.6612 Y0.8628 I-0.03 J0.017
G3 X41.6216 Y0.9205 I-0.3786 J-0.2171
G2 X41.6029 Y0.9737 I0.0657 J0.053
G1 X41.6127 Y4.4889
G2 X41.6768 Y4.5528 I0.0641 J-0.0002
G1 X42.001
G2 X42.0642 Y4.489 I0. J-0.0632
G1 X42.0601 Y4.0355
G3 X42.1493 Y3.899 I0.1471 J-0.0013
G2 X42.2386 Y3.7624 I-0.0578 J-0.1352
G1 X42.2127 Y0.9072
X42.1121 Y0.9081
X42.1094
X42.0978 Y0.908
X42.093 Y0.9078
X42.0882 Y0.9075
X42.0793 Y0.9067
X42.0735 Y0.9061
X42.0709 Y0.9058
X42.0666 Y0.9051
X42.0609 Y0.9042
X42.0551 Y0.9031
X42.0493 Y0.9019
X42.0436 Y0.9005
X42.0378 Y0.899
X42.032 Y0.8973
X42.0263 Y0.8956
X42.0205 Y0.8936
X42.0147 Y0.8915
X42.009 Y0.8893
X42.0032 Y0.8869
X41.999 Y0.885
X41.9964 Y0.8838
X41.9906 Y0.881
X41.9817 Y0.8763
X41.9745 Y0.8723
X41.9691 Y0.8691
X41.9638 Y0.8656
X41.9584 Y0.862
X41.9553 Y0.8599
X41.9546 Y0.8594
X41.9513 Y0.8569
X41.9455 Y0.8525
X41.9397 Y0.8478
X41.934 Y0.8429
X41.9302 Y0.8396
X41.9285 Y0.8379
X41.925 Y0.8346
X41.9198 Y0.8294
X41.9149 Y0.8243
X41.9103 Y0.8191
X41.9075 Y0.8159
X41.9065 Y0.8147
X41.9037 Y0.8112
X41.8992 Y0.8055
X41.895 Y0.7997
X41.8909 Y0.7939
X41.888 Y0.7895
X41.886 Y0.7863
X41.8825 Y0.7806
X41.8778 Y0.7722
X41.874 Y0.7651
X41.8712 Y0.7593
X41.8686 Y0.7536
X41.8661 Y0.7478
X41.8641 Y0.743
X41.8626 Y0.7391
X41.8606 Y0.7333
X41.8581 Y0.7257
X41.8561 Y0.719
X41.8545 Y0.7132
X41.8531 Y0.7075
X41.8518 Y0.7017
X41.8507 Y0.6959
X41.8496 Y0.6902
X41.8488 Y0.6844
X41.848 Y0.6787
X41.8474 Y0.6729
X41.8469 Y0.6671
X41.8466 Y0.6614
X41.8463 Y0.6556
X41.8462 Y0.6516
X41.8292 Y-1.2269
Y-1.2273
Y-1.2278
X41.8291 Y-1.2393
X41.8292 Y-1.2438
X41.8296 Y-1.2554
X41.83 Y-1.2619
X41.8303 Y-1.2662
X41.5326
X41.533 Y-1.2595
X41.5333 Y-1.254
X41.5335 Y-1.2425
Y-1.24
X41.5388 Y0.6386
Y0.6411
X41.5386 Y0.6527
X41.5382 Y0.6607
X41.5377 Y0.6664
X41.5371 Y0.6726
X41.5363 Y0.6792
X41.5349 Y0.6879
X41.5328 Y0.6986
X41.5309 Y0.7068
X41.5293 Y0.7125
X41.5277 Y0.7183
X41.5259 Y0.7241
X41.5239 Y0.7298
X41.5218 Y0.7356
X41.5195 Y0.7414
X41.5171 Y0.7471
X41.5151 Y0.7516
X41.5135 Y0.755
X41.5106 Y0.7607
X41.5063 Y0.769
X41.5023 Y0.7758
X41.499 Y0.7814
X41.4952 Y0.7872
X41.4911 Y0.7931
X41.4869 Y0.799
X41.4824 Y0.8048
X41.4777 Y0.8105
X41.4727 Y0.8163
X41.4693 Y0.8201
X41.4675 Y0.822
X41.4641 Y0.8255
X41.4589 Y0.8306
X41.4538 Y0.8354
X41.4486 Y0.8399
X41.4454 Y0.8427
X41.4441 Y0.8438
X41.4407 Y0.8465
X41.4349 Y0.851
X41.4291 Y0.8552
X41.4234 Y0.8592
X41.4216 Y0.8604
X41.4219 Y0.9827
X41.4324 Y4.7338
X42.2474
X42.2386 Y3.7624
X42.2384 Y3.7596 Z0.1131
X42.2381 Y3.7568 Z0.1133
X42.2376 Y3.7541 Z0.1137
X42.237 Y3.7514 Z0.1142
X42.2362 Y3.7488 Z0.1149
X42.2353 Y3.7463 Z0.1158
X42.2343 Y3.7439 Z0.1168
X42.2331 Y3.7416 Z0.1179
X42.2319 Y3.7394 Z0.1192
X42.2307 Y3.7374 Z0.1206
X42.2293 Y3.7354 Z0.1222
X42.228 Y3.7337 Z0.1239
X42.2266 Y3.732 Z0.1257
X42.2252 Y3.7305 Z0.1276
X42.2239 Y3.7291 Z0.1297
X42.2225 Y3.7279 Z0.1318
X42.2213 Y3.7268 Z0.134
X42.2201 Y3.7258 Z0.1364
X42.2189 Y3.7249 Z0.1388
X42.2179 Y3.7242 Z0.1413
X42.217 Y3.7235 Z0.1438
X42.2161 Y3.723 Z0.1465
X42.2154 Y3.7225 Z0.1491
X42.2148 Y3.7222 Z0.1518
X42.2143 Y3.7219 Z0.1546
X42.214 Y3.7217 Z0.1574
X42.2138 Y3.7216 Z0.1602
X42.2137 Z0.163
G0 Z0.763
X43.53 Y1.0741
Z0.4582
G1 Z0.3363 F50.
Y1.0738 Z0.331
Y1.073 Z0.3257
Y1.0715 Z0.3205
X43.5301 Y1.0696 Z0.3155
Y1.0671 Z0.3108
Y1.0641 Z0.3063
Y1.0607 Z0.3022
Y1.0568 Z0.2985
X43.5302 Y1.0526 Z0.2952
Y1.048 Z0.2924
Y1.0432 Z0.2901
X43.5303 Y1.0381 Z0.2883
Y1.0329 Z0.2871
Y1.0276 Z0.2864
X43.545 Y-1.2405 Z0.1278
Y-1.2411
Y-1.2417 Z0.1277
Y-1.2423
X43.5452 Y-1.2538 Z0.1269
X43.5454 Y-1.2588 Z0.1265
X43.5459 Y-1.2662 Z0.126
X43.361 Z0.1131
X43.3575 Z0.113
X43.2087 F100.
X43.2092 Y-1.2584
X43.2094 Y-1.2536
G3 X43.2096 Y-1.2408 I-1.2132 J0.0291
G1 X43.2638 Y4.7338
X43.5064
X43.545 Y-1.2405
G3 X43.5452 Y-1.2538 I0.8143 J0.0092
G1 X43.5454 Y-1.2588
X43.5459 Y-1.2662
X43.3575
X43.3547 Y-1.2661 Z0.1131
X43.3519 Y-1.2658 Z0.1133
X43.3492 Y-1.2653 Z0.1137
X43.3465 Y-1.2647 Z0.1142
X43.3439 Y-1.2639 Z0.1149
X43.3414 Y-1.263 Z0.1158
X43.3389 Y-1.262 Z0.1168
X43.3366 Y-1.2609 Z0.1179
X43.3344 Y-1.2598 Z0.1192
X43.3324 Y-1.2585 Z0.1206
X43.3304 Y-1.2572 Z0.1222
X43.3286 Y-1.2558 Z0.1239
X43.327 Y-1.2545 Z0.1257
X43.3255 Y-1.2531 Z0.1276
X43.3241 Y-1.2518 Z0.1297
X43.3228 Y-1.2505 Z0.1318
X43.3217 Y-1.2492 Z0.134
X43.3207 Y-1.248 Z0.1364
X43.3198 Y-1.2469 Z0.1388
X43.3191 Y-1.2459 Z0.1413
X43.3184 Y-1.2449 Z0.1438
X43.3179 Y-1.2441 Z0.1465
X43.3174 Y-1.2434 Z0.1491
X43.317 Y-1.2428 Z0.1518
X43.3168 Y-1.2423 Z0.1546
X43.3166 Y-1.242 Z0.1574
X43.3164 Y-1.2418 Z0.1602
Y-1.2417 Z0.163
G0 Z0.763
X45.6127 Y-0.9052
Z0.163
G1 X45.6124 Z0.1574 F100.
X45.6114 Z0.1519
X45.6099 Z0.1465
X45.6078 Z0.1413
X45.605 Z0.1364
X45.6018 Z0.1318
X45.5981 Z0.1276
X45.5939 Z0.1239
X45.5893 Z0.1206
X45.5844 Z0.1179
X45.5792 Z0.1158
X45.5738 Z0.1142
X45.5683 Z0.1133
X45.5627 Z0.113
X45.4141
X45.349
G2 X45.2846 Y-0.8413 I0. J0.0644
G1 X45.2514 Y4.309
G2 X45.3147 Y4.3728 I0.0634 J0.0004
G1 X45.4141
X45.6107
X45.6163 Z0.1133
X45.6219 Z0.1142
X45.6273 Z0.1158
X45.6324 Z0.1179
X45.6373 Z0.1206
X45.6419 Z0.1239
X45.6461 Z0.1276
X45.6498 Z0.1318
X45.6531 Z0.1364
X45.6558 Z0.1413
X45.6579 Z0.1465
X45.6595 Z0.1518
X45.6604 Z0.1574
X45.6607 Z0.163
G0 Z0.763
X45.6127 Y-1.0852
Z0.163
G1 X45.6124 Z0.1574 F100.
X45.6114 Z0.1519
X45.6099 Z0.1465
X45.6078 Z0.1413
X45.605 Z0.1364
X45.6018 Z0.1318
X45.5981 Z0.1276
X45.5939 Z0.1239
X45.5893 Z0.1206
X45.5844 Z0.1179
X45.5792 Z0.1158
X45.5738 Z0.1142
X45.5683 Z0.1133
X45.5627 Z0.113
X45.4141
X45.1702
G2 X45.1058 Y-1.0213 I0. J0.0644
G1 X45.0702 Y4.489
G2 X45.1336 Y4.5528 I0.0634 J0.0004
G1 X45.4141
X45.6108
X45.6164 Z0.1133
X45.6219 Z0.1142
X45.6273 Z0.1158
X45.6324 Z0.1179
X45.6374 Z0.1206
X45.6419 Z0.1239
X45.6461 Z0.1276
X45.6498 Z0.1318
X45.6531 Z0.1364
X45.6558 Z0.1413
X45.6579 Z0.1465
X45.6595 Z0.1518
X45.6604 Z0.1574
X45.6608 Z0.163
G0 Z0.763
X45.6127 Y-1.2354
Z0.158
G1 X45.6124 Z0.1529 F100.
X45.6116 Y-1.2356 Z0.148
X45.6102 Y-1.2358 Z0.1431
X45.6083 Y-1.2361 Z0.1385
X45.6059 Y-1.2365 Z0.134
X45.603 Y-1.2369 Z0.1299
X45.5997 Y-1.2375 Z0.1262
X45.596 Y-1.238 Z0.1228
X45.5919 Y-1.2387 Z0.1199
X45.5875 Y-1.2394 Z0.1174
X45.5829 Y-1.2401 Z0.1155
X45.5781 Y-1.2409 Z0.1141
X45.5732 Y-1.2416 Z0.1133
X45.5683 Y-1.2424 Z0.113
X45.422 Y-1.2656
X45.4181 Y-1.2661
X45.4142 Y-1.2662
X44.925
X44.9254 Y-1.2615
X44.9258 Y-1.255
X44.9261 Y-1.2435
X44.9262 Y-1.239
X44.926 Y-1.2159
Y-1.2157
X44.8876 Y4.7338
X45.4142
X45.4181 Y4.7336
X45.422 Y4.7332
X45.6162 Y4.7024
X45.6217 Y4.7015 Z0.1133
X45.6272 Y4.7007 Z0.1142
X45.6325 Y4.6998 Z0.1158
X45.6376 Y4.699 Z0.1179
X45.6424 Y4.6982 Z0.1206
X45.647 Y4.6975 Z0.1239
X45.6511 Y4.6969 Z0.1276
X45.6548 Y4.6963 Z0.1318
X45.658 Y4.6958 Z0.1364
X45.6607 Y4.6954 Z0.1413
X45.6628 Y4.695 Z0.1465
X45.6643 Y4.6948 Z0.1518
X45.6652 Y4.6946 Z0.1574
X45.6656 Z0.163
G0 Z0.763
X21.164 Y1.9771
Z0.4582
G1 Z0.3363 F50.
Y1.9773 Z0.331
Y1.9782 Z0.3257
Y1.9796 Z0.3205
Y1.9816 Z0.3155
Y1.9841 Z0.3108
Y1.987 Z0.3063
Y1.9905 Z0.3022
Y1.9943 Z0.2985
Y1.9986 Z0.2952
Y2.0031 Z0.2924
Y2.008 Z0.2901
Y2.013 Z0.2883
Y2.0182 Z0.2871
Y2.0236 Z0.2864
X21.1644 Y4.3257 Z0.1254
G2 X21.2114 Y4.3728 Z0.1203 I0.0471 J0.
G1 X21.2196 Z0.1197
G2 X21.2666 Y4.3256 Z0.1145 I0. J-0.0471
G1 Y4.305 Z0.1131
Y4.3016 Z0.113
X21.2601 Y1.1974 F100.
G2 X21.2064 Y1.1681 I-0.0349 J0.0001
G3 X21.1874 Y1.1796 I-0.2641 J-0.4139
G2 X21.1638 Y1.2204 I0.0235 J0.0408
G1 X21.1644 Y4.3257
G2 X21.2114 Y4.3728 I0.0471 J0.
G1 X21.2196
G2 X21.2666 Y4.3256 I0. J-0.0471
G1 Y4.3016
G3 X21.3563 Y4.1664 I0.1463 J-0.0003
G2 X21.446 Y4.0312 I-0.0565 J-0.1349
G1 X21.4398 Y1.0706
G2 X21.3933 Y0.962 I-0.1509 J0.0003
G3 X21.3511 Y0.9148 I0.2854 J-0.298
X21.3161 Y0.8621 I0.3718 J-0.2846
G2 X21.2563 I-0.0299 J0.0171
G3 X21.047 Y1.0494 I-0.3847 J-0.2193
G2 X20.9838 Y1.145 I0.0407 J0.0956
G1 X20.9844 Y4.4889
G2 X21.0483 Y4.5528 I0.0639 J0.
G1 X21.3833
G2 X21.447 Y4.4889 I0. J-0.0637
G1 X21.446 Y4.0312
G3 X21.5362 Y3.8952 I0.1471 J-0.0003
G2 X21.6264 Y3.7593 I-0.0568 J-0.1356
G1 X21.6204 Y0.8928
X21.6141 Y0.8906
X21.6061 Y0.8877
X21.6004 Y0.8854
X21.5969 Y0.8839
X21.5922 Y0.8818
X21.5864 Y0.8791
X21.5807 Y0.8762
X21.5749 Y0.8731
X21.5685 Y0.8695
X21.5615 Y0.8652
X21.5558 Y0.8615
X21.5512 Y0.8584
X21.5463 Y0.8549
X21.541 Y0.8509
X21.5357 Y0.8467
X21.5304 Y0.8423
X21.5273 Y0.8396
X21.5264 Y0.8387
X21.5231 Y0.8357
X21.5175 Y0.8303
X21.5122 Y0.825
X21.5073 Y0.8197
X21.5043 Y0.8164
X21.5033 Y0.8152
X21.5007 Y0.8121
X21.4965 Y0.8069
X21.4924 Y0.8017
X21.4886 Y0.7965
X21.485 Y0.7913
X21.4815 Y0.786
X21.4779 Y0.7802
X21.4742 Y0.774
X21.4709 Y0.768
X21.4679 Y0.7622
X21.4651 Y0.7565
X21.4625 Y0.7507
X21.46 Y0.745
X21.4578 Y0.7395
X21.4556 Y0.7337
X21.4535 Y0.7277
X21.4517 Y0.7219
X21.45 Y0.7161
X21.4484 Y0.7104
X21.447 Y0.7046
X21.4457 Y0.6988
X21.4445 Y0.6931
X21.4435 Y0.6873
X21.4427 Y0.6815
X21.4419 Y0.6758
X21.4413 Y0.67
X21.4408 Y0.6643
X21.4405 Y0.6585
X21.4402 Y0.6518
X21.4401 Y0.6402
Y0.6397
Y0.6392
X21.4362 Y-1.2394
Y-1.243
X21.4365 Y-1.2545
X21.4367 Y-1.2594
X21.4371 Y-1.2658
Y-1.2662
X21.1315
X21.1319 Y-1.2595
X21.1322 Y-1.2542
X21.1324 Y-1.2427
X21.1325 Y-1.2396
X21.1328 Y0.6389
G3 X21.1327 Y0.6521 I-1.0509 J-0.0058
X21.1321 Y0.6624 I-0.13 J-0.0016
G1 X21.131 Y0.6739
X21.13 Y0.6826
X21.129 Y0.6883
X21.128 Y0.6941
X21.1268 Y0.6999
X21.1254 Y0.7056
X21.124 Y0.7114
X21.1224 Y0.7171
X21.1206 Y0.7229
X21.1187 Y0.7287
X21.1167 Y0.7344
X21.1144 Y0.7402
X21.1121 Y0.746
X21.11 Y0.7507
X21.1083 Y0.7545
X21.1054 Y0.7603
X21.1014 Y0.768
X21.0977 Y0.7748
X21.0942 Y0.7805
X21.0905 Y0.7864
X21.0864 Y0.7925
X21.0822 Y0.7983
X21.078 Y0.8039
X21.0735 Y0.8096
X21.0687 Y0.8152
X21.065 Y0.8193
X21.0625 Y0.8221
X21.059 Y0.8257
X21.0543 Y0.8304
X21.0497 Y0.8348
X21.0451 Y0.839
X21.0416 Y0.842
X21.0393 Y0.8439
X21.0353 Y0.8472
X21.0296 Y0.8517
X21.0238 Y0.8559
X21.018 Y0.8599
X21.0143 Y0.8624
X21.0125 Y0.8635
X21.0068 Y0.867
X20.997 Y0.8726
X20.9892 Y0.8768
X20.9834 Y0.8795
X20.9776 Y0.8822
X20.9719 Y0.8846
X20.9681 Y0.8862
X20.9665 Y0.8868
X20.9607 Y0.8889
X20.9509 Y0.8922
X20.943 Y0.8946
X20.9373 Y0.8961
X20.9315 Y0.8975
X20.9257 Y0.8988
X20.9199 Y0.8999
X20.9142 Y0.9009
X20.9084 Y0.9018
X20.9026 Y0.9025
X20.8969 Y0.9031
X20.8911 Y0.9036
X20.8853 Y0.9039
X20.8796 Y0.9042
X20.8748 Y0.9043
X20.8028
X20.8035 Y4.7338
X21.6285
X21.6264 Y3.7593
X21.6263 Y3.7565 Z0.1131
X21.626 Y3.7537 Z0.1133
X21.6255 Y3.751 Z0.1137
X21.6249 Y3.7483 Z0.1142
X21.6241 Y3.7457 Z0.1149
X21.6232 Y3.7432 Z0.1158
X21.6222 Y3.7408 Z0.1168
X21.6211 Y3.7385 Z0.1179
X21.6199 Y3.7363 Z0.1192
X21.6187 Y3.7342 Z0.1206
X21.6173 Y3.7323 Z0.1222
X21.616 Y3.7305 Z0.1239
X21.6146 Y3.7288 Z0.1257
X21.6133 Y3.7273 Z0.1276
X21.6119 Y3.7259 Z0.1297
X21.6106 Y3.7247 Z0.1318
X21.6094 Y3.7236 Z0.134
X21.6082 Y3.7226 Z0.1364
X21.607 Y3.7217 Z0.1388
X21.606 Y3.7209 Z0.1413
X21.6051 Y3.7203 Z0.1438
X21.6042 Y3.7197 Z0.1465
X21.6035 Y3.7193 Z0.1491
X21.6029 Y3.7189 Z0.1518
X21.6024 Y3.7186 Z0.1546
X21.6021 Y3.7184 Z0.1574
X21.6019 Y3.7183 Z0.1602
X21.6018 Z0.163
G0 Z0.763
X19.4263 Y2.6997
Z0.4582
G1 Z0.3363 F50.
Y2.7 Z0.331
Y2.7009 Z0.3257
Y2.7023 Z0.3205
Y2.7042 Z0.3155
Y2.7067 Z0.3108
Y2.7097 Z0.3063
Y2.7131 Z0.3022
Y2.717 Z0.2985
Y2.7212 Z0.2952
Y2.7258 Z0.2924
Y2.7306 Z0.2901
X19.4262 Y2.7357 Z0.2883
Y2.7409 Z0.2871
Y2.7462 Z0.2864
X19.4221 Y4.7338 Z0.1474
X19.7386 Z0.1253
Y4.5591 Z0.1131
Y4.5556 Z0.113
X19.7376 Y-1.2396 F100.
Y-1.2427
X19.7379 Y-1.2543
X19.7382 Y-1.2602
X19.7386 Y-1.2662
X19.4335
X19.4339 Y-1.2607
X19.4342 Y-1.2545
X19.4345 Y-1.243
X19.4346 Y-1.2394
X19.4221 Y4.7338
X19.7386
Y4.5556
X19.7385 Y4.5528 Z0.1131
X19.7381 Y4.5501 Z0.1133
X19.7377 Y4.5473 Z0.1137
X19.7371 Y4.5447 Z0.1142
X19.7363 Y4.542 Z0.1149
X19.7354 Y4.5395 Z0.1158
X19.7344 Y4.5371 Z0.1168
X19.7333 Y4.5348 Z0.1179
X19.7321 Y4.5326 Z0.1192
X19.7309 Y4.5305 Z0.1206
X19.7296 Y4.5286 Z0.1222
X19.7282 Y4.5268 Z0.1239
X19.7269 Y4.5252 Z0.1257
X19.7255 Y4.5236 Z0.1276
X19.7242 Y4.5223 Z0.1297
X19.7229 Y4.521 Z0.1318
X19.7216 Y4.5199 Z0.134
X19.7204 Y4.5189 Z0.1364
X19.7193 Y4.518 Z0.1388
X19.7182 Y4.5172 Z0.1413
X19.7173 Y4.5166 Z0.1438
X19.7165 Y4.516 Z0.1465
X19.7158 Y4.5156 Z0.1491
X19.7152 Y4.5152 Z0.1518
X19.7147 Y4.5149 Z0.1546
X19.7143 Y4.5147 Z0.1574
X19.7141 Y4.5146 Z0.1602
Z0.163
G0 Z0.763
X17.9985 Y1.7636
Z0.4582
G1 Z0.3363 F50.
Y1.7639 Z0.331
Y1.7647 Z0.3257
Y1.7661 Z0.3205
Y1.7681 Z0.3155
X17.9986 Y1.7706 Z0.3108
Y1.7736 Z0.3063
Y1.777 Z0.3022
Y1.7809 Z0.2985
Y1.7851 Z0.2952
Y1.7897 Z0.2924
Y1.7945 Z0.2901
X17.9987 Y1.7996 Z0.2883
Y1.8048 Z0.2871
Y1.8101 Z0.2864
X18.0017 Y2.7058 Z0.2238
G2 X18.0378 Z0.2198 I0.0181 J-0.0001
G1 X18.0409 Y1.2191 Z0.1159
G2 X18.03 Y1.2017 Z0.1144 I-0.0193 J0.
G1 X18.0246 Y1.199 Z0.1139
G2 X18.0128 Y1.1973 Z0.1131 I-0.0086 J0.0172
G1 X18.0111 Y1.1976 Z0.113
X18.0094 Y1.1982
G2 X17.9967 Y1.2163 I0.0066 J0.0181 F100.
G1 X18.0017 Y2.7058
G2 X18.0378 I0.0181 J-0.0001
G1 X18.0409 Y1.2191
G2 X18.03 Y1.2017 I-0.0193 J0.
G1 X18.0246 Y1.199
G2 X18.0094 Y1.1982 I-0.0086 J0.0172
X17.8855 Y1.2555 I0.2724 J0.751
X17.8172 Y1.3737 I0.0672 J0.1177
G1 X17.8276 Y4.49
G2 X17.8904 Y4.5526 I0.0628 J-0.0002
G1 X18.1513
G2 X18.214 Y4.49 I0. J-0.0628
G1 X18.221 Y1.1469
G2 X18.1592 Y1.0607 I-0.0907 J-0.0002
G3 X17.9275 Y0.8759 I0.1379 J-0.4105
G2 X17.866 Y0.8755 I-0.0309 J0.0188
G3 X17.849 Y0.9009 I-0.453 J-0.2845
X17.8303 Y0.925 I-0.3106 J-0.2208
G2 X17.8159 Y0.965 I0.0474 J0.0397
G1 X17.8172 Y1.3737
G3 X17.7271 Y1.5098 I-0.1472 J0.0005
G2 X17.6369 Y1.646 I0.0571 J0.1357
G1 X17.6472 Y4.7338
X18.3947
X18.4027 Y0.9036
X18.3021 Y0.9034
X18.2966 Y0.9033
X18.2851 Y0.9028
X18.2764 Y0.9021
X18.2707 Y0.9015
X18.2649 Y0.9007
X18.2591 Y0.8998
X18.2534 Y0.8987
X18.2476 Y0.8976
X18.2418 Y0.8962
X18.2361 Y0.8948
X18.2284 Y0.8926
X18.2188 Y0.8896
X18.2131 Y0.8876
X18.2111 Y0.8869
X18.2072 Y0.8853
X18.2014 Y0.883
X18.1957 Y0.8805
X18.1899 Y0.8778
X18.1844 Y0.8751
X18.1792 Y0.8724
X18.174 Y0.8695
X18.1688 Y0.8665
X18.1657 Y0.8646
X18.1645 Y0.8638
X18.1611 Y0.8616
X18.1553 Y0.8578
X18.1495 Y0.8537
X18.1438 Y0.8494
X18.1393 Y0.8458
X18.136 Y0.8432
X18.1302 Y0.8381
X18.1219 Y0.8304
X18.116 Y0.8246
X18.1123 Y0.8208
X18.1084 Y0.8165
X18.1043 Y0.8117
X18.1003 Y0.807
X18.0966 Y0.8022
X18.094 Y0.7988
X18.0925 Y0.7968
X18.0897 Y0.7929
X18.0858 Y0.7871
X18.0821 Y0.7814
X18.0786 Y0.7756
X18.0755 Y0.7704
X18.073 Y0.7656
X18.07 Y0.7599
X18.0667 Y0.7531
X18.0639 Y0.7468
X18.0615 Y0.741
X18.0592 Y0.7353
X18.0571 Y0.7295
X18.0552 Y0.7237
X18.0534 Y0.718
X18.0517 Y0.7122
X18.0502 Y0.7065
X18.0493 Y0.7026
X18.0488 Y0.7007
X18.0476 Y0.695
X18.0459 Y0.6853
X18.0447 Y0.6776
X18.044 Y0.6719
X18.0434 Y0.6661
X18.043 Y0.6603
X18.0426 Y0.6525
X18.0425 Y0.641
X18.0424 Y0.6386
X18.0464 Y-1.2399
Y-1.2425
X18.0467 Y-1.2541
X18.0469 Y-1.2596
X18.0473 Y-1.2662
X17.744
X17.7444 Y-1.2594
X17.7447 Y-1.254
X17.7449 Y-1.2424
X17.745 Y-1.2401
X17.7512 Y0.6385
Y0.6413
X17.751 Y0.6528
X17.7506 Y0.6609
X17.7501 Y0.6667
X17.7495 Y0.6724
X17.7488 Y0.6782
X17.7479 Y0.684
X17.7469 Y0.6897
X17.7458 Y0.6955
X17.7445 Y0.7013
X17.7431 Y0.707
X17.7416 Y0.7128
X17.7399 Y0.7185
X17.7381 Y0.7243
X17.7353 Y0.7322
X17.7314 Y0.7421
X17.7291 Y0.7478
X17.7283 Y0.7494
X17.7266 Y0.7531
X17.7238 Y0.7589
X17.7209 Y0.7647
X17.7177 Y0.7704
X17.7137 Y0.7772
X17.7089 Y0.785
X17.705 Y0.7907
X17.7024 Y0.7945
X17.699 Y0.7991
X17.6948 Y0.8045
X17.6904 Y0.81
X17.6857 Y0.8154
X17.683 Y0.8184
X17.6824 Y0.8191
X17.6794 Y0.8222
X17.6739 Y0.8278
X17.6684 Y0.833
X17.663 Y0.838
X17.6596 Y0.8409
X17.6584 Y0.8419
X17.6553 Y0.8445
X17.6501 Y0.8486
X17.6449 Y0.8525
X17.6397 Y0.8562
X17.6343 Y0.8599
X17.6369 Y1.646
X17.6371 Y1.6488 Z0.1131
X17.6374 Y1.6516 Z0.1133
X17.6379 Y1.6543 Z0.1137
X17.6385 Y1.657 Z0.1142
X17.6393 Y1.6596 Z0.1149
X17.6402 Y1.6621 Z0.1158
X17.6412 Y1.6646 Z0.1168
X17.6423 Y1.6669 Z0.1179
X17.6435 Y1.6691 Z0.1192
X17.6447 Y1.6711 Z0.1206
X17.6461 Y1.673 Z0.1222
X17.6474 Y1.6748 Z0.1239
X17.6488 Y1.6765 Z0.1257
X17.6501 Y1.678 Z0.1276
X17.6515 Y1.6794 Z0.1297
X17.6528 Y1.6806 Z0.1318
X17.6541 Y1.6817 Z0.134
X17.6553 Y1.6827 Z0.1364
X17.6564 Y1.6836 Z0.1388
X17.6574 Y1.6844 Z0.1413
X17.6584 Y1.685 Z0.1438
X17.6592 Y1.6856 Z0.1465
X17.6599 Y1.686 Z0.1491
X17.6605 Y1.6864 Z0.1518
X17.661 Y1.6867 Z0.1546
X17.6613 Y1.6869 Z0.1574
X17.6615 Y1.687 Z0.1602
X17.6616 Z0.163
G0 Z0.763
X16.1794 Y1.9268
Z0.4582
G1 Z0.3363 F50.
Y1.9271 Z0.331
Y1.9279 Z0.3257
Y1.9293 Z0.3205
Y1.9313 Z0.3155
Y1.9338 Z0.3108
Y1.9368 Z0.3063
Y1.9402 Z0.3022
Y1.9441 Z0.2985
Y1.9483 Z0.2952
Y1.9529 Z0.2924
Y1.9577 Z0.2901
Y1.9628 Z0.2883
Y1.968 Z0.2871
Y1.9733 Z0.2864
X16.1769 Y4.3467 Z0.1205
G2 X16.2029 Y4.3728 Z0.1176 I0.026 J0.
G1 X16.2075 Z0.1173
G2 X16.2336 Y4.3467 Z0.1144 I0. J-0.026
G1 X16.2335 Y4.3278 Z0.1131
Y4.3243 Z0.113
X16.2229 Y1.1445 F100.
G2 X16.2158 Y1.1296 I-0.0193 J0.0001
G1 X16.2118 Y1.1263
G2 X16.1802 Y1.1411 I-0.0123 J0.0148
G1 X16.1769 Y4.3467
G2 X16.2029 Y4.3728 I0.026 J0.
G1 X16.2075
G2 X16.2336 Y4.3467 I0. J-0.026
G1 X16.2335 Y4.3243
G3 X16.323 Y4.189 I0.1462 J-0.0005
G2 X16.4126 Y4.0538 I-0.0567 J-0.1348
G1 X16.4029 Y1.1235
G2 X16.3397 Y0.998 I-0.1574 J0.0005
G3 X16.2306 Y0.8787 I0.2592 J-0.3467
G2 X16.1678 Y0.8789 I-0.0313 J0.0195
G3 X16.063 Y0.9944 I-0.3615 J-0.2229
G2 X16.0002 Y1.1211 I0.097 J0.1269
G1 X15.9967 Y4.4889
G2 X16.0605 Y4.5528 I0.0638 J0.0001
G1 X16.3504
G2 X16.414 Y4.489 I0. J-0.0636
G1 X16.4126 Y4.0538
G3 X16.5026 Y3.9177 I0.1471 J-0.0005
G2 X16.5927 Y3.7817 I-0.057 J-0.1356
G1 X16.5831 Y0.9049
X16.5828 Y0.9048
X16.5824
X16.5767 Y0.9042
X16.5709 Y0.9035
X16.5651 Y0.9027
X16.5594 Y0.9017
X16.5536 Y0.9006
X16.5478 Y0.8994
X16.5421 Y0.898
X16.5363 Y0.8965
X16.5305 Y0.8949
X16.5248 Y0.8931
X16.519 Y0.8911
X16.5132 Y0.889
X16.5075 Y0.8868
X16.5017 Y0.8843
X16.4959 Y0.8817
X16.4901 Y0.879
X16.4844 Y0.8761
X16.4786 Y0.8729
X16.4728 Y0.8696
X16.4678 Y0.8666
X16.4636 Y0.8639
X16.4578 Y0.86
X16.4505 Y0.8548
X16.4467 Y0.852
X16.443 Y0.849
X16.4354 Y0.8427
X16.4297 Y0.8377
X16.4258 Y0.834
X16.42 Y0.8283
X16.4126 Y0.8205
X16.4069 Y0.814
X16.4028 Y0.8091
X16.3983 Y0.8033
X16.3934 Y0.7967
X16.3893 Y0.7907
X16.3857 Y0.7853
X16.3824 Y0.7799
X16.3792 Y0.7746
X16.3775 Y0.7715
X16.3771 Y0.7707
X16.3753 Y0.7675
X16.3724 Y0.7617
X16.3696 Y0.7559
X16.367 Y0.7502
X16.3645 Y0.7444
X16.3623 Y0.7387
X16.3601 Y0.7329
X16.3582 Y0.7271
X16.3565 Y0.7221
X16.3553 Y0.7177
X16.3537 Y0.712
X16.3519 Y0.7048
X16.3505 Y0.6983
X16.3494 Y0.6926
X16.3484 Y0.6868
X16.3475 Y0.681
X16.3468 Y0.6753
X16.3462 Y0.6695
X16.3457 Y0.6637
X16.3454 Y0.658
X16.3452 Y0.6516
X16.3451 Y0.6401
Y0.6397
Y0.6394
X16.3389 Y-1.2392
Y-1.2432
X16.3392 Y-1.2547
X16.3395 Y-1.261
X16.3399 Y-1.2662
X16.055
X16.0555 Y-1.2604
X16.0557 Y-1.2544
X16.056 Y-1.2428
X16.0561 Y-1.2395
X16.0541 Y0.6391
G3 X16.054 Y0.6519 I-1.0054 J-0.0042
G1 X16.0537 Y0.659
X16.0533 Y0.6647
X16.0528 Y0.6705
X16.0522 Y0.6763
X16.0514 Y0.682
X16.0505 Y0.6878
X16.0495 Y0.6935
X16.0483 Y0.6993
X16.047 Y0.7051
X16.0456 Y0.7108
X16.044 Y0.7166
X16.0422 Y0.7224
X16.0399 Y0.7295
X16.0368 Y0.738
X16.0345 Y0.7437
X16.0333 Y0.7468
X16.0313 Y0.7512
X16.0287 Y0.7569
X16.0258 Y0.7627
X16.0228 Y0.7685
X16.019 Y0.7752
X16.0145 Y0.7827
X16.0108 Y0.7885
X16.0081 Y0.7924
X16.0047 Y0.7972
X16.0005 Y0.8028
X15.996 Y0.8086
X15.991 Y0.8145
X15.9858 Y0.8205
X15.9801 Y0.8264
X15.9743 Y0.8322
X15.9683 Y0.8377
X15.9625 Y0.8428
X15.9569 Y0.8475
X15.9513 Y0.8519
X15.9457 Y0.856
X15.9409 Y0.8594
X15.9367 Y0.8622
X15.931 Y0.8658
X15.9236 Y0.8702
X15.917 Y0.8739
X15.9112 Y0.8769
X15.9054 Y0.8798
X15.8997 Y0.8824
X15.895 Y0.8844
X15.8915 Y0.8859
X15.8858 Y0.8881
X15.8777 Y0.891
X15.8708 Y0.8932
X15.865 Y0.8949
X15.8593 Y0.8965
X15.8535 Y0.8979
X15.8477 Y0.8992
X15.842 Y0.9003
X15.8362 Y0.9014
X15.8304 Y0.9022
X15.8247 Y0.903
X15.8195 Y0.9035
X15.8155 Y4.7338
X16.5958
X16.5927 Y3.7817
X16.5925 Y3.7789 Z0.1131
X16.5922 Y3.7761 Z0.1133
X16.5917 Y3.7733 Z0.1137
X16.5911 Y3.7707 Z0.1142
X16.5903 Y3.7681 Z0.1149
X16.5894 Y3.7655 Z0.1158
X16.5884 Y3.7631 Z0.1168
X16.5873 Y3.7608 Z0.1179
X16.5861 Y3.7586 Z0.1192
X16.5849 Y3.7566 Z0.1206
X16.5836 Y3.7546 Z0.1222
X16.5822 Y3.7528 Z0.1239
X16.5809 Y3.7512 Z0.1257
X16.5795 Y3.7497 Z0.1276
X16.5781 Y3.7483 Z0.1297
X16.5768 Y3.7471 Z0.1318
X16.5756 Y3.7459 Z0.134
X16.5744 Y3.745 Z0.1364
X16.5732 Y3.7441 Z0.1388
X16.5722 Y3.7433 Z0.1413
X16.5713 Y3.7427 Z0.1438
X16.5704 Y3.7421 Z0.1465
X16.5697 Y3.7417 Z0.1491
X16.5691 Y3.7413 Z0.1518
X16.5686 Y3.741 Z0.1546
X16.5683 Y3.7408 Z0.1574
X16.5681 Y3.7407 Z0.1602
X16.568 Z0.163
G0 Z0.763
X14.4159 Y3.6426
Z0.4582
G1 Z0.3363 F50.
Y3.6423 Z0.331
Y3.6414 Z0.3257
Y3.64 Z0.3205
Y3.6381 Z0.3155
X14.416 Y3.6356 Z0.3108
Y3.6326 Z0.3063
Y3.6291 Z0.3022
Y3.6253 Z0.2985
Y3.6211 Z0.2952
Y3.6165 Z0.2924
Y3.6117 Z0.2901
Y3.6066 Z0.2883
Y3.6014 Z0.2871
Y3.5961 Z0.2864
X14.4185 Y1.225 Z0.1206
G2 X14.3638 Y1.1921 Z0.1153 I-0.0372 J0.
G3 X14.345 Y1.2019 Z0.1138 I-0.3346 J-0.6266
G1 X14.3421 Y1.2034 Z0.1136
X14.3394 Y1.2053 Z0.1133
X14.3369 Y1.2074 Z0.1131
X14.3356 Y1.2086 Z0.113
X14.3344 Y1.2099
G2 X14.3255 Y1.2332 I0.0261 J0.0234 F100.
G1 X14.3223 Y4.3166
G2 X14.3687 Y4.3631 I0.0465 J0.
X14.4152 Y4.3167 I0. J-0.0465
G1 X14.4185 Y1.225
G2 X14.3638 Y1.1921 I-0.0372 J0.
G3 X14.345 Y1.2019 I-0.3346 J-0.6266
G2 X14.3344 Y1.2099 I0.0156 J0.0314
G3 X14.2256 Y1.27 I-0.1404 J-0.1256
G2 X14.1453 Y1.3649 I0.0161 J0.095
G1 X14.1421 Y4.49
G2 X14.2046 Y4.5526 I0.0625 J0.0001
G1 X14.5324
G2 X14.5951 Y4.49 I0. J-0.0627
G1 X14.5987 Y1.0155
G2 X14.5698 Y0.9408 I-0.1106 J-0.0001
G3 X14.5126 Y0.862 I0.3227 J-0.2944
G2 X14.4541 I-0.0293 J0.0167
G3 X14.2069 Y1.0642 I-0.3861 J-0.2198
G2 X14.1456 Y1.1489 I0.028 J0.0848
G1 X14.1453 Y1.3649
G3 X14.0546 Y1.5007 I-0.1472 J-0.0002
G2 X13.9639 Y1.6365 I0.0565 J0.1359
G1 X13.9606 Y4.7338
X14.776
X14.78 Y0.8765
X14.779 Y0.876
X14.7732 Y0.873
X14.7675 Y0.8698
X14.7631 Y0.8673
X14.76 Y0.8654
X14.7542 Y0.8617
X14.7457 Y0.8559
X14.7417 Y0.8531
X14.7379 Y0.8501
X14.7306 Y0.8444
X14.7249 Y0.8395
X14.7206 Y0.8357
X14.7146 Y0.83
X14.707 Y0.8223
X14.7013 Y0.8161
X14.6973 Y0.8115
X14.6927 Y0.8058
X14.6873 Y0.7988
X14.6831 Y0.793
X14.6798 Y0.7882
X14.6767 Y0.7834
X14.6738 Y0.7787
X14.6717 Y0.7753
X14.6706 Y0.7733
X14.6684 Y0.7694
X14.6653 Y0.7636
X14.6624 Y0.7579
X14.6597 Y0.7521
X14.6571 Y0.7464
X14.6548 Y0.7406
X14.6525 Y0.7347
X14.6503 Y0.7286
X14.6484 Y0.7228
X14.6466 Y0.7172
X14.6451 Y0.7116
X14.6436 Y0.7059
X14.6423 Y0.7002
X14.6411 Y0.6945
X14.64 Y0.6887
X14.639 Y0.683
X14.6382 Y0.6772
X14.6376 Y0.6714
X14.637 Y0.6657
X14.6366 Y0.6599
X14.6363 Y0.6523
X14.6361 Y0.6407
Y0.6388
X14.638 Y-1.2398
X14.6381 Y-1.2426
X14.6383 Y-1.2541
X14.6386 Y-1.2599
X14.639 Y-1.2662
X14.331
X14.3314 Y-1.2604
X14.3317 Y-1.2544
X14.332 Y-1.2429
Y-1.2395
X14.3301 Y0.6391
G3 X14.3299 Y0.6519 I-1.1623 J-0.006
G1 X14.3297 Y0.659
X14.3293 Y0.6647
X14.3288 Y0.6705
X14.3281 Y0.6763
X14.3274 Y0.682
X14.3265 Y0.6878
X14.3254 Y0.6936
X14.3243 Y0.6993
X14.3232 Y0.7042
X14.3222 Y0.7081
X14.3207 Y0.7139
X14.3185 Y0.7215
X14.3163 Y0.7281
X14.3143 Y0.7339
X14.3121 Y0.7397
X14.3098 Y0.7454
X14.3062 Y0.7534
X14.3013 Y0.7636
X14.2983 Y0.7693
X14.2976 Y0.7707
X14.2955 Y0.7742
X14.2921 Y0.78
X14.2885 Y0.7858
X14.2847 Y0.7915
X14.281 Y0.7968
X14.2774 Y0.8016
X14.2729 Y0.8074
X14.2673 Y0.8141
X14.2615 Y0.8206
X14.2556 Y0.8269
X14.2497 Y0.8327
X14.2441 Y0.8379
X14.2383 Y0.843
X14.2324 Y0.8478
X14.2271 Y0.852
X14.2224 Y0.8555
X14.2177 Y0.8588
X14.213 Y0.862
X14.2095 Y0.8642
X14.2074 Y0.8655
X14.2035 Y0.8679
X14.1978 Y0.8713
X14.192 Y0.8744
X14.1862 Y0.8774
X14.1789 Y0.8809
X14.1701 Y0.8847
X14.1643 Y0.8871
X14.1616 Y0.8881
X14.1574 Y0.8897
X14.1516 Y0.8917
X14.1458 Y0.8935
X14.1401 Y0.8952
X14.1343 Y0.8967
X14.1285 Y0.8981
X14.1228 Y0.8994
X14.117 Y0.9005
X14.1112 Y0.9015
X14.1055 Y0.9024
X14.0997 Y0.9031
X14.0939 Y0.9037
X14.0853 Y0.9043
X14.0738 Y0.9047
X14.0689 Y0.9048
X13.9646 Y0.9047
X13.9639 Y1.6365
X13.964 Y1.6393 Z0.1131
X13.9643 Y1.6421 Z0.1133
X13.9648 Y1.6448 Z0.1137
X13.9654 Y1.6475 Z0.1142
X13.9662 Y1.6501 Z0.1149
X13.967 Y1.6526 Z0.1158
X13.968 Y1.655 Z0.1168
X13.9691 Y1.6573 Z0.1179
X13.9703 Y1.6595 Z0.1192
X13.9716 Y1.6616 Z0.1206
X13.9729 Y1.6635 Z0.1222
X13.9742 Y1.6653 Z0.1239
X13.9756 Y1.667 Z0.1257
X13.9769 Y1.6685 Z0.1276
X13.9783 Y1.6699 Z0.1297
X13.9796 Y1.6711 Z0.1318
X13.9808 Y1.6723 Z0.134
X13.982 Y1.6733 Z0.1364
X13.9831 Y1.6741 Z0.1388
X13.9842 Y1.6749 Z0.1413
X13.9851 Y1.6756 Z0.1438
X13.986 Y1.6761 Z0.1465
X13.9867 Y1.6766 Z0.1491
X13.9873 Y1.6769 Z0.1518
X13.9877 Y1.6772 Z0.1546
X13.9881 Y1.6774 Z0.1574
X13.9883 Y1.6775 Z0.1602
Y1.6776 Z0.163
G0 Z0.763
X12.9418 Y1.0834
Z0.4582
G1 Z0.3363 F50.
Y1.0832 Z0.331
Y1.0823 Z0.3257
Y1.0809 Z0.3205
Y1.0789 Z0.3155
Y1.0764 Z0.3108
Y1.0735 Z0.3063
Y1.07 Z0.3022
Y1.0662 Z0.2985
Y1.0619 Z0.2952
Y1.0574 Z0.2924
Y1.0525 Z0.2901
Y1.0475 Z0.2883
X12.9419 Y1.0422 Z0.2871
Y1.0369 Z0.2864
X12.9442 Y-1.2398 Z0.1272
X12.9443 Y-1.2426 Z0.127
X12.9445 Y-1.2541 Z0.1262
X12.9448 Y-1.2599 Z0.1258
X12.9452 Y-1.2662 Z0.1254
X12.7696 Z0.1131
X12.7661 Z0.113
X12.6263 F100.
X12.6267 Y-1.2586
X12.6269 Y-1.2537
G3 X12.6272 Y-1.2406 I-0.945 J0.0245
G1 X12.672 Y4.7338
X12.938
X12.9442 Y-1.2398
X12.9443 Y-1.2426
X12.9445 Y-1.2541
X12.9448 Y-1.2599
X12.9452 Y-1.2662
X12.7661
X12.7633 Y-1.2661 Z0.1131
X12.7606 Y-1.2658 Z0.1133
X12.7578 Y-1.2653 Z0.1137
X12.7551 Y-1.2647 Z0.1142
X12.7525 Y-1.2639 Z0.1149
X12.75 Y-1.263 Z0.1158
X12.7476 Y-1.262 Z0.1168
X12.7453 Y-1.2609 Z0.1179
X12.7431 Y-1.2598 Z0.1192
X12.741 Y-1.2585 Z0.1206
X12.7391 Y-1.2572 Z0.1222
X12.7373 Y-1.2558 Z0.1239
X12.7356 Y-1.2545 Z0.1257
X12.7341 Y-1.2531 Z0.1276
X12.7327 Y-1.2518 Z0.1297
X12.7315 Y-1.2505 Z0.1318
X12.7304 Y-1.2492 Z0.134
X12.7294 Y-1.248 Z0.1364
X12.7285 Y-1.2469 Z0.1388
X12.7277 Y-1.2459 Z0.1413
X12.7271 Y-1.2449 Z0.1438
X12.7265 Y-1.2441 Z0.1465
X12.7261 Y-1.2434 Z0.1491
X12.7257 Y-1.2428 Z0.1518
X12.7254 Y-1.2423 Z0.1546
X12.7252 Y-1.242 Z0.1574
X12.7251 Y-1.2418 Z0.1602
Y-1.2417 Z0.163
G0 Z0.763
X11.1181 Y2.0224
Z0.4582
G1 Z0.3363 F50.
Y2.0227 Z0.331
Y2.0235 Z0.3257
Y2.025 Z0.3205
Y2.0269 Z0.3155
Y2.0294 Z0.3108
X11.118 Y2.0324 Z0.3063
Y2.0358 Z0.3022
Y2.0397 Z0.2985
Y2.0439 Z0.2952
Y2.0485 Z0.2924
X11.1179 Y2.0533 Z0.2901
Y2.0584 Z0.2883
Y2.0636 Z0.2871
Y2.0689 Z0.2864
X11.1065 Y4.309 Z0.1298
G2 X11.17 Y4.3728 Z0.1228 I0.0635 J0.0003
G1 X11.1848 Z0.1218
G2 X11.248 Y4.309 Z0.1148 I0. J-0.0633
G1 X11.2479 Y4.285 Z0.1131
X11.2478 Y4.2815 Z0.113
X11.2249 Y1.232 F100.
G2 X11.2007 Y1.1913 I-0.0471 J0.0004
G3 X11.1764 Y1.1771 I0.3385 J-0.61
G2 X11.1222 Y1.2072 I-0.0186 J0.0303
G1 X11.1065 Y4.309
G2 X11.17 Y4.3728 I0.0635 J0.0003
G1 X11.1848
G2 X11.248 Y4.309 I0. J-0.0633
G1 X11.2478 Y4.2815
G3 X11.3368 Y4.1459 I0.1462 J-0.0011
G2 X11.4258 Y4.0102 I-0.0573 J-0.1346
G1 X11.4043 Y1.1507
G2 X11.3409 Y1.0585 I-0.0998 J0.0007
G3 X11.1107 Y0.8531 I0.162 J-0.4134
G2 X11.0526 I-0.029 J0.0153
G3 X11.0185 Y0.9078 I-0.3894 J-0.2053
X10.9765 Y0.9566 I-0.3303 J-0.2417
G2 X10.9431 Y1.0362 I0.0795 J0.0801
G1 X10.9256 Y4.489
G2 X10.9891 Y4.5528 I0.0635 J0.0003
G1 X11.3661
G2 X11.4294 Y4.489 I0. J-0.0633
G1 X11.4258 Y4.0102
G3 X11.5153 Y3.8738 I0.1471 J-0.0011
G2 X11.6048 Y3.7373 I-0.0576 J-0.1353
G1 X11.5835 Y0.907
X11.5092 Y0.9075
X11.5086
X11.508
X11.4965
X11.4897 Y0.9073
X11.484 Y0.907
X11.4782 Y0.9066
X11.4724 Y0.906
X11.4666 Y0.9053
X11.4608 Y0.9045
X11.455 Y0.9035
X11.4493 Y0.9024
X11.4435 Y0.9012
X11.4377 Y0.8998
X11.432 Y0.8983
X11.4262 Y0.8966
X11.4204 Y0.8948
X11.4146 Y0.8929
X11.4089 Y0.8908
X11.4031 Y0.8885
X11.3982 Y0.8865
X11.3942 Y0.8847
X11.3884 Y0.882
X11.3809 Y0.8782
X11.3743 Y0.8747
X11.3685 Y0.8714
X11.3627 Y0.8678
X11.357 Y0.8641
X11.3536 Y0.8619
X11.3525 Y0.8611
X11.3493 Y0.8589
X11.3441 Y0.855
X11.3388 Y0.8509
X11.3336 Y0.8467
X11.3291 Y0.8428
X11.3253 Y0.8394
X11.3195 Y0.8338
X11.3118 Y0.826
X11.3064 Y0.8201
X11.3032 Y0.8165
X11.2994 Y0.8119
X11.2949 Y0.8063
X11.2906 Y0.8006
X11.2864 Y0.7946
X11.2825 Y0.7887
X11.2789 Y0.783
X11.2755 Y0.7772
X11.2723 Y0.7714
X11.2684 Y0.7639
X11.2639 Y0.7546
X11.2614 Y0.7488
X11.2604 Y0.7466
X11.2588 Y0.7426
X11.2567 Y0.7369
X11.2546 Y0.7311
X11.2528 Y0.7253
X11.251 Y0.7196
X11.2494 Y0.7138
X11.248 Y0.708
X11.2467 Y0.7023
X11.2455 Y0.6965
X11.2445 Y0.6908
X11.2436 Y0.685
X11.2428 Y0.6792
X11.2421 Y0.6735
X11.2416 Y0.6677
X11.2413 Y0.6619
X11.241 Y0.6562
X11.2409 Y0.6514
X11.2268 Y-1.2271
Y-1.2277
X11.2267 Y-1.2392
X11.2268 Y-1.2437
X11.2271 Y-1.2552
X11.2275 Y-1.2617
X11.2279 Y-1.2662
X10.9314
X10.9318 Y-1.2614
X10.9322 Y-1.2548
X10.9325 Y-1.2433
Y-1.239
X10.9321 Y-1.1583
X10.923 Y0.6421
Y0.6427
X10.9229 Y0.6517
X10.9228 Y0.6572
X10.9225 Y0.663
X10.922 Y0.6688
X10.9215 Y0.6745
X10.9208 Y0.6803
X10.92 Y0.6861
X10.919 Y0.6918
X10.9179 Y0.6976
X10.9167 Y0.7033
X10.9153 Y0.7091
X10.9139 Y0.7149
X10.9122 Y0.7206
X10.9104 Y0.7264
X10.9085 Y0.7322
X10.9064 Y0.7379
X10.9042 Y0.7437
X10.9023 Y0.7483
X10.9008 Y0.7518
X10.8981 Y0.7576
X10.8941 Y0.7656
X10.8904 Y0.7725
X10.8871 Y0.7783
X10.8836 Y0.784
X10.88 Y0.7898
X10.8778 Y0.7931
X10.8772 Y0.7939
X10.875 Y0.797
X10.8711 Y0.8024
X10.867 Y0.8077
X10.8627 Y0.8131
X10.8588 Y0.8176
X10.8555 Y0.8213
X10.85 Y0.8271
X10.8421 Y0.8349
X10.8363 Y0.8404
X10.8326 Y0.8436
X10.8281 Y0.8474
X10.8226 Y0.8518
X10.8168 Y0.8561
X10.8108 Y0.8604
X10.8049 Y0.8644
X10.7991 Y0.8681
X10.7933 Y0.8715
X10.7875 Y0.8747
X10.7803 Y0.8785
X10.7714 Y0.8828
X10.7656 Y0.8854
X10.7629 Y0.8866
X10.7628
X10.7434 Y4.7338
X11.6122
X11.6048 Y3.7373
X11.6046 Y3.7345 Z0.1131
X11.6043 Y3.7318 Z0.1133
X11.6038 Y3.729 Z0.1137
X11.6031 Y3.7264 Z0.1142
X11.6024 Y3.7238 Z0.1149
X11.6015 Y3.7212 Z0.1158
X11.6004 Y3.7188 Z0.1168
X11.5993 Y3.7165 Z0.1179
X11.5981 Y3.7143 Z0.1192
X11.5968 Y3.7123 Z0.1206
X11.5955 Y3.7104 Z0.1222
X11.5942 Y3.7086 Z0.1239
X11.5928 Y3.7069 Z0.1257
X11.5914 Y3.7054 Z0.1276
X11.5901 Y3.7041 Z0.1297
X11.5888 Y3.7028 Z0.1318
X11.5875 Y3.7017 Z0.134
X11.5863 Y3.7007 Z0.1364
X11.5852 Y3.6998 Z0.1388
X11.5841 Y3.6991 Z0.1413
X11.5832 Y3.6984 Z0.1438
X11.5823 Y3.6979 Z0.1465
X11.5816 Y3.6974 Z0.1491
X11.581 Y3.6971 Z0.1518
X11.5805 Y3.6968 Z0.1546
X11.5802 Y3.6966 Z0.1574
X11.58 Y3.6965 Z0.1602
X11.5799 Y3.6964 Z0.163
G0 Z0.763
X9.332 Y3.7445
Z0.4582
G1 Z0.3363 F50.
Y3.7442 Z0.331
Y3.7433 Z0.3257
Y3.7419 Z0.3205
Y3.7399 Z0.3155
X9.3321 Y3.7375 Z0.3108
Y3.7345 Z0.3063
Y3.731 Z0.3022
Y3.7272 Z0.2985
Y3.7229 Z0.2952
Y3.7184 Z0.2924
X9.3322 Y3.7135 Z0.2901
Y3.7085 Z0.2883
Y3.7033 Z0.2871
X9.3323 Y3.698 Z0.2864
X9.3448 Y1.2192 Z0.1131
Y1.2157 Z0.113
G2 X9.2906 Y1.1842 I-0.0362 J-0.0002 F100.
G3 X9.274 Y1.1933 I-0.2453 J-0.4259
G2 X9.2489 Y1.2349 I0.0219 J0.0416
G1 X9.2435 Y4.3185
G2 X9.3291 Y4.3187 I0.0428 J0.0001
G1 X9.3448 Y1.2157
G3 X9.4392 Y1.1023 I0.1161 J0.0006
G2 X9.4808 Y0.9606 I-0.0155 J-0.0815
G3 X9.4163 Y0.8826 I0.2902 J-0.3058
G2 X9.3538 I-0.0312 J0.0202
G3 X9.2573 Y0.9899 I-0.382 J-0.2466
X9.1312 Y1.0603 I-0.2684 J-0.3327
G2 X9.0691 Y1.148 I0.0311 J0.0879
G1 X9.0632 Y4.49
G2 X9.1257 Y4.5526 I0.0625 J0.0001
G1 X9.4453
G2 X9.5083 Y4.4899 I0. J-0.063
G1 X9.5257 Y1.051
G2 X9.489 Y0.9682 I-0.1106 J-0.0006
G3 X9.4808 Y0.9606 I0.282 J-0.3134
X9.4641 Y0.7651 I0.1017 J-0.1072
G2 X9.5264 Y0.579 I-0.2514 J-0.1877
G1 X9.5357 Y-1.2403
Y-1.2423
X9.5359 Y-1.2539
X9.5361 Y-1.259
X9.5366 Y-1.2662
X9.2442
X9.2446 Y-1.2606
X9.2449 Y-1.2545
X9.2452 Y-1.2429
X9.2453 Y-1.2394
X9.242 Y0.6391
Y0.6397
Y0.6403
X9.2419 Y0.6518
X9.2416 Y0.6587
X9.2413 Y0.6644
X9.2408 Y0.6702
X9.2401 Y0.6759
X9.2394 Y0.6817
X9.2385 Y0.6873
X9.2375 Y0.6931
X9.2363 Y0.6989
X9.235 Y0.7048
X9.2336 Y0.7105
X9.232 Y0.7163
X9.2303 Y0.7221
X9.2285 Y0.7278
X9.2265 Y0.7336
X9.2243 Y0.7393
X9.222 Y0.7451
X9.2188 Y0.7522
X9.2148 Y0.7607
X9.2119 Y0.7664
X9.2103 Y0.7695
X9.2078 Y0.7739
X9.2044 Y0.7797
X9.2008 Y0.7855
X9.197 Y0.7912
X9.1938 Y0.796
X9.191 Y0.7997
X9.1866 Y0.8055
X9.1802 Y0.8133
X9.1744 Y0.8199
X9.1692 Y0.8255
X9.1635 Y0.8312
X9.1571 Y0.8372
X9.1513 Y0.8424
X9.1462 Y0.8467
X9.1411 Y0.8508
X9.1361 Y0.8545
X9.131 Y0.8581
X9.126 Y0.8615
X9.1228 Y0.8637
X9.1212 Y0.8647
X9.1176 Y0.8669
X9.1118 Y0.8703
X9.1061 Y0.8736
X9.1003 Y0.8766
X9.0929 Y0.8802
X9.0838 Y0.8843
X9.078 Y0.8868
X9.0755 Y0.8877
X9.0715 Y0.8892
X9.0657 Y0.8913
X9.0599 Y0.8931
X9.0541 Y0.8949
X9.0484 Y0.8965
X9.0426 Y0.8979
X9.0368 Y0.8992
X9.0311 Y0.9004
X9.0253 Y0.9015
X9.0195 Y0.9024
X9.0138 Y0.9032
X9.008 Y0.9038
X9.0022 Y0.9043
X8.9965 Y0.9047
X8.9907 Y0.905
X8.9849 Y0.9051
X8.9818
X8.8883 Y0.905
X8.8816 Y4.7338
X9.6882
X9.7077 Y0.89
X9.7043 Y0.8889
X9.7018 Y0.888
X9.6976 Y0.8866
X9.6919 Y0.8844
X9.6861 Y0.8821
X9.6803 Y0.8796
X9.6746 Y0.8769
X9.6688 Y0.8741
X9.663 Y0.8711
X9.6572 Y0.8679
X9.6515 Y0.8645
X9.6457 Y0.8609
X9.6399 Y0.8571
X9.6342 Y0.853
X9.6288 Y0.8491
X9.6238 Y0.8452
X9.618 Y0.8404
X9.6115 Y0.8347
X9.6053 Y0.8289
X9.5995 Y0.8231
X9.5937 Y0.8169
X9.588 Y0.8104
X9.5832 Y0.8046
X9.5793 Y0.7996
X9.5753 Y0.7942
X9.5713 Y0.7885
X9.5675 Y0.7827
X9.5639 Y0.777
X9.5605 Y0.7712
X9.5573 Y0.7654
X9.5542 Y0.7597
X9.5514 Y0.7539
X9.5488 Y0.7481
X9.5463 Y0.7424
X9.5439 Y0.7366
X9.5418 Y0.7308
X9.5403 Y0.7267
X9.5395 Y0.7243
X9.5377 Y0.7185
X9.5351 Y0.7095
X9.5331 Y0.702
X9.5319 Y0.6963
X9.5307 Y0.6905
X9.5297 Y0.6847
X9.5288 Y0.679
X9.528 Y0.6732
X9.5274 Y0.6674
X9.5269 Y0.6617
X9.5264 Y0.6533
X9.5262 Y0.6418
X9.5261 Y0.6383
X9.5264 Y0.579
X9.5263 Y0.5762 Z0.1131
X9.526 Y0.5735 Z0.1133
X9.5256 Y0.5707 Z0.1137
X9.525 Y0.568 Z0.1142
X9.5242 Y0.5654 Z0.1149
X9.5233 Y0.5629 Z0.1158
X9.5224 Y0.5605 Z0.1168
X9.5213 Y0.5582 Z0.1179
X9.5201 Y0.556 Z0.1192
X9.5189 Y0.5539 Z0.1206
X9.5176 Y0.5519 Z0.1222
X9.5162 Y0.5501 Z0.1239
X9.5149 Y0.5485 Z0.1257
X9.5135 Y0.547 Z0.1276
X9.5122 Y0.5456 Z0.1297
X9.5109 Y0.5443 Z0.1318
X9.5096 Y0.5432 Z0.134
X9.5084 Y0.5422 Z0.1364
X9.5073 Y0.5413 Z0.1388
X9.5063 Y0.5405 Z0.1413
X9.5053 Y0.5399 Z0.1438
X9.5045 Y0.5393 Z0.1465
X9.5038 Y0.5389 Z0.1491
X9.5032 Y0.5385 Z0.1518
X9.5027 Y0.5382 Z0.1546
X9.5024 Y0.538 Z0.1574
X9.5022 Y0.5379 Z0.1602
X9.5021 Y0.5378 Z0.163
G0 Z0.763
X7.8312 Y1.0815
Z0.4582
G1 Z0.3363 F50.
Y1.0812 Z0.331
Y1.0804 Z0.3257
Y1.079 Z0.3205
Y1.077 Z0.3155
Y1.0745 Z0.3108
Y1.0715 Z0.3063
Y1.0681 Z0.3022
Y1.0642 Z0.2985
Y1.06 Z0.2952
Y1.0554 Z0.2924
Y1.0506 Z0.2901
Y1.0456 Z0.2883
X7.8313 Y1.0403 Z0.2871
Y1.035 Z0.2864
X7.8352 Y-1.2399 Z0.1274
X7.8353 Y-1.2425 Z0.1272
X7.8355 Y-1.2541 Z0.1264
X7.8358 Y-1.2597 Z0.126
X7.8362 Y-1.2662 Z0.1255
X7.6587 Z0.1131
X7.6552 Z0.113
X7.5145 F100.
X7.5149 Y-1.2604
X7.5152 Y-1.2544
X7.5155 Y-1.2428
Y-1.2395
X7.5093 Y4.7338
X7.8248
X7.8352 Y-1.2399
X7.8353 Y-1.2425
X7.8355 Y-1.2541
X7.8358 Y-1.2597
X7.8362 Y-1.2662
X7.6552
X7.6524 Y-1.2661 Z0.1131
X7.6496 Y-1.2658 Z0.1133
X7.6469 Y-1.2653 Z0.1137
X7.6442 Y-1.2647 Z0.1142
X7.6416 Y-1.2639 Z0.1149
X7.6391 Y-1.263 Z0.1158
X7.6367 Y-1.262 Z0.1168
X7.6343 Y-1.2609 Z0.1179
X7.6322 Y-1.2598 Z0.1192
X7.6301 Y-1.2585 Z0.1206
X7.6282 Y-1.2572 Z0.1222
X7.6264 Y-1.2558 Z0.1239
X7.6247 Y-1.2545 Z0.1257
X7.6232 Y-1.2531 Z0.1276
X7.6218 Y-1.2518 Z0.1297
X7.6206 Y-1.2505 Z0.1318
X7.6194 Y-1.2492 Z0.134
X7.6184 Y-1.248 Z0.1364
X7.6176 Y-1.2469 Z0.1388
X7.6168 Y-1.2459 Z0.1413
X7.6161 Y-1.2449 Z0.1438
X7.6156 Y-1.2441 Z0.1465
X7.6151 Y-1.2434 Z0.1491
X7.6148 Y-1.2428 Z0.1518
X7.6145 Y-1.2423 Z0.1546
X7.6143 Y-1.242 Z0.1574
X7.6142 Y-1.2418 Z0.1602
X7.6141 Y-1.2417 Z0.163
G0 Z0.763
X6.0608 Y1.9434
Z0.4582
G1 Z0.3363 F50.
Y1.9437 Z0.331
Y1.9445 Z0.3257
Y1.946 Z0.3205
Y1.9479 Z0.3155
Y1.9504 Z0.3108
Y1.9534 Z0.3063
Y1.9568 Z0.3022
X6.0607 Y1.9607 Z0.2985
Y1.9649 Z0.2952
Y1.9695 Z0.2924
Y1.9743 Z0.2901
Y1.9794 Z0.2883
X6.0606 Y1.9846 Z0.2871
Y1.9899 Z0.2864
X6.0504 Y4.3376 Z0.1223
G2 X6.0854 Y4.3728 Z0.1184 I0.035 J0.0002
G1 X6.0883 Z0.1182
G2 X6.1234 Y4.3378 Z0.1144 I0. J-0.035
G1 Y4.3198 Z0.1131
Y4.3163 Z0.113
X6.1266 Y1.222 F100.
G2 X6.1124 Y1.1987 I-0.026 J0.
G1 X6.1072 Y1.1961
X6.102 Y1.1934
G2 X6.064 Y1.2164 I-0.012 J0.0231
G1 X6.0504 Y4.3376
G2 X6.0854 Y4.3728 I0.035 J0.0002
G1 X6.0883
G2 X6.1234 Y4.3378 I0. J-0.035
G1 Y4.3163
G3 X6.2135 Y4.1814 I0.1462 J0.0002
G2 X6.3037 Y4.0465 I-0.0561 J-0.1351
G1 X6.3067 Y1.1483
G2 X6.2436 Y1.0594 I-0.0941 J-0.0001
G3 X6.0217 Y0.8845 I0.1423 J-0.4088
G2 X5.9578 Y0.8846 I-0.0319 J0.0207
G3 X5.9345 Y0.9176 I-0.3915 J-0.2518
X5.9082 Y0.9482 I-0.311 J-0.2405
G2 X5.8849 Y1.006 I0.0611 J0.0582
G1 X5.8697 Y4.489
G2 X5.9332 Y4.5528 I0.0635 J0.0003
G1 X6.2393
G2 X6.3032 Y4.4889 I0. J-0.064
G1 X6.3037 Y4.0465
G3 X6.3943 Y3.9109 I0.1471 J0.0002
G2 X6.485 Y3.7752 I-0.0564 J-0.1358
G1 X6.488 Y0.904
X6.398 Y0.9039
X6.3976
X6.3971
X6.3856 Y0.9038
X6.3791 Y0.9036
X6.3733 Y0.9032
X6.3675 Y0.9028
X6.3617 Y0.9022
X6.356 Y0.9015
X6.3502 Y0.9006
X6.3444 Y0.8996
X6.3387 Y0.8985
X6.3329 Y0.8972
X6.3271 Y0.8958
X6.3214 Y0.8943
X6.3156 Y0.8926
X6.3096 Y0.8907
X6.3035 Y0.8886
X6.2977 Y0.8865
X6.2923 Y0.8843
X6.2868 Y0.8819
X6.281 Y0.8793
X6.2752 Y0.8765
X6.2695 Y0.8736
X6.2633 Y0.8702
X6.2568 Y0.8664
X6.2511 Y0.8628
X6.246 Y0.8595
X6.2408 Y0.8559
X6.2355 Y0.852
X6.2302 Y0.8479
X6.2248 Y0.8436
X6.2218 Y0.841
X6.2209 Y0.8403
X6.2177 Y0.8374
X6.2122 Y0.8323
X6.2067 Y0.8269
X6.2012 Y0.8212
X6.1982 Y0.818
X6.1977 Y0.8174
X6.195 Y0.8144
X6.1904 Y0.809
X6.1861 Y0.8035
X6.1819 Y0.7981
X6.1785 Y0.7933
X6.1757 Y0.7892
X6.172 Y0.7835
X6.1674 Y0.776
X6.1636 Y0.7694
X6.1605 Y0.7636
X6.1576 Y0.7579
X6.1549 Y0.7521
X6.153 Y0.7478
X6.1518 Y0.7451
X6.1495 Y0.7394
X6.1462 Y0.7306
X6.1437 Y0.7233
X6.1419 Y0.7175
X6.1403 Y0.7118
X6.1388 Y0.706
X6.1375 Y0.7002
X6.1363 Y0.6945
X6.1352 Y0.6887
X6.1343 Y0.6829
X6.1334 Y0.6772
X6.1328 Y0.6714
X6.1322 Y0.6656
X6.1318 Y0.6599
X6.1315 Y0.6523
X6.1313 Y0.6407
Y0.6388
X6.1333 Y-1.2398
Y-1.2426
X6.1336 Y-1.2541
X6.1338 Y-1.2599
X6.1342 Y-1.2662
X5.8539
X5.8543 Y-1.2612
X5.8546 Y-1.2548
X5.8549 Y-1.2433
X5.855 Y-1.2391
X5.8468 Y0.6395
Y0.64
X5.8467 Y0.6516
X5.8465 Y0.6575
X5.8462 Y0.6633
X5.8458 Y0.669
X5.8452 Y0.6748
X5.8445 Y0.6805
X5.8436 Y0.6863
X5.8427 Y0.6921
X5.8416 Y0.6978
X5.8404 Y0.7036
X5.839 Y0.7094
X5.8375 Y0.7151
X5.8358 Y0.7209
X5.834 Y0.7266
X5.8321 Y0.7324
X5.83 Y0.7382
X5.8277 Y0.7439
X5.8262 Y0.7475
X5.8256 Y0.749
X5.823 Y0.7548
X5.8181 Y0.7649
X5.814 Y0.7726
X5.8109 Y0.7781
X5.8073 Y0.7839
X5.8035 Y0.7899
X5.7994 Y0.7958
X5.7953 Y0.8016
X5.7908 Y0.8073
X5.7862 Y0.8131
X5.7826 Y0.8173
X5.7803 Y0.8199
X5.777 Y0.8235
X5.7725 Y0.8282
X5.768 Y0.8327
X5.7635 Y0.8369
X5.76 Y0.8402
X5.7574 Y0.8424
X5.7533 Y0.846
X5.7475 Y0.8506
X5.7414 Y0.8553
X5.735 Y0.8598
X5.7291 Y0.8638
X5.7236 Y0.8673
X5.7182 Y0.8706
X5.7127 Y0.8737
X5.7049 Y0.8778
X5.7045 Y0.878
X5.6876 Y4.7338
X6.484
X6.485 Y3.7752
X6.4848 Y3.7724 Z0.1131
X6.4845 Y3.7696 Z0.1133
X6.484 Y3.7669 Z0.1137
X6.4834 Y3.7642 Z0.1142
X6.4827 Y3.7616 Z0.1149
X6.4818 Y3.7591 Z0.1158
X6.4808 Y3.7567 Z0.1168
X6.4797 Y3.7543 Z0.1179
X6.4785 Y3.7521 Z0.1192
X6.4773 Y3.7501 Z0.1206
X6.476 Y3.7481 Z0.1222
X6.4746 Y3.7464 Z0.1239
X6.4733 Y3.7447 Z0.1257
X6.4719 Y3.7432 Z0.1276
X6.4706 Y3.7418 Z0.1297
X6.4693 Y3.7405 Z0.1318
X6.468 Y3.7394 Z0.134
X6.4668 Y3.7384 Z0.1364
X6.4657 Y3.7375 Z0.1388
X6.4646 Y3.7368 Z0.1413
X6.4637 Y3.7361 Z0.1438
X6.4629 Y3.7356 Z0.1465
X6.4621 Y3.7351 Z0.1491
X6.4616 Y3.7347 Z0.1518
X6.4611 Y3.7345 Z0.1546
X6.4607 Y3.7343 Z0.1574
X6.4605 Y3.7341 Z0.1602
Z0.163
G0 Z0.763
X4.2918 Y3.7076
Z0.4582
G1 Z0.3363 F50.
Y3.7073 Z0.331
Y3.7064 Z0.3257
Y3.705 Z0.3205
Y3.703 Z0.3155
Y3.7005 Z0.3108
Y3.6976 Z0.3063
Y3.6941 Z0.3022
X4.2919 Y3.6903 Z0.2985
Y3.686 Z0.2952
Y3.6815 Z0.2924
Y3.6766 Z0.2901
Y3.6716 Z0.2883
X4.292 Y3.6664 Z0.2871
Y3.661 Z0.2864
X4.3028 Y1.1823 Z0.1131
Y1.1788 Z0.113
Y1.1741 F100.
G2 X4.2505 Y1.1472 I-0.033 J-0.0001
G3 X4.2388 Y1.1555 I-1.1673 J-1.6182
X4.2269 Y1.1637 I-0.2551 J-0.359
G2 X4.2113 Y1.1928 I0.0194 J0.0292
G1 X4.2014 Y4.3179
G2 X4.2891 Y4.3182 I0.0438 J0.0001
G1 X4.3028 Y1.1788
G3 X4.3605 Y1.0719 I0.129 J0.0006
G2 X4.3732 Y0.9511 I-0.0436 J-0.0656
G3 X4.3184 Y0.8829 I0.3169 J-0.3104
G2 X4.256 I-0.0312 J0.0202
G3 X4.1959 Y0.958 I-0.4045 J-0.2617
X4.1213 Y1.0188 I-0.3052 J-0.2985
X4.1077 Y1.0265 I-0.0832 J-0.1296
G2 X4.0938 Y1.0338 I0.3116 J0.615
X4.0314 Y1.1377 I0.0558 J0.1043
G1 X4.0209 Y4.4901
G2 X4.0832 Y4.5526 I0.0624 J0.0002
G1 X4.4055
G2 X4.4684 Y4.4899 I0. J-0.0629
G1 X4.4831 Y1.117
G2 X4.4225 Y0.9945 I-0.1527 J-0.0007
G3 X4.3732 Y0.9511 I0.2676 J-0.3538
X4.3635 Y0.7562 I0.1051 J-0.1029
G2 X4.4286 Y0.5722 I-0.2312 J-0.1853
G1 X4.4365 Y-1.2402
Y-1.2424
X4.4368 Y-1.2539
X4.437 Y-1.2591
X4.4374 Y-1.2662
X4.1488
X4.1492 Y-1.261
X4.1495 Y-1.2547
X4.1498 Y-1.2432
X4.1499 Y-1.2392
X4.144 Y0.6393
Y0.6397
Y0.6401
X4.1439 Y0.6517
X4.1437 Y0.658
X4.1433 Y0.6638
X4.1429 Y0.6696
X4.1423 Y0.6753
X4.1415 Y0.6811
X4.1407 Y0.6868
X4.1397 Y0.6926
X4.1386 Y0.6984
X4.1377 Y0.7025
X4.1371 Y0.7051
X4.1356 Y0.7109
X4.1331 Y0.7198
X4.1309 Y0.7272
X4.1289 Y0.733
X4.1267 Y0.7387
X4.1245 Y0.7445
X4.121 Y0.7524
X4.1162 Y0.7625
X4.1133 Y0.7682
X4.1125 Y0.7697
X4.1105 Y0.7733
X4.1071 Y0.7791
X4.1036 Y0.7848
X4.0998 Y0.7906
X4.0961 Y0.796
X4.0925 Y0.801
X4.088 Y0.8068
X4.0827 Y0.8133
X4.077 Y0.8199
X4.0707 Y0.8265
X4.065 Y0.8323
X4.0599 Y0.8372
X4.0541 Y0.8423
X4.0477 Y0.8476
X4.0441 Y0.8506
X4.0403 Y0.8534
X4.0317 Y0.8596
X4.0259 Y0.8636
X4.0229 Y0.8655
X4.0186 Y0.8682
X4.0128 Y0.8715
X4.007 Y0.8747
X4.0013 Y0.8778
X3.9948 Y0.8809
X3.9878 Y0.8841
X3.982 Y0.8865
X3.9775 Y0.8883
X3.9724 Y0.8902
X3.9667 Y0.8922
X3.9609 Y0.8941
X3.9551 Y0.8958
X3.9493 Y0.8974
X3.9436 Y0.8988
X3.9378 Y0.9001
X3.932 Y0.9012
X3.9263 Y0.9023
X3.9205 Y0.9031
X3.9147 Y0.9039
X3.909 Y0.9045
X3.9032 Y0.905
X3.8974 Y0.9054
X3.8917 Y0.9056
X3.8859 Y0.9057
X3.8831
X3.851 Y0.9056
X3.8389 Y4.7338
X4.6485
X4.6652 Y0.9013
X4.6619 Y0.901
X4.6561 Y0.9004
X4.6504 Y0.8996
X4.6446 Y0.8987
X4.6388 Y0.8976
X4.6331 Y0.8964
X4.6273 Y0.8951
X4.6198 Y0.8931
X4.6106 Y0.8905
X4.6049 Y0.8886
X4.6025 Y0.8878
X4.5984 Y0.8863
X4.5927 Y0.8841
X4.5869 Y0.8818
X4.5811 Y0.8792
X4.5754 Y0.8766
X4.5698 Y0.8738
X4.564 Y0.8707
X4.5581 Y0.8674
X4.5523 Y0.8639
X4.5465 Y0.8603
X4.5408 Y0.8564
X4.535 Y0.8523
X4.5298 Y0.8485
X4.5251 Y0.8448
X4.5193 Y0.8399
X4.5124 Y0.8338
X4.5063 Y0.8281
X4.5009 Y0.8226
X4.4952 Y0.8164
X4.489 Y0.8093
X4.4842 Y0.8035
X4.4808 Y0.7991
X4.4771 Y0.794
X4.4731 Y0.7882
X4.4693 Y0.7824
X4.4657 Y0.7767
X4.4637 Y0.7733
X4.4632 Y0.7725
X4.4614 Y0.7694
X4.4585 Y0.7641
X4.4558 Y0.7587
X4.4532 Y0.7534
X4.4507 Y0.7479
X4.4482 Y0.7421
X4.4459 Y0.7363
X4.4437 Y0.7306
X4.4419 Y0.7255
X4.4405 Y0.7212
X4.4388 Y0.7155
X4.4368 Y0.7083
X4.4352 Y0.7018
X4.4339 Y0.696
X4.4327 Y0.6902
X4.4317 Y0.6845
X4.4308 Y0.6787
X4.4301 Y0.6729
X4.4295 Y0.6672
X4.429 Y0.6614
X4.4285 Y0.6531
X4.4283 Y0.6416
Y0.6384
X4.4286 Y0.5722
X4.4284 Y0.5694 Z0.1131
X4.4281 Y0.5666 Z0.1133
X4.4277 Y0.5638 Z0.1137
X4.4271 Y0.5612 Z0.1142
X4.4263 Y0.5585 Z0.1149
X4.4255 Y0.556 Z0.1158
X4.4245 Y0.5536 Z0.1168
X4.4234 Y0.5513 Z0.1179
X4.4222 Y0.5491 Z0.1192
X4.421 Y0.547 Z0.1206
X4.4197 Y0.5451 Z0.1222
X4.4183 Y0.5433 Z0.1239
X4.417 Y0.5416 Z0.1257
X4.4156 Y0.5401 Z0.1276
X4.4143 Y0.5387 Z0.1297
X4.413 Y0.5374 Z0.1318
X4.4117 Y0.5363 Z0.134
X4.4105 Y0.5353 Z0.1364
X4.4094 Y0.5344 Z0.1388
X4.4084 Y0.5337 Z0.1413
X4.4074 Y0.533 Z0.1438
X4.4066 Y0.5324 Z0.1465
X4.4059 Y0.532 Z0.1491
X4.4053 Y0.5316 Z0.1518
X4.4048 Y0.5313 Z0.1546
X4.4045 Y0.5311 Z0.1574
X4.4043 Y0.531 Z0.1602
X4.4042 Z0.163
G0 Z0.763
X2.4751 Y3.7538
Z0.4582
G1 Z0.3363 F50.
Y3.7535 Z0.331
Y3.7526 Z0.3257
Y3.7512 Z0.3205
Y3.7493 Z0.3155
X2.4752 Y3.7468 Z0.3108
Y3.7438 Z0.3063
Y3.7403 Z0.3022
Y3.7365 Z0.2985
Y3.7323 Z0.2952
Y3.7277 Z0.2924
Y3.7229 Z0.2901
Y3.7178 Z0.2883
X2.4753 Y3.7126 Z0.2871
Y3.7073 Z0.2864
X2.483 Y1.2391 Z0.1138
G2 X2.4809 Y1.2288 Z0.1131 I-0.026 J-0.0001
G1 X2.4802 Y1.2272 Z0.113
X2.4793 Y1.2257
G2 X2.4465 Y1.2152 I-0.0223 J0.0134 F100.
G1 X2.4392 Y1.2184
G2 X2.4233 Y1.2423 I0.0101 J0.024
G1 X2.4152 Y4.3266
G2 X2.4733 Y4.3267 I0.0291 J0.0001
G1 X2.483 Y1.2391
G2 X2.4793 Y1.2257 I-0.026 J-0.0001
G3 X2.4686 Y1.1171 I0.1097 J-0.0657
G2 X2.3877 Y1.0439 I-0.0556 J-0.0198
G3 X2.3045 Y1.0739 I-0.1942 J-0.4091
G2 X2.2435 Y1.152 I0.0198 J0.0783
G1 X2.2347 Y4.49
G2 X2.2971 Y4.5526 I0.0624 J0.0002
G1 X2.59
G2 X2.6528 Y4.49 I0. J-0.0628
G1 X2.6639 Y0.9665
G2 X2.6493 Y0.9263 I-0.0618 J-0.0002
G3 X2.6376 Y0.9118 I0.2785 J-0.236
X2.6266 Y0.8968 I0.3953 J-0.3017
G2 X2.5615 Y0.897 I-0.0325 J0.0229
G3 X2.449 Y1.0087 I-0.3592 J-0.2493
X2.3877 Y1.0439 I-0.2555 J-0.3738
X2.2292 Y0.983 I-0.0503 J-0.1059
G2 X2.0627 Y1.0161 I-0.0799 J0.0332
G1 X2.0529 Y4.7338
X2.8333
X2.8454 Y0.8607
X2.8445 Y0.8601
X2.839 Y0.8564
X2.8338 Y0.8527
X2.8285 Y0.8487
X2.8232 Y0.8445
X2.8201 Y0.842
X2.8191 Y0.8411
X2.8158 Y0.8383
X2.8102 Y0.8332
X2.8045 Y0.8277
X2.7985 Y0.8216
X2.7931 Y0.8157
X2.7883 Y0.8102
X2.7838 Y0.8046
X2.7795 Y0.7991
X2.7762 Y0.7945
X2.7737 Y0.7911
X2.7699 Y0.7853
X2.7648 Y0.7773
X2.7608 Y0.7704
X2.7576 Y0.7646
X2.7546 Y0.7588
X2.7519 Y0.7531
X2.7502 Y0.7496
X2.7497 Y0.7483
X2.7473 Y0.7426
X2.7433 Y0.7323
X2.7404 Y0.7242
X2.7386 Y0.7185
X2.7369 Y0.7127
X2.7354 Y0.707
X2.734 Y0.7012
X2.7327 Y0.6954
X2.7316 Y0.6897
X2.7306 Y0.6839
X2.7298 Y0.6781
X2.7291 Y0.6724
X2.7285 Y0.6666
X2.728 Y0.6609
X2.7276 Y0.6528
X2.7274 Y0.6412
Y0.6385
X2.7333 Y-1.24
Y-1.2425
X2.7336 Y-1.254
X2.7338 Y-1.2594
X2.7342 Y-1.2662
X2.4629
X2.4633 Y-1.2608
X2.4636 Y-1.2546
X2.4639 Y-1.243
Y-1.2393
X2.459 Y0.6393
Y0.6397
Y0.6402
X2.4589 Y0.6517
X2.4587 Y0.6583
X2.4583 Y0.664
X2.4579 Y0.6698
X2.4573 Y0.6756
X2.4562 Y0.6836
X2.4544 Y0.6938
X2.4533 Y0.6996
X2.4531 Y0.7009
X2.4522 Y0.7044
X2.4508 Y0.7102
X2.4493 Y0.7159
X2.4476 Y0.7217
X2.4457 Y0.7274
X2.4438 Y0.7332
X2.4416 Y0.739
X2.4393 Y0.7447
X2.4363 Y0.7518
X2.4324 Y0.76
X2.4295 Y0.7657
X2.4278 Y0.769
X2.4253 Y0.7736
X2.4219 Y0.7793
X2.4183 Y0.7851
X2.4146 Y0.7908
X2.4113 Y0.7956
X2.4087 Y0.7992
X2.4042 Y0.8051
X2.3979 Y0.8129
X2.3921 Y0.8196
X2.3869 Y0.8252
X2.3812 Y0.831
X2.3749 Y0.8369
X2.3692 Y0.8421
X2.3639 Y0.8465
X2.3588 Y0.8506
X2.3539 Y0.8543
X2.349 Y0.8578
X2.3441 Y0.8612
X2.3408 Y0.8634
X2.339 Y0.8646
X2.3353 Y0.8669
X2.3295 Y0.8704
X2.3237 Y0.8736
X2.318 Y0.8767
X2.3108 Y0.8802
X2.3023 Y0.884
X2.2965 Y0.8865
X2.2935 Y0.8877
X2.2891 Y0.8894
X2.2833 Y0.8914
X2.2776 Y0.8933
X2.2718 Y0.8951
X2.266 Y0.8967
X2.2603 Y0.8982
X2.2545 Y0.8995
X2.2487 Y0.9007
X2.243 Y0.9017
X2.2372 Y0.9027
X2.2314 Y0.9034
X2.2257 Y0.9041
X2.2199 Y0.9046
X2.2141 Y0.905
X2.2083 Y0.9053
X2.2026 Y0.9054
X2.199 Y0.9055
X2.063 Y0.9051
X2.0627 Y1.0161
X2.0628 Y1.0189 Z0.1131
X2.0631 Y1.0216 Z0.1133
X2.0636 Y1.0244 Z0.1137
X2.0642 Y1.0271 Z0.1142
X2.0649 Y1.0297 Z0.1149
X2.0658 Y1.0322 Z0.1158
X2.0668 Y1.0346 Z0.1168
X2.0679 Y1.0369 Z0.1179
X2.0691 Y1.0391 Z0.1192
X2.0703 Y1.0412 Z0.1206
X2.0716 Y1.0431 Z0.1222
X2.073 Y1.0449 Z0.1239
X2.0743 Y1.0466 Z0.1257
X2.0757 Y1.0481 Z0.1276
X2.077 Y1.0495 Z0.1297
X2.0783 Y1.0508 Z0.1318
X2.0796 Y1.0519 Z0.134
X2.0808 Y1.0529 Z0.1364
X2.0819 Y1.0538 Z0.1388
X2.0829 Y1.0545 Z0.1413
X2.0839 Y1.0552 Z0.1438
X2.0847 Y1.0557 Z0.1465
X2.0854 Y1.0562 Z0.1491
X2.086 Y1.0566 Z0.1518
X2.0865 Y1.0568 Z0.1546
X2.0868 Y1.057 Z0.1574
X2.087 Y1.0572 Z0.1602
X2.0871 Z0.163
G0 Z0.763
X0.3473 Y4.3728
Z0.163
G1 X0.3476 Z0.1574 F100.
X0.3486 Z0.1518
X0.3501 Z0.1465
X0.3522 Z0.1413
X0.355 Z0.1364
X0.3582 Z0.1318
X0.3619 Z0.1276
X0.3661 Z0.1239
X0.3707 Z0.1206
X0.3756 Z0.1179
X0.3808 Z0.1158
X0.3862 Z0.1142
X0.3917 Z0.1133
X0.3973 Z0.113
X0.5458
X0.6225
G2 X0.6866 Y4.3089 I0. J-0.0641
G1 X0.7 Y-0.8414
G2 X0.6364 Y-0.9052 I-0.0637 J-0.0002
G1 X0.5459
X0.3492
X0.3436 Z0.1133
X0.3381 Z0.1142
X0.3327 Z0.1158
X0.3275 Z0.1179
X0.3226 Z0.1206
X0.3181 Z0.1239
X0.3139 Z0.1276
X0.3101 Z0.1318
X0.3069 Z0.1364
X0.3042 Z0.1413
X0.302 Z0.1465
X0.3005 Z0.1518
X0.2996 Z0.1574
X0.2992 Z0.163
G0 Z0.763
X0.3473 Y4.5528
Z0.163
G1 X0.3476 Z0.1574 F100.
X0.3486 Z0.1518
X0.3501 Z0.1465
X0.3522 Z0.1413
X0.355 Z0.1364
X0.3582 Z0.1318
X0.3619 Z0.1276
X0.3661 Z0.1239
X0.3707 Z0.1206
X0.3756 Z0.1179
X0.3808 Z0.1158
X0.3862 Z0.1142
X0.3917 Z0.1133
X0.3973 Z0.113
X0.5459
X0.802
G2 X0.8661 Y4.4889 I0. J-0.0641
G1 X0.8805 Y-1.0214
G2 X0.8169 Y-1.0852 I-0.0637 J-0.0002
G1 X0.5459
X0.3492
X0.3436 Z0.1133
X0.3381 Z0.1142
X0.3327 Z0.1158
X0.3275 Z0.1179
X0.3226 Z0.1206
X0.3181 Z0.1239
X0.3139 Z0.1276
X0.3101 Z0.1318
X0.3069 Z0.1364
X0.3042 Z0.1413
X0.302 Z0.1465
X0.3005 Z0.1518
X0.2996 Z0.1574
X0.2992 Z0.163
G0 Z0.763
X0.3473 Y4.703
Z0.158
G1 X0.3476 Z0.1529 F100.
X0.3484 Y4.7031 Z0.148
X0.3498 Y4.7033 Z0.1431
X0.3517 Y4.7037 Z0.1385
X0.3541 Y4.704 Z0.134
X0.357 Y4.7045 Z0.1299
X0.3603 Y4.705 Z0.1262
X0.364 Y4.7056 Z0.1228
X0.3681 Y4.7062 Z0.1199
X0.3725 Y4.7069 Z0.1174
X0.3771 Y4.7077 Z0.1155
X0.3819 Y4.7084 Z0.1141
X0.3868 Y4.7092 Z0.1133
X0.3917 Y4.71 Z0.113
X0.538 Y4.7332
X0.5419 Y4.7336
X0.5459 Y4.7338
X1.0465
X1.0621 Y-1.24
Y-1.2425
X1.0624 Y-1.254
X1.0626 Y-1.2595
X1.063 Y-1.2662
X0.5458
X0.5419 Y-1.2661
X0.538 Y-1.2656
X0.3438 Y-1.2348
X0.3383 Y-1.234 Z0.1133
X0.3328 Y-1.2331 Z0.1142
X0.3275 Y-1.2323 Z0.1158
X0.3224 Y-1.2315 Z0.1179
X0.3176 Y-1.2307 Z0.1206
X0.313 Y-1.23 Z0.1239
X0.3089 Y-1.2293 Z0.1276
X0.3052 Y-1.2287 Z0.1318
X0.302 Y-1.2282 Z0.1364
X0.2993 Y-1.2278 Z0.1413
X0.2972 Y-1.2275 Z0.1465
X0.2957 Y-1.2272 Z0.1518
X0.2948 Y-1.2271 Z0.1574
X0.2944 Y-1.227 Z0.163
G0 Z1.163
M5
G53 G0 Z0.

(POCKET2 4)
M1
T16 M6
S24000 M3
G17 G90 G94
G55
G0 X0.481 Y4.8901
G43 Z1.163 H16
G0 Z0.1342
G1 X0.4813 Z0.1309 F100.
X0.482 Y4.8903 Z0.1277
X0.4833 Y4.8905 Z0.1246
X0.485 Y4.8907 Z0.1217
X0.4872 Y4.8911 Z0.1192
X0.4897 Y4.8915 Z0.117
X0.4925 Y4.8919 Z0.1153
X0.4955 Y4.8924 Z0.114
X0.4987 Y4.8929 Z0.1132
X0.502 Y4.8934 Z0.113
X0.6918 Y4.9235
X0.6955 Y4.9238
X1.1878
X1.204 Y-1.2374
Y-1.2377
Y-1.238
X1.2041 Y-1.2457
Y-1.2476
X1.2045 Y-1.2553
X1.2047 Y-1.2583
X1.2054 Y-1.2661
X1.2058 Y-1.269
X1.2069 Y-1.2768
X1.2073 Y-1.2793
X1.2088 Y-1.287
X1.2091 Y-1.2886
X1.2099 Y-1.2925
X1.2104 Y-1.2944
X1.2113 Y-1.2983
X1.2118 Y-1.3
X1.214 Y-1.3078
X1.215 Y-1.3108
X1.2177 Y-1.3186
X1.2185 Y-1.3208
X1.2204 Y-1.3257
X1.2209 Y-1.327
X1.2221 Y-1.3299
X1.2229 Y-1.3317
X1.2265 Y-1.3394
X1.2274 Y-1.3415
X1.2305 Y-1.3475
X1.2318 Y-1.3499
G3 X1.2378 Y-1.3603 I0.3777 J0.2126
G1 X1.2392 Y-1.3626
G3 X1.2448 Y-1.3711 I0.3326 J0.2139
G1 X1.2464 Y-1.3733
X1.2513 Y-1.3799
X1.2522 Y-1.3812
X1.2532 Y-1.3824
X1.2546 Y-1.3841
X1.2614 Y-1.3922
X1.2639 Y-1.3949
X1.271 Y-1.4023
X1.2738 Y-1.4051
X1.2823 Y-1.4128
X1.285 Y-1.4152
X1.2927 Y-1.4214
X1.2949 Y-1.4231
G3 X1.3033 Y-1.4291 I0.2647 J0.3597
G1 X1.3056 Y-1.4307
G3 X1.3143 Y-1.4362 I0.1764 J0.2677
G1 X1.3164 Y-1.4375
X1.3242 Y-1.4418
X1.3268 Y-1.4432
X1.3312 Y-1.4454
X1.3315 Y-1.4455
X1.3318 Y-1.4457
X1.3352 Y-1.4473
X1.3375 Y-1.4484
X1.3453 Y-1.4517
X1.3479 Y-1.4528
X1.3556 Y-1.4557
X1.3582 Y-1.4566
X1.366 Y-1.4591
X1.3687 Y-1.46
X1.3765 Y-1.4621
X1.3795 Y-1.4628
X1.3873 Y-1.4645
X1.39 Y-1.465
X1.3978 Y-1.4663
X1.4002 Y-1.4667
X1.408 Y-1.4676
X1.4105 Y-1.4679
X1.4183 Y-1.4685
X1.4214 Y-1.4687
X1.4292 Y-1.4689
X1.431 Y-1.469
X1.4776 Y-1.4689
X1.4777
X2.0917 Y-1.4673
X2.092 Y-1.4672
X2.0923
X2.0926
X2.1004 Y-1.4671
X2.1024 Y-1.467
X2.1101 Y-1.4666
X2.1128 Y-1.4664
X2.1206 Y-1.4657
X2.1237 Y-1.4653
X2.1315 Y-1.4641
X2.1341 Y-1.4636
X2.1419 Y-1.4621
X2.1444 Y-1.4615
X2.1522 Y-1.4596
X2.1545 Y-1.459
X2.1613 Y-1.4571
X2.1643 Y-1.4561
X2.1731 Y-1.4531
X2.1761 Y-1.4519
X2.1839 Y-1.4487
X2.1854 Y-1.4481
X2.1889 Y-1.4465
X2.1909 Y-1.4456
X2.1952 Y-1.4435
X2.1969 Y-1.4426
X2.2047 Y-1.4385
X2.2062 Y-1.4377
X2.2089 Y-1.4361
X2.2107 Y-1.4351
X2.2158 Y-1.4319
X2.2176 Y-1.4308
X2.2245 Y-1.4261
X2.2275 Y-1.424
X2.2361 Y-1.4175
X2.2383 Y-1.4158
G3 X2.2468 Y-1.4084 I-0.2347 J0.2814
G1 X2.2487 Y-1.4067
X2.2511 Y-1.4044
X2.2522 Y-1.4034
X2.2575 Y-1.3981
X2.259 Y-1.3965
X2.2613 Y-1.3941
X2.2626 Y-1.3927
X2.268 Y-1.3864
X2.2691 Y-1.3852
X2.2704 Y-1.3836
X2.2718 Y-1.3818
X2.2783 Y-1.3733
X2.2803 Y-1.3705
X2.2851 Y-1.3635
X2.2861 Y-1.3619
X2.2892 Y-1.3571
X2.2906 Y-1.3547
G3 X2.2971 Y-1.3428 I-0.2967 J0.1694
G1 X2.2982 Y-1.3406
X2.3001 Y-1.3366
X2.3003 Y-1.3363
X2.3004 Y-1.336
X2.3005 Y-1.3357
X2.3023 Y-1.332
X2.3034 Y-1.3295
X2.3065 Y-1.3218
X2.3077 Y-1.3188
X2.3105 Y-1.3107
X2.3114 Y-1.308
X2.3136 Y-1.3006
X2.3142 Y-1.2982
X2.3162 Y-1.2904
X2.3167 Y-1.2878
X2.3183 Y-1.2801
X2.3189 Y-1.2771
X2.32 Y-1.2693
X2.3204 Y-1.2667
X2.3212 Y-1.2589
X2.3214 Y-1.2559
X2.3218 Y-1.2482
X2.3219 Y-1.246
X2.322 Y-1.2383
Y-1.2379
X2.3221 Y-1.2375
Y-1.2371
X2.3171 Y0.6421
Y0.6425
Y0.6429
Y0.6432
X2.317 Y0.651
X2.3166 Y0.656
X2.3162 Y0.6598
X2.3157 Y0.6637
X2.315 Y0.6676
X2.3142 Y0.6714
X2.3133 Y0.6752
X2.3122 Y0.6791
X2.311 Y0.6831
X2.3096 Y0.687
X2.308 Y0.6909
X2.3063 Y0.6948
X2.3044 Y0.6987
X2.3025 Y0.7024
X2.3005 Y0.7058
X2.2984 Y0.7093
X2.2961 Y0.7127
X2.2946 Y0.7149
X2.294 Y0.7157
X2.2921 Y0.7181
X2.289 Y0.722
X2.2864 Y0.7249
X2.2846 Y0.7268
X2.2827 Y0.7289
X2.2805 Y0.731
X2.2775 Y0.7337
X2.2736 Y0.7371
X2.2697 Y0.7401
X2.2658 Y0.7429
X2.2626 Y0.745
X2.2603 Y0.7465
X2.2577 Y0.748
X2.255 Y0.7495
X2.2523 Y0.7509
X2.2496 Y0.7522
X2.2464 Y0.7537
X2.2425 Y0.7553
X2.2386 Y0.7568
X2.2347 Y0.7581
X2.2308 Y0.7592
X2.2269 Y0.7602
X2.223 Y0.7611
X2.2191 Y0.7619
X2.2162 Y0.7623
X2.2143 Y0.7626
X2.2118 Y0.7629
X2.2089 Y0.7632
X2.206 Y0.7634
X2.2031 Y0.7635
X2.2002 Y0.7636
X1.9214 Y0.7629
X1.9105 Y4.9238
X2.9745
X2.9876 Y0.761
X2.9849
X2.9814 Y0.7609
X2.9775 Y0.7606
X2.9736 Y0.7602
X2.9697 Y0.7597
X2.9658 Y0.759
X2.9619 Y0.7583
X2.9581 Y0.7573
X2.9542 Y0.7563
X2.9503 Y0.7551
X2.9465 Y0.7537
X2.9426 Y0.7522
X2.9387 Y0.7505
X2.9347 Y0.7486
X2.9308 Y0.7466
X2.927 Y0.7444
X2.9231 Y0.742
X2.9201 Y0.74
X2.9179 Y0.7384
X2.9157 Y0.7368
X2.9135 Y0.7351
X2.9107 Y0.7328
X2.9073 Y0.7297
X2.9044 Y0.727
X2.9021 Y0.7246
X2.8999 Y0.7223
X2.8978 Y0.7199
X2.8959 Y0.7176
X2.8941 Y0.7154
X2.8924 Y0.7132
X2.8908 Y0.711
X2.889 Y0.7082
X2.8868 Y0.7049
X2.8847 Y0.7013
X2.8826 Y0.6974
X2.8806 Y0.6935
X2.8789 Y0.6896
X2.8776 Y0.6864
X2.8766 Y0.684
X2.8757 Y0.6815
X2.8749 Y0.679
X2.8741 Y0.6764
X2.8733 Y0.6735
X2.8725 Y0.6702
X2.8716 Y0.6663
X2.8709 Y0.6624
X2.8703 Y0.6585
X2.8699 Y0.6546
X2.8695 Y0.6508
X2.8693 Y0.6469
Y0.6431
Y0.6426
Y0.6422
Y0.6418
X2.8752 Y-1.2374
Y-1.2377
Y-1.2379
X2.8753 Y-1.2457
Y-1.2475
X2.8756 Y-1.2553
X2.8758 Y-1.2583
X2.8766 Y-1.266
X2.8769 Y-1.269
X2.878 Y-1.2767
X2.8784 Y-1.2792
X2.8799 Y-1.287
X2.8802 Y-1.2887
X2.881 Y-1.2922
X2.8814 Y-1.2936
X2.8824 Y-1.2979
X2.8829 Y-1.3
X2.8852 Y-1.3078
X2.8861 Y-1.3108
X2.8888 Y-1.3185
X2.8895 Y-1.3207
X2.8914 Y-1.3255
X2.892 Y-1.3269
X2.8932 Y-1.3299
X2.894 Y-1.3316
X2.8975 Y-1.3393
X2.8985 Y-1.3414
X2.9015 Y-1.3474
X2.9028 Y-1.3499
G3 X2.9088 Y-1.3602 I0.3835 J0.2152
G1 X2.9103 Y-1.3627
G3 X2.9158 Y-1.371 I0.4134 J0.2669
G1 X2.9174 Y-1.3733
X2.9223 Y-1.3799
X2.9231 Y-1.381
X2.924 Y-1.3822
X2.9256 Y-1.384
X2.9324 Y-1.3922
X2.9349 Y-1.3949
X2.9419 Y-1.4023
X2.9447 Y-1.405
X2.9532 Y-1.4128
X2.956 Y-1.4152
X2.9637 Y-1.4215
X2.9664 Y-1.4235
X2.9742 Y-1.4291
X2.9767 Y-1.4308
G3 X2.9852 Y-1.4362 I0.2186 J0.3336
G1 X2.9875 Y-1.4376
X2.9953 Y-1.4419
X2.9977 Y-1.4433
X3.0018 Y-1.4453
X3.0021 Y-1.4455
X3.0024 Y-1.4456
X3.0026 Y-1.4457
X3.0063 Y-1.4475
X3.0085 Y-1.4485
X3.0163 Y-1.4519
X3.0187 Y-1.4528
X3.0256 Y-1.4555
X3.0283 Y-1.4564
X3.0369 Y-1.4593
X3.0398 Y-1.4601
X3.0475 Y-1.4622
X3.0506 Y-1.463
X3.0584 Y-1.4647
X3.0608 Y-1.4651
X3.0673 Y-1.4663
X3.0687 Y-1.4665
X3.0699 Y-1.4667
X3.0713 Y-1.4669
X3.079 Y-1.4678
X3.0816 Y-1.4681
X3.0893 Y-1.4687
X3.0925 Y-1.4689
X3.1002 Y-1.4691
X3.102
X3.1254
X3.7783 Y-1.4671
X3.7787
X3.779 Y-1.467
X3.7794
X3.7871 Y-1.4669
X3.7893 Y-1.4668
X3.7971 Y-1.4663
X3.7996 Y-1.4661
X3.8074 Y-1.4654
X3.8104 Y-1.465
X3.8182 Y-1.4638
X3.8211 Y-1.4633
X3.8288 Y-1.4617
X3.8313 Y-1.4611
X3.8391 Y-1.4592
X3.841 Y-1.4587
X3.8465 Y-1.4571
X3.8487 Y-1.4564
G3 X3.8599 Y-1.4525 I-0.0993 J0.3048
G1 X3.8629 Y-1.4514
X3.8707 Y-1.4482
X3.872 Y-1.4476
X3.8744 Y-1.4465
X3.8764 Y-1.4456
X3.8818 Y-1.443
X3.8838 Y-1.4419
X3.8916 Y-1.4377
X3.8928 Y-1.4371
X3.8945 Y-1.4361
X3.8963 Y-1.435
X3.9024 Y-1.4313
X3.9042 Y-1.4302
X3.9102 Y-1.4261
X3.9125 Y-1.4245
G3 X3.923 Y-1.4165 I-0.2178 J0.296
G1 X3.9257 Y-1.4142
X3.9335 Y-1.4075
X3.9353 Y-1.4058
X3.9369 Y-1.4044
X3.938 Y-1.4032
X3.9442 Y-1.397
X3.9456 Y-1.3956
X3.9471 Y-1.394
X3.9485 Y-1.3925
X3.9552 Y-1.3847
X3.9575 Y-1.382
X3.9635 Y-1.3742
X3.9643 Y-1.373
X3.9657 Y-1.3712
X3.9671 Y-1.3692
X3.9711 Y-1.3633
X3.9722 Y-1.3615
X3.976 Y-1.3553
X3.9773 Y-1.3531
G3 X3.9829 Y-1.3429 I-0.3474 J0.1951
G1 X3.984 Y-1.3406
X3.9867 Y-1.335
X3.9873 Y-1.3337
X3.9883 Y-1.3316
X3.9892 Y-1.3296
X3.9924 Y-1.3218
X3.9935 Y-1.3189
G3 X3.9974 Y-1.3077 I-0.4018 J0.1454
G1 X3.9982 Y-1.3051
X3.9996 Y-1.2999
X4.0001 Y-1.2983
X4.002 Y-1.2905
X4.0026 Y-1.2879
X4.0042 Y-1.2802
X4.0048 Y-1.2771
X4.0059 Y-1.2693
X4.0063 Y-1.2668
X4.0071 Y-1.259
X4.0073 Y-1.256
X4.0078 Y-1.2483
Y-1.2461
X4.008 Y-1.2383
Y-1.2379
Y-1.2375
Y-1.2371
X4.0021 Y0.6422
Y0.6425
Y0.6428
Y0.6431
X4.0019 Y0.6509
X4.0016 Y0.6557
X4.0012 Y0.6596
X4.0007 Y0.6635
X4.0001 Y0.6674
X3.9995 Y0.6704
X3.999 Y0.6725
X3.9984 Y0.675
X3.9976 Y0.6778
X3.9968 Y0.6806
X3.9959 Y0.6834
X3.9947 Y0.6868
X3.9932 Y0.6907
X3.9915 Y0.6946
X3.9896 Y0.6984
X3.988 Y0.7015
X3.9868 Y0.7039
X3.9854 Y0.7063
X3.9839 Y0.7086
X3.9822 Y0.7113
X3.9801 Y0.7144
X3.9777 Y0.7176
X3.9751 Y0.7209
X3.9723 Y0.7242
X3.9692 Y0.7275
X3.9671 Y0.7297
X3.9659 Y0.7308
X3.9636 Y0.7329
X3.9604 Y0.7358
X3.9571 Y0.7385
X3.9538 Y0.741
X3.9503 Y0.7434
X3.9467 Y0.7458
X3.9428 Y0.7481
X3.9387 Y0.7504
X3.9346 Y0.7524
X3.9308 Y0.7542
X3.9269 Y0.7558
X3.923 Y0.7572
X3.9191 Y0.7585
X3.9152 Y0.7596
X3.9113 Y0.7606
X3.9074 Y0.7615
X3.9046 Y0.762
X3.9028 Y0.7623
X3.9004 Y0.7627
X3.8974 Y0.7631
X3.8944 Y0.7634
X3.8914 Y0.7636
X3.8874 Y0.7638
X3.8796
X3.8793
X3.879
X3.7103 Y0.7633
X3.6964 Y4.9232
X4.7896 Y4.9237
X4.8077 Y0.761
X4.6872 Y0.7605
X4.6848 Y0.7604
X4.6809 Y0.7602
X4.677 Y0.7599
X4.6731 Y0.7595
X4.6693 Y0.7589
X4.6654 Y0.7582
X4.6615 Y0.7574
X4.6576 Y0.7564
X4.6537 Y0.7553
X4.6499 Y0.7541
X4.646 Y0.7526
X4.6421 Y0.751
X4.6382 Y0.7493
X4.6343 Y0.7474
X4.6304 Y0.7453
X4.6265 Y0.743
X4.6233 Y0.741
X4.6209 Y0.7393
X4.6184 Y0.7376
X4.616 Y0.7357
X4.6133 Y0.7336
X4.6104 Y0.7312
X4.6076 Y0.7286
X4.6049 Y0.726
X4.6023 Y0.7233
X4.5998 Y0.7206
X4.5973 Y0.7177
X4.5947 Y0.7145
X4.5927 Y0.7117
X4.5911 Y0.7094
X4.5895 Y0.7072
X4.5881 Y0.7049
X4.5862 Y0.7018
X4.5841 Y0.6979
X4.5821 Y0.694
X4.5803 Y0.6902
X4.579 Y0.6873
X4.5783 Y0.6854
X4.5774 Y0.683
X4.5764 Y0.6801
X4.5754 Y0.6771
X4.5745 Y0.6742
X4.5736 Y0.6707
X4.5727 Y0.6669
X4.572 Y0.663
X4.5714 Y0.6591
X4.5709 Y0.6552
X4.5705 Y0.6513
X4.5703 Y0.6474
X4.5702 Y0.6436
Y0.6417
X4.5784 Y-1.2375
Y-1.2379
Y-1.2456
X4.5785 Y-1.2474
X4.5788 Y-1.2552
X4.579 Y-1.2581
X4.5797 Y-1.2659
X4.5801 Y-1.2688
X4.5812 Y-1.2766
X4.5815 Y-1.2787
X4.5827 Y-1.2857
X4.5833 Y-1.2884
X4.5853 Y-1.297
X4.586 Y-1.3
X4.5882 Y-1.3077
X4.5892 Y-1.3107
G3 X4.5931 Y-1.322 I0.3871 J0.1278
G1 X4.5941 Y-1.3245
X4.5962 Y-1.3296
X4.5969 Y-1.3314
X4.6004 Y-1.3392
X4.6013 Y-1.341
X4.6034 Y-1.3454
X4.6044 Y-1.3472
X4.6062 Y-1.3506
X4.6071 Y-1.3523
X4.6116 Y-1.36
X4.6134 Y-1.3628
X4.6185 Y-1.3706
X4.6204 Y-1.3733
X4.6261 Y-1.3811
X4.6283 Y-1.3838
X4.6348 Y-1.3916
X4.6372 Y-1.3943
X4.6446 Y-1.4022
X4.6473 Y-1.4048
X4.6551 Y-1.412
X4.6578 Y-1.4144
X4.6655 Y-1.4208
X4.6683 Y-1.4229
X4.676 Y-1.4286
X4.6788 Y-1.4305
X4.6866 Y-1.4355
X4.6894 Y-1.4372
X4.6971 Y-1.4416
X4.6991 Y-1.4427
X4.7034 Y-1.4449
X4.705 Y-1.4457
X4.7085 Y-1.4474
X4.7102 Y-1.4482
X4.718 Y-1.4517
X4.7202 Y-1.4526
X4.7269 Y-1.4552
X4.7299 Y-1.4563
X4.7387 Y-1.4593
X4.7418 Y-1.4602
X4.7495 Y-1.4623
X4.7524 Y-1.4631
X4.7602 Y-1.4648
X4.7617 Y-1.4651
X4.7665 Y-1.466
X4.7691 Y-1.4665
G3 X4.7807 Y-1.4681 I0.0649 J0.4252
G1 X4.7835 Y-1.4684
X4.7913 Y-1.4691
X4.7944 Y-1.4693
X4.8022 Y-1.4695
X4.8038
X4.8116 Y-1.4696
X4.8119
X4.8121
X5.4806 Y-1.4667
X5.4809 Y-1.4666
X5.4887
X5.4903 Y-1.4665
X5.4981 Y-1.4662
X5.5012 Y-1.466
X5.509 Y-1.4653
X5.5116 Y-1.465
X5.5194 Y-1.464
X5.5219 Y-1.4636
X5.5296 Y-1.4622
X5.5322 Y-1.4616
X5.54 Y-1.4599
X5.543 Y-1.4591
X5.5508 Y-1.4569
X5.5536 Y-1.456
X5.5614 Y-1.4534
X5.564 Y-1.4525
X5.5718 Y-1.4494
X5.5733 Y-1.4488
X5.5777 Y-1.4469
X5.5802 Y-1.4458
X5.5835 Y-1.4442
X5.5848 Y-1.4436
X5.5925 Y-1.4396
X5.595 Y-1.4383
X5.5989 Y-1.4361
X5.5992 Y-1.4359
X5.5994 Y-1.4358
X5.6033 Y-1.4335
X5.6059 Y-1.4319
X5.6136 Y-1.4269
X5.6164 Y-1.425
X5.6242 Y-1.4192
X5.6264 Y-1.4175
G3 X5.6349 Y-1.4104 I-0.2232 J0.2772
G1 X5.637 Y-1.4085
G3 X5.6454 Y-1.4007 I-0.2858 J0.3125
G1 X5.6475 Y-1.3986
G3 X5.656 Y-1.3895 I-0.283 J0.2723
G1 X5.6579 Y-1.3873
X5.6609 Y-1.3837
X5.6618 Y-1.3825
X5.6665 Y-1.3765
X5.6679 Y-1.3747
X5.6692 Y-1.373
X5.6701 Y-1.3717
X5.6755 Y-1.3639
X5.6766 Y-1.3623
X5.6777 Y-1.3605
X5.6785 Y-1.3591
X5.6821 Y-1.3532
X5.6835 Y-1.3508
X5.6877 Y-1.3431
X5.6891 Y-1.3403
X5.6928 Y-1.3326
X5.6941 Y-1.3296
X5.6973 Y-1.3219
X5.6978 Y-1.3206
X5.6986 Y-1.3185
X5.6994 Y-1.3164
X5.7013 Y-1.3107
X5.702 Y-1.3088
X5.7043 Y-1.301
X5.705 Y-1.2985
X5.707 Y-1.2907
X5.7076 Y-1.288
X5.7092 Y-1.2802
X5.7098 Y-1.2771
X5.711 Y-1.2694
X5.7113 Y-1.2671
X5.7121 Y-1.2593
X5.7124 Y-1.2562
X5.7128 Y-1.2484
X5.7129 Y-1.2461
X5.7131 Y-1.2384
Y-1.237
X5.7049 Y0.6422
Y0.6426
Y0.6429
X5.7048 Y0.6507
X5.7045 Y0.6552
X5.7042 Y0.659
X5.7037 Y0.6629
X5.7031 Y0.6668
X5.7025 Y0.67
X5.7019 Y0.6726
X5.7013 Y0.6751
X5.7006 Y0.6777
X5.6999 Y0.6803
X5.699 Y0.683
X5.6979 Y0.6862
X5.6964 Y0.6901
X5.6948 Y0.694
X5.693 Y0.6979
X5.6912 Y0.7014
X5.6895 Y0.7045
X5.6877 Y0.7076
X5.6857 Y0.7107
X5.6842 Y0.713
X5.6831 Y0.7146
X5.6811 Y0.7173
X5.678 Y0.7212
X5.6756 Y0.7241
X5.6739 Y0.726
X5.6721 Y0.728
X5.6701 Y0.7299
X5.6682 Y0.7318
X5.6663 Y0.7336
X5.6643 Y0.7353
X5.6624 Y0.737
