(INITIAL TRIM TOP)
(T1 D=2. CR=0. - ZMIN=0. - FACE MILL)
G90 G94 G91.1 G40 G49 G17
G20
G53 G0 Z0.

(POCKET1 2)
T1 M6
S5000 M3
G17 G90 G94
G55
G0 X43.3953 Y2.4909
G43 Z0.858 H1
G0 Z0.358
G1 X43.3952 Z0.3524 F30.
X43.395 Y2.4908 Z0.3469
X43.3946 Z0.3413
X43.3941 Y2.4907 Z0.3358
X43.3934 Y2.4906 Z0.3303
X43.3926 Y2.4905 Z0.3248
X43.3916 Y2.4904 Z0.3193
X43.3904 Y2.4902 Z0.3139
X43.3891 Y2.4901 Z0.3085
X43.3877 Y2.4899 Z0.3031
X43.3861 Y2.4897 Z0.2978
X43.3844 Y2.4895 Z0.2925
X43.3825 Y2.4892 Z0.2873
X43.3805 Y2.489 Z0.2821
X43.3783 Y2.4887 Z0.277
X43.376 Y2.4885 Z0.272
X43.3736 Y2.4882 Z0.267
X43.371 Y2.4879 Z0.2621
X43.3683 Y2.4876 Z0.2572
X43.3654 Y2.4873 Z0.2525
X43.3624 Y2.4871 Z0.2478
X43.3593 Y2.4868 Z0.2432
X43.3561 Y2.4865 Z0.2387
X43.3527 Y2.4862 Z0.2343
X43.3492 Y2.4859 Z0.2299
X43.3456 Y2.4857 Z0.2257
X43.3419 Y2.4854 Z0.2216
X43.338 Y2.4852 Z0.2176
X43.3341 Y2.4849 Z0.2137
X43.33 Y2.4847 Z0.2099
X43.3259 Y2.4845 Z0.2062
X43.3216 Y2.4844 Z0.2027
X43.3172 Y2.4842 Z0.1992
X43.3128 Y2.4841 Z0.1959
X43.3082 Y2.4839 Z0.1927
X43.3036 Z0.1896
X43.2989 Y2.4838 Z0.1867
X43.2941 Z0.1839
X43.2892 Z0.1812
X43.2842 Z0.1787
X43.2792 Y2.4839 Z0.1763
X43.2741 Y2.484 Z0.1741
X43.269 Y2.4841 Z0.1719
X43.2638 Y2.4843 Z0.17
X43.2586 Y2.4845 Z0.1682
X43.2533 Y2.4848 Z0.1665
X43.2479 Y2.4851 Z0.1649
X43.2425 Y2.4854 Z0.1636
X43.2371 Y2.4858 Z0.1623
X43.2317 Y2.4862 Z0.1613
X43.2262 Y2.4867 Z0.1603
X43.2208 Y2.4872 Z0.1596
X43.2153 Y2.4877 Z0.159
X43.2098 Y2.4883 Z0.1585
G2 X43.2784 Y3.9836 Z0.0005 I0.0826 J0.7454
G1 X43.283 Y3.9837 Z0.0002
X43.2877 Y3.9838 Z0.0001
X43.2923 Z0.
X45.6673 F60.
Y-0.7662
X0.2925
Y3.9838
X43.2923
G2 X44.6352 Y2.6991 I0. J-1.3442
X44.0438 Y0.9373 I-2.5794 J-0.1143
X43.5766 Y0.7177 I-0.4672 J0.3872
G1 X2.3832
G2 X1.7764 Y1.3245 I0. J0.6068
G1 Y1.8931
G2 X2.3832 Y2.4999 I0.6068 J0.
G1 X43.5766
G2 X44.1834 Y1.8931 I0. J-0.6068
G1 Y1.3245
G2 X44.0438 Y0.9373 I-0.6068 J0.
G1 Y0.9351
X44.0436 Y0.9328 Z0.0001
X44.0435 Y0.9306 Z0.0003
X44.0432 Y0.9284 Z0.0005
X44.0429 Y0.9262 Z0.0008
X44.0425 Y0.924 Z0.0011
X44.0421 Y0.9218 Z0.0015
X44.0416 Y0.9197 Z0.002
X44.041 Y0.9176 Z0.0025
X44.0404 Y0.9155 Z0.0031
X44.0398 Y0.9135 Z0.0038
X44.0391 Y0.9114 Z0.0045
X44.0383 Y0.9095 Z0.0053
X44.0375 Y0.9075 Z0.0061
X44.0367 Y0.9057 Z0.007
X44.0358 Y0.9038 Z0.0079
X44.0349 Y0.902 Z0.0089
X44.034 Y0.9003 Z0.01
X44.033 Y0.8986 Z0.0111
X44.032 Y0.897 Z0.0123
X44.031 Y0.8954 Z0.0135
X44.0299 Y0.8938 Z0.0148
X44.0289 Y0.8924 Z0.0161
X44.0278 Y0.8909 Z0.0175
X44.0268 Y0.8896 Z0.0189
X44.0257 Y0.8883 Z0.0204
X44.0246 Y0.887 Z0.0219
X44.0235 Y0.8858 Z0.0234
X44.0225 Y0.8847 Z0.0251
X44.0214 Y0.8836 Z0.0267
X44.0204 Y0.8825 Z0.0284
X44.0194 Y0.8815 Z0.0301
X44.0183 Y0.8806 Z0.0319
X44.0174 Y0.8797 Z0.0337
X44.0164 Y0.8789 Z0.0356
X44.0155 Y0.8781 Z0.0375
X44.0146 Y0.8774 Z0.0394
X44.0137 Y0.8767 Z0.0413
X44.0128 Y0.876 Z0.0433
X44.012 Y0.8754 Z0.0453
X44.0113 Y0.8749 Z0.0473
X44.0105 Y0.8744 Z0.0494
X44.0099 Y0.8739 Z0.0515
X44.0092 Y0.8735 Z0.0536
X44.0086 Y0.8731 Z0.0557
X44.0081 Y0.8727 Z0.0579
X44.0076 Y0.8724 Z0.06
X44.0071 Y0.8721 Z0.0622
X44.0067 Y0.8719 Z0.0644
X44.0064 Y0.8716 Z0.0666
X44.0061 Y0.8715 Z0.0689
X44.0059 Y0.8713 Z0.0711
X44.0057 Y0.8712 Z0.0733
X44.0055 Y0.8711 Z0.0756
Z0.0778
X44.0054 Z0.08
G0 Z0.858

M5
G53 G0 Z0.
M30
