(INITIAL TRIM FRONT)
(T3 D=0.5 CR=0. - ZMIN=-1.058 - FLAT END MILL)
(T4 D=0.5 CR=0. - ZMIN=-1.058 - FLAT END MILL)
G90 G94 G91.1 G40 G49 G17
G20
G53 G0 Z0.

(TRACE6)
T3 M6
S10000 M3
G17 G90 G94
G55
G0 X45.7326 Y-1.5499
G43 Z0.658 H3
G0 Z-0.308
G1 X45.7324 Y-1.5487 Z-0.3191 F50.
X45.732 Y-1.545 Z-0.3297
X45.7312 Y-1.5391 Z-0.3392
X45.7302 Y-1.5312 Z-0.3471
X45.729 Y-1.5218 Z-0.353
X45.7277 Y-1.5114 Z-0.3567
X45.7263 Y-1.5003 Z-0.358
X45.7248 Y-1.4892
X45.7236 Y-1.4781
X45.7199 Y-1.4675
X45.7139 Y-1.458
X45.706 Y-1.4501
X45.6965 Y-1.4442
X45.6859 Y-1.4405
X45.6748 Y-1.4392
X45.1669 Y-1.4395
X45.1511 Y-1.4421
X45.1347 Y-1.4476
X45.1208 Y-1.4551
X45.1138 Y-1.4599
X45.0968 Y-1.4712
X45.074 Y-1.4843
X45.0527 Y-1.4953
X45.0301 Y-1.5053
X45.0071 Y-1.5141
X44.9818 Y-1.5221
X44.958 Y-1.5281
X44.9343 Y-1.5328
X44.9086 Y-1.5365
X44.8834 Y-1.5385
X44.8622 Y-1.5392
X44.6051
X44.5836 Y-1.5385
X44.5588 Y-1.5364
X44.5342 Y-1.533
X44.5091 Y-1.5281
X44.4848 Y-1.5218
X44.4621 Y-1.5146
X44.4387 Y-1.5059
X44.4146 Y-1.4953
X44.3913 Y-1.4832
X44.3711 Y-1.4713
X44.3556 Y-1.4612
X44.3465 Y-1.4551
X44.3327 Y-1.4476
X44.3173 Y-1.4423
X44.3127 Y-1.4413
X44.2964 Y-1.4393
X43.4669 Y-1.4395
X43.4511 Y-1.4421
X43.4465 Y-1.4434
X43.4319 Y-1.4489
X43.4208 Y-1.4551
X43.4138 Y-1.4599
X43.3968 Y-1.4712
X43.374 Y-1.4843
X43.3527 Y-1.4953
X43.3301 Y-1.5053
X43.3071 Y-1.5141
X43.2818 Y-1.5221
X43.258 Y-1.5281
X43.2343 Y-1.5328
X43.2086 Y-1.5365
X43.1834 Y-1.5385
X43.1622 Y-1.5392
X42.9051
X42.8836 Y-1.5385
X42.8588 Y-1.5364
X42.8342 Y-1.533
X42.8091 Y-1.5281
X42.7848 Y-1.5218
X42.7621 Y-1.5146
X42.7387 Y-1.5059
X42.7146 Y-1.4953
X42.6913 Y-1.4832
X42.6711 Y-1.4713
X42.6556 Y-1.4612
X42.6465 Y-1.4551
X42.6327 Y-1.4476
X42.6173 Y-1.4423
X42.6127 Y-1.4413
X42.5964 Y-1.4393
X41.7669 Y-1.4395
X41.7511 Y-1.4421
X41.7465 Y-1.4434
X41.7319 Y-1.4489
X41.7208 Y-1.4551
X41.7138 Y-1.4599
X41.6968 Y-1.4712
X41.674 Y-1.4843
X41.6527 Y-1.4953
X41.6301 Y-1.5053
X41.6071 Y-1.5141
X41.5818 Y-1.5221
X41.558 Y-1.5281
X41.5343 Y-1.5328
X41.5086 Y-1.5365
X41.4834 Y-1.5385
X41.4622 Y-1.5392
X41.2051
X41.1836 Y-1.5385
X41.1588 Y-1.5364
X41.1342 Y-1.533
X41.1091 Y-1.5281
X41.0848 Y-1.5218
X41.0621 Y-1.5146
X41.0387 Y-1.5059
X41.0146 Y-1.4953
X40.9913 Y-1.4832
X40.9711 Y-1.4713
X40.9556 Y-1.4612
X40.9465 Y-1.4551
X40.9327 Y-1.4476
X40.9173 Y-1.4423
X40.9127 Y-1.4413
X40.8964 Y-1.4393
X40.0669 Y-1.4395
X40.0511 Y-1.4421
X40.0465 Y-1.4434
X40.0319 Y-1.4489
X40.0208 Y-1.4551
X40.0138 Y-1.4599
X39.9968 Y-1.4712
X39.974 Y-1.4843
X39.9527 Y-1.4953
X39.9301 Y-1.5053
X39.9071 Y-1.5141
X39.8818 Y-1.5221
X39.858 Y-1.5281
X39.8343 Y-1.5328
X39.8086 Y-1.5365
X39.7834 Y-1.5385
X39.7622 Y-1.5392
X39.5051
X39.4836 Y-1.5385
X39.4588 Y-1.5364
X39.4342 Y-1.533
X39.4091 Y-1.5281
X39.3848 Y-1.5218
X39.3621 Y-1.5146
X39.3387 Y-1.5059
X39.3146 Y-1.4953
X39.2913 Y-1.4832
X39.2711 Y-1.4713
X39.2556 Y-1.4612
X39.2465 Y-1.4551
X39.2322 Y-1.4474
X39.2167 Y-1.4422
X39.2128 Y-1.4413
X39.1966 Y-1.4393
X38.3668 Y-1.4396
X38.3507 Y-1.4422
X38.3468 Y-1.4433
X38.3315 Y-1.4491
X38.3208 Y-1.4552
X38.3125 Y-1.4608
X38.2966 Y-1.4712
X38.2749 Y-1.4839
X38.2527 Y-1.4953
X38.2297 Y-1.5055
X38.2064 Y-1.5143
X38.1824 Y-1.5219
X38.1581 Y-1.5281
X38.1335 Y-1.533
X38.1087 Y-1.5364
X38.0838 Y-1.5385
X38.0622 Y-1.5392
X37.8053
X37.7837 Y-1.5385
X37.7587 Y-1.5364
X37.7339 Y-1.533
X37.7093 Y-1.5281
X37.6849 Y-1.5219
X37.6611 Y-1.5143
X37.6377 Y-1.5055
X37.6148 Y-1.4953
X37.5925 Y-1.4839
X37.5709 Y-1.4712
X37.555 Y-1.4608
X37.5467 Y-1.4552
X37.5322 Y-1.4474
X37.5167 Y-1.4422
X37.5128 Y-1.4413
X37.4966 Y-1.4393
X36.6668 Y-1.4396
X36.6507 Y-1.4422
X36.6468 Y-1.4433
X36.6315 Y-1.4491
X36.6208 Y-1.4552
X36.6125 Y-1.4608
X36.5966 Y-1.4712
X36.5749 Y-1.4839
X36.5527 Y-1.4953
X36.5297 Y-1.5055
X36.5064 Y-1.5143
X36.4824 Y-1.5219
X36.4581 Y-1.5281
X36.4335 Y-1.533
X36.4087 Y-1.5364
X36.3838 Y-1.5385
X36.3622 Y-1.5392
X36.1053
X36.0837 Y-1.5385
X36.0587 Y-1.5364
X36.0339 Y-1.533
X36.0093 Y-1.5281
X35.9849 Y-1.5219
X35.9611 Y-1.5143
X35.9377 Y-1.5055
X35.9148 Y-1.4953
X35.8925 Y-1.4839
X35.8709 Y-1.4712
X35.855 Y-1.4608
X35.8467 Y-1.4552
X35.8322 Y-1.4474
X35.8167 Y-1.4422
X35.8128 Y-1.4413
X35.7966 Y-1.4393
X34.9668 Y-1.4396
X34.9507 Y-1.4422
X34.9468 Y-1.4433
X34.9315 Y-1.4491
X34.9208 Y-1.4552
X34.9125 Y-1.4608
X34.8966 Y-1.4712
X34.8749 Y-1.4839
X34.8527 Y-1.4953
X34.8297 Y-1.5055
X34.8064 Y-1.5143
X34.7824 Y-1.5219
X34.7581 Y-1.5281
X34.7335 Y-1.533
X34.7087 Y-1.5364
X34.6838 Y-1.5385
X34.6622 Y-1.5392
X34.4053
X34.3837 Y-1.5385
X34.3587 Y-1.5364
X34.334 Y-1.533
X34.3093 Y-1.5281
X34.2849 Y-1.5219
X34.2611 Y-1.5143
X34.2377 Y-1.5055
X34.2148 Y-1.4953
X34.1925 Y-1.4839
X34.1709 Y-1.4712
X34.155 Y-1.4608
X34.1467 Y-1.4552
X34.1322 Y-1.4474
X34.1167 Y-1.4422
X34.1128 Y-1.4413
X34.0966 Y-1.4393
X33.2668 Y-1.4396
X33.2507 Y-1.4422
X33.2468 Y-1.4433
X33.2315 Y-1.4491
X33.2208 Y-1.4552
X33.2125 Y-1.4608
X33.1966 Y-1.4712
X33.1749 Y-1.4839
X33.1527 Y-1.4953
X33.1297 Y-1.5055
X33.1064 Y-1.5143
X33.0824 Y-1.5219
X33.0581 Y-1.5281
X33.0335 Y-1.533
X33.0087 Y-1.5364
X32.9838 Y-1.5385
X32.9622 Y-1.5392
X32.7053
X32.6837 Y-1.5385
X32.6587 Y-1.5364
X32.634 Y-1.533
X32.6093 Y-1.5281
X32.5849 Y-1.5219
X32.5611 Y-1.5143
X32.5377 Y-1.5055
X32.5148 Y-1.4953
X32.4925 Y-1.4839
X32.4709 Y-1.4712
X32.455 Y-1.4608
X32.4467 Y-1.4552
X32.4322 Y-1.4474
X32.4167 Y-1.4422
X32.4128 Y-1.4413
X32.3966 Y-1.4393
X31.5668 Y-1.4396
X31.5507 Y-1.4422
X31.5468 Y-1.4433
X31.5315 Y-1.4491
X31.5208 Y-1.4552
X31.5125 Y-1.4608
X31.4966 Y-1.4712
X31.4749 Y-1.4839
X31.4527 Y-1.4953
X31.4297 Y-1.5055
X31.4064 Y-1.5143
X31.3824 Y-1.5219
X31.3581 Y-1.5281
X31.3335 Y-1.533
X31.3087 Y-1.5364
X31.2838 Y-1.5385
X31.2622 Y-1.5392
X31.0053
X30.9837 Y-1.5385
X30.9587 Y-1.5364
X30.934 Y-1.533
X30.9093 Y-1.5281
X30.8849 Y-1.5219
X30.8611 Y-1.5143
X30.8377 Y-1.5055
X30.8148 Y-1.4953
X30.7925 Y-1.4839
X30.7709 Y-1.4712
X30.755 Y-1.4608
X30.7467 Y-1.4552
X30.7322 Y-1.4474
X30.7167 Y-1.4422
X30.7128 Y-1.4413
X30.6966 Y-1.4393
X29.8668 Y-1.4396
X29.8507 Y-1.4422
X29.8468 Y-1.4433
X29.8315 Y-1.4491
X29.8208 Y-1.4552
X29.8125 Y-1.4608
X29.7966 Y-1.4712
X29.7749 Y-1.4839
X29.7527 Y-1.4953
X29.7297 Y-1.5055
X29.7064 Y-1.5143
X29.6824 Y-1.5219
X29.6581 Y-1.5281
X29.6335 Y-1.533
X29.6087 Y-1.5364
X29.5838 Y-1.5385
X29.5622 Y-1.5392
X29.3053
X29.2837 Y-1.5385
X29.2587 Y-1.5364
X29.234 Y-1.533
X29.2093 Y-1.5281
X29.1849 Y-1.5219
X29.1611 Y-1.5143
X29.1377 Y-1.5055
X29.1148 Y-1.4953
X29.0925 Y-1.4839
X29.0709 Y-1.4712
X29.055 Y-1.4608
X29.0467 Y-1.4552
X29.0322 Y-1.4474
X29.0167 Y-1.4422
X29.0128 Y-1.4413
X28.9966 Y-1.4393
X28.1668 Y-1.4396
X28.1507 Y-1.4422
X28.1468 Y-1.4433
X28.1315 Y-1.4491
X28.1208 Y-1.4552
X28.1125 Y-1.4608
X28.0966 Y-1.4712
X28.0749 Y-1.4839
X28.0527 Y-1.4953
X28.0297 Y-1.5055
X28.0064 Y-1.5143
X27.9824 Y-1.5219
X27.9581 Y-1.5281
X27.9335 Y-1.533
X27.9087 Y-1.5364
X27.8838 Y-1.5385
X27.8622 Y-1.5392
X27.6053
X27.5837 Y-1.5385
X27.5587 Y-1.5364
X27.534 Y-1.533
X27.5093 Y-1.5281
X27.4849 Y-1.5219
X27.4611 Y-1.5143
X27.4377 Y-1.5055
X27.4148 Y-1.4953
X27.3925 Y-1.4839
X27.3709 Y-1.4712
X27.355 Y-1.4608
X27.3467 Y-1.4552
X27.3322 Y-1.4474
X27.3167 Y-1.4422
X27.3128 Y-1.4413
X27.2966 Y-1.4393
X26.4668 Y-1.4396
X26.4507 Y-1.4422
X26.4468 Y-1.4433
X26.4315 Y-1.4491
X26.4208 Y-1.4552
X26.4125 Y-1.4608
X26.3966 Y-1.4712
X26.3749 Y-1.4839
X26.3527 Y-1.4953
X26.3297 Y-1.5055
X26.3064 Y-1.5143
X26.2824 Y-1.5219
X26.2581 Y-1.5281
X26.2335 Y-1.533
X26.2087 Y-1.5364
X26.1838 Y-1.5385
X26.1622 Y-1.5392
X25.9053
X25.8837 Y-1.5385
X25.8587 Y-1.5364
X25.8339 Y-1.533
X25.8093 Y-1.5281
X25.7849 Y-1.5219
X25.7611 Y-1.5143
X25.7377 Y-1.5055
X25.7148 Y-1.4953
X25.6925 Y-1.4839
X25.6709 Y-1.4712
X25.655 Y-1.4608
X25.6467 Y-1.4552
X25.6322 Y-1.4474
X25.6167 Y-1.4422
X25.6128 Y-1.4413
X25.5966 Y-1.4393
X24.7668 Y-1.4396
X24.7507 Y-1.4422
X24.7468 Y-1.4433
X24.7315 Y-1.4491
X24.7208 Y-1.4552
X24.7125 Y-1.4608
X24.6966 Y-1.4712
X24.6749 Y-1.4839
X24.6527 Y-1.4953
X24.6297 Y-1.5055
X24.6064 Y-1.5143
X24.5824 Y-1.5219
X24.5581 Y-1.5281
X24.5335 Y-1.533
X24.5087 Y-1.5364
X24.4838 Y-1.5385
X24.4622 Y-1.5392
X24.2053
X24.1837 Y-1.5385
X24.1587 Y-1.5364
X24.1339 Y-1.533
X24.1093 Y-1.5281
X24.0849 Y-1.5219
X24.0611 Y-1.5143
X24.0377 Y-1.5055
X24.0148 Y-1.4953
X23.9925 Y-1.4839
X23.9709 Y-1.4712
X23.955 Y-1.4608
X23.9467 Y-1.4552
X23.9322 Y-1.4474
X23.9167 Y-1.4422
X23.9128 Y-1.4413
X23.8966 Y-1.4393
X23.0668 Y-1.4396
X23.0507 Y-1.4422
X23.0468 Y-1.4433
X23.0315 Y-1.4491
X23.0208 Y-1.4552
X23.0125 Y-1.4608
X22.9966 Y-1.4712
X22.9749 Y-1.4839
X22.9527 Y-1.4953
X22.9297 Y-1.5055
X22.9064 Y-1.5143
X22.8824 Y-1.5219
X22.8581 Y-1.5281
X22.8335 Y-1.533
X22.8087 Y-1.5364
X22.7838 Y-1.5385
X22.7622 Y-1.5392
X22.5053
X22.4837 Y-1.5385
X22.4587 Y-1.5364
X22.4339 Y-1.533
X22.4093 Y-1.5281
X22.3849 Y-1.5219
X22.3611 Y-1.5143
X22.3377 Y-1.5055
X22.3148 Y-1.4953
X22.2925 Y-1.4839
X22.2709 Y-1.4712
X22.255 Y-1.4608
X22.2467 Y-1.4552
X22.2322 Y-1.4474
X22.2167 Y-1.4422
X22.2128 Y-1.4413
X22.1966 Y-1.4393
X21.3668 Y-1.4396
X21.3507 Y-1.4422
X21.3468 Y-1.4433
X21.3315 Y-1.4491
X21.3208 Y-1.4552
X21.3125 Y-1.4608
X21.2966 Y-1.4712
X21.2749 Y-1.4839
X21.2527 Y-1.4953
X21.2297 Y-1.5055
X21.2064 Y-1.5143
X21.1824 Y-1.5219
X21.1581 Y-1.5281
X21.1335 Y-1.533
X21.1087 Y-1.5364
X21.0838 Y-1.5385
X21.0622 Y-1.5392
X20.8053
X20.7837 Y-1.5385
X20.7587 Y-1.5364
X20.734 Y-1.533
X20.7093 Y-1.5281
X20.6849 Y-1.5219
X20.6611 Y-1.5143
X20.6377 Y-1.5055
X20.6148 Y-1.4953
X20.5925 Y-1.4839
X20.5709 Y-1.4712
X20.555 Y-1.4608
X20.5467 Y-1.4552
X20.5322 Y-1.4474
X20.5167 Y-1.4422
X20.5128 Y-1.4413
X20.4966 Y-1.4393
X19.6668 Y-1.4396
X19.6507 Y-1.4422
X19.6468 Y-1.4433
X19.6315 Y-1.4491
X19.6208 Y-1.4552
X19.6125 Y-1.4608
X19.5966 Y-1.4712
X19.5749 Y-1.4839
X19.5527 Y-1.4953
X19.5297 Y-1.5055
X19.5064 Y-1.5143
X19.4824 Y-1.5219
X19.4581 Y-1.5281
X19.4335 Y-1.533
X19.4087 Y-1.5364
X19.3838 Y-1.5385
X19.3622 Y-1.5392
X19.1053
X19.0837 Y-1.5385
X19.0587 Y-1.5364
X19.034 Y-1.533
X19.0093 Y-1.5281
X18.9849 Y-1.5219
X18.9611 Y-1.5143
X18.9377 Y-1.5055
X18.9148 Y-1.4953
X18.8925 Y-1.4839
X18.8709 Y-1.4712
X18.855 Y-1.4608
X18.8467 Y-1.4552
X18.8322 Y-1.4474
X18.8167 Y-1.4422
X18.8128 Y-1.4413
X18.7966 Y-1.4393
X17.9668 Y-1.4396
X17.9507 Y-1.4422
X17.9468 Y-1.4433
X17.9315 Y-1.4491
X17.9208 Y-1.4552
X17.9125 Y-1.4608
X17.8966 Y-1.4712
X17.8749 Y-1.4839
X17.8527 Y-1.4953
X17.8297 Y-1.5055
X17.8064 Y-1.5143
X17.7824 Y-1.5219
X17.7581 Y-1.5281
X17.7335 Y-1.533
X17.7087 Y-1.5364
X17.6838 Y-1.5385
X17.6622 Y-1.5392
X17.4053
X17.3837 Y-1.5385
X17.3587 Y-1.5364
X17.334 Y-1.533
X17.3093 Y-1.5281
X17.2849 Y-1.5219
X17.2611 Y-1.5143
X17.2377 Y-1.5055
X17.2148 Y-1.4953
X17.1925 Y-1.4839
X17.1709 Y-1.4712
X17.155 Y-1.4608
X17.1467 Y-1.4552
X17.1322 Y-1.4474
X17.1167 Y-1.4422
X17.1128 Y-1.4413
X17.0966 Y-1.4393
X16.2668 Y-1.4396
X16.2507 Y-1.4422
X16.2468 Y-1.4433
X16.2315 Y-1.4491
X16.2208 Y-1.4552
X16.2125 Y-1.4608
X16.1966 Y-1.4712
X16.1749 Y-1.4839
X16.1527 Y-1.4953
X16.1297 Y-1.5055
X16.1064 Y-1.5143
X16.0824 Y-1.5219
X16.0581 Y-1.5281
X16.0335 Y-1.533
X16.0087 Y-1.5364
X15.9838 Y-1.5385
X15.9622 Y-1.5392
X15.7053
X15.6837 Y-1.5385
X15.6587 Y-1.5364
X15.6339 Y-1.533
X15.6093 Y-1.5281
X15.5849 Y-1.5219
X15.5611 Y-1.5143
X15.5377 Y-1.5055
X15.5148 Y-1.4953
X15.4925 Y-1.4839
X15.4709 Y-1.4712
X15.455 Y-1.4608
X15.4467 Y-1.4552
X15.4322 Y-1.4474
X15.4167 Y-1.4422
X15.4128 Y-1.4413
X15.3966 Y-1.4393
X14.5668 Y-1.4396
X14.5507 Y-1.4422
X14.5468 Y-1.4433
X14.5315 Y-1.4491
X14.5208 Y-1.4552
X14.5125 Y-1.4608
X14.4966 Y-1.4712
X14.4749 Y-1.4839
X14.4527 Y-1.4953
X14.4297 Y-1.5055
X14.4064 Y-1.5143
X14.3824 Y-1.5219
X14.3581 Y-1.5281
X14.3335 Y-1.533
X14.3087 Y-1.5364
X14.2838 Y-1.5385
X14.2622 Y-1.5392
X14.0053
X13.9837 Y-1.5385
X13.9587 Y-1.5364
X13.934 Y-1.533
X13.9093 Y-1.5281
X13.8849 Y-1.5219
X13.8611 Y-1.5143
X13.8377 Y-1.5055
X13.8148 Y-1.4953
X13.7925 Y-1.4839
X13.7709 Y-1.4712
X13.755 Y-1.4608
X13.7467 Y-1.4552
X13.7322 Y-1.4474
X13.7167 Y-1.4422
X13.7128 Y-1.4413
X13.6966 Y-1.4393
X12.8668 Y-1.4396
X12.8507 Y-1.4422
X12.8468 Y-1.4433
X12.8315 Y-1.4491
X12.8208 Y-1.4552
X12.8125 Y-1.4608
X12.7966 Y-1.4712
X12.7749 Y-1.4839
X12.7527 Y-1.4953
X12.7297 Y-1.5055
X12.7064 Y-1.5143
X12.6824 Y-1.5219
X12.6581 Y-1.5281
X12.6335 Y-1.533
X12.6087 Y-1.5364
X12.5838 Y-1.5385
X12.5622 Y-1.5392
X12.3053
X12.2837 Y-1.5385
X12.2587 Y-1.5364
X12.234 Y-1.533
X12.2093 Y-1.5281
X12.1849 Y-1.5219
X12.1611 Y-1.5143
X12.1377 Y-1.5055
X12.1148 Y-1.4953
X12.0925 Y-1.4839
X12.0709 Y-1.4712
X12.055 Y-1.4608
X12.0467 Y-1.4552
X12.0322 Y-1.4474
X12.0167 Y-1.4422
X12.0128 Y-1.4413
X11.9966 Y-1.4393
X11.1668 Y-1.4396
X11.1507 Y-1.4422
X11.1468 Y-1.4433
X11.1315 Y-1.4491
X11.1208 Y-1.4552
X11.1125 Y-1.4608
X11.0966 Y-1.4712
X11.0749 Y-1.4839
X11.0527 Y-1.4953
X11.0297 Y-1.5055
X11.0064 Y-1.5143
X10.9824 Y-1.5219
X10.9581 Y-1.5281
X10.9335 Y-1.533
X10.9087 Y-1.5364
X10.8838 Y-1.5385
X10.8622 Y-1.5392
X10.6053
X10.5837 Y-1.5385
X10.5587 Y-1.5364
X10.534 Y-1.533
X10.5093 Y-1.5281
X10.4849 Y-1.5219
X10.4611 Y-1.5143
X10.4377 Y-1.5055
X10.4148 Y-1.4953
X10.3925 Y-1.4839
X10.3709 Y-1.4712
X10.355 Y-1.4608
X10.3467 Y-1.4552
X10.3322 Y-1.4474
X10.3167 Y-1.4422
X10.3128 Y-1.4413
X10.2966 Y-1.4393
X9.4668 Y-1.4396
X9.4507 Y-1.4422
X9.4468 Y-1.4433
X9.4315 Y-1.4491
X9.4208 Y-1.4552
X9.4125 Y-1.4608
X9.3966 Y-1.4712
X9.3749 Y-1.4839
X9.3527 Y-1.4953
X9.3297 Y-1.5055
X9.3064 Y-1.5143
X9.2824 Y-1.5219
X9.2581 Y-1.5281
X9.2335 Y-1.533
X9.2087 Y-1.5364
X9.1838 Y-1.5385
X9.1622 Y-1.5392
X8.9053
X8.8837 Y-1.5385
X8.8587 Y-1.5364
X8.834 Y-1.533
X8.8093 Y-1.5281
X8.7849 Y-1.5219
X8.7611 Y-1.5143
X8.7377 Y-1.5055
X8.7148 Y-1.4953
X8.6925 Y-1.4839
X8.6709 Y-1.4712
X8.655 Y-1.4608
X8.6467 Y-1.4552
X8.6322 Y-1.4474
X8.6167 Y-1.4422
X8.6128 Y-1.4413
X8.5966 Y-1.4393
X7.7668 Y-1.4396
X7.7507 Y-1.4422
X7.7468 Y-1.4433
X7.7315 Y-1.4491
X7.7208 Y-1.4552
X7.7125 Y-1.4608
X7.6966 Y-1.4712
X7.6749 Y-1.4839
X7.6527 Y-1.4953
X7.6297 Y-1.5055
X7.6064 Y-1.5143
X7.5824 Y-1.5219
X7.5581 Y-1.5281
X7.5335 Y-1.533
X7.5087 Y-1.5364
X7.4838 Y-1.5385
X7.4622 Y-1.5392
X7.2053
X7.1837 Y-1.5385
X7.1587 Y-1.5364
X7.134 Y-1.533
X7.1093 Y-1.5281
X7.0849 Y-1.5219
X7.0611 Y-1.5143
X7.0377 Y-1.5055
X7.0148 Y-1.4953
X6.9925 Y-1.4839
X6.9709 Y-1.4712
X6.955 Y-1.4608
X6.9467 Y-1.4552
X6.9322 Y-1.4474
X6.9167 Y-1.4422
X6.9128 Y-1.4413
X6.8966 Y-1.4393
X6.0668 Y-1.4396
X6.0507 Y-1.4422
X6.0468 Y-1.4433
X6.0315 Y-1.4491
X6.0208 Y-1.4552
X6.0125 Y-1.4608
X5.9966 Y-1.4712
X5.9749 Y-1.4839
X5.9527 Y-1.4953
X5.9297 Y-1.5055
X5.9064 Y-1.5143
X5.8824 Y-1.5219
X5.8581 Y-1.5281
X5.8335 Y-1.533
X5.8087 Y-1.5364
X5.7838 Y-1.5385
X5.7622 Y-1.5392
X5.5053
X5.4837 Y-1.5385
X5.4587 Y-1.5364
X5.434 Y-1.533
X5.4093 Y-1.5281
X5.3849 Y-1.5219
X5.3611 Y-1.5143
X5.3377 Y-1.5055
X5.3148 Y-1.4953
X5.2925 Y-1.4839
X5.2709 Y-1.4712
X5.255 Y-1.4608
X5.2467 Y-1.4552
X5.2322 Y-1.4474
X5.2167 Y-1.4422
X5.2128 Y-1.4413
X5.1966 Y-1.4393
X4.3668 Y-1.4396
X4.3507 Y-1.4422
X4.3468 Y-1.4433
X4.3315 Y-1.4491
X4.3208 Y-1.4552
X4.3125 Y-1.4608
X4.2966 Y-1.4712
X4.2749 Y-1.4839
X4.2527 Y-1.4953
X4.2297 Y-1.5055
X4.2064 Y-1.5143
X4.1824 Y-1.5219
X4.1581 Y-1.5281
X4.1335 Y-1.533
X4.1087 Y-1.5364
X4.0838 Y-1.5385
X4.0622 Y-1.5392
X3.8052
X3.7837 Y-1.5385
X3.7587 Y-1.5364
X3.7339 Y-1.533
X3.7093 Y-1.5281
X3.6851 Y-1.5219
X3.6611 Y-1.5143
X3.6377 Y-1.5055
X3.6148 Y-1.4953
X3.5925 Y-1.4839
X3.5709 Y-1.4712
X3.555 Y-1.4608
X3.5466 Y-1.4551
X3.5322 Y-1.4474
X3.5168 Y-1.4422
X3.5128 Y-1.4413
X3.4966 Y-1.4393
X2.6668 Y-1.4396
X2.6507 Y-1.4422
X2.6468 Y-1.4433
X2.6315 Y-1.4491
X2.6209 Y-1.4551
X2.6125 Y-1.4608
X2.5965 Y-1.4713
X2.5749 Y-1.4839
X2.5526 Y-1.4953
X2.5297 Y-1.5055
X2.5063 Y-1.5143
X2.4824 Y-1.5219
X2.4581 Y-1.5281
X2.4335 Y-1.533
X2.4087 Y-1.5364
X2.3838 Y-1.5385
X2.3622 Y-1.5392
X2.1052
X2.0837 Y-1.5385
X2.0587 Y-1.5364
X2.0339 Y-1.533
X2.0093 Y-1.5281
X1.9851 Y-1.5219
X1.9611 Y-1.5143
X1.9377 Y-1.5055
X1.9148 Y-1.4953
X1.8925 Y-1.4839
X1.8709 Y-1.4712
X1.855 Y-1.4608
X1.8466 Y-1.4551
X1.8322 Y-1.4474
X1.8168 Y-1.4422
X1.8007 Y-1.4396
X0.975 Y-1.4392
X0.475
X0.4638 Y-1.4405
X0.4533 Y-1.4442
X0.4438 Y-1.4501
X0.4359 Y-1.458
X0.4299 Y-1.4675
X0.4262 Y-1.4781
X0.425 Y-1.4892
X0.4235 Y-1.5004
X0.4221 Y-1.5114 Z-0.3567
X0.4208 Y-1.5219 Z-0.353
X0.4196 Y-1.5313 Z-0.3471
X0.4186 Y-1.5391 Z-0.3392
X0.4179 Y-1.545 Z-0.3297
X0.4174 Y-1.5487 Z-0.3191
X0.4172 Y-1.55 Z-0.308
G0 Z0.522
X45.7326 Y-1.5499
Z-1.008
G1 X45.7324 Y-1.5487 Z-1.0191 F50.
X45.732 Y-1.545 Z-1.0297
X45.7312 Y-1.5391 Z-1.0392
X45.7302 Y-1.5312 Z-1.0471
X45.729 Y-1.5218 Z-1.053
X45.7277 Y-1.5114 Z-1.0567
X45.7263 Y-1.5003 Z-1.058
X45.7248 Y-1.4892
X45.7236 Y-1.4781
X45.7199 Y-1.4675
X45.7139 Y-1.458
X45.706 Y-1.4501
X45.6965 Y-1.4442
X45.6859 Y-1.4405
X45.6748 Y-1.4392
X45.1669 Y-1.4395
X45.1511 Y-1.4421
X45.1347 Y-1.4476
X45.1208 Y-1.4551
X45.1138 Y-1.4599
X45.0968 Y-1.4712
X45.074 Y-1.4843
X45.0527 Y-1.4953
X45.0301 Y-1.5053
X45.0071 Y-1.5141
X44.9818 Y-1.5221
X44.958 Y-1.5281
X44.9343 Y-1.5328
X44.9086 Y-1.5365
X44.8834 Y-1.5385
X44.8622 Y-1.5392
X44.6051
X44.5836 Y-1.5385
X44.5588 Y-1.5364
X44.5342 Y-1.533
X44.5091 Y-1.5281
X44.4848 Y-1.5218
X44.4621 Y-1.5146
X44.4387 Y-1.5059
X44.4146 Y-1.4953
X44.3913 Y-1.4832
X44.3711 Y-1.4713
X44.3556 Y-1.4612
X44.3465 Y-1.4551
X44.3327 Y-1.4476
X44.3173 Y-1.4423
X44.3127 Y-1.4413
X44.2964 Y-1.4393
X43.4669 Y-1.4395
X43.4511 Y-1.4421
X43.4465 Y-1.4434
X43.4319 Y-1.4489
X43.4208 Y-1.4551
X43.4138 Y-1.4599
X43.3968 Y-1.4712
X43.374 Y-1.4843
X43.3527 Y-1.4953
X43.3301 Y-1.5053
X43.3071 Y-1.5141
X43.2818 Y-1.5221
X43.258 Y-1.5281
X43.2343 Y-1.5328
X43.2086 Y-1.5365
X43.1834 Y-1.5385
X43.1622 Y-1.5392
X42.9051
X42.8836 Y-1.5385
X42.8588 Y-1.5364
X42.8342 Y-1.533
X42.8091 Y-1.5281
X42.7848 Y-1.5218
X42.7621 Y-1.5146
X42.7387 Y-1.5059
X42.7146 Y-1.4953
X42.6913 Y-1.4832
X42.6711 Y-1.4713
X42.6556 Y-1.4612
X42.6465 Y-1.4551
X42.6327 Y-1.4476
X42.6173 Y-1.4423
X42.6127 Y-1.4413
X42.5964 Y-1.4393
X41.7669 Y-1.4395
X41.7511 Y-1.4421
X41.7465 Y-1.4434
X41.7319 Y-1.4489
X41.7208 Y-1.4551
X41.7138 Y-1.4599
X41.6968 Y-1.4712
X41.674 Y-1.4843
X41.6527 Y-1.4953
X41.6301 Y-1.5053
X41.6071 Y-1.5141
X41.5818 Y-1.5221
X41.558 Y-1.5281
X41.5343 Y-1.5328
X41.5086 Y-1.5365
X41.4834 Y-1.5385
X41.4622 Y-1.5392
X41.2051
X41.1836 Y-1.5385
X41.1588 Y-1.5364
X41.1342 Y-1.533
X41.1091 Y-1.5281
X41.0848 Y-1.5218
X41.0621 Y-1.5146
X41.0387 Y-1.5059
X41.0146 Y-1.4953
X40.9913 Y-1.4832
X40.9711 Y-1.4713
X40.9556 Y-1.4612
X40.9465 Y-1.4551
X40.9327 Y-1.4476
X40.9173 Y-1.4423
X40.9127 Y-1.4413
X40.8964 Y-1.4393
X40.0669 Y-1.4395
X40.0511 Y-1.4421
X40.0465 Y-1.4434
X40.0319 Y-1.4489
X40.0208 Y-1.4551
X40.0138 Y-1.4599
X39.9968 Y-1.4712
X39.974 Y-1.4843
X39.9527 Y-1.4953
X39.9301 Y-1.5053
X39.9071 Y-1.5141
X39.8818 Y-1.5221
X39.858 Y-1.5281
X39.8343 Y-1.5328
X39.8086 Y-1.5365
X39.7834 Y-1.5385
X39.7622 Y-1.5392
X39.5051
X39.4836 Y-1.5385
X39.4588 Y-1.5364
X39.4342 Y-1.533
X39.4091 Y-1.5281
X39.3848 Y-1.5218
X39.3621 Y-1.5146
X39.3387 Y-1.5059
X39.3146 Y-1.4953
X39.2913 Y-1.4832
X39.2711 Y-1.4713
X39.2556 Y-1.4612
X39.2465 Y-1.4551
X39.2322 Y-1.4474
X39.2167 Y-1.4422
X39.2128 Y-1.4413
X39.1966 Y-1.4393
X38.3668 Y-1.4396
X38.3507 Y-1.4422
X38.3468 Y-1.4433
X38.3315 Y-1.4491
X38.3208 Y-1.4552
X38.3125 Y-1.4608
X38.2966 Y-1.4712
X38.2749 Y-1.4839
X38.2527 Y-1.4953
X38.2297 Y-1.5055
X38.2064 Y-1.5143
X38.1824 Y-1.5219
X38.1581 Y-1.5281
X38.1335 Y-1.533
X38.1087 Y-1.5364
X38.0838 Y-1.5385
X38.0622 Y-1.5392
X37.8053
X37.7837 Y-1.5385
X37.7587 Y-1.5364
X37.7339 Y-1.533
X37.7093 Y-1.5281
X37.6849 Y-1.5219
X37.6611 Y-1.5143
X37.6377 Y-1.5055
X37.6148 Y-1.4953
X37.5925 Y-1.4839
X37.5709 Y-1.4712
X37.555 Y-1.4608
X37.5467 Y-1.4552
X37.5322 Y-1.4474
X37.5167 Y-1.4422
X37.5128 Y-1.4413
X37.4966 Y-1.4393
X36.6668 Y-1.4396
X36.6507 Y-1.4422
X36.6468 Y-1.4433
X36.6315 Y-1.4491
X36.6208 Y-1.4552
X36.6125 Y-1.4608
X36.5966 Y-1.4712
X36.5749 Y-1.4839
X36.5527 Y-1.4953
X36.5297 Y-1.5055
X36.5064 Y-1.5143
X36.4824 Y-1.5219
X36.4581 Y-1.5281
X36.4335 Y-1.533
X36.4087 Y-1.5364
X36.3838 Y-1.5385
X36.3622 Y-1.5392
X36.1053
X36.0837 Y-1.5385
X36.0587 Y-1.5364
X36.0339 Y-1.533
X36.0093 Y-1.5281
X35.9849 Y-1.5219
X35.9611 Y-1.5143
X35.9377 Y-1.5055
X35.9148 Y-1.4953
X35.8925 Y-1.4839
X35.8709 Y-1.4712
X35.855 Y-1.4608
X35.8467 Y-1.4552
X35.8322 Y-1.4474
X35.8167 Y-1.4422
X35.8128 Y-1.4413
X35.7966 Y-1.4393
X34.9668 Y-1.4396
X34.9507 Y-1.4422
X34.9468 Y-1.4433
X34.9315 Y-1.4491
X34.9208 Y-1.4552
X34.9125 Y-1.4608
X34.8966 Y-1.4712
X34.8749 Y-1.4839
X34.8527 Y-1.4953
X34.8297 Y-1.5055
X34.8064 Y-1.5143
X34.7824 Y-1.5219
X34.7581 Y-1.5281
X34.7335 Y-1.533
X34.7087 Y-1.5364
X34.6838 Y-1.5385
X34.6622 Y-1.5392
X34.4053
X34.3837 Y-1.5385
X34.3587 Y-1.5364
X34.334 Y-1.533
X34.3093 Y-1.5281
X34.2849 Y-1.5219
X34.2611 Y-1.5143
X34.2377 Y-1.5055
X34.2148 Y-1.4953
X34.1925 Y-1.4839
X34.1709 Y-1.4712
X34.155 Y-1.4608
X34.1467 Y-1.4552
X34.1322 Y-1.4474
X34.1167 Y-1.4422
X34.1128 Y-1.4413
X34.0966 Y-1.4393
X33.2668 Y-1.4396
X33.2507 Y-1.4422
X33.2468 Y-1.4433
X33.2315 Y-1.4491
X33.2208 Y-1.4552
X33.2125 Y-1.4608
X33.1966 Y-1.4712
X33.1749 Y-1.4839
X33.1527 Y-1.4953
X33.1297 Y-1.5055
X33.1064 Y-1.5143
X33.0824 Y-1.5219
X33.0581 Y-1.5281
X33.0335 Y-1.533
X33.0087 Y-1.5364
X32.9838 Y-1.5385
X32.9622 Y-1.5392
X32.7053
X32.6837 Y-1.5385
X32.6587 Y-1.5364
X32.634 Y-1.533
X32.6093 Y-1.5281
X32.5849 Y-1.5219
X32.5611 Y-1.5143
X32.5377 Y-1.5055
X32.5148 Y-1.4953
X32.4925 Y-1.4839
X32.4709 Y-1.4712
X32.455 Y-1.4608
X32.4467 Y-1.4552
X32.4322 Y-1.4474
X32.4167 Y-1.4422
X32.4128 Y-1.4413
X32.3966 Y-1.4393
X31.5668 Y-1.4396
X31.5507 Y-1.4422
X31.5468 Y-1.4433
X31.5315 Y-1.4491
X31.5208 Y-1.4552
X31.5125 Y-1.4608
X31.4966 Y-1.4712
X31.4749 Y-1.4839
X31.4527 Y-1.4953
X31.4297 Y-1.5055
X31.4064 Y-1.5143
X31.3824 Y-1.5219
X31.3581 Y-1.5281
X31.3335 Y-1.533
X31.3087 Y-1.5364
X31.2838 Y-1.5385
X31.2622 Y-1.5392
X31.0053
X30.9837 Y-1.5385
X30.9587 Y-1.5364
X30.934 Y-1.533
X30.9093 Y-1.5281
X30.8849 Y-1.5219
X30.8611 Y-1.5143
X30.8377 Y-1.5055
X30.8148 Y-1.4953
X30.7925 Y-1.4839
X30.7709 Y-1.4712
X30.755 Y-1.4608
X30.7467 Y-1.4552
X30.7322 Y-1.4474
X30.7167 Y-1.4422
X30.7128 Y-1.4413
X30.6966 Y-1.4393
X29.8668 Y-1.4396
X29.8507 Y-1.4422
X29.8468 Y-1.4433
X29.8315 Y-1.4491
X29.8208 Y-1.4552
X29.8125 Y-1.4608
X29.7966 Y-1.4712
X29.7749 Y-1.4839
X29.7527 Y-1.4953
X29.7297 Y-1.5055
X29.7064 Y-1.5143
X29.6824 Y-1.5219
X29.6581 Y-1.5281
X29.6335 Y-1.533
X29.6087 Y-1.5364
X29.5838 Y-1.5385
X29.5622 Y-1.5392
X29.3053
X29.2837 Y-1.5385
X29.2587 Y-1.5364
X29.234 Y-1.533
X29.2093 Y-1.5281
X29.1849 Y-1.5219
X29.1611 Y-1.5143
X29.1377 Y-1.5055
X29.1148 Y-1.4953
X29.0925 Y-1.4839
X29.0709 Y-1.4712
X29.055 Y-1.4608
X29.0467 Y-1.4552
X29.0322 Y-1.4474
X29.0167 Y-1.4422
X29.0128 Y-1.4413
X28.9966 Y-1.4393
X28.1668 Y-1.4396
X28.1507 Y-1.4422
X28.1468 Y-1.4433
X28.1315 Y-1.4491
X28.1208 Y-1.4552
X28.1125 Y-1.4608
X28.0966 Y-1.4712
X28.0749 Y-1.4839
X28.0527 Y-1.4953
X28.0297 Y-1.5055
X28.0064 Y-1.5143
X27.9824 Y-1.5219
X27.9581 Y-1.5281
X27.9335 Y-1.533
X27.9087 Y-1.5364
X27.8838 Y-1.5385
X27.8622 Y-1.5392
X27.6053
X27.5837 Y-1.5385
X27.5587 Y-1.5364
X27.534 Y-1.533
X27.5093 Y-1.5281
X27.4849 Y-1.5219
X27.4611 Y-1.5143
X27.4377 Y-1.5055
X27.4148 Y-1.4953
X27.3925 Y-1.4839
X27.3709 Y-1.4712
X27.355 Y-1.4608
X27.3467 Y-1.4552
X27.3322 Y-1.4474
X27.3167 Y-1.4422
X27.3128 Y-1.4413
X27.2966 Y-1.4393
X26.4668 Y-1.4396
X26.4507 Y-1.4422
X26.4468 Y-1.4433
X26.4315 Y-1.4491
X26.4208 Y-1.4552
X26.4125 Y-1.4608
X26.3966 Y-1.4712
X26.3749 Y-1.4839
X26.3527 Y-1.4953
X26.3297 Y-1.5055
X26.3064 Y-1.5143
X26.2824 Y-1.5219
X26.2581 Y-1.5281
X26.2335 Y-1.533
X26.2087 Y-1.5364
X26.1838 Y-1.5385
X26.1622 Y-1.5392
X25.9053
X25.8837 Y-1.5385
X25.8587 Y-1.5364
X25.8339 Y-1.533
X25.8093 Y-1.5281
X25.7849 Y-1.5219
X25.7611 Y-1.5143
X25.7377 Y-1.5055
X25.7148 Y-1.4953
X25.6925 Y-1.4839
X25.6709 Y-1.4712
X25.655 Y-1.4608
X25.6467 Y-1.4552
X25.6322 Y-1.4474
X25.6167 Y-1.4422
X25.6128 Y-1.4413
X25.5966 Y-1.4393
X24.7668 Y-1.4396
X24.7507 Y-1.4422
X24.7468 Y-1.4433
X24.7315 Y-1.4491
X24.7208 Y-1.4552
X24.7125 Y-1.4608
X24.6966 Y-1.4712
X24.6749 Y-1.4839
X24.6527 Y-1.4953
X24.6297 Y-1.5055
X24.6064 Y-1.5143
X24.5824 Y-1.5219
X24.5581 Y-1.5281
X24.5335 Y-1.533
X24.5087 Y-1.5364
X24.4838 Y-1.5385
X24.4622 Y-1.5392
X24.2053
X24.1837 Y-1.5385
X24.1587 Y-1.5364
X24.1339 Y-1.533
X24.1093 Y-1.5281
X24.0849 Y-1.5219
X24.0611 Y-1.5143
X24.0377 Y-1.5055
X24.0148 Y-1.4953
X23.9925 Y-1.4839
X23.9709 Y-1.4712
X23.955 Y-1.4608
X23.9467 Y-1.4552
X23.9322 Y-1.4474
X23.9167 Y-1.4422
X23.9128 Y-1.4413
X23.8966 Y-1.4393
X23.0668 Y-1.4396
X23.0507 Y-1.4422
X23.0468 Y-1.4433
X23.0315 Y-1.4491
X23.0208 Y-1.4552
X23.0125 Y-1.4608
X22.9966 Y-1.4712
X22.9749 Y-1.4839
X22.9527 Y-1.4953
X22.9297 Y-1.5055
X22.9064 Y-1.5143
X22.8824 Y-1.5219
X22.8581 Y-1.5281
X22.8335 Y-1.533
X22.8087 Y-1.5364
X22.7838 Y-1.5385
X22.7622 Y-1.5392
X22.5053
X22.4837 Y-1.5385
X22.4587 Y-1.5364
X22.4339 Y-1.533
X22.4093 Y-1.5281
X22.3849 Y-1.5219
X22.3611 Y-1.5143
X22.3377 Y-1.5055
X22.3148 Y-1.4953
X22.2925 Y-1.4839
X22.2709 Y-1.4712
X22.255 Y-1.4608
X22.2467 Y-1.4552
X22.2322 Y-1.4474
X22.2167 Y-1.4422
X22.2128 Y-1.4413
X22.1966 Y-1.4393
X21.3668 Y-1.4396
X21.3507 Y-1.4422
X21.3468 Y-1.4433
X21.3315 Y-1.4491
X21.3208 Y-1.4552
X21.3125 Y-1.4608
X21.2966 Y-1.4712
X21.2749 Y-1.4839
X21.2527 Y-1.4953
X21.2297 Y-1.5055
X21.2064 Y-1.5143
X21.1824 Y-1.5219
X21.1581 Y-1.5281
X21.1335 Y-1.533
X21.1087 Y-1.5364
X21.0838 Y-1.5385
X21.0622 Y-1.5392
X20.8053
X20.7837 Y-1.5385
X20.7587 Y-1.5364
X20.734 Y-1.533
X20.7093 Y-1.5281
X20.6849 Y-1.5219
X20.6611 Y-1.5143
X20.6377 Y-1.5055
X20.6148 Y-1.4953
X20.5925 Y-1.4839
X20.5709 Y-1.4712
X20.555 Y-1.4608
X20.5467 Y-1.4552
X20.5322 Y-1.4474
X20.5167 Y-1.4422
X20.5128 Y-1.4413
X20.4966 Y-1.4393
X19.6668 Y-1.4396
X19.6507 Y-1.4422
X19.6468 Y-1.4433
X19.6315 Y-1.4491
X19.6208 Y-1.4552
X19.6125 Y-1.4608
X19.5966 Y-1.4712
X19.5749 Y-1.4839
X19.5527 Y-1.4953
X19.5297 Y-1.5055
X19.5064 Y-1.5143
X19.4824 Y-1.5219
X19.4581 Y-1.5281
X19.4335 Y-1.533
X19.4087 Y-1.5364
X19.3838 Y-1.5385
X19.3622 Y-1.5392
X19.1053
X19.0837 Y-1.5385
X19.0587 Y-1.5364
X19.034 Y-1.533
X19.0093 Y-1.5281
X18.9849 Y-1.5219
X18.9611 Y-1.5143
X18.9377 Y-1.5055
X18.9148 Y-1.4953
X18.8925 Y-1.4839
X18.8709 Y-1.4712
X18.855 Y-1.4608
X18.8467 Y-1.4552
X18.8322 Y-1.4474
X18.8167 Y-1.4422
X18.8128 Y-1.4413
X18.7966 Y-1.4393
X17.9668 Y-1.4396
X17.9507 Y-1.4422
X17.9468 Y-1.4433
X17.9315 Y-1.4491
X17.9208 Y-1.4552
X17.9125 Y-1.4608
X17.8966 Y-1.4712
X17.8749 Y-1.4839
X17.8527 Y-1.4953
X17.8297 Y-1.5055
X17.8064 Y-1.5143
X17.7824 Y-1.5219
X17.7581 Y-1.5281
X17.7335 Y-1.533
X17.7087 Y-1.5364
X17.6838 Y-1.5385
X17.6622 Y-1.5392
X17.4053
X17.3837 Y-1.5385
X17.3587 Y-1.5364
X17.334 Y-1.533
X17.3093 Y-1.5281
X17.2849 Y-1.5219
X17.2611 Y-1.5143
X17.2377 Y-1.5055
X17.2148 Y-1.4953
X17.1925 Y-1.4839
X17.1709 Y-1.4712
X17.155 Y-1.4608
X17.1467 Y-1.4552
X17.1322 Y-1.4474
X17.1167 Y-1.4422
X17.1128 Y-1.4413
X17.0966 Y-1.4393
X16.2668 Y-1.4396
X16.2507 Y-1.4422
X16.2468 Y-1.4433
X16.2315 Y-1.4491
X16.2208 Y-1.4552
X16.2125 Y-1.4608
X16.1966 Y-1.4712
X16.1749 Y-1.4839
X16.1527 Y-1.4953
X16.1297 Y-1.5055
X16.1064 Y-1.5143
X16.0824 Y-1.5219
X16.0581 Y-1.5281
X16.0335 Y-1.533
X16.0087 Y-1.5364
X15.9838 Y-1.5385
X15.9622 Y-1.5392
X15.7053
X15.6837 Y-1.5385
X15.6587 Y-1.5364
X15.6339 Y-1.533
X15.6093 Y-1.5281
X15.5849 Y-1.5219
X15.5611 Y-1.5143
X15.5377 Y-1.5055
X15.5148 Y-1.4953
X15.4925 Y-1.4839
X15.4709 Y-1.4712
X15.455 Y-1.4608
X15.4467 Y-1.4552
X15.4322 Y-1.4474
X15.4167 Y-1.4422
X15.4128 Y-1.4413
X15.3966 Y-1.4393
X14.5668 Y-1.4396
X14.5507 Y-1.4422
X14.5468 Y-1.4433
X14.5315 Y-1.4491
X14.5208 Y-1.4552
X14.5125 Y-1.4608
X14.4966 Y-1.4712
X14.4749 Y-1.4839
X14.4527 Y-1.4953
X14.4297 Y-1.5055
X14.4064 Y-1.5143
X14.3824 Y-1.5219
X14.3581 Y-1.5281
X14.3335 Y-1.533
X14.3087 Y-1.5364
X14.2838 Y-1.5385
X14.2622 Y-1.5392
X14.0053
X13.9837 Y-1.5385
X13.9587 Y-1.5364
X13.934 Y-1.533
X13.9093 Y-1.5281
X13.8849 Y-1.5219
X13.8611 Y-1.5143
X13.8377 Y-1.5055
X13.8148 Y-1.4953
X13.7925 Y-1.4839
X13.7709 Y-1.4712
X13.755 Y-1.4608
X13.7467 Y-1.4552
X13.7322 Y-1.4474
X13.7167 Y-1.4422
X13.7128 Y-1.4413
X13.6966 Y-1.4393
X12.8668 Y-1.4396
X12.8507 Y-1.4422
X12.8468 Y-1.4433
X12.8315 Y-1.4491
X12.8208 Y-1.4552
X12.8125 Y-1.4608
X12.7966 Y-1.4712
X12.7749 Y-1.4839
X12.7527 Y-1.4953
X12.7297 Y-1.5055
X12.7064 Y-1.5143
X12.6824 Y-1.5219
X12.6581 Y-1.5281
X12.6335 Y-1.533
X12.6087 Y-1.5364
X12.5838 Y-1.5385
X12.5622 Y-1.5392
X12.3053
X12.2837 Y-1.5385
X12.2587 Y-1.5364
X12.234 Y-1.533
X12.2093 Y-1.5281
X12.1849 Y-1.5219
X12.1611 Y-1.5143
X12.1377 Y-1.5055
X12.1148 Y-1.4953
X12.0925 Y-1.4839
X12.0709 Y-1.4712
X12.055 Y-1.4608
X12.0467 Y-1.4552
X12.0322 Y-1.4474
X12.0167 Y-1.4422
X12.0128 Y-1.4413
X11.9966 Y-1.4393
X11.1668 Y-1.4396
X11.1507 Y-1.4422
X11.1468 Y-1.4433
X11.1315 Y-1.4491
X11.1208 Y-1.4552
X11.1125 Y-1.4608
X11.0966 Y-1.4712
X11.0749 Y-1.4839
X11.0527 Y-1.4953
X11.0297 Y-1.5055
X11.0064 Y-1.5143
X10.9824 Y-1.5219
X10.9581 Y-1.5281
X10.9335 Y-1.533
X10.9087 Y-1.5364
X10.8838 Y-1.5385
X10.8622 Y-1.5392
X10.6053
X10.5837 Y-1.5385
X10.5587 Y-1.5364
X10.534 Y-1.533
X10.5093 Y-1.5281
X10.4849 Y-1.5219
X10.4611 Y-1.5143
X10.4377 Y-1.5055
X10.4148 Y-1.4953
X10.3925 Y-1.4839
X10.3709 Y-1.4712
X10.355 Y-1.4608
X10.3467 Y-1.4552
X10.3322 Y-1.4474
X10.3167 Y-1.4422
X10.3128 Y-1.4413
X10.2966 Y-1.4393
X9.4668 Y-1.4396
X9.4507 Y-1.4422
X9.4468 Y-1.4433
X9.4315 Y-1.4491
X9.4208 Y-1.4552
X9.4125 Y-1.4608
X9.3966 Y-1.4712
X9.3749 Y-1.4839
X9.3527 Y-1.4953
X9.3297 Y-1.5055
X9.3064 Y-1.5143
X9.2824 Y-1.5219
X9.2581 Y-1.5281
X9.2335 Y-1.533
X9.2087 Y-1.5364
X9.1838 Y-1.5385
X9.1622 Y-1.5392
X8.9053
X8.8837 Y-1.5385
X8.8587 Y-1.5364
X8.834 Y-1.533
X8.8093 Y-1.5281
X8.7849 Y-1.5219
X8.7611 Y-1.5143
X8.7377 Y-1.5055
X8.7148 Y-1.4953
X8.6925 Y-1.4839
X8.6709 Y-1.4712
X8.655 Y-1.4608
X8.6467 Y-1.4552
X8.6322 Y-1.4474
X8.6167 Y-1.4422
X8.6128 Y-1.4413
X8.5966 Y-1.4393
X7.7668 Y-1.4396
X7.7507 Y-1.4422
X7.7468 Y-1.4433
X7.7315 Y-1.4491
X7.7208 Y-1.4552
X7.7125 Y-1.4608
X7.6966 Y-1.4712
X7.6749 Y-1.4839
X7.6527 Y-1.4953
X7.6297 Y-1.5055
X7.6064 Y-1.5143
X7.5824 Y-1.5219
X7.5581 Y-1.5281
X7.5335 Y-1.533
X7.5087 Y-1.5364
X7.4838 Y-1.5385
X7.4622 Y-1.5392
X7.2053
X7.1837 Y-1.5385
X7.1587 Y-1.5364
X7.134 Y-1.533
X7.1093 Y-1.5281
X7.0849 Y-1.5219
X7.0611 Y-1.5143
X7.0377 Y-1.5055
X7.0148 Y-1.4953
X6.9925 Y-1.4839
X6.9709 Y-1.4712
X6.955 Y-1.4608
X6.9467 Y-1.4552
X6.9322 Y-1.4474
X6.9167 Y-1.4422
X6.9128 Y-1.4413
X6.8966 Y-1.4393
X6.0668 Y-1.4396
X6.0507 Y-1.4422
X6.0468 Y-1.4433
X6.0315 Y-1.4491
X6.0208 Y-1.4552
X6.0125 Y-1.4608
X5.9966 Y-1.4712
X5.9749 Y-1.4839
X5.9527 Y-1.4953
X5.9297 Y-1.5055
X5.9064 Y-1.5143
X5.8824 Y-1.5219
X5.8581 Y-1.5281
X5.8335 Y-1.533
X5.8087 Y-1.5364
X5.7838 Y-1.5385
X5.7622 Y-1.5392
X5.5053
X5.4837 Y-1.5385
X5.4587 Y-1.5364
X5.434 Y-1.533
X5.4093 Y-1.5281
X5.3849 Y-1.5219
X5.3611 Y-1.5143
X5.3377 Y-1.5055
X5.3148 Y-1.4953
X5.2925 Y-1.4839
X5.2709 Y-1.4712
X5.255 Y-1.4608
X5.2467 Y-1.4552
X5.2322 Y-1.4474
X5.2167 Y-1.4422
X5.2128 Y-1.4413
X5.1966 Y-1.4393
X4.3668 Y-1.4396
X4.3507 Y-1.4422
X4.3468 Y-1.4433
X4.3315 Y-1.4491
X4.3208 Y-1.4552
X4.3125 Y-1.4608
X4.2966 Y-1.4712
X4.2749 Y-1.4839
X4.2527 Y-1.4953
X4.2297 Y-1.5055
X4.2064 Y-1.5143
X4.1824 Y-1.5219
X4.1581 Y-1.5281
X4.1335 Y-1.533
X4.1087 Y-1.5364
X4.0838 Y-1.5385
X4.0622 Y-1.5392
X3.8052
X3.7837 Y-1.5385
X3.7587 Y-1.5364
X3.7339 Y-1.533
X3.7093 Y-1.5281
X3.6851 Y-1.5219
X3.6611 Y-1.5143
X3.6377 Y-1.5055
X3.6148 Y-1.4953
X3.5925 Y-1.4839
X3.5709 Y-1.4712
X3.555 Y-1.4608
X3.5466 Y-1.4551
X3.5322 Y-1.4474
X3.5168 Y-1.4422
X3.5128 Y-1.4413
X3.4966 Y-1.4393
X2.6668 Y-1.4396
X2.6507 Y-1.4422
X2.6468 Y-1.4433
X2.6315 Y-1.4491
X2.6209 Y-1.4551
X2.6125 Y-1.4608
X2.5965 Y-1.4713
X2.5749 Y-1.4839
X2.5526 Y-1.4953
X2.5297 Y-1.5055
X2.5063 Y-1.5143
X2.4824 Y-1.5219
X2.4581 Y-1.5281
X2.4335 Y-1.533
X2.4087 Y-1.5364
X2.3838 Y-1.5385
X2.3622 Y-1.5392
X2.1052
X2.0837 Y-1.5385
X2.0587 Y-1.5364
X2.0339 Y-1.533
X2.0093 Y-1.5281
X1.9851 Y-1.5219
X1.9611 Y-1.5143
X1.9377 Y-1.5055
X1.9148 Y-1.4953
X1.8925 Y-1.4839
X1.8709 Y-1.4712
X1.855 Y-1.4608
X1.8466 Y-1.4551
X1.8322 Y-1.4474
X1.8168 Y-1.4422
X1.8007 Y-1.4396
X0.975 Y-1.4392
X0.475
X0.4638 Y-1.4405
X0.4533 Y-1.4442
X0.4438 Y-1.4501
X0.4359 Y-1.458
X0.4299 Y-1.4675
X0.4262 Y-1.4781
X0.425 Y-1.4892
X0.4235 Y-1.5004
X0.4221 Y-1.5114 Z-1.0567
X0.4208 Y-1.5219 Z-1.053
X0.4196 Y-1.5313 Z-1.0471
X0.4186 Y-1.5391 Z-1.0392
X0.4179 Y-1.545 Z-1.0297
X0.4174 Y-1.5487 Z-1.0191
X0.4172 Y-1.55 Z-1.008
G0 Z0.658
M5
G53 G0 Z0.

(TRACE5)
M1
T4 M6
S10000 M4
G17 G90 G94
G55
G0 X-0.1247 Y-1.4392
G43 Z0.658 H4
G0 Z0.522
G1 Z-0.358 F50.
X0.7181 Y-1.4396
X0.7349 Y-1.4425
X0.739 Y-1.4436
X0.7547 Y-1.4499
X0.7691 Y-1.4588
X0.7783 Y-1.466
X0.7937 Y-1.4773
X0.816 Y-1.4915
X0.8393 Y-1.5039
X0.8634 Y-1.5146
X0.8884 Y-1.5234
X0.9139 Y-1.5303
X0.9398 Y-1.5352
X0.9661 Y-1.5382
X0.9878 Y-1.5392
X1.2972
X1.3189 Y-1.5382
X1.3452 Y-1.5352
X1.3711 Y-1.5303
X1.3966 Y-1.5234
X1.4216 Y-1.5146
X1.4457 Y-1.5039
X1.469 Y-1.4915
X1.4913 Y-1.4773
X1.5229 Y-1.4541
X1.538 Y-1.4464
X1.5543 Y-1.4415
X1.5711 Y-1.4393
X2.4181 Y-1.4396
X2.4349 Y-1.4425
X2.439 Y-1.4436
X2.4547 Y-1.4499
X2.4691 Y-1.4588
X2.4783 Y-1.466
X2.4937 Y-1.4773
X2.516 Y-1.4915
X2.5393 Y-1.5039
X2.5634 Y-1.5146
X2.5884 Y-1.5234
X2.6139 Y-1.5303
X2.6398 Y-1.5352
X2.6661 Y-1.5382
X2.6878 Y-1.5392
X2.9972
X3.0189 Y-1.5382
X3.0452 Y-1.5352
X3.0711 Y-1.5303
X3.0966 Y-1.5234
X3.1216 Y-1.5146
X3.1457 Y-1.5039
X3.169 Y-1.4915
X3.1913 Y-1.4773
X3.2229 Y-1.4541
X3.238 Y-1.4464
X3.2543 Y-1.4415
X3.2711 Y-1.4393
X4.1181 Y-1.4396
X4.1349 Y-1.4425
X4.139 Y-1.4436
X4.1547 Y-1.4499
X4.1691 Y-1.4588
X4.1785 Y-1.4661
X4.1936 Y-1.4772
X4.2159 Y-1.4914
X4.2394 Y-1.504
X4.2634 Y-1.5145
X4.2884 Y-1.5234
X4.3138 Y-1.5303
X4.3398 Y-1.5352
X4.3662 Y-1.5382
X4.3878 Y-1.5392
X4.6972
X4.7189 Y-1.5382
X4.7452 Y-1.5352
X4.7712 Y-1.5303
X4.7966 Y-1.5234
X4.8216 Y-1.5145
X4.8456 Y-1.504
X4.8691 Y-1.4914
X4.8914 Y-1.4772
X4.9229 Y-1.4541
X4.9381 Y-1.4464
X4.9543 Y-1.4415
X4.9711 Y-1.4393
X5.8181 Y-1.4396
X5.8349 Y-1.4425
X5.839 Y-1.4436
X5.8547 Y-1.4499
X5.8691 Y-1.4588
X5.8785 Y-1.4661
X5.8936 Y-1.4772
X5.9159 Y-1.4914
X5.9394 Y-1.504
X5.9634 Y-1.5145
X5.9884 Y-1.5234
X6.0138 Y-1.5303
X6.0398 Y-1.5352
X6.0662 Y-1.5382
X6.0878 Y-1.5392
X6.3972
X6.4189 Y-1.5382
X6.4452 Y-1.5352
X6.4712 Y-1.5303
X6.4966 Y-1.5234
X6.5216 Y-1.5145
X6.5456 Y-1.504
X6.5691 Y-1.4914
X6.5914 Y-1.4772
X6.6229 Y-1.4541
X6.6381 Y-1.4464
X6.6543 Y-1.4415
X6.6711 Y-1.4393
X7.5181 Y-1.4396
X7.5349 Y-1.4425
X7.539 Y-1.4436
X7.5547 Y-1.4499
X7.5691 Y-1.4588
X7.5785 Y-1.4661
X7.5936 Y-1.4772
X7.6159 Y-1.4914
X7.6394 Y-1.504
X7.6634 Y-1.5145
X7.6884 Y-1.5234
X7.7138 Y-1.5303
X7.7398 Y-1.5352
X7.7662 Y-1.5382
X7.7878 Y-1.5392
X8.0972
X8.1189 Y-1.5382
X8.1452 Y-1.5352
X8.1712 Y-1.5303
X8.1966 Y-1.5234
X8.2216 Y-1.5145
X8.2456 Y-1.504
X8.2691 Y-1.4914
X8.2914 Y-1.4772
X8.3229 Y-1.4541
X8.3381 Y-1.4464
X8.3543 Y-1.4415
X8.3711 Y-1.4393
X9.2181 Y-1.4396
X9.2349 Y-1.4425
X9.239 Y-1.4436
X9.2547 Y-1.4499
X9.2691 Y-1.4588
X9.2785 Y-1.4661
X9.2936 Y-1.4772
X9.3159 Y-1.4914
X9.3394 Y-1.504
X9.3634 Y-1.5145
X9.3884 Y-1.5234
X9.4138 Y-1.5303
X9.4398 Y-1.5352
X9.4662 Y-1.5382
X9.4878 Y-1.5392
X9.7972
X9.8189 Y-1.5382
X9.8452 Y-1.5352
X9.8712 Y-1.5303
X9.8966 Y-1.5234
X9.9216 Y-1.5145
X9.9456 Y-1.504
X9.9691 Y-1.4914
X9.9914 Y-1.4772
X10.0229 Y-1.4541
X10.0381 Y-1.4464
X10.0543 Y-1.4415
X10.0711 Y-1.4393
X10.9181 Y-1.4396
X10.9349 Y-1.4425
X10.939 Y-1.4436
X10.9547 Y-1.4499
X10.9691 Y-1.4588
X10.9785 Y-1.4661
X10.9936 Y-1.4772
X11.0159 Y-1.4914
X11.0394 Y-1.504
X11.0634 Y-1.5145
X11.0884 Y-1.5234
X11.1138 Y-1.5303
X11.1398 Y-1.5352
X11.1662 Y-1.5382
X11.1878 Y-1.5392
X11.4972
X11.5189 Y-1.5382
X11.5452 Y-1.5352
X11.5712 Y-1.5303
X11.5966 Y-1.5234
X11.6216 Y-1.5145
X11.6456 Y-1.504
X11.6691 Y-1.4914
X11.6914 Y-1.4772
X11.7229 Y-1.4541
X11.7381 Y-1.4464
X11.7543 Y-1.4415
X11.7711 Y-1.4393
X12.6181 Y-1.4396
X12.6349 Y-1.4425
X12.639 Y-1.4436
X12.6547 Y-1.4499
X12.6691 Y-1.4588
X12.6785 Y-1.4661
X12.6936 Y-1.4772
X12.7159 Y-1.4914
X12.7394 Y-1.504
X12.7634 Y-1.5145
X12.7884 Y-1.5234
X12.8138 Y-1.5303
X12.8398 Y-1.5352
X12.8662 Y-1.5382
X12.8878 Y-1.5392
X13.1972
X13.2189 Y-1.5382
X13.2452 Y-1.5352
X13.2712 Y-1.5303
X13.2966 Y-1.5234
X13.3216 Y-1.5145
X13.3456 Y-1.504
X13.3691 Y-1.4914
X13.3914 Y-1.4772
X13.4229 Y-1.4541
X13.4381 Y-1.4464
X13.4543 Y-1.4415
X13.4711 Y-1.4393
X14.3181 Y-1.4396
X14.3349 Y-1.4425
X14.339 Y-1.4436
X14.3547 Y-1.4499
X14.3691 Y-1.4588
X14.3785 Y-1.4661
X14.3936 Y-1.4772
X14.4159 Y-1.4914
X14.4394 Y-1.504
X14.4634 Y-1.5145
X14.4884 Y-1.5234
X14.5138 Y-1.5303
X14.5398 Y-1.5352
X14.5662 Y-1.5382
X14.5878 Y-1.5392
X14.8972
X14.9189 Y-1.5382
X14.9452 Y-1.5352
X14.9712 Y-1.5303
X14.9966 Y-1.5234
X15.0216 Y-1.5145
X15.0456 Y-1.504
X15.0691 Y-1.4914
X15.0914 Y-1.4772
X15.1229 Y-1.4541
X15.1381 Y-1.4464
X15.1543 Y-1.4415
X15.1711 Y-1.4393
X16.0181 Y-1.4396
X16.0349 Y-1.4425
X16.039 Y-1.4436
X16.0547 Y-1.4499
X16.0691 Y-1.4588
X16.0785 Y-1.4661
X16.0936 Y-1.4772
X16.1159 Y-1.4914
X16.1394 Y-1.504
X16.1634 Y-1.5145
X16.1884 Y-1.5234
X16.2138 Y-1.5303
X16.2398 Y-1.5352
X16.2662 Y-1.5382
X16.2878 Y-1.5392
X16.5972
X16.6189 Y-1.5382
X16.6452 Y-1.5352
X16.6712 Y-1.5303
X16.6966 Y-1.5234
X16.7216 Y-1.5145
X16.7456 Y-1.504
X16.7691 Y-1.4914
X16.7914 Y-1.4772
X16.8229 Y-1.4541
X16.8381 Y-1.4464
X16.8543 Y-1.4415
X16.8711 Y-1.4393
X17.7181 Y-1.4396
X17.7349 Y-1.4425
X17.739 Y-1.4436
X17.7547 Y-1.4499
X17.7691 Y-1.4588
X17.7785 Y-1.4661
X17.7936 Y-1.4772
X17.8159 Y-1.4914
X17.8394 Y-1.504
X17.8634 Y-1.5145
X17.8884 Y-1.5234
X17.9138 Y-1.5303
X17.9398 Y-1.5352
X17.9662 Y-1.5382
X17.9878 Y-1.5392
X18.2972
X18.3189 Y-1.5382
X18.3452 Y-1.5352
X18.3712 Y-1.5303
X18.3966 Y-1.5234
X18.4216 Y-1.5145
X18.4456 Y-1.504
X18.4691 Y-1.4914
X18.4914 Y-1.4772
X18.5229 Y-1.4541
X18.5381 Y-1.4464
X18.5543 Y-1.4415
X18.5711 Y-1.4393
X19.4181 Y-1.4396
X19.4349 Y-1.4425
X19.439 Y-1.4436
X19.4547 Y-1.4499
X19.4691 Y-1.4588
X19.4785 Y-1.4661
X19.4936 Y-1.4772
X19.5159 Y-1.4914
X19.5394 Y-1.504
X19.5634 Y-1.5145
X19.5884 Y-1.5234
X19.6138 Y-1.5303
X19.6398 Y-1.5352
X19.6662 Y-1.5382
X19.6878 Y-1.5392
X19.9972
X20.0189 Y-1.5382
X20.0452 Y-1.5352
X20.0712 Y-1.5303
X20.0966 Y-1.5234
X20.1216 Y-1.5145
X20.1456 Y-1.504
X20.1691 Y-1.4914
X20.1914 Y-1.4772
X20.2229 Y-1.4541
X20.2381 Y-1.4464
X20.2543 Y-1.4415
X20.2711 Y-1.4393
X21.1181 Y-1.4396
X21.1349 Y-1.4425
X21.139 Y-1.4436
X21.1547 Y-1.4499
X21.1691 Y-1.4588
X21.1785 Y-1.4661
X21.1936 Y-1.4772
X21.2159 Y-1.4914
X21.2394 Y-1.504
X21.2634 Y-1.5145
X21.2884 Y-1.5234
X21.3138 Y-1.5303
X21.3398 Y-1.5352
X21.3662 Y-1.5382
X21.3878 Y-1.5392
X21.6972
X21.7189 Y-1.5382
X21.7452 Y-1.5352
X21.7712 Y-1.5303
X21.7966 Y-1.5234
X21.8216 Y-1.5145
X21.8456 Y-1.504
X21.8691 Y-1.4914
X21.8914 Y-1.4772
X21.9229 Y-1.4541
X21.9381 Y-1.4464
X21.9543 Y-1.4415
X21.9711 Y-1.4393
X22.8181 Y-1.4396
X22.8349 Y-1.4425
X22.839 Y-1.4436
X22.8547 Y-1.4499
X22.8691 Y-1.4588
X22.8785 Y-1.4661
X22.8936 Y-1.4772
X22.9159 Y-1.4914
X22.9394 Y-1.504
X22.9634 Y-1.5145
X22.9884 Y-1.5234
X23.0138 Y-1.5303
X23.0398 Y-1.5352
X23.0662 Y-1.5382
X23.0878 Y-1.5392
X23.3972
X23.4189 Y-1.5382
X23.4452 Y-1.5352
X23.4712 Y-1.5303
X23.4966 Y-1.5234
X23.5216 Y-1.5145
X23.5456 Y-1.504
X23.5691 Y-1.4914
X23.5914 Y-1.4772
X23.6229 Y-1.4541
X23.6381 Y-1.4464
X23.6543 Y-1.4415
X23.6711 Y-1.4393
X24.5181 Y-1.4396
X24.5349 Y-1.4425
X24.539 Y-1.4436
X24.5547 Y-1.4499
X24.5691 Y-1.4588
X24.5785 Y-1.4661
X24.5936 Y-1.4772
X24.6159 Y-1.4914
X24.6394 Y-1.504
X24.6634 Y-1.5145
X24.6884 Y-1.5234
X24.7138 Y-1.5303
X24.7398 Y-1.5352
X24.7662 Y-1.5382
X24.7878 Y-1.5392
X25.0972
X25.1189 Y-1.5382
X25.1452 Y-1.5352
X25.1712 Y-1.5303
X25.1966 Y-1.5234
X25.2216 Y-1.5145
X25.2456 Y-1.504
X25.2691 Y-1.4914
X25.2914 Y-1.4772
X25.3229 Y-1.4541
X25.3381 Y-1.4464
X25.3543 Y-1.4415
X25.3711 Y-1.4393
X26.2181 Y-1.4396
X26.2349 Y-1.4425
X26.239 Y-1.4436
X26.2547 Y-1.4499
X26.2691 Y-1.4588
X26.2785 Y-1.4661
X26.2936 Y-1.4772
X26.3159 Y-1.4914
X26.3394 Y-1.504
X26.3634 Y-1.5145
X26.3884 Y-1.5234
X26.4138 Y-1.5303
X26.4398 Y-1.5352
X26.4662 Y-1.5382
X26.4878 Y-1.5392
X26.7972
X26.8189 Y-1.5382
X26.8452 Y-1.5352
X26.8712 Y-1.5303
X26.8966 Y-1.5234
X26.9216 Y-1.5145
X26.9456 Y-1.504
X26.9691 Y-1.4914
X26.9914 Y-1.4772
X27.0229 Y-1.4541
X27.0381 Y-1.4464
X27.0543 Y-1.4415
X27.0711 Y-1.4393
X27.9181 Y-1.4396
X27.9349 Y-1.4425
X27.939 Y-1.4436
X27.9547 Y-1.4499
X27.9691 Y-1.4588
X27.9785 Y-1.4661
X27.9936 Y-1.4772
X28.0159 Y-1.4914
X28.0394 Y-1.504
X28.0634 Y-1.5145
X28.0884 Y-1.5234
X28.1138 Y-1.5303
X28.1398 Y-1.5352
X28.1662 Y-1.5382
X28.1878 Y-1.5392
X28.4972
X28.5189 Y-1.5382
X28.5452 Y-1.5352
X28.5712 Y-1.5303
X28.5966 Y-1.5234
X28.6216 Y-1.5145
X28.6456 Y-1.504
X28.6691 Y-1.4914
X28.6914 Y-1.4772
X28.7229 Y-1.4541
X28.7381 Y-1.4464
X28.7543 Y-1.4415
X28.7711 Y-1.4393
X29.6181 Y-1.4396
X29.6349 Y-1.4425
X29.639 Y-1.4436
X29.6547 Y-1.4499
X29.6691 Y-1.4588
X29.6785 Y-1.4661
X29.6936 Y-1.4772
X29.7159 Y-1.4914
X29.7394 Y-1.504
X29.7634 Y-1.5145
X29.7884 Y-1.5234
X29.8138 Y-1.5303
X29.8398 Y-1.5352
X29.8662 Y-1.5382
X29.8878 Y-1.5392
X30.1972
X30.2189 Y-1.5382
X30.2452 Y-1.5352
X30.2712 Y-1.5303
X30.2966 Y-1.5234
X30.3216 Y-1.5145
X30.3456 Y-1.504
X30.3691 Y-1.4914
X30.3914 Y-1.4772
X30.4229 Y-1.4541
X30.4381 Y-1.4464
X30.4543 Y-1.4415
X30.4711 Y-1.4393
X31.3181 Y-1.4396
X31.3349 Y-1.4425
X31.339 Y-1.4436
X31.3547 Y-1.4499
X31.3691 Y-1.4588
X31.3785 Y-1.4661
X31.3936 Y-1.4772
X31.4159 Y-1.4914
X31.4394 Y-1.504
X31.4634 Y-1.5145
X31.4884 Y-1.5234
X31.5138 Y-1.5303
X31.5398 Y-1.5352
X31.5662 Y-1.5382
X31.5878 Y-1.5392
X31.8972
X31.9189 Y-1.5382
X31.9452 Y-1.5352
X31.9712 Y-1.5303
X31.9966 Y-1.5234
X32.0216 Y-1.5145
X32.0456 Y-1.504
X32.0691 Y-1.4914
X32.0914 Y-1.4772
X32.1229 Y-1.4541
X32.1381 Y-1.4464
X32.1543 Y-1.4415
X32.1711 Y-1.4393
X33.0181 Y-1.4396
X33.0349 Y-1.4425
X33.039 Y-1.4436
X33.0547 Y-1.4499
X33.0691 Y-1.4588
X33.0785 Y-1.4661
X33.0936 Y-1.4772
X33.1159 Y-1.4914
X33.1394 Y-1.504
X33.1634 Y-1.5145
X33.1884 Y-1.5234
X33.2138 Y-1.5303
X33.2398 Y-1.5352
X33.2662 Y-1.5382
X33.2878 Y-1.5392
X33.5972
X33.6189 Y-1.5382
X33.6452 Y-1.5352
X33.6712 Y-1.5303
X33.6966 Y-1.5234
X33.7216 Y-1.5145
X33.7456 Y-1.504
X33.7691 Y-1.4914
X33.7914 Y-1.4772
X33.8229 Y-1.4541
X33.8381 Y-1.4464
X33.8543 Y-1.4415
X33.8711 Y-1.4393
X34.7181 Y-1.4396
X34.7349 Y-1.4425
X34.739 Y-1.4436
X34.7547 Y-1.4499
X34.7691 Y-1.4588
X34.7785 Y-1.4661
X34.7936 Y-1.4772
X34.8159 Y-1.4914
X34.8394 Y-1.504
X34.8634 Y-1.5145
X34.8884 Y-1.5234
X34.9138 Y-1.5303
X34.9398 Y-1.5352
X34.9662 Y-1.5382
X34.9878 Y-1.5392
X35.2972
X35.3189 Y-1.5382
X35.3452 Y-1.5352
X35.3712 Y-1.5303
X35.3966 Y-1.5234
X35.4216 Y-1.5145
X35.4456 Y-1.504
X35.4691 Y-1.4914
X35.4914 Y-1.4772
X35.5229 Y-1.4541
X35.5381 Y-1.4464
X35.5543 Y-1.4415
X35.5711 Y-1.4393
X36.4181 Y-1.4396
X36.4349 Y-1.4425
X36.439 Y-1.4436
X36.4547 Y-1.4499
X36.4691 Y-1.4588
X36.4785 Y-1.4661
X36.4936 Y-1.4772
X36.5159 Y-1.4914
X36.5394 Y-1.504
X36.5634 Y-1.5145
X36.5884 Y-1.5234
X36.6138 Y-1.5303
X36.6398 Y-1.5352
X36.6662 Y-1.5382
X36.6878 Y-1.5392
X36.9972
X37.0189 Y-1.5382
X37.0452 Y-1.5352
X37.0712 Y-1.5303
X37.0966 Y-1.5234
X37.1216 Y-1.5145
X37.1456 Y-1.504
X37.1691 Y-1.4914
X37.1914 Y-1.4772
X37.2229 Y-1.4541
X37.2381 Y-1.4464
X37.2543 Y-1.4415
X37.2711 Y-1.4393
X38.1181 Y-1.4396
X38.1349 Y-1.4425
X38.139 Y-1.4436
X38.1547 Y-1.4499
X38.1691 Y-1.4588
X38.1785 Y-1.4661
X38.1936 Y-1.4772
X38.2159 Y-1.4914
X38.2394 Y-1.504
X38.2634 Y-1.5145
X38.2884 Y-1.5234
X38.3138 Y-1.5303
X38.3398 Y-1.5352
X38.3662 Y-1.5382
X38.3878 Y-1.5392
X38.6972
X38.7189 Y-1.5382
X38.7452 Y-1.5352
X38.7712 Y-1.5303
X38.7966 Y-1.5234
X38.8216 Y-1.5145
X38.8456 Y-1.504
X38.8691 Y-1.4914
X38.8914 Y-1.4772
X38.9229 Y-1.4541
X38.9381 Y-1.4464
X38.9543 Y-1.4415
X38.9711 Y-1.4393
X39.8184 Y-1.4396
X39.8349 Y-1.4424
X39.8388 Y-1.4436
X39.8541 Y-1.4497
X39.8679 Y-1.458
X39.8804 Y-1.4676
X39.8953 Y-1.4783
X39.9157 Y-1.4913
X39.9383 Y-1.5034
X39.9618 Y-1.514
X39.9888 Y-1.5236
X40.0149 Y-1.5305
X40.0401 Y-1.5353
X40.0661 Y-1.5382
X40.0878 Y-1.5392
X40.3973
X40.4189 Y-1.5382
X40.445 Y-1.5353
X40.4701 Y-1.5305
X40.4962 Y-1.5236
X40.5232 Y-1.514
X40.5468 Y-1.5034
X40.5693 Y-1.4913
X40.5897 Y-1.4783
X40.6063 Y-1.4664
X40.6168 Y-1.458
X40.6339 Y-1.4482
X40.6501 Y-1.4424
X40.6541 Y-1.4415
X40.6712 Y-1.4393
X41.5184 Y-1.4396
X41.5349 Y-1.4424
X41.5388 Y-1.4436
X41.5541 Y-1.4497
X41.5679 Y-1.458
X41.5804 Y-1.4676
X41.5953 Y-1.4783
X41.6157 Y-1.4913
X41.6383 Y-1.5034
X41.6618 Y-1.514
X41.6888 Y-1.5236
X41.7149 Y-1.5305
X41.7401 Y-1.5353
X41.7661 Y-1.5382
X41.7878 Y-1.5392
X42.0973
X42.1189 Y-1.5382
X42.145 Y-1.5353
X42.1701 Y-1.5305
X42.1962 Y-1.5236
X42.2232 Y-1.514
X42.2468 Y-1.5034
X42.2693 Y-1.4913
X42.2897 Y-1.4783
X42.3063 Y-1.4664
X42.3168 Y-1.458
X42.3339 Y-1.4482
X42.3501 Y-1.4424
X42.3541 Y-1.4415
X42.3712 Y-1.4393
X43.2184 Y-1.4396
X43.2349 Y-1.4424
X43.2388 Y-1.4436
X43.2541 Y-1.4497
X43.2679 Y-1.458
X43.2804 Y-1.4676
X43.2953 Y-1.4783
X43.3157 Y-1.4913
X43.3383 Y-1.5034
X43.3618 Y-1.514
X43.3888 Y-1.5236
X43.4149 Y-1.5305
X43.4401 Y-1.5353
X43.4661 Y-1.5382
X43.4878 Y-1.5392
X43.7973
X43.8189 Y-1.5382
X43.845 Y-1.5353
X43.8701 Y-1.5305
X43.8962 Y-1.5236
X43.9232 Y-1.514
X43.9468 Y-1.5034
X43.9693 Y-1.4913
X43.9897 Y-1.4783
X44.0063 Y-1.4664
X44.0168 Y-1.458
X44.0339 Y-1.4482
X44.0501 Y-1.4424
X44.0541 Y-1.4415
X44.0712 Y-1.4393
X45.3252 Y-1.4392
Z0.522
G0 Z0.5222
X-0.1247
G1 Z-1.058 F50.
X0.7181 Y-1.4396
X0.7349 Y-1.4425
X0.739 Y-1.4436
X0.7547 Y-1.4499
X0.7691 Y-1.4588
X0.7783 Y-1.466
X0.7937 Y-1.4773
X0.816 Y-1.4915
X0.8393 Y-1.5039
X0.8634 Y-1.5146
X0.8884 Y-1.5234
X0.9139 Y-1.5303
X0.9398 Y-1.5352
X0.9661 Y-1.5382
X0.9878 Y-1.5392
X1.2972
X1.3189 Y-1.5382
X1.3452 Y-1.5352
X1.3711 Y-1.5303
X1.3966 Y-1.5234
X1.4216 Y-1.5146
X1.4457 Y-1.5039
X1.469 Y-1.4915
X1.4913 Y-1.4773
X1.5229 Y-1.4541
X1.538 Y-1.4464
X1.5543 Y-1.4415
X1.5711 Y-1.4393
X2.4181 Y-1.4396
X2.4349 Y-1.4425
X2.439 Y-1.4436
X2.4547 Y-1.4499
X2.4691 Y-1.4588
X2.4783 Y-1.466
X2.4937 Y-1.4773
X2.516 Y-1.4915
X2.5393 Y-1.5039
X2.5634 Y-1.5146
X2.5884 Y-1.5234
X2.6139 Y-1.5303
X2.6398 Y-1.5352
X2.6661 Y-1.5382
X2.6878 Y-1.5392
X2.9972
X3.0189 Y-1.5382
X3.0452 Y-1.5352
X3.0711 Y-1.5303
X3.0966 Y-1.5234
X3.1216 Y-1.5146
X3.1457 Y-1.5039
X3.169 Y-1.4915
X3.1913 Y-1.4773
X3.2229 Y-1.4541
X3.238 Y-1.4464
X3.2543 Y-1.4415
X3.2711 Y-1.4393
X4.1181 Y-1.4396
X4.1349 Y-1.4425
X4.139 Y-1.4436
X4.1547 Y-1.4499
X4.1691 Y-1.4588
X4.1785 Y-1.4661
X4.1936 Y-1.4772
X4.2159 Y-1.4914
X4.2394 Y-1.504
X4.2634 Y-1.5145
X4.2884 Y-1.5234
X4.3138 Y-1.5303
X4.3398 Y-1.5352
X4.3662 Y-1.5382
X4.3878 Y-1.5392
X4.6972
X4.7189 Y-1.5382
X4.7452 Y-1.5352
X4.7712 Y-1.5303
X4.7966 Y-1.5234
X4.8216 Y-1.5145
X4.8456 Y-1.504
X4.8691 Y-1.4914
X4.8914 Y-1.4772
X4.9229 Y-1.4541
X4.9381 Y-1.4464
X4.9543 Y-1.4415
X4.9711 Y-1.4393
X5.8181 Y-1.4396
X5.8349 Y-1.4425
X5.839 Y-1.4436
X5.8547 Y-1.4499
X5.8691 Y-1.4588
X5.8785 Y-1.4661
X5.8936 Y-1.4772
X5.9159 Y-1.4914
X5.9394 Y-1.504
X5.9634 Y-1.5145
X5.9884 Y-1.5234
X6.0138 Y-1.5303
X6.0398 Y-1.5352
X6.0662 Y-1.5382
X6.0878 Y-1.5392
X6.3972
X6.4189 Y-1.5382
X6.4452 Y-1.5352
X6.4712 Y-1.5303
X6.4966 Y-1.5234
X6.5216 Y-1.5145
X6.5456 Y-1.504
X6.5691 Y-1.4914
X6.5914 Y-1.4772
X6.6229 Y-1.4541
X6.6381 Y-1.4464
X6.6543 Y-1.4415
X6.6711 Y-1.4393
X7.5181 Y-1.4396
X7.5349 Y-1.4425
X7.539 Y-1.4436
X7.5547 Y-1.4499
X7.5691 Y-1.4588
X7.5785 Y-1.4661
X7.5936 Y-1.4772
X7.6159 Y-1.4914
X7.6394 Y-1.504
X7.6634 Y-1.5145
X7.6884 Y-1.5234
X7.7138 Y-1.5303
X7.7398 Y-1.5352
X7.7662 Y-1.5382
X7.7878 Y-1.5392
X8.0972
X8.1189 Y-1.5382
X8.1452 Y-1.5352
X8.1712 Y-1.5303
X8.1966 Y-1.5234
X8.2216 Y-1.5145
X8.2456 Y-1.504
X8.2691 Y-1.4914
X8.2914 Y-1.4772
X8.3229 Y-1.4541
X8.3381 Y-1.4464
X8.3543 Y-1.4415
X8.3711 Y-1.4393
X9.2181 Y-1.4396
X9.2349 Y-1.4425
X9.239 Y-1.4436
X9.2547 Y-1.4499
X9.2691 Y-1.4588
X9.2785 Y-1.4661
X9.2936 Y-1.4772
X9.3159 Y-1.4914
X9.3394 Y-1.504
X9.3634 Y-1.5145
X9.3884 Y-1.5234
X9.4138 Y-1.5303
X9.4398 Y-1.5352
X9.4662 Y-1.5382
X9.4878 Y-1.5392
X9.7972
X9.8189 Y-1.5382
X9.8452 Y-1.5352
X9.8712 Y-1.5303
X9.8966 Y-1.5234
X9.9216 Y-1.5145
X9.9456 Y-1.504
X9.9691 Y-1.4914
X9.9914 Y-1.4772
X10.0229 Y-1.4541
X10.0381 Y-1.4464
X10.0543 Y-1.4415
X10.0711 Y-1.4393
X10.9181 Y-1.4396
X10.9349 Y-1.4425
X10.939 Y-1.4436
X10.9547 Y-1.4499
X10.9691 Y-1.4588
X10.9785 Y-1.4661
X10.9936 Y-1.4772
X11.0159 Y-1.4914
X11.0394 Y-1.504
X11.0634 Y-1.5145
X11.0884 Y-1.5234
X11.1138 Y-1.5303
X11.1398 Y-1.5352
X11.1662 Y-1.5382
X11.1878 Y-1.5392
X11.4972
X11.5189 Y-1.5382
X11.5452 Y-1.5352
X11.5712 Y-1.5303
X11.5966 Y-1.5234
X11.6216 Y-1.5145
X11.6456 Y-1.504
X11.6691 Y-1.4914
X11.6914 Y-1.4772
X11.7229 Y-1.4541
X11.7381 Y-1.4464
X11.7543 Y-1.4415
X11.7711 Y-1.4393
X12.6181 Y-1.4396
X12.6349 Y-1.4425
X12.639 Y-1.4436
X12.6547 Y-1.4499
X12.6691 Y-1.4588
X12.6785 Y-1.4661
X12.6936 Y-1.4772
X12.7159 Y-1.4914
X12.7394 Y-1.504
X12.7634 Y-1.5145
X12.7884 Y-1.5234
X12.8138 Y-1.5303
X12.8398 Y-1.5352
X12.8662 Y-1.5382
X12.8878 Y-1.5392
X13.1972
X13.2189 Y-1.5382
X13.2452 Y-1.5352
X13.2712 Y-1.5303
X13.2966 Y-1.5234
X13.3216 Y-1.5145
X13.3456 Y-1.504
X13.3691 Y-1.4914
X13.3914 Y-1.4772
X13.4229 Y-1.4541
X13.4381 Y-1.4464
X13.4543 Y-1.4415
X13.4711 Y-1.4393
X14.3181 Y-1.4396
X14.3349 Y-1.4425
X14.339 Y-1.4436
X14.3547 Y-1.4499
X14.3691 Y-1.4588
X14.3785 Y-1.4661
X14.3936 Y-1.4772
X14.4159 Y-1.4914
X14.4394 Y-1.504
X14.4634 Y-1.5145
X14.4884 Y-1.5234
X14.5138 Y-1.5303
X14.5398 Y-1.5352
X14.5662 Y-1.5382
X14.5878 Y-1.5392
X14.8972
X14.9189 Y-1.5382
X14.9452 Y-1.5352
X14.9712 Y-1.5303
X14.9966 Y-1.5234
X15.0216 Y-1.5145
X15.0456 Y-1.504
X15.0691 Y-1.4914
X15.0914 Y-1.4772
X15.1229 Y-1.4541
X15.1381 Y-1.4464
X15.1543 Y-1.4415
X15.1711 Y-1.4393
X16.0181 Y-1.4396
X16.0349 Y-1.4425
X16.039 Y-1.4436
X16.0547 Y-1.4499
X16.0691 Y-1.4588
X16.0785 Y-1.4661
X16.0936 Y-1.4772
X16.1159 Y-1.4914
X16.1394 Y-1.504
X16.1634 Y-1.5145
X16.1884 Y-1.5234
X16.2138 Y-1.5303
X16.2398 Y-1.5352
X16.2662 Y-1.5382
X16.2878 Y-1.5392
X16.5972
X16.6189 Y-1.5382
X16.6452 Y-1.5352
X16.6712 Y-1.5303
X16.6966 Y-1.5234
X16.7216 Y-1.5145
X16.7456 Y-1.504
X16.7691 Y-1.4914
X16.7914 Y-1.4772
X16.8229 Y-1.4541
X16.8381 Y-1.4464
X16.8543 Y-1.4415
X16.8711 Y-1.4393
X17.7181 Y-1.4396
X17.7349 Y-1.4425
X17.739 Y-1.4436
X17.7547 Y-1.4499
X17.7691 Y-1.4588
X17.7785 Y-1.4661
X17.7936 Y-1.4772
X17.8159 Y-1.4914
X17.8394 Y-1.504
X17.8634 Y-1.5145
X17.8884 Y-1.5234
X17.9138 Y-1.5303
X17.9398 Y-1.5352
X17.9662 Y-1.5382
X17.9878 Y-1.5392
X18.2972
X18.3189 Y-1.5382
X18.3452 Y-1.5352
X18.3712 Y-1.5303
X18.3966 Y-1.5234
X18.4216 Y-1.5145
X18.4456 Y-1.504
X18.4691 Y-1.4914
X18.4914 Y-1.4772
X18.5229 Y-1.4541
X18.5381 Y-1.4464
X18.5543 Y-1.4415
X18.5711 Y-1.4393
X19.4181 Y-1.4396
X19.4349 Y-1.4425
X19.439 Y-1.4436
X19.4547 Y-1.4499
X19.4691 Y-1.4588
X19.4785 Y-1.4661
X19.4936 Y-1.4772
X19.5159 Y-1.4914
X19.5394 Y-1.504
X19.5634 Y-1.5145
X19.5884 Y-1.5234
X19.6138 Y-1.5303
X19.6398 Y-1.5352
X19.6662 Y-1.5382
X19.6878 Y-1.5392
X19.9972
X20.0189 Y-1.5382
X20.0452 Y-1.5352
X20.0712 Y-1.5303
X20.0966 Y-1.5234
X20.1216 Y-1.5145
X20.1456 Y-1.504
X20.1691 Y-1.4914
X20.1914 Y-1.4772
X20.2229 Y-1.4541
X20.2381 Y-1.4464
X20.2543 Y-1.4415
X20.2711 Y-1.4393
X21.1181 Y-1.4396
X21.1349 Y-1.4425
X21.139 Y-1.4436
X21.1547 Y-1.4499
X21.1691 Y-1.4588
X21.1785 Y-1.4661
X21.1936 Y-1.4772
X21.2159 Y-1.4914
X21.2394 Y-1.504
X21.2634 Y-1.5145
X21.2884 Y-1.5234
X21.3138 Y-1.5303
X21.3398 Y-1.5352
X21.3662 Y-1.5382
X21.3878 Y-1.5392
X21.6972
X21.7189 Y-1.5382
X21.7452 Y-1.5352
X21.7712 Y-1.5303
X21.7966 Y-1.5234
X21.8216 Y-1.5145
X21.8456 Y-1.504
X21.8691 Y-1.4914
X21.8914 Y-1.4772
X21.9229 Y-1.4541
X21.9381 Y-1.4464
X21.9543 Y-1.4415
X21.9711 Y-1.4393
X22.8181 Y-1.4396
X22.8349 Y-1.4425
X22.839 Y-1.4436
X22.8547 Y-1.4499
X22.8691 Y-1.4588
X22.8785 Y-1.4661
X22.8936 Y-1.4772
X22.9159 Y-1.4914
X22.9394 Y-1.504
X22.9634 Y-1.5145
X22.9884 Y-1.5234
X23.0138 Y-1.5303
X23.0398 Y-1.5352
X23.0662 Y-1.5382
X23.0878 Y-1.5392
X23.3972
X23.4189 Y-1.5382
X23.4452 Y-1.5352
X23.4712 Y-1.5303
X23.4966 Y-1.5234
X23.5216 Y-1.5145
X23.5456 Y-1.504
X23.5691 Y-1.4914
X23.5914 Y-1.4772
X23.6229 Y-1.4541
X23.6381 Y-1.4464
X23.6543 Y-1.4415
X23.6711 Y-1.4393
X24.5181 Y-1.4396
X24.5349 Y-1.4425
X24.539 Y-1.4436
X24.5547 Y-1.4499
X24.5691 Y-1.4588
X24.5785 Y-1.4661
X24.5936 Y-1.4772
X24.6159 Y-1.4914
X24.6394 Y-1.504
X24.6634 Y-1.5145
X24.6884 Y-1.5234
X24.7138 Y-1.5303
X24.7398 Y-1.5352
X24.7662 Y-1.5382
X24.7878 Y-1.5392
X25.0972
X25.1189 Y-1.5382
X25.1452 Y-1.5352
X25.1712 Y-1.5303
X25.1966 Y-1.5234
X25.2216 Y-1.5145
X25.2456 Y-1.504
X25.2691 Y-1.4914
X25.2914 Y-1.4772
X25.3229 Y-1.4541
X25.3381 Y-1.4464
X25.3543 Y-1.4415
X25.3711 Y-1.4393
X26.2181 Y-1.4396
X26.2349 Y-1.4425
X26.239 Y-1.4436
X26.2547 Y-1.4499
X26.2691 Y-1.4588
X26.2785 Y-1.4661
X26.2936 Y-1.4772
X26.3159 Y-1.4914
X26.3394 Y-1.504
X26.3634 Y-1.5145
X26.3884 Y-1.5234
X26.4138 Y-1.5303
X26.4398 Y-1.5352
X26.4662 Y-1.5382
X26.4878 Y-1.5392
X26.7972
X26.8189 Y-1.5382
X26.8452 Y-1.5352
X26.8712 Y-1.5303
X26.8966 Y-1.5234
X26.9216 Y-1.5145
X26.9456 Y-1.504
X26.9691 Y-1.4914
X26.9914 Y-1.4772
X27.0229 Y-1.4541
X27.0381 Y-1.4464
X27.0543 Y-1.4415
X27.0711 Y-1.4393
X27.9181 Y-1.4396
X27.9349 Y-1.4425
X27.939 Y-1.4436
X27.9547 Y-1.4499
X27.9691 Y-1.4588
X27.9785 Y-1.4661
X27.9936 Y-1.4772
X28.0159 Y-1.4914
X28.0394 Y-1.504
X28.0634 Y-1.5145
X28.0884 Y-1.5234
X28.1138 Y-1.5303
X28.1398 Y-1.5352
X28.1662 Y-1.5382
X28.1878 Y-1.5392
X28.4972
X28.5189 Y-1.5382
X28.5452 Y-1.5352
X28.5712 Y-1.5303
X28.5966 Y-1.5234
X28.6216 Y-1.5145
X28.6456 Y-1.504
X28.6691 Y-1.4914
X28.6914 Y-1.4772
X28.7229 Y-1.4541
X28.7381 Y-1.4464
X28.7543 Y-1.4415
X28.7711 Y-1.4393
X29.6181 Y-1.4396
X29.6349 Y-1.4425
X29.639 Y-1.4436
X29.6547 Y-1.4499
X29.6691 Y-1.4588
X29.6785 Y-1.4661
X29.6936 Y-1.4772
X29.7159 Y-1.4914
X29.7394 Y-1.504
X29.7634 Y-1.5145
X29.7884 Y-1.5234
X29.8138 Y-1.5303
X29.8398 Y-1.5352
X29.8662 Y-1.5382
X29.8878 Y-1.5392
X30.1972
X30.2189 Y-1.5382
X30.2452 Y-1.5352
X30.2712 Y-1.5303
X30.2966 Y-1.5234
X30.3216 Y-1.5145
X30.3456 Y-1.504
X30.3691 Y-1.4914
X30.3914 Y-1.4772
X30.4229 Y-1.4541
X30.4381 Y-1.4464
X30.4543 Y-1.4415
X30.4711 Y-1.4393
X31.3181 Y-1.4396
X31.3349 Y-1.4425
X31.339 Y-1.4436
X31.3547 Y-1.4499
X31.3691 Y-1.4588
X31.3785 Y-1.4661
X31.3936 Y-1.4772
X31.4159 Y-1.4914
X31.4394 Y-1.504
X31.4634 Y-1.5145
X31.4884 Y-1.5234
X31.5138 Y-1.5303
X31.5398 Y-1.5352
X31.5662 Y-1.5382
X31.5878 Y-1.5392
X31.8972
X31.9189 Y-1.5382
X31.9452 Y-1.5352
X31.9712 Y-1.5303
X31.9966 Y-1.5234
X32.0216 Y-1.5145
X32.0456 Y-1.504
X32.0691 Y-1.4914
X32.0914 Y-1.4772
X32.1229 Y-1.4541
X32.1381 Y-1.4464
X32.1543 Y-1.4415
X32.1711 Y-1.4393
X33.0181 Y-1.4396
X33.0349 Y-1.4425
X33.039 Y-1.4436
X33.0547 Y-1.4499
X33.0691 Y-1.4588
X33.0785 Y-1.4661
X33.0936 Y-1.4772
X33.1159 Y-1.4914
X33.1394 Y-1.504
X33.1634 Y-1.5145
X33.1884 Y-1.5234
X33.2138 Y-1.5303
X33.2398 Y-1.5352
X33.2662 Y-1.5382
X33.2878 Y-1.5392
X33.5972
X33.6189 Y-1.5382
X33.6452 Y-1.5352
X33.6712 Y-1.5303
X33.6966 Y-1.5234
X33.7216 Y-1.5145
X33.7456 Y-1.504
X33.7691 Y-1.4914
X33.7914 Y-1.4772
X33.8229 Y-1.4541
X33.8381 Y-1.4464
X33.8543 Y-1.4415
X33.8711 Y-1.4393
X34.7181 Y-1.4396
X34.7349 Y-1.4425
X34.739 Y-1.4436
X34.7547 Y-1.4499
X34.7691 Y-1.4588
X34.7785 Y-1.4661
X34.7936 Y-1.4772
X34.8159 Y-1.4914
X34.8394 Y-1.504
X34.8634 Y-1.5145
X34.8884 Y-1.5234
X34.9138 Y-1.5303
X34.9398 Y-1.5352
X34.9662 Y-1.5382
X34.9878 Y-1.5392
X35.2972
X35.3189 Y-1.5382
X35.3452 Y-1.5352
X35.3712 Y-1.5303
X35.3966 Y-1.5234
X35.4216 Y-1.5145
X35.4456 Y-1.504
X35.4691 Y-1.4914
X35.4914 Y-1.4772
X35.5229 Y-1.4541
X35.5381 Y-1.4464
X35.5543 Y-1.4415
X35.5711 Y-1.4393
X36.4181 Y-1.4396
X36.4349 Y-1.4425
X36.439 Y-1.4436
X36.4547 Y-1.4499
X36.4691 Y-1.4588
X36.4785 Y-1.4661
X36.4936 Y-1.4772
X36.5159 Y-1.4914
X36.5394 Y-1.504
X36.5634 Y-1.5145
X36.5884 Y-1.5234
X36.6138 Y-1.5303
X36.6398 Y-1.5352
X36.6662 Y-1.5382
X36.6878 Y-1.5392
X36.9972
X37.0189 Y-1.5382
X37.0452 Y-1.5352
X37.0712 Y-1.5303
X37.0966 Y-1.5234
X37.1216 Y-1.5145
X37.1456 Y-1.504
X37.1691 Y-1.4914
X37.1914 Y-1.4772
X37.2229 Y-1.4541
X37.2381 Y-1.4464
X37.2543 Y-1.4415
X37.2711 Y-1.4393
X38.1181 Y-1.4396
X38.1349 Y-1.4425
X38.139 Y-1.4436
X38.1547 Y-1.4499
X38.1691 Y-1.4588
X38.1785 Y-1.4661
X38.1936 Y-1.4772
X38.2159 Y-1.4914
X38.2394 Y-1.504
X38.2634 Y-1.5145
X38.2884 Y-1.5234
X38.3138 Y-1.5303
X38.3398 Y-1.5352
X38.3662 Y-1.5382
X38.3878 Y-1.5392
X38.6972
X38.7189 Y-1.5382
X38.7452 Y-1.5352
X38.7712 Y-1.5303
X38.7966 Y-1.5234
X38.8216 Y-1.5145
X38.8456 Y-1.504
X38.8691 Y-1.4914
X38.8914 Y-1.4772
X38.9229 Y-1.4541
X38.9381 Y-1.4464
X38.9543 Y-1.4415
X38.9711 Y-1.4393
X39.8184 Y-1.4396
X39.8349 Y-1.4424
X39.8388 Y-1.4436
X39.8541 Y-1.4497
X39.8679 Y-1.458
X39.8804 Y-1.4676
X39.8953 Y-1.4783
X39.9157 Y-1.4913
X39.9383 Y-1.5034
X39.9618 Y-1.514
X39.9888 Y-1.5236
X40.0149 Y-1.5305
X40.0401 Y-1.5353
X40.0661 Y-1.5382
X40.0878 Y-1.5392
X40.3973
X40.4189 Y-1.5382
X40.445 Y-1.5353
X40.4701 Y-1.5305
X40.4962 Y-1.5236
X40.5232 Y-1.514
X40.5468 Y-1.5034
X40.5693 Y-1.4913
X40.5897 Y-1.4783
X40.6063 Y-1.4664
X40.6168 Y-1.458
X40.6339 Y-1.4482
X40.6501 Y-1.4424
X40.6541 Y-1.4415
X40.6712 Y-1.4393
X41.5184 Y-1.4396
X41.5349 Y-1.4424
X41.5388 Y-1.4436
X41.5541 Y-1.4497
X41.5679 Y-1.458
X41.5804 Y-1.4676
X41.5953 Y-1.4783
X41.6157 Y-1.4913
X41.6383 Y-1.5034
X41.6618 Y-1.514
X41.6888 Y-1.5236
X41.7149 Y-1.5305
X41.7401 Y-1.5353
X41.7661 Y-1.5382
X41.7878 Y-1.5392
X42.0973
X42.1189 Y-1.5382
X42.145 Y-1.5353
X42.1701 Y-1.5305
X42.1962 Y-1.5236
X42.2232 Y-1.514
X42.2468 Y-1.5034
X42.2693 Y-1.4913
X42.2897 Y-1.4783
X42.3063 Y-1.4664
X42.3168 Y-1.458
X42.3339 Y-1.4482
X42.3501 Y-1.4424
X42.3541 Y-1.4415
X42.3712 Y-1.4393
X43.2184 Y-1.4396
X43.2349 Y-1.4424
X43.2388 Y-1.4436
X43.2541 Y-1.4497
X43.2679 Y-1.458
X43.2804 Y-1.4676
X43.2953 Y-1.4783
X43.3157 Y-1.4913
X43.3383 Y-1.5034
X43.3618 Y-1.514
X43.3888 Y-1.5236
X43.4149 Y-1.5305
X43.4401 Y-1.5353
X43.4661 Y-1.5382
X43.4878 Y-1.5392
X43.7973
X43.8189 Y-1.5382
X43.845 Y-1.5353
X43.8701 Y-1.5305
X43.8962 Y-1.5236
X43.9232 Y-1.514
X43.9468 Y-1.5034
X43.9693 Y-1.4913
X43.9897 Y-1.4783
X44.0063 Y-1.4664
X44.0168 Y-1.458
X44.0339 Y-1.4482
X44.0501 Y-1.4424
X44.0541 Y-1.4415
X44.0712 Y-1.4393
X45.3252 Y-1.4392
Z0.5222
G0 Z0.658

M5
G53 G0 Z0.
M30
