(INITIAL TRIM FRONT)
(T3 D=0.5 CR=0. - ZMIN=-0.775 - FLAT END MILL)
(T4 D=0.5 CR=0. - ZMIN=-0.775 - FLAT END MILL)
G90 G94 G91.1 G40 G49 G17
G20
G53 G0 Z0.

(TRACE6)
T3 M6
S10000 M3
G17 G90 G94
G55
G0 X45.7326 Y-1.5499
G43 Z0.941 H3
G0 Z-0.025
G1 X45.7324 Y-1.5487 Z-0.0361 F50.
X45.732 Y-1.545 Z-0.0467
X45.7312 Y-1.5391 Z-0.0562
X45.7302 Y-1.5312 Z-0.0641
X45.729 Y-1.5218 Z-0.07
X45.7277 Y-1.5114 Z-0.0737
X45.7263 Y-1.5003 Z-0.075
X45.7248 Y-1.4892
X45.7236 Y-1.4781
X45.7199 Y-1.4675
X45.7139 Y-1.458
X45.706 Y-1.4501
X45.6965 Y-1.4442
X45.6859 Y-1.4405
X45.6748 Y-1.4392
X45.1669 Y-1.4395
X45.1511 Y-1.4421
X45.1347 Y-1.4476
X45.1208 Y-1.4551
X45.1138 Y-1.4599
X45.0968 Y-1.4712
X45.074 Y-1.4843
X45.0527 Y-1.4953
X45.0301 Y-1.5053
X45.0071 Y-1.5141
X44.9818 Y-1.5221
X44.958 Y-1.5281
X44.9343 Y-1.5328
X44.9086 Y-1.5365
X44.8834 Y-1.5385
X44.8622 Y-1.5392
X44.6051
X44.5836 Y-1.5385
X44.5588 Y-1.5364
X44.5342 Y-1.533
X44.5091 Y-1.5281
X44.4848 Y-1.5218
X44.4621 Y-1.5146
X44.4387 Y-1.5059
X44.4146 Y-1.4953
X44.3913 Y-1.4832
X44.3711 Y-1.4713
X44.3556 Y-1.4612
X44.3465 Y-1.4551
X44.3327 Y-1.4476
X44.3173 Y-1.4423
X44.3127 Y-1.4413
X44.2964 Y-1.4393
X43.4669 Y-1.4395
X43.4511 Y-1.4421
X43.4465 Y-1.4434
X43.4319 Y-1.4489
X43.4208 Y-1.4551
X43.4138 Y-1.4599
X43.3968 Y-1.4712
X43.374 Y-1.4843
X43.3527 Y-1.4953
X43.3301 Y-1.5053
X43.3071 Y-1.5141
X43.2818 Y-1.5221
X43.258 Y-1.5281
X43.2343 Y-1.5328
X43.2086 Y-1.5365
X43.1834 Y-1.5385
X43.1622 Y-1.5392
X42.9051
X42.8836 Y-1.5385
X42.8588 Y-1.5364
X42.8342 Y-1.533
X42.8091 Y-1.5281
X42.7848 Y-1.5218
X42.7621 Y-1.5146
X42.7387 Y-1.5059
X42.7146 Y-1.4953
X42.6913 Y-1.4832
X42.6711 Y-1.4713
X42.6556 Y-1.4612
X42.6465 Y-1.4551
X42.6327 Y-1.4476
X42.6173 Y-1.4423
X42.6127 Y-1.4413
X42.5964 Y-1.4393
X41.7669 Y-1.4395
X41.7511 Y-1.4421
X41.7465 Y-1.4434
X41.7319 Y-1.4489
X41.7208 Y-1.4551
X41.7138 Y-1.4599
X41.6968 Y-1.4712
X41.674 Y-1.4843
X41.6527 Y-1.4953
X41.6301 Y-1.5053
X41.6071 Y-1.5141
X41.5818 Y-1.5221
X41.558 Y-1.5281
X41.5343 Y-1.5328
X41.5086 Y-1.5365
X41.4834 Y-1.5385
X41.4622 Y-1.5392
X41.2051
X41.1836 Y-1.5385
X41.1588 Y-1.5364
X41.1342 Y-1.533
X41.1091 Y-1.5281
X41.0848 Y-1.5218
X41.0621 Y-1.5146
X41.0387 Y-1.5059
X41.0146 Y-1.4953
X40.9913 Y-1.4832
X40.9711 Y-1.4713
X40.9556 Y-1.4612
X40.9465 Y-1.4551
X40.9327 Y-1.4476
X40.9173 Y-1.4423
X40.9127 Y-1.4413
X40.8964 Y-1.4393
X40.0669 Y-1.4395
X40.0511 Y-1.4421
X40.0465 Y-1.4434
X40.0319 Y-1.4489
X40.0208 Y-1.4551
X40.0138 Y-1.4599
X39.9968 Y-1.4712
X39.974 Y-1.4843
X39.9527 Y-1.4953
X39.9301 Y-1.5053
X39.9071 Y-1.5141
X39.8818 Y-1.5221
X39.858 Y-1.5281
X39.8343 Y-1.5328
X39.8086 Y-1.5365
X39.7834 Y-1.5385
X39.7622 Y-1.5392
X39.5051
X39.4836 Y-1.5385
X39.4588 Y-1.5364
X39.4342 Y-1.533
X39.4091 Y-1.5281
X39.3848 Y-1.5218
X39.3621 Y-1.5146
X39.3387 Y-1.5059
X39.3146 Y-1.4953
X39.2913 Y-1.4832
X39.2711 Y-1.4713
X39.2556 Y-1.4612
X39.2465 Y-1.4551
X39.2322 Y-1.4474
X39.2167 Y-1.4422
X39.2128 Y-1.4413
X39.1966 Y-1.4393
X38.3668 Y-1.4396
X38.3507 Y-1.4422
X38.3468 Y-1.4433
X38.3315 Y-1.4491
X38.3208 Y-1.4552
X38.3125 Y-1.4608
X38.2966 Y-1.4712
X38.2749 Y-1.4839
X38.2527 Y-1.4953
X38.2297 Y-1.5055
X38.2064 Y-1.5143
X38.1824 Y-1.5219
X38.1581 Y-1.5281
X38.1335 Y-1.533
X38.1087 Y-1.5364
X38.0838 Y-1.5385
X38.0622 Y-1.5392
X37.8053
X37.7837 Y-1.5385
X37.7587 Y-1.5364
X37.7339 Y-1.533
X37.7093 Y-1.5281
X37.6849 Y-1.5219
X37.6611 Y-1.5143
X37.6377 Y-1.5055
X37.6148 Y-1.4953
X37.5925 Y-1.4839
X37.5709 Y-1.4712
X37.555 Y-1.4608
X37.5467 Y-1.4552
X37.5322 Y-1.4474
X37.5167 Y-1.4422
X37.5128 Y-1.4413
X37.4966 Y-1.4393
X36.6668 Y-1.4396
X36.6507 Y-1.4422
X36.6468 Y-1.4433
X36.6315 Y-1.4491
X36.6208 Y-1.4552
X36.6125 Y-1.4608
X36.5966 Y-1.4712
X36.5749 Y-1.4839
X36.5527 Y-1.4953
X36.5297 Y-1.5055
X36.5064 Y-1.5143
X36.4824 Y-1.5219
X36.4581 Y-1.5281
X36.4335 Y-1.533
X36.4087 Y-1.5364
X36.3838 Y-1.5385
X36.3622 Y-1.5392
X36.1053
X36.0837 Y-1.5385
X36.0587 Y-1.5364
X36.0339 Y-1.533
X36.0093 Y-1.5281
X35.9849 Y-1.5219
X35.9611 Y-1.5143
X35.9377 Y-1.5055
X35.9148 Y-1.4953
X35.8925 Y-1.4839
X35.8709 Y-1.4712
X35.855 Y-1.4608
X35.8467 Y-1.4552
X35.8322 Y-1.4474
X35.8167 Y-1.4422
X35.8128 Y-1.4413
X35.7966 Y-1.4393
X34.9668 Y-1.4396
X34.9507 Y-1.4422
X34.9468 Y-1.4433
X34.9315 Y-1.4491
X34.9208 Y-1.4552
X34.9125 Y-1.4608
X34.8966 Y-1.4712
X34.8749 Y-1.4839
X34.8527 Y-1.4953
X34.8297 Y-1.5055
X34.8064 Y-1.5143
X34.7824 Y-1.5219
X34.7581 Y-1.5281
X34.7335 Y-1.533
X34.7087 Y-1.5364
X34.6838 Y-1.5385
X34.6622 Y-1.5392
X34.4053
X34.3837 Y-1.5385
X34.3587 Y-1.5364
X34.334 Y-1.533
X34.3093 Y-1.5281
X34.2849 Y-1.5219
X34.2611 Y-1.5143
X34.2377 Y-1.5055
X34.2148 Y-1.4953
X34.1925 Y-1.4839
X34.1709 Y-1.4712
X34.155 Y-1.4608
X34.1467 Y-1.4552
X34.1322 Y-1.4474
X34.1167 Y-1.4422
X34.1128 Y-1.4413
X34.0966 Y-1.4393
X33.2668 Y-1.4396
X33.2507 Y-1.4422
X33.2468 Y-1.4433
X33.2315 Y-1.4491
X33.2208 Y-1.4552
X33.2125 Y-1.4608
X33.1966 Y-1.4712
X33.1749 Y-1.4839
X33.1527 Y-1.4953
X33.1297 Y-1.5055
X33.1064 Y-1.5143
X33.0824 Y-1.5219
X33.0581 Y-1.5281
X33.0335 Y-1.533
X33.0087 Y-1.5364
X32.9838 Y-1.5385
X32.9622 Y-1.5392
X32.7053
X32.6837 Y-1.5385
X32.6587 Y-1.5364
X32.634 Y-1.533
X32.6093 Y-1.5281
X32.5849 Y-1.5219
X32.5611 Y-1.5143
X32.5377 Y-1.5055
X32.5148 Y-1.4953
X32.4925 Y-1.4839
X32.4709 Y-1.4712
X32.455 Y-1.4608
X32.4467 Y-1.4552
X32.4322 Y-1.4474
X32.4167 Y-1.4422
X32.4128 Y-1.4413
X32.3966 Y-1.4393
X31.5668 Y-1.4396
X31.5507 Y-1.4422
X31.5468 Y-1.4433
X31.5315 Y-1.4491
X31.5208 Y-1.4552
X31.5125 Y-1.4608
X31.4966 Y-1.4712
X31.4749 Y-1.4839
X31.4527 Y-1.4953
X31.4297 Y-1.5055
X31.4064 Y-1.5143
X31.3824 Y-1.5219
X31.3581 Y-1.5281
X31.3335 Y-1.533
X31.3087 Y-1.5364
X31.2838 Y-1.5385
X31.2622 Y-1.5392
X31.0053
X30.9837 Y-1.5385
X30.9587 Y-1.5364
X30.934 Y-1.533
X30.9093 Y-1.5281
X30.8849 Y-1.5219
X30.8611 Y-1.5143
X30.8377 Y-1.5055
X30.8148 Y-1.4953
X30.7925 Y-1.4839
X30.7709 Y-1.4712
X30.755 Y-1.4608
X30.7467 Y-1.4552
X30.7322 Y-1.4474
X30.7167 Y-1.4422
X30.7128 Y-1.4413
X30.6966 Y-1.4393
X29.8668 Y-1.4396
X29.8507 Y-1.4422
X29.8468 Y-1.4433
X29.8315 Y-1.4491
X29.8208 Y-1.4552
X29.8125 Y-1.4608
X29.7966 Y-1.4712
X29.7749 Y-1.4839
X29.7527 Y-1.4953
X29.7297 Y-1.5055
X29.7064 Y-1.5143
X29.6824 Y-1.5219
X29.6581 Y-1.5281
X29.6335 Y-1.533
X29.6087 Y-1.5364
X29.5838 Y-1.5385
X29.5622 Y-1.5392
X29.3053
X29.2837 Y-1.5385
X29.2587 Y-1.5364
X29.234 Y-1.533
X29.2093 Y-1.5281
X29.1849 Y-1.5219
X29.1611 Y-1.5143
X29.1377 Y-1.5055
X29.1148 Y-1.4953
X29.0925 Y-1.4839
X29.0709 Y-1.4712
X29.055 Y-1.4608
X29.0467 Y-1.4552
X29.0322 Y-1.4474
X29.0167 Y-1.4422
X29.0128 Y-1.4413
X28.9966 Y-1.4393
X28.1668 Y-1.4396
X28.1507 Y-1.4422
X28.1468 Y-1.4433
X28.1315 Y-1.4491
X28.1208 Y-1.4552
X28.1125 Y-1.4608
X28.0966 Y-1.4712
X28.0749 Y-1.4839
X28.0527 Y-1.4953
X28.0297 Y-1.5055
X28.0064 Y-1.5143
X27.9824 Y-1.5219
X27.9581 Y-1.5281
X27.9335 Y-1.533
X27.9087 Y-1.5364
X27.8838 Y-1.5385
X27.8622 Y-1.5392
X27.6053
X27.5837 Y-1.5385
X27.5587 Y-1.5364
X27.534 Y-1.533
X27.5093 Y-1.5281
X27.4849 Y-1.5219
X27.4611 Y-1.5143
X27.4377 Y-1.5055
X27.4148 Y-1.4953
X27.3925 Y-1.4839
X27.3709 Y-1.4712
X27.355 Y-1.4608
X27.3467 Y-1.4552
X27.3322 Y-1.4474
X27.3167 Y-1.4422
X27.3128 Y-1.4413
X27.2966 Y-1.4393
X26.4668 Y-1.4396
X26.4507 Y-1.4422
X26.4468 Y-1.4433
X26.4315 Y-1.4491
X26.4208 Y-1.4552
X26.4125 Y-1.4608
X26.3966 Y-1.4712
X26.3749 Y-1.4839
X26.3527 Y-1.4953
X26.3297 Y-1.5055
X26.3064 Y-1.5143
X26.2824 Y-1.5219
X26.2581 Y-1.5281
X26.2335 Y-1.533
X26.2087 Y-1.5364
X26.1838 Y-1.5385
X26.1622 Y-1.5392
X25.9053
X25.8837 Y-1.5385
X25.8587 Y-1.5364
X25.8339 Y-1.533
X25.8093 Y-1.5281
X25.7849 Y-1.5219
X25.7611 Y-1.5143
X25.7377 Y-1.5055
X25.7148 Y-1.4953
X25.6925 Y-1.4839
X25.6709 Y-1.4712
X25.655 Y-1.4608
X25.6467 Y-1.4552
X25.6322 Y-1.4474
X25.6167 Y-1.4422
X25.6128 Y-1.4413
X25.5966 Y-1.4393
X24.7668 Y-1.4396
X24.7507 Y-1.4422
X24.7468 Y-1.4433
X24.7315 Y-1.4491
X24.7208 Y-1.4552
X24.7125 Y-1.4608
X24.6966 Y-1.4712
X24.6749 Y-1.4839
X24.6527 Y-1.4953
X24.6297 Y-1.5055
X24.6064 Y-1.5143
X24.5824 Y-1.5219
X24.5581 Y-1.5281
X24.5335 Y-1.533
X24.5087 Y-1.5364
X24.4838 Y-1.5385
X24.4622 Y-1.5392
X24.2053
X24.1837 Y-1.5385
X24.1587 Y-1.5364
X24.1339 Y-1.533
X24.1093 Y-1.5281
X24.0849 Y-1.5219
X24.0611 Y-1.5143
X24.0377 Y-1.5055
X24.0148 Y-1.4953
X23.9925 Y-1.4839
X23.9709 Y-1.4712
X23.955 Y-1.4608
X23.9467 Y-1.4552
X23.9322 Y-1.4474
X23.9167 Y-1.4422
X23.9128 Y-1.4413
X23.8966 Y-1.4393
X23.0668 Y-1.4396
X23.0507 Y-1.4422
X23.0468 Y-1.4433
X23.0315 Y-1.4491
X23.0208 Y-1.4552
X23.0125 Y-1.4608
X22.9966 Y-1.4712
X22.9749 Y-1.4839
X22.9527 Y-1.4953
X22.9297 Y-1.5055
X22.9064 Y-1.5143
X22.8824 Y-1.5219
X22.8581 Y-1.5281
X22.8335 Y-1.533
X22.8087 Y-1.5364
X22.7838 Y-1.5385
X22.7622 Y-1.5392
X22.5053
X22.4837 Y-1.5385
X22.4587 Y-1.5364
X22.4339 Y-1.533
X22.4093 Y-1.5281
X22.3849 Y-1.5219
X22.3611 Y-1.5143
X22.3377 Y-1.5055
X22.3148 Y-1.4953
X22.2925 Y-1.4839
X22.2709 Y-1.4712
X22.255 Y-1.4608
X22.2467 Y-1.4552
X22.2322 Y-1.4474
X22.2167 Y-1.4422
X22.2128 Y-1.4413
X22.1966 Y-1.4393
X21.3668 Y-1.4396
X21.3507 Y-1.4422
X21.3468 Y-1.4433
X21.3315 Y-1.4491
X21.3208 Y-1.4552
X21.3125 Y-1.4608
X21.2966 Y-1.4712
X21.2749 Y-1.4839
X21.2527 Y-1.4953
X21.2297 Y-1.5055
X21.2064 Y-1.5143
X21.1824 Y-1.5219
X21.1581 Y-1.5281
X21.1335 Y-1.533
X21.1087 Y-1.5364
X21.0838 Y-1.5385
X21.0622 Y-1.5392
X20.8053
X20.7837 Y-1.5385
X20.7587 Y-1.5364
X20.734 Y-1.533
X20.7093 Y-1.5281
X20.6849 Y-1.5219
X20.6611 Y-1.5143
X20.6377 Y-1.5055
X20.6148 Y-1.4953
X20.5925 Y-1.4839
X20.5709 Y-1.4712
X20.555 Y-1.4608
X20.5467 Y-1.4552
X20.5322 Y-1.4474
X20.5167 Y-1.4422
X20.5128 Y-1.4413
X20.4966 Y-1.4393
X19.6668 Y-1.4396
X19.6507 Y-1.4422
X19.6468 Y-1.4433
X19.6315 Y-1.4491
X19.6208 Y-1.4552
X19.6125 Y-1.4608
X19.5966 Y-1.4712
X19.5749 Y-1.4839
X19.5527 Y-1.4953
X19.5297 Y-1.5055
X19.5064 Y-1.5143
X19.4824 Y-1.5219
X19.4581 Y-1.5281
X19.4335 Y-1.533
X19.4087 Y-1.5364
X19.3838 Y-1.5385
X19.3622 Y-1.5392
X19.1053
X19.0837 Y-1.5385
X19.0587 Y-1.5364
X19.034 Y-1.533
X19.0093 Y-1.5281
X18.9849 Y-1.5219
X18.9611 Y-1.5143
X18.9377 Y-1.5055
X18.9148 Y-1.4953
X18.8925 Y-1.4839
X18.8709 Y-1.4712
X18.855 Y-1.4608
X18.8467 Y-1.4552
X18.8322 Y-1.4474
X18.8167 Y-1.4422
X18.8128 Y-1.4413
X18.7966 Y-1.4393
X17.9668 Y-1.4396
X17.9507 Y-1.4422
X17.9468 Y-1.4433
X17.9315 Y-1.4491
X17.9208 Y-1.4552
X17.9125 Y-1.4608
X17.8966 Y-1.4712
X17.8749 Y-1.4839
X17.8527 Y-1.4953
X17.8297 Y-1.5055
X17.8064 Y-1.5143
X17.7824 Y-1.5219
X17.7581 Y-1.5281
X17.7335 Y-1.533
X17.7087 Y-1.5364
X17.6838 Y-1.5385
X17.6622 Y-1.5392
X17.4053
X17.3837 Y-1.5385
X17.3587 Y-1.5364
X17.334 Y-1.533
X17.3093 Y-1.5281
X17.2849 Y-1.5219
X17.2611 Y-1.5143
X17.2377 Y-1.5055
X17.2148 Y-1.4953
X17.1925 Y-1.4839
X17.1709 Y-1.4712
X17.155 Y-1.4608
X17.1467 Y-1.4552
X17.1322 Y-1.4474
X17.1167 Y-1.4422
X17.1128 Y-1.4413
X17.0966 Y-1.4393
X16.2668 Y-1.4396
X16.2507 Y-1.4422
X16.2468 Y-1.4433
X16.2315 Y-1.4491
X16.2208 Y-1.4552
X16.2125 Y-1.4608
X16.1966 Y-1.4712
X16.1749 Y-1.4839
X16.1527 Y-1.4953
X16.1297 Y-1.5055
X16.1064 Y-1.5143
X16.0824 Y-1.5219
X16.0581 Y-1.5281
X16.0335 Y-1.533
X16.0087 Y-1.5364
X15.9838 Y-1.5385
X15.9622 Y-1.5392
X15.7053
X15.6837 Y-1.5385
X15.6587 Y-1.5364
X15.6339 Y-1.533
X15.6093 Y-1.5281
X15.5849 Y-1.5219
X15.5611 Y-1.5143
X15.5377 Y-1.5055
X15.5148 Y-1.4953
X15.4925 Y-1.4839
X15.4709 Y-1.4712
X15.455 Y-1.4608
X15.4467 Y-1.4552
X15.4322 Y-1.4474
X15.4167 Y-1.4422
X15.4128 Y-1.4413
X15.3966 Y-1.4393
X14.5668 Y-1.4396
X14.5507 Y-1.4422
X14.5468 Y-1.4433
X14.5315 Y-1.4491
X14.5208 Y-1.4552
X14.5125 Y-1.4608
X14.4966 Y-1.4712
X14.4749 Y-1.4839
X14.4527 Y-1.4953
X14.4297 Y-1.5055
X14.4064 Y-1.5143
X14.3824 Y-1.5219
X14.3581 Y-1.5281
X14.3335 Y-1.533
X14.3087 Y-1.5364
X14.2838 Y-1.5385
X14.2622 Y-1.5392
X14.0053
X13.9837 Y-1.5385
X13.9587 Y-1.5364
X13.934 Y-1.533
X13.9093 Y-1.5281
X13.8849 Y-1.5219
X13.8611 Y-1.5143
X13.8377 Y-1.5055
X13.8148 Y-1.4953
X13.7925 Y-1.4839
X13.7709 Y-1.4712
X13.755 Y-1.4608
X13.7467 Y-1.4552
X13.7322 Y-1.4474
X13.7167 Y-1.4422
X13.7128 Y-1.4413
X13.6966 Y-1.4393
X12.8668 Y-1.4396
X12.8507 Y-1.4422
X12.8468 Y-1.4433
X12.8315 Y-1.4491
X12.8208 Y-1.4552
X12.8125 Y-1.4608
X12.7966 Y-1.4712
X12.7749 Y-1.4839
X12.7527 Y-1.4953
X12.7297 Y-1.5055
X12.7064 Y-1.5143
X12.6824 Y-1.5219
X12.6581 Y-1.5281
X12.6335 Y-1.533
X12.6087 Y-1.5364
X12.5838 Y-1.5385
X12.5622 Y-1.5392
X12.3053
X12.2837 Y-1.5385
X12.2587 Y-1.5364
X12.234 Y-1.533
X12.2093 Y-1.5281
X12.1849 Y-1.5219
X12.1611 Y-1.5143
X12.1377 Y-1.5055
X12.1148 Y-1.4953
X12.0925 Y-1.4839
X12.0709 Y-1.4712
X12.055 Y-1.4608
X12.0467 Y-1.4552
X12.0322 Y-1.4474
X12.0167 Y-1.4422
X12.0128 Y-1.4413
X11.9966 Y-1.4393
X11.1668 Y-1.4396
X11.1507 Y-1.4422
X11.1468 Y-1.4433
X11.1315 Y-1.4491
X11.1208 Y-1.4552
X11.1125 Y-1.4608
X11.0966 Y-1.4712
X11.0749 Y-1.4839
X11.0527 Y-1.4953
X11.0297 Y-1.5055
X11.0064 Y-1.5143
X10.9824 Y-1.5219
X10.9581 Y-1.5281
X10.9335 Y-1.533
X10.9087 Y-1.5364
X10.8838 Y-1.5385
X10.8622 Y-1.5392
X10.6053
X10.5837 Y-1.5385
X10.5587 Y-1.5364
X10.534 Y-1.533
X10.5093 Y-1.5281
X10.4849 Y-1.5219
X10.4611 Y-1.5143
X10.4377 Y-1.5055
X10.4148 Y-1.4953
X10.3925 Y-1.4839
X10.3709 Y-1.4712
X10.355 Y-1.4608
X10.3467 Y-1.4552
X10.3322 Y-1.4474
X10.3167 Y-1.4422
X10.3128 Y-1.4413
X10.2966 Y-1.4393
X9.4668 Y-1.4396
X9.4507 Y-1.4422
X9.4468 Y-1.4433
X9.4315 Y-1.4491
X9.4208 Y-1.4552
X9.4125 Y-1.4608
X9.3966 Y-1.4712
X9.3749 Y-1.4839
X9.3527 Y-1.4953
X9.3297 Y-1.5055
X9.3064 Y-1.5143
X9.2824 Y-1.5219
X9.2581 Y-1.5281
X9.2335 Y-1.533
X9.2087 Y-1.5364
X9.1838 Y-1.5385
X9.1622 Y-1.5392
X8.9053
X8.8837 Y-1.5385
X8.8587 Y-1.5364
X8.834 Y-1.533
X8.8093 Y-1.5281
X8.7849 Y-1.5219
X8.7611 Y-1.5143
X8.7377 Y-1.5055
X8.7148 Y-1.4953
X8.6925 Y-1.4839
X8.6709 Y-1.4712
X8.655 Y-1.4608
X8.6467 Y-1.4552
X8.6322 Y-1.4474
X8.6167 Y-1.4422
X8.6128 Y-1.4413
X8.5966 Y-1.4393
X7.7668 Y-1.4396
X7.7507 Y-1.4422
X7.7468 Y-1.4433
X7.7315 Y-1.4491
X7.7208 Y-1.4552
X7.7125 Y-1.4608
X7.6966 Y-1.4712
X7.6749 Y-1.4839
X7.6527 Y-1.4953
X7.6297 Y-1.5055
X7.6064 Y-1.5143
X7.5824 Y-1.5219
X7.5581 Y-1.5281
X7.5335 Y-1.533
X7.5087 Y-1.5364
X7.4838 Y-1.5385
X7.4622 Y-1.5392
X7.2053
X7.1837 Y-1.5385
X7.1587 Y-1.5364
X7.134 Y-1.533
X7.1093 Y-1.5281
X7.0849 Y-1.5219
X7.0611 Y-1.5143
X7.0377 Y-1.5055
X7.0148 Y-1.4953
X6.9925 Y-1.4839
X6.9709 Y-1.4712
X6.955 Y-1.4608
X6.9467 Y-1.4552
X6.9322 Y-1.4474
X6.9167 Y-1.4422
X6.9128 Y-1.4413
X6.8966 Y-1.4393
X6.0668 Y-1.4396
X6.0507 Y-1.4422
X6.0468 Y-1.4433
X6.0315 Y-1.4491
X6.0208 Y-1.4552
X6.0125 Y-1.4608
X5.9966 Y-1.4712
X5.9749 Y-1.4839
X5.9527 Y-1.4953
X5.9297 Y-1.5055
X5.9064 Y-1.5143
X5.8824 Y-1.5219
X5.8581 Y-1.5281
X5.8335 Y-1.533
X5.8087 Y-1.5364
X5.7838 Y-1.5385
X5.7622 Y-1.5392
X5.5053
X5.4837 Y-1.5385
X5.4587 Y-1.5364
X5.434 Y-1.533
X5.4093 Y-1.5281
X5.3849 Y-1.5219
X5.3611 Y-1.5143
X5.3377 Y-1.5055
X5.3148 Y-1.4953
X5.2925 Y-1.4839
X5.2709 Y-1.4712
X5.255 Y-1.4608
X5.2467 Y-1.4552
X5.2322 Y-1.4474
X5.2167 Y-1.4422
X5.2128 Y-1.4413
X5.1966 Y-1.4393
X4.3668 Y-1.4396
X4.3507 Y-1.4422
X4.3468 Y-1.4433
X4.3315 Y-1.4491
X4.3208 Y-1.4552
X4.3125 Y-1.4608
X4.2966 Y-1.4712
X4.2749 Y-1.4839
X4.2527 Y-1.4953
X4.2297 Y-1.5055
X4.2064 Y-1.5143
X4.1824 Y-1.5219
X4.1581 Y-1.5281
X4.1335 Y-1.533
X4.1087 Y-1.5364
X4.0838 Y-1.5385
X4.0622 Y-1.5392
X3.8052
X3.7837 Y-1.5385
X3.7587 Y-1.5364
X3.7339 Y-1.533
X3.7093 Y-1.5281
X3.6851 Y-1.5219
X3.6611 Y-1.5143
X3.6377 Y-1.5055
X3.6148 Y-1.4953
X3.5925 Y-1.4839
X3.5709 Y-1.4712
X3.555 Y-1.4608
X3.5466 Y-1.4551
X3.5322 Y-1.4474
X3.5168 Y-1.4422
X3.5128 Y-1.4413
X3.4966 Y-1.4393
X2.6668 Y-1.4396
X2.6507 Y-1.4422
X2.6468 Y-1.4433
X2.6315 Y-1.4491
X2.6209 Y-1.4551
X2.6125 Y-1.4608
X2.5965 Y-1.4713
X2.5749 Y-1.4839
X2.5526 Y-1.4953
X2.5297 Y-1.5055
X2.5063 Y-1.5143
X2.4824 Y-1.5219
X2.4581 Y-1.5281
X2.4335 Y-1.533
X2.4087 Y-1.5364
X2.3838 Y-1.5385
X2.3622 Y-1.5392
X2.1052
X2.0837 Y-1.5385
X2.0587 Y-1.5364
X2.0339 Y-1.533
X2.0093 Y-1.5281
X1.9851 Y-1.5219
X1.9611 Y-1.5143
X1.9377 Y-1.5055
X1.9148 Y-1.4953
X1.8925 Y-1.4839
X1.8709 Y-1.4712
X1.855 Y-1.4608
X1.8466 Y-1.4551
X1.8322 Y-1.4474
X1.8168 Y-1.4422
X1.8007 Y-1.4396
X0.975 Y-1.4392
X0.475
X0.4638 Y-1.4405
X0.4533 Y-1.4442
X0.4438 Y-1.4501
X0.4359 Y-1.458
X0.4299 Y-1.4675
X0.4262 Y-1.4781
X0.425 Y-1.4892
X0.4235 Y-1.5004
X0.4221 Y-1.5114 Z-0.0737
X0.4208 Y-1.5219 Z-0.07
X0.4196 Y-1.5313 Z-0.0641
X0.4186 Y-1.5391 Z-0.0562
X0.4179 Y-1.545 Z-0.0467
X0.4174 Y-1.5487 Z-0.0361
X0.4172 Y-1.55 Z-0.025
G0 Z0.805
X45.7326 Y-1.5499
Z-0.725
G1 X45.7324 Y-1.5487 Z-0.7361 F50.
X45.732 Y-1.545 Z-0.7467
X45.7312 Y-1.5391 Z-0.7562
X45.7302 Y-1.5312 Z-0.7641
X45.729 Y-1.5218 Z-0.77
X45.7277 Y-1.5114 Z-0.7737
X45.7263 Y-1.5003 Z-0.775
X45.7248 Y-1.4892
X45.7236 Y-1.4781
X45.7199 Y-1.4675
X45.7139 Y-1.458
X45.706 Y-1.4501
X45.6965 Y-1.4442
X45.6859 Y-1.4405
X45.6748 Y-1.4392
X45.1669 Y-1.4395
X45.1511 Y-1.4421
X45.1347 Y-1.4476
X45.1208 Y-1.4551
X45.1138 Y-1.4599
X45.0968 Y-1.4712
X45.074 Y-1.4843
X45.0527 Y-1.4953
X45.0301 Y-1.5053
X45.0071 Y-1.5141
X44.9818 Y-1.5221
X44.958 Y-1.5281
X44.9343 Y-1.5328
X44.9086 Y-1.5365
X44.8834 Y-1.5385
X44.8622 Y-1.5392
X44.6051
X44.5836 Y-1.5385
X44.5588 Y-1.5364
X44.5342 Y-1.533
X44.5091 Y-1.5281
X44.4848 Y-1.5218
X44.4621 Y-1.5146
X44.4387 Y-1.5059
X44.4146 Y-1.4953
X44.3913 Y-1.4832
X44.3711 Y-1.4713
X44.3556 Y-1.4612
X44.3465 Y-1.4551
X44.3327 Y-1.4476
X44.3173 Y-1.4423
X44.3127 Y-1.4413
X44.2964 Y-1.4393
X43.4669 Y-1.4395
X43.4511 Y-1.4421
X43.4465 Y-1.4434
X43.4319 Y-1.4489
X43.4208 Y-1.4551
X43.4138 Y-1.4599
X43.3968 Y-1.4712
X43.374 Y-1.4843
X43.3527 Y-1.4953
X43.3301 Y-1.5053
X43.3071 Y-1.5141
X43.2818 Y-1.5221
X43.258 Y-1.5281
X43.2343 Y-1.5328
X43.2086 Y-1.5365
X43.1834 Y-1.5385
X43.1622 Y-1.5392
X42.9051
X42.8836 Y-1.5385
X42.8588 Y-1.5364
X42.8342 Y-1.533
X42.8091 Y-1.5281
X42.7848 Y-1.5218
X42.7621 Y-1.5146
X42.7387 Y-1.5059
X42.7146 Y-1.4953
X42.6913 Y-1.4832
X42.6711 Y-1.4713
X42.6556 Y-1.4612
X42.6465 Y-1.4551
X42.6327 Y-1.4476
X42.6173 Y-1.4423
X42.6127 Y-1.4413
X42.5964 Y-1.4393
X41.7669 Y-1.4395
X41.7511 Y-1.4421
X41.7465 Y-1.4434
X41.7319 Y-1.4489
X41.7208 Y-1.4551
X41.7138 Y-1.4599
X41.6968 Y-1.4712
X41.674 Y-1.4843
X41.6527 Y-1.4953
X41.6301 Y-1.5053
X41.6071 Y-1.5141
X41.5818 Y-1.5221
X41.558 Y-1.5281
X41.5343 Y-1.5328
X41.5086 Y-1.5365
X41.4834 Y-1.5385
X41.4622 Y-1.5392
X41.2051
X41.1836 Y-1.5385
X41.1588 Y-1.5364
X41.1342 Y-1.533
X41.1091 Y-1.5281
X41.0848 Y-1.5218
X41.0621 Y-1.5146
X41.0387 Y-1.5059
X41.0146 Y-1.4953
X40.9913 Y-1.4832
X40.9711 Y-1.4713
X40.9556 Y-1.4612
X40.9465 Y-1.4551
X40.9327 Y-1.4476
X40.9173 Y-1.4423
X40.9127 Y-1.4413
X40.8964 Y-1.4393
X40.0669 Y-1.4395
X40.0511 Y-1.4421
X40.0465 Y-1.4434
X40.0319 Y-1.4489
X40.0208 Y-1.4551
X40.0138 Y-1.4599
X39.9968 Y-1.4712
X39.974 Y-1.4843
X39.9527 Y-1.4953
X39.9301 Y-1.5053
X39.9071 Y-1.5141
X39.8818 Y-1.5221
X39.858 Y-1.5281
X39.8343 Y-1.5328
X39.8086 Y-1.5365
X39.7834 Y-1.5385
X39.7622 Y-1.5392
X39.5051
X39.4836 Y-1.5385
X39.4588 Y-1.5364
X39.4342 Y-1.533
X39.4091 Y-1.5281
X39.3848 Y-1.5218
X39.3621 Y-1.5146
X39.3387 Y-1.5059
X39.3146 Y-1.4953
X39.2913 Y-1.4832
X39.2711 Y-1.4713
X39.2556 Y-1.4612
X39.2465 Y-1.4551
X39.2322 Y-1.4474
X39.2167 Y-1.4422
X39.2128 Y-1.4413
X39.1966 Y-1.4393
X38.3668 Y-1.4396
X38.3507 Y-1.4422
X38.3468 Y-1.4433
X38.3315 Y-1.4491
X38.3208 Y-1.4552
X38.3125 Y-1.4608
X38.2966 Y-1.4712
X38.2749 Y-1.4839
X38.2527 Y-1.4953
X38.2297 Y-1.5055
X38.2064 Y-1.5143
X38.1824 Y-1.5219
X38.1581 Y-1.5281
X38.1335 Y-1.533
X38.1087 Y-1.5364
X38.0838 Y-1.5385
X38.0622 Y-1.5392
X37.8053
X37.7837 Y-1.5385
X37.7587 Y-1.5364
X37.7339 Y-1.533
X37.7093 Y-1.5281
X37.6849 Y-1.5219
X37.6611 Y-1.5143
X37.6377 Y-1.5055
X37.6148 Y-1.4953
X37.5925 Y-1.4839
X37.5709 Y-1.4712
X37.555 Y-1.4608
X37.5467 Y-1.4552
X37.5322 Y-1.4474
X37.5167 Y-1.4422
X37.5128 Y-1.4413
X37.4966 Y-1.4393
X36.6668 Y-1.4396
X36.6507 Y-1.4422
X36.6468 Y-1.4433
X36.6315 Y-1.4491
X36.6208 Y-1.4552
X36.6125 Y-1.4608
X36.5966 Y-1.4712
X36.5749 Y-1.4839
X36.5527 Y-1.4953
X36.5297 Y-1.5055
X36.5064 Y-1.5143
X36.4824 Y-1.5219
X36.4581 Y-1.5281
X36.4335 Y-1.533
X36.4087 Y-1.5364
X36.3838 Y-1.5385
X36.3622 Y-1.5392
X36.1053
X36.0837 Y-1.5385
X36.0587 Y-1.5364
X36.0339 Y-1.533
X36.0093 Y-1.5281
X35.9849 Y-1.5219
X35.9611 Y-1.5143
X35.9377 Y-1.5055
X35.9148 Y-1.4953
X35.8925 Y-1.4839
X35.8709 Y-1.4712
X35.855 Y-1.4608
X35.8467 Y-1.4552
X35.8322 Y-1.4474
X35.8167 Y-1.4422
X35.8128 Y-1.4413
X35.7966 Y-1.4393
X34.9668 Y-1.4396
X34.9507 Y-1.4422
X34.9468 Y-1.4433
X34.9315 Y-1.4491
X34.9208 Y-1.4552
X34.9125 Y-1.4608
X34.8966 Y-1.4712
X34.8749 Y-1.4839
X34.8527 Y-1.4953
X34.8297 Y-1.5055
X34.8064 Y-1.5143
X34.7824 Y-1.5219
X34.7581 Y-1.5281
X34.7335 Y-1.533
X34.7087 Y-1.5364
X34.6838 Y-1.5385
X34.6622 Y-1.5392
X34.4053
X34.3837 Y-1.5385
X34.3587 Y-1.5364
X34.334 Y-1.533
X34.3093 Y-1.5281
X34.2849 Y-1.5219
X34.2611 Y-1.5143
X34.2377 Y-1.5055
X34.2148 Y-1.4953
X34.1925 Y-1.4839
X34.1709 Y-1.4712
X34.155 Y-1.4608
X34.1467 Y-1.4552
X34.1322 Y-1.4474
X34.1167 Y-1.4422
X34.1128 Y-1.4413
X34.0966 Y-1.4393
X33.2668 Y-1.4396
X33.2507 Y-1.4422
X33.2468 Y-1.4433
X33.2315 Y-1.4491
X33.2208 Y-1.4552
X33.2125 Y-1.4608
X33.1966 Y-1.4712
X33.1749 Y-1.4839
X33.1527 Y-1.4953
X33.1297 Y-1.5055
X33.1064 Y-1.5143
X33.0824 Y-1.5219
X33.0581 Y-1.5281
X33.0335 Y-1.533
X33.0087 Y-1.5364
X32.9838 Y-1.5385
X32.9622 Y-1.5392
X32.7053
X32.6837 Y-1.5385
X32.6587 Y-1.5364
X32.634 Y-1.533
X32.6093 Y-1.5281
X32.5849 Y-1.5219
X32.5611 Y-1.5143
X32.5377 Y-1.5055
X32.5148 Y-1.4953
X32.4925 Y-1.4839
X32.4709 Y-1.4712
X32.455 Y-1.4608
X32.4467 Y-1.4552
X32.4322 Y-1.4474
X32.4167 Y-1.4422
X32.4128 Y-1.4413
X32.3966 Y-1.4393
X31.5668 Y-1.4396
X31.5507 Y-1.4422
X31.5468 Y-1.4433
X31.5315 Y-1.4491
X31.5208 Y-1.4552
X31.5125 Y-1.4608
X31.4966 Y-1.4712
X31.4749 Y-1.4839
X31.4527 Y-1.4953
X31.4297 Y-1.5055
X31.4064 Y-1.5143
X31.3824 Y-1.5219
X31.3581 Y-1.5281
X31.3335 Y-1.533
X31.3087 Y-1.5364
X31.2838 Y-1.5385
X31.2622 Y-1.5392
X31.0053
X30.9837 Y-1.5385
X30.9587 Y-1.5364
X30.934 Y-1.533
X30.9093 Y-1.5281
X30.8849 Y-1.5219
X30.8611 Y-1.5143
X30.8377 Y-1.5055
X30.8148 Y-1.4953
X30.7925 Y-1.4839
X30.7709 Y-1.4712
X30.755 Y-1.4608
X30.7467 Y-1.4552
X30.7322 Y-1.4474
X30.7167 Y-1.4422
X30.7128 Y-1.4413
X30.6966 Y-1.4393
X29.8668 Y-1.4396
X29.8507 Y-1.4422
X29.8468 Y-1.4433
X29.8315 Y-1.4491
X29.8208 Y-1.4552
X29.8125 Y-1.4608
X29.7966 Y-1.4712
X29.7749 Y-1.4839
X29.7527 Y-1.4953
X29.7297 Y-1.5055
X29.7064 Y-1.5143
X29.6824 Y-1.5219
X29.6581 Y-1.5281
X29.6335 Y-1.533
X29.6087 Y-1.5364
X29.5838 Y-1.5385
X29.5622 Y-1.5392
X29.3053
X29.2837 Y-1.5385
X29.2587 Y-1.5364
X29.234 Y-1.533
X29.2093 Y-1.5281
X29.1849 Y-1.5219
X29.1611 Y-1.5143
X29.1377 Y-1.5055
X29.1148 Y-1.4953
X29.0925 Y-1.4839
X29.0709 Y-1.4712
X29.055 Y-1.4608
X29.0467 Y-1.4552
X29.0322 Y-1.4474
X29.0167 Y-1.4422
X29.0128 Y-1.4413
X28.9966 Y-1.4393
X28.1668 Y-1.4396
X28.1507 Y-1.4422
X28.1468 Y-1.4433
X28.1315 Y-1.4491
X28.1208 Y-1.4552
X28.1125 Y-1.4608
X28.0966 Y-1.4712
X28.0749 Y-1.4839
X28.0527 Y-1.4953
X28.0297 Y-1.5055
X28.0064 Y-1.5143
X27.9824 Y-1.5219
X27.9581 Y-1.5281
X27.9335 Y-1.533
X27.9087 Y-1.5364
X27.8838 Y-1.5385
X27.8622 Y-1.5392
X27.6053
X27.5837 Y-1.5385
X27.5587 Y-1.5364
X27.534 Y-1.533
X27.5093 Y-1.5281
X27.4849 Y-1.5219
X27.4611 Y-1.5143
X27.4377 Y-1.5055
X27.4148 Y-1.4953
X27.3925 Y-1.4839
X27.3709 Y-1.4712
X27.355 Y-1.4608
X27.3467 Y-1.4552
X27.3322 Y-1.4474
X27.3167 Y-1.4422
X27.3128 Y-1.4413
X27.2966 Y-1.4393
X26.4668 Y-1.4396
X26.4507 Y-1.4422
X26.4468 Y-1.4433
X26.4315 Y-1.4491
X26.4208 Y-1.4552
X26.4125 Y-1.4608
X26.3966 Y-1.4712
X26.3749 Y-1.4839
X26.3527 Y-1.4953
X26.3297 Y-1.5055
X26.3064 Y-1.5143
X26.2824 Y-1.5219
X26.2581 Y-1.5281
X26.2335 Y-1.533
X26.2087 Y-1.5364
X26.1838 Y-1.5385
X26.1622 Y-1.5392
X25.9053
X25.8837 Y-1.5385
X25.8587 Y-1.5364
X25.8339 Y-1.533
X25.8093 Y-1.5281
X25.7849 Y-1.5219
X25.7611 Y-1.5143
X25.7377 Y-1.5055
X25.7148 Y-1.4953
X25.6925 Y-1.4839
X25.6709 Y-1.4712
X25.655 Y-1.4608
X25.6467 Y-1.4552
X25.6322 Y-1.4474
X25.6167 Y-1.4422
X25.6128 Y-1.4413
X25.5966 Y-1.4393
X24.7668 Y-1.4396
X24.7507 Y-1.4422
X24.7468 Y-1.4433
X24.7315 Y-1.4491
X24.7208 Y-1.4552
X24.7125 Y-1.4608
X24.6966 Y-1.4712
X24.6749 Y-1.4839
X24.6527 Y-1.4953
X24.6297 Y-1.5055
X24.6064 Y-1.5143
X24.5824 Y-1.5219
X24.5581 Y-1.5281
X24.5335 Y-1.533
X24.5087 Y-1.5364
X24.4838 Y-1.5385
X24.4622 Y-1.5392
X24.2053
X24.1837 Y-1.5385
X24.1587 Y-1.5364
X24.1339 Y-1.533
X24.1093 Y-1.5281
X24.0849 Y-1.5219
X24.0611 Y-1.5143
X24.0377 Y-1.5055
X24.0148 Y-1.4953
X23.9925 Y-1.4839
X23.9709 Y-1.4712
X23.955 Y-1.4608
X23.9467 Y-1.4552
X23.9322 Y-1.4474
X23.9167 Y-1.4422
X23.9128 Y-1.4413
X23.8966 Y-1.4393
X23.0668 Y-1.4396
X23.0507 Y-1.4422
X23.0468 Y-1.4433
X23.0315 Y-1.4491
X23.0208 Y-1.4552
X23.0125 Y-1.4608
X22.9966 Y-1.4712
X22.9749 Y-1.4839
X22.9527 Y-1.4953
X22.9297 Y-1.5055
X22.9064 Y-1.5143
X22.8824 Y-1.5219
X22.8581 Y-1.5281
X22.8335 Y-1.533
X22.8087 Y-1.5364
X22.7838 Y-1.5385
X22.7622 Y-1.5392
X22.5053
X22.4837 Y-1.5385
X22.4587 Y-1.5364
X22.4339 Y-1.533
X22.4093 Y-1.5281
X22.3849 Y-1.5219
X22.3611 Y-1.5143
X22.3377 Y-1.5055
X22.3148 Y-1.4953
X22.2925 Y-1.4839
X22.2709 Y-1.4712
X22.255 Y-1.4608
X22.2467 Y-1.4552
X22.2322 Y-1.4474
X22.2167 Y-1.4422
X22.2128 Y-1.4413
X22.1966 Y-1.4393
X21.3668 Y-1.4396
X21.3507 Y-1.4422
X21.3468 Y-1.4433
X21.3315 Y-1.4491
X21.3208 Y-1.4552
X21.3125 Y-1.4608
X21.2966 Y-1.4712
X21.2749 Y-1.4839
X21.2527 Y-1.4953
X21.2297 Y-1.5055
X21.2064 Y-1.5143
X21.1824 Y-1.5219
X21.1581 Y-1.5281
X21.1335 Y-1.533
X21.1087 Y-1.5364
X21.0838 Y-1.5385
X21.0622 Y-1.5392
X20.8053
X20.7837 Y-1.5385
X20.7587 Y-1.5364
X20.734 Y-1.533
X20.7093 Y-1.5281
X20.6849 Y-1.5219
X20.6611 Y-1.5143
X20.6377 Y-1.5055
X20.6148 Y-1.4953
X20.5925 Y-1.4839
X20.5709 Y-1.4712
X20.555 Y-1.4608
X20.5467 Y-1.4552
X20.5322 Y-1.4474
X20.5167 Y-1.4422
X20.5128 Y-1.4413
X20.4966 Y-1.4393
X19.6668 Y-1.4396
X19.6507 Y-1.4422
X19.6468 Y-1.4433
X19.6315 Y-1.4491
X19.6208 Y-1.4552
X19.6125 Y-1.4608
X19.5966 Y-1.4712
X19.5749 Y-1.4839
X19.5527 Y-1.4953
X19.5297 Y-1.5055
X19.5064 Y-1.5143
X19.4824 Y-1.5219
X19.4581 Y-1.5281
X19.4335 Y-1.533
X19.4087 Y-1.5364
X19.3838 Y-1.5385
X19.3622 Y-1.5392
X19.1053
X19.0837 Y-1.5385
X19.0587 Y-1.5364
X19.034 Y-1.533
X19.0093 Y-1.5281
X18.9849 Y-1.5219
X18.9611 Y-1.5143
X18.9377 Y-1.5055
X18.9148 Y-1.4953
X18.8925 Y-1.4839
X18.8709 Y-1.4712
X18.855 Y-1.4608
X18.8467 Y-1.4552
X18.8322 Y-1.4474
X18.8167 Y-1.4422
X18.8128 Y-1.4413
X18.7966 Y-1.4393
X17.9668 Y-1.4396
X17.9507 Y-1.4422
X17.9468 Y-1.4433
X17.9315 Y-1.4491
X17.9208 Y-1.4552
X17.9125 Y-1.4608
X17.8966 Y-1.4712
X17.8749 Y-1.4839
X17.8527 Y-1.4953
X17.8297 Y-1.5055
X17.8064 Y-1.5143
X17.7824 Y-1.5219
X17.7581 Y-1.5281
X17.7335 Y-1.533
X17.7087 Y-1.5364
X17.6838 Y-1.5385
X17.6622 Y-1.5392
X17.4053
X17.3837 Y-1.5385
X17.3587 Y-1.5364
X17.334 Y-1.533
X17.3093 Y-1.5281
X17.2849 Y-1.5219
X17.2611 Y-1.5143
X17.2377 Y-1.5055
X17.2148 Y-1.4953
X17.1925 Y-1.4839
X17.1709 Y-1.4712
X17.155 Y-1.4608
X17.1467 Y-1.4552
X17.1322 Y-1.4474
X17.1167 Y-1.4422
X17.1128 Y-1.4413
X17.0966 Y-1.4393
X16.2668 Y-1.4396
X16.2507 Y-1.4422
X16.2468 Y-1.4433
X16.2315 Y-1.4491
X16.2208 Y-1.4552
X16.2125 Y-1.4608
X16.1966 Y-1.4712
X16.1749 Y-1.4839
X16.1527 Y-1.4953
X16.1297 Y-1.5055
X16.1064 Y-1.5143
X16.0824 Y-1.5219
X16.0581 Y-1.5281
X16.0335 Y-1.533
X16.0087 Y-1.5364
X15.9838 Y-1.5385
X15.9622 Y-1.5392
X15.7053
X15.6837 Y-1.5385
X15.6587 Y-1.5364
X15.6339 Y-1.533
X15.6093 Y-1.5281
X15.5849 Y-1.5219
X15.5611 Y-1.5143
X15.5377 Y-1.5055
X15.5148 Y-1.4953
X15.4925 Y-1.4839
X15.4709 Y-1.4712
X15.455 Y-1.4608
X15.4467 Y-1.4552
X15.4322 Y-1.4474
X15.4167 Y-1.4422
X15.4128 Y-1.4413
X15.3966 Y-1.4393
X14.5668 Y-1.4396
X14.5507 Y-1.4422
X14.5468 Y-1.4433
X14.5315 Y-1.4491
X14.5208 Y-1.4552
X14.5125 Y-1.4608
X14.4966 Y-1.4712
X14.4749 Y-1.4839
X14.4527 Y-1.4953
X14.4297 Y-1.5055
X14.4064 Y-1.5143
X14.3824 Y-1.5219
X14.3581 Y-1.5281
X14.3335 Y-1.533
X14.3087 Y-1.5364
X14.2838 Y-1.5385
X14.2622 Y-1.5392
X14.0053
X13.9837 Y-1.5385
X13.9587 Y-1.5364
X13.934 Y-1.533
X13.9093 Y-1.5281
X13.8849 Y-1.5219
X13.8611 Y-1.5143
X13.8377 Y-1.5055
X13.8148 Y-1.4953
X13.7925 Y-1.4839
X13.7709 Y-1.4712
X13.755 Y-1.4608
X13.7467 Y-1.4552
X13.7322 Y-1.4474
X13.7167 Y-1.4422
X13.7128 Y-1.4413
X13.6966 Y-1.4393
X12.8668 Y-1.4396
X12.8507 Y-1.4422
X12.8468 Y-1.4433
X12.8315 Y-1.4491
X12.8208 Y-1.4552
X12.8125 Y-1.4608
X12.7966 Y-1.4712
X12.7749 Y-1.4839
X12.7527 Y-1.4953
X12.7297 Y-1.5055
X12.7064 Y-1.5143
X12.6824 Y-1.5219
X12.6581 Y-1.5281
X12.6335 Y-1.533
X12.6087 Y-1.5364
X12.5838 Y-1.5385
X12.5622 Y-1.5392
X12.3053
X12.2837 Y-1.5385
X12.2587 Y-1.5364
X12.234 Y-1.533
X12.2093 Y-1.5281
X12.1849 Y-1.5219
X12.1611 Y-1.5143
X12.1377 Y-1.5055
X12.1148 Y-1.4953
X12.0925 Y-1.4839
X12.0709 Y-1.4712
X12.055 Y-1.4608
X12.0467 Y-1.4552
X12.0322 Y-1.4474
X12.0167 Y-1.4422
X12.0128 Y-1.4413
X11.9966 Y-1.4393
X11.1668 Y-1.4396
X11.1507 Y-1.4422
X11.1468 Y-1.4433
X11.1315 Y-1.4491
X11.1208 Y-1.4552
X11.1125 Y-1.4608
X11.0966 Y-1.4712
X11.0749 Y-1.4839
X11.0527 Y-1.4953
X11.0297 Y-1.5055
X11.0064 Y-1.5143
X10.9824 Y-1.5219
X10.9581 Y-1.5281
X10.9335 Y-1.533
X10.9087 Y-1.5364
X10.8838 Y-1.5385
X10.8622 Y-1.5392
X10.6053
X10.5837 Y-1.5385
X10.5587 Y-1.5364
X10.534 Y-1.533
X10.5093 Y-1.5281
X10.4849 Y-1.5219
X10.4611 Y-1.5143
X10.4377 Y-1.5055
X10.4148 Y-1.4953
X10.3925 Y-1.4839
X10.3709 Y-1.4712
X10.355 Y-1.4608
X10.3467 Y-1.4552
X10.3322 Y-1.4474
X10.3167 Y-1.4422
X10.3128 Y-1.4413
X10.2966 Y-1.4393
X9.4668 Y-1.4396
X9.4507 Y-1.4422
X9.4468 Y-1.4433
X9.4315 Y-1.4491
X9.4208 Y-1.4552
X9.4125 Y-1.4608
X9.3966 Y-1.4712
X9.3749 Y-1.4839
X9.3527 Y-1.4953
X9.3297 Y-1.5055
X9.3064 Y-1.5143
X9.2824 Y-1.5219
X9.2581 Y-1.5281
X9.2335 Y-1.533
X9.2087 Y-1.5364
X9.1838 Y-1.5385
X9.1622 Y-1.5392
X8.9053
X8.8837 Y-1.5385
X8.8587 Y-1.5364
X8.834 Y-1.533
X8.8093 Y-1.5281
X8.7849 Y-1.5219
X8.7611 Y-1.5143
X8.7377 Y-1.5055
X8.7148 Y-1.4953
X8.6925 Y-1.4839
X8.6709 Y-1.4712
X8.655 Y-1.4608
X8.6467 Y-1.4552
X8.6322 Y-1.4474
X8.6167 Y-1.4422
X8.6128 Y-1.4413
X8.5966 Y-1.4393
X7.7668 Y-1.4396
X7.7507 Y-1.4422
X7.7468 Y-1.4433
X7.7315 Y-1.4491
X7.7208 Y-1.4552
X7.7125 Y-1.4608
X7.6966 Y-1.4712
X7.6749 Y-1.4839
X7.6527 Y-1.4953
X7.6297 Y-1.5055
X7.6064 Y-1.5143
X7.5824 Y-1.5219
X7.5581 Y-1.5281
X7.5335 Y-1.533
X7.5087 Y-1.5364
X7.4838 Y-1.5385
X7.4622 Y-1.5392
X7.2053
X7.1837 Y-1.5385
X7.1587 Y-1.5364
X7.134 Y-1.533
X7.1093 Y-1.5281
X7.0849 Y-1.5219
X7.0611 Y-1.5143
X7.0377 Y-1.5055
X7.0148 Y-1.4953
X6.9925 Y-1.4839
X6.9709 Y-1.4712
X6.955 Y-1.4608
X6.9467 Y-1.4552
X6.9322 Y-1.4474
X6.9167 Y-1.4422
X6.9128 Y-1.4413
X6.8966 Y-1.4393
X6.0668 Y-1.4396
X6.0507 Y-1.4422
X6.0468 Y-1.4433
X6.0315 Y-1.4491
X6.0208 Y-1.4552
X6.0125 Y-1.4608
X5.9966 Y-1.4712
X5.9749 Y-1.4839
X5.9527 Y-1.4953
X5.9297 Y-1.5055
X5.9064 Y-1.5143
X5.8824 Y-1.5219
X5.8581 Y-1.5281
X5.8335 Y-1.533
X5.8087 Y-1.5364
X5.7838 Y-1.5385
X5.7622 Y-1.5392
X5.5053
X5.4837 Y-1.5385
X5.4587 Y-1.5364
X5.434 Y-1.533
X5.4093 Y-1.5281
X5.3849 Y-1.5219
X5.3611 Y-1.5143
X5.3377 Y-1.5055
X5.3148 Y-1.4953
X5.2925 Y-1.4839
X5.2709 Y-1.4712
X5.255 Y-1.4608
X5.2467 Y-1.4552
X5.2322 Y-1.4474
X5.2167 Y-1.4422
X5.2128 Y-1.4413
X5.1966 Y-1.4393
X4.3668 Y-1.4396
X4.3507 Y-1.4422
X4.3468 Y-1.4433
X4.3315 Y-1.4491
X4.3208 Y-1.4552
X4.3125 Y-1.4608
X4.2966 Y-1.4712
X4.2749 Y-1.4839
X4.2527 Y-1.4953
X4.2297 Y-1.5055
X4.2064 Y-1.5143
X4.1824 Y-1.5219
X4.1581 Y-1.5281
X4.1335 Y-1.533
X4.1087 Y-1.5364
X4.0838 Y-1.5385
X4.0622 Y-1.5392
X3.8052
X3.7837 Y-1.5385
X3.7587 Y-1.5364
X3.7339 Y-1.533
X3.7093 Y-1.5281
X3.6851 Y-1.5219
X3.6611 Y-1.5143
X3.6377 Y-1.5055
X3.6148 Y-1.4953
X3.5925 Y-1.4839
X3.5709 Y-1.4712
X3.555 Y-1.4608
X3.5466 Y-1.4551
X3.5322 Y-1.4474
X3.5168 Y-1.4422
X3.5128 Y-1.4413
X3.4966 Y-1.4393
X2.6668 Y-1.4396
X2.6507 Y-1.4422
X2.6468 Y-1.4433
X2.6315 Y-1.4491
X2.6209 Y-1.4551
X2.6125 Y-1.4608
X2.5965 Y-1.4713
X2.5749 Y-1.4839
X2.5526 Y-1.4953
X2.5297 Y-1.5055
X2.5063 Y-1.5143
X2.4824 Y-1.5219
X2.4581 Y-1.5281
X2.4335 Y-1.533
X2.4087 Y-1.5364
X2.3838 Y-1.5385
X2.3622 Y-1.5392
X2.1052
X2.0837 Y-1.5385
X2.0587 Y-1.5364
X2.0339 Y-1.533
X2.0093 Y-1.5281
X1.9851 Y-1.5219
X1.9611 Y-1.5143
X1.9377 Y-1.5055
X1.9148 Y-1.4953
X1.8925 Y-1.4839
X1.8709 Y-1.4712
X1.855 Y-1.4608
X1.8466 Y-1.4551
X1.8322 Y-1.4474
X1.8168 Y-1.4422
X1.8007 Y-1.4396
X0.975 Y-1.4392
X0.475
X0.4638 Y-1.4405
X0.4533 Y-1.4442
X0.4438 Y-1.4501
X0.4359 Y-1.458
X0.4299 Y-1.4675
X0.4262 Y-1.4781
X0.425 Y-1.4892
X0.4235 Y-1.5004
X0.4221 Y-1.5114 Z-0.7737
X0.4208 Y-1.5219 Z-0.77
X0.4196 Y-1.5313 Z-0.7641
X0.4186 Y-1.5391 Z-0.7562
X0.4179 Y-1.545 Z-0.7467
X0.4174 Y-1.5487 Z-0.7361
X0.4172 Y-1.55 Z-0.725
G0 Z0.941
M5
G53 G0 Z0.

(TRACE5)
M1
T4 M6
S10000 M4
G17 G90 G94
G55
G0 X-0.1247 Y-1.4592
G43 Z0.941 H4
G0 Z0.8051
G1 Z-0.075 F30.
X0.7164 Y-1.4595
X0.7298 Y-1.4618
X0.7331 Y-1.4627
X0.7457 Y-1.4678
X0.7572 Y-1.4749
X0.7662 Y-1.4819
X0.7823 Y-1.4937
X0.8059 Y-1.5087
X0.8305 Y-1.5219
X0.8561 Y-1.5332
X0.8825 Y-1.5425
X0.9094 Y-1.5498
X0.9368 Y-1.555
X0.9646 Y-1.5582
X0.9874 Y-1.5592
X1.2976
X1.3204 Y-1.5582
X1.3482 Y-1.555
X1.3756 Y-1.5498
X1.4025 Y-1.5425
X1.4289 Y-1.5332
X1.4545 Y-1.5219
X1.4791 Y-1.5087
X1.5027 Y-1.4937
X1.5334 Y-1.4711
X1.5455 Y-1.465
X1.5585 Y-1.461
X1.572 Y-1.4593
X2.4164 Y-1.4595
X2.4298 Y-1.4618
X2.4331 Y-1.4627
X2.4457 Y-1.4678
X2.4572 Y-1.4749
X2.4662 Y-1.4819
X2.4823 Y-1.4937
X2.5059 Y-1.5087
X2.5305 Y-1.5219
X2.5561 Y-1.5332
X2.5825 Y-1.5425
X2.6094 Y-1.5498
X2.6368 Y-1.555
X2.6646 Y-1.5582
X2.6874 Y-1.5592
X2.9976
X3.0204 Y-1.5582
X3.0482 Y-1.555
X3.0756 Y-1.5498
X3.1025 Y-1.5425
X3.1289 Y-1.5332
X3.1545 Y-1.5219
X3.1791 Y-1.5087
X3.2027 Y-1.4937
X3.2334 Y-1.4711
X3.2455 Y-1.465
X3.2585 Y-1.461
X3.272 Y-1.4593
X4.1164 Y-1.4595
X4.1299 Y-1.4618
X4.1331 Y-1.4627
X4.1457 Y-1.4678
X4.1572 Y-1.4749
X4.1664 Y-1.4821
X4.1822 Y-1.4937
X4.2059 Y-1.5087
X4.2307 Y-1.5219
X4.256 Y-1.5331
X4.2825 Y-1.5425
X4.3093 Y-1.5497
X4.3368 Y-1.555
X4.3646 Y-1.5582
X4.3875 Y-1.5592
X4.6976
X4.7204 Y-1.5582
X4.7482 Y-1.555
X4.7757 Y-1.5497
X4.8025 Y-1.5425
X4.829 Y-1.5331
X4.8543 Y-1.5219
X4.8791 Y-1.5087
X4.9028 Y-1.4937
X4.9333 Y-1.4711
X4.9456 Y-1.465
X4.9585 Y-1.461
X4.9719 Y-1.4593
X5.8164 Y-1.4595
X5.8299 Y-1.4618
X5.8331 Y-1.4627
X5.8457 Y-1.4678
X5.8572 Y-1.4749
X5.8664 Y-1.4821
X5.8822 Y-1.4937
X5.9059 Y-1.5087
X5.9307 Y-1.5219
X5.956 Y-1.5331
X5.9825 Y-1.5425
X6.0093 Y-1.5497
X6.0368 Y-1.555
X6.0646 Y-1.5582
X6.0875 Y-1.5592
X6.3976
X6.4204 Y-1.5582
X6.4482 Y-1.555
X6.4757 Y-1.5497
X6.5025 Y-1.5425
X6.529 Y-1.5331
X6.5543 Y-1.5219
X6.5791 Y-1.5087
X6.6028 Y-1.4937
X6.6333 Y-1.4711
X6.6456 Y-1.465
X6.6585 Y-1.461
X6.6719 Y-1.4593
X7.5164 Y-1.4595
X7.5299 Y-1.4618
X7.5331 Y-1.4627
X7.5457 Y-1.4678
X7.5572 Y-1.4749
X7.5664 Y-1.4821
X7.5822 Y-1.4937
X7.6059 Y-1.5087
X7.6307 Y-1.5219
X7.656 Y-1.5331
X7.6825 Y-1.5425
X7.7093 Y-1.5497
X7.7368 Y-1.555
X7.7646 Y-1.5582
X7.7875 Y-1.5592
X8.0976
X8.1204 Y-1.5582
X8.1482 Y-1.555
X8.1757 Y-1.5497
X8.2025 Y-1.5425
X8.229 Y-1.5331
X8.2543 Y-1.5219
X8.2791 Y-1.5087
X8.3028 Y-1.4937
X8.3333 Y-1.4711
X8.3456 Y-1.465
X8.3585 Y-1.461
X8.3719 Y-1.4593
X9.2164 Y-1.4595
X9.2299 Y-1.4618
X9.2331 Y-1.4627
X9.2457 Y-1.4678
X9.2572 Y-1.4749
X9.2664 Y-1.4821
X9.2822 Y-1.4937
X9.3059 Y-1.5087
X9.3307 Y-1.5219
X9.356 Y-1.5331
X9.3825 Y-1.5425
X9.4093 Y-1.5497
X9.4368 Y-1.555
X9.4646 Y-1.5582
X9.4875 Y-1.5592
X9.7976
X9.8204 Y-1.5582
X9.8482 Y-1.555
X9.8757 Y-1.5497
X9.9025 Y-1.5425
X9.929 Y-1.5331
X9.9543 Y-1.5219
X9.9791 Y-1.5087
X10.0028 Y-1.4937
X10.0333 Y-1.4711
X10.0456 Y-1.465
X10.0585 Y-1.461
X10.0719 Y-1.4593
X10.9164 Y-1.4595
X10.9299 Y-1.4618
X10.9331 Y-1.4627
X10.9457 Y-1.4678
X10.9572 Y-1.4749
X10.9664 Y-1.4821
X10.9822 Y-1.4937
X11.0059 Y-1.5087
X11.0307 Y-1.5219
X11.056 Y-1.5331
X11.0825 Y-1.5425
X11.1093 Y-1.5497
X11.1368 Y-1.555
X11.1646 Y-1.5582
X11.1875 Y-1.5592
X11.4976
X11.5204 Y-1.5582
X11.5482 Y-1.555
X11.5757 Y-1.5497
X11.6025 Y-1.5425
X11.629 Y-1.5331
X11.6543 Y-1.5219
X11.6791 Y-1.5087
X11.7028 Y-1.4937
X11.7333 Y-1.4711
X11.7456 Y-1.465
X11.7585 Y-1.461
X11.7719 Y-1.4593
X12.6164 Y-1.4595
X12.6299 Y-1.4618
X12.6331 Y-1.4627
X12.6457 Y-1.4678
X12.6572 Y-1.4749
X12.6664 Y-1.4821
X12.6822 Y-1.4937
X12.7059 Y-1.5087
X12.7307 Y-1.5219
X12.756 Y-1.5331
X12.7825 Y-1.5425
X12.8093 Y-1.5497
X12.8368 Y-1.555
X12.8646 Y-1.5582
X12.8875 Y-1.5592
X13.1976
X13.2204 Y-1.5582
X13.2482 Y-1.555
X13.2757 Y-1.5497
X13.3025 Y-1.5425
X13.329 Y-1.5331
X13.3543 Y-1.5219
X13.3791 Y-1.5087
X13.4028 Y-1.4937
X13.4333 Y-1.4711
X13.4456 Y-1.465
X13.4585 Y-1.461
X13.4719 Y-1.4593
X14.3164 Y-1.4595
X14.3299 Y-1.4618
X14.3331 Y-1.4627
X14.3457 Y-1.4678
X14.3572 Y-1.4749
X14.3664 Y-1.4821
X14.3822 Y-1.4937
X14.4059 Y-1.5087
X14.4307 Y-1.5219
X14.456 Y-1.5331
X14.4825 Y-1.5425
X14.5093 Y-1.5497
X14.5368 Y-1.555
X14.5646 Y-1.5582
X14.5875 Y-1.5592
X14.8976
X14.9204 Y-1.5582
X14.9482 Y-1.555
X14.9757 Y-1.5497
X15.0025 Y-1.5425
X15.029 Y-1.5331
X15.0543 Y-1.5219
X15.0791 Y-1.5087
X15.1028 Y-1.4937
X15.1333 Y-1.4711
X15.1456 Y-1.465
X15.1585 Y-1.461
X15.1719 Y-1.4593
X16.0164 Y-1.4595
X16.0299 Y-1.4618
X16.0331 Y-1.4627
X16.0457 Y-1.4678
X16.0572 Y-1.4749
X16.0664 Y-1.4821
X16.0822 Y-1.4937
X16.1059 Y-1.5087
X16.1307 Y-1.5219
X16.156 Y-1.5331
X16.1825 Y-1.5425
X16.2093 Y-1.5497
X16.2368 Y-1.555
X16.2646 Y-1.5582
X16.2875 Y-1.5592
X16.5976
X16.6204 Y-1.5582
X16.6482 Y-1.555
X16.6757 Y-1.5497
X16.7025 Y-1.5425
X16.729 Y-1.5331
X16.7543 Y-1.5219
X16.7791 Y-1.5087
X16.8028 Y-1.4937
X16.8333 Y-1.4711
X16.8456 Y-1.465
X16.8585 Y-1.461
X16.8719 Y-1.4593
X17.7164 Y-1.4595
X17.7299 Y-1.4618
X17.7331 Y-1.4627
X17.7457 Y-1.4678
X17.7572 Y-1.4749
X17.7664 Y-1.4821
X17.7822 Y-1.4937
X17.8059 Y-1.5087
X17.8307 Y-1.5219
X17.856 Y-1.5331
X17.8825 Y-1.5425
X17.9093 Y-1.5497
X17.9368 Y-1.555
X17.9646 Y-1.5582
X17.9875 Y-1.5592
X18.2976
X18.3204 Y-1.5582
X18.3482 Y-1.555
X18.3757 Y-1.5497
X18.4025 Y-1.5425
X18.429 Y-1.5331
X18.4543 Y-1.5219
X18.4791 Y-1.5087
X18.5028 Y-1.4937
X18.5333 Y-1.4711
X18.5456 Y-1.465
X18.5585 Y-1.461
X18.5719 Y-1.4593
X19.4164 Y-1.4595
X19.4299 Y-1.4618
X19.4331 Y-1.4627
X19.4457 Y-1.4678
X19.4572 Y-1.4749
X19.4664 Y-1.4821
X19.4822 Y-1.4937
X19.5059 Y-1.5087
X19.5307 Y-1.5219
X19.556 Y-1.5331
X19.5825 Y-1.5425
X19.6093 Y-1.5497
X19.6368 Y-1.555
X19.6646 Y-1.5582
X19.6875 Y-1.5592
X19.9976
X20.0204 Y-1.5582
X20.0482 Y-1.555
X20.0757 Y-1.5497
X20.1025 Y-1.5425
X20.129 Y-1.5331
X20.1543 Y-1.5219
X20.1791 Y-1.5087
X20.2028 Y-1.4937
X20.2333 Y-1.4711
X20.2456 Y-1.465
X20.2585 Y-1.461
X20.2719 Y-1.4593
X21.1164 Y-1.4595
X21.1299 Y-1.4618
X21.1331 Y-1.4627
X21.1457 Y-1.4678
X21.1572 Y-1.4749
X21.1664 Y-1.4821
X21.1822 Y-1.4937
X21.2059 Y-1.5087
X21.2307 Y-1.5219
X21.256 Y-1.5331
X21.2825 Y-1.5425
X21.3093 Y-1.5497
X21.3368 Y-1.555
X21.3646 Y-1.5582
X21.3875 Y-1.5592
X21.6976
X21.7204 Y-1.5582
X21.7482 Y-1.555
X21.7757 Y-1.5497
X21.8025 Y-1.5425
X21.829 Y-1.5331
X21.8543 Y-1.5219
X21.8791 Y-1.5087
X21.9028 Y-1.4937
X21.9333 Y-1.4711
X21.9456 Y-1.465
X21.9585 Y-1.461
X21.9719 Y-1.4593
X22.8164 Y-1.4595
X22.8299 Y-1.4618
X22.8331 Y-1.4627
X22.8457 Y-1.4678
X22.8572 Y-1.4749
X22.8664 Y-1.4821
X22.8822 Y-1.4937
X22.9059 Y-1.5087
X22.9307 Y-1.5219
X22.956 Y-1.5331
X22.9825 Y-1.5425
X23.0093 Y-1.5497
X23.0368 Y-1.555
X23.0646 Y-1.5582
X23.0875 Y-1.5592
X23.3976
X23.4204 Y-1.5582
X23.4482 Y-1.555
X23.4757 Y-1.5497
X23.5025 Y-1.5425
X23.529 Y-1.5331
X23.5543 Y-1.5219
X23.5791 Y-1.5087
X23.6028 Y-1.4937
X23.6333 Y-1.4711
X23.6456 Y-1.465
X23.6585 Y-1.461
X23.6719 Y-1.4593
X24.5164 Y-1.4595
X24.5299 Y-1.4618
X24.5331 Y-1.4627
X24.5457 Y-1.4678
X24.5572 Y-1.4749
X24.5664 Y-1.4821
X24.5822 Y-1.4937
X24.6059 Y-1.5087
X24.6307 Y-1.5219
X24.656 Y-1.5331
X24.6825 Y-1.5425
X24.7093 Y-1.5497
X24.7368 Y-1.555
X24.7646 Y-1.5582
X24.7875 Y-1.5592
X25.0976
X25.1204 Y-1.5582
X25.1482 Y-1.555
X25.1757 Y-1.5497
X25.2025 Y-1.5425
X25.229 Y-1.5331
X25.2543 Y-1.5219
X25.2791 Y-1.5087
X25.3028 Y-1.4937
X25.3333 Y-1.4711
X25.3456 Y-1.465
X25.3585 Y-1.461
X25.3719 Y-1.4593
X26.2164 Y-1.4595
X26.2299 Y-1.4618
X26.2331 Y-1.4627
X26.2457 Y-1.4678
X26.2572 Y-1.4749
X26.2664 Y-1.4821
X26.2822 Y-1.4937
X26.3059 Y-1.5087
X26.3307 Y-1.5219
X26.356 Y-1.5331
X26.3825 Y-1.5425
X26.4093 Y-1.5497
X26.4368 Y-1.555
X26.4646 Y-1.5582
X26.4875 Y-1.5592
X26.7976
X26.8204 Y-1.5582
X26.8482 Y-1.555
X26.8757 Y-1.5497
X26.9025 Y-1.5425
X26.929 Y-1.5331
X26.9543 Y-1.5219
X26.9791 Y-1.5087
X27.0028 Y-1.4937
X27.0333 Y-1.4711
X27.0456 Y-1.465
X27.0585 Y-1.461
X27.0719 Y-1.4593
X27.9164 Y-1.4595
X27.9299 Y-1.4618
X27.9331 Y-1.4627
X27.9457 Y-1.4678
X27.9572 Y-1.4749
X27.9664 Y-1.4821
X27.9822 Y-1.4937
X28.0059 Y-1.5087
X28.0307 Y-1.5219
X28.056 Y-1.5331
X28.0825 Y-1.5425
X28.1093 Y-1.5497
X28.1368 Y-1.555
X28.1646 Y-1.5582
X28.1875 Y-1.5592
X28.4976
X28.5204 Y-1.5582
X28.5482 Y-1.555
X28.5757 Y-1.5497
X28.6025 Y-1.5425
X28.629 Y-1.5331
X28.6543 Y-1.5219
X28.6791 Y-1.5087
X28.7028 Y-1.4937
X28.7333 Y-1.4711
X28.7456 Y-1.465
X28.7585 Y-1.461
X28.7719 Y-1.4593
X29.6164 Y-1.4595
X29.6299 Y-1.4618
X29.6331 Y-1.4627
X29.6457 Y-1.4678
X29.6572 Y-1.4749
X29.6664 Y-1.4821
X29.6822 Y-1.4937
X29.7059 Y-1.5087
X29.7307 Y-1.5219
X29.756 Y-1.5331
X29.7825 Y-1.5425
X29.8093 Y-1.5497
X29.8368 Y-1.555
X29.8646 Y-1.5582
X29.8875 Y-1.5592
X30.1976
X30.2204 Y-1.5582
X30.2482 Y-1.555
X30.2757 Y-1.5497
X30.3025 Y-1.5425
X30.329 Y-1.5331
X30.3543 Y-1.5219
X30.3791 Y-1.5087
X30.4028 Y-1.4937
X30.4333 Y-1.4711
X30.4456 Y-1.465
X30.4585 Y-1.461
X30.4719 Y-1.4593
X31.3164 Y-1.4595
X31.3299 Y-1.4618
X31.3331 Y-1.4627
X31.3457 Y-1.4678
X31.3572 Y-1.4749
X31.3664 Y-1.4821
X31.3822 Y-1.4937
X31.4059 Y-1.5087
X31.4307 Y-1.5219
X31.456 Y-1.5331
X31.4825 Y-1.5425
X31.5093 Y-1.5497
X31.5368 Y-1.555
X31.5646 Y-1.5582
X31.5875 Y-1.5592
X31.8976
X31.9204 Y-1.5582
X31.9482 Y-1.555
X31.9757 Y-1.5497
X32.0025 Y-1.5425
X32.029 Y-1.5331
X32.0543 Y-1.5219
X32.0791 Y-1.5087
X32.1028 Y-1.4937
X32.1333 Y-1.4711
X32.1456 Y-1.465
X32.1585 Y-1.461
X32.1719 Y-1.4593
X33.0164 Y-1.4595
X33.0299 Y-1.4618
X33.0331 Y-1.4627
X33.0457 Y-1.4678
X33.0572 Y-1.4749
X33.0664 Y-1.4821
X33.0822 Y-1.4937
X33.1059 Y-1.5087
X33.1307 Y-1.5219
X33.156 Y-1.5331
X33.1825 Y-1.5425
X33.2093 Y-1.5497
X33.2368 Y-1.555
X33.2646 Y-1.5582
X33.2875 Y-1.5592
X33.5976
X33.6204 Y-1.5582
X33.6482 Y-1.555
X33.6757 Y-1.5497
X33.7025 Y-1.5425
X33.729 Y-1.5331
X33.7543 Y-1.5219
X33.7791 Y-1.5087
X33.8028 Y-1.4937
X33.8333 Y-1.4711
X33.8456 Y-1.465
X33.8585 Y-1.461
X33.8719 Y-1.4593
X34.7164 Y-1.4595
X34.7299 Y-1.4618
X34.7331 Y-1.4627
X34.7457 Y-1.4678
X34.7572 Y-1.4749
X34.7664 Y-1.4821
X34.7822 Y-1.4937
X34.8059 Y-1.5087
X34.8307 Y-1.5219
X34.856 Y-1.5331
X34.8825 Y-1.5425
X34.9093 Y-1.5497
X34.9368 Y-1.555
X34.9646 Y-1.5582
X34.9875 Y-1.5592
X35.2976
X35.3204 Y-1.5582
X35.3482 Y-1.555
X35.3757 Y-1.5497
X35.4025 Y-1.5425
X35.429 Y-1.5331
X35.4543 Y-1.5219
X35.4791 Y-1.5087
X35.5028 Y-1.4937
X35.5333 Y-1.4711
X35.5456 Y-1.465
X35.5585 Y-1.461
X35.5719 Y-1.4593
X36.4164 Y-1.4595
X36.4299 Y-1.4618
X36.4331 Y-1.4627
X36.4457 Y-1.4678
X36.4572 Y-1.4749
X36.4664 Y-1.4821
X36.4822 Y-1.4937
X36.5059 Y-1.5087
X36.5307 Y-1.5219
X36.556 Y-1.5331
X36.5825 Y-1.5425
X36.6093 Y-1.5497
X36.6368 Y-1.555
X36.6646 Y-1.5582
X36.6875 Y-1.5592
X36.9976
X37.0204 Y-1.5582
X37.0482 Y-1.555
X37.0757 Y-1.5497
X37.1025 Y-1.5425
X37.129 Y-1.5331
X37.1543 Y-1.5219
X37.1791 Y-1.5087
X37.2028 Y-1.4937
X37.2333 Y-1.4711
X37.2456 Y-1.465
X37.2585 Y-1.461
X37.2719 Y-1.4593
X38.1164 Y-1.4595
X38.1299 Y-1.4618
X38.1331 Y-1.4627
X38.1457 Y-1.4678
X38.1572 Y-1.4749
X38.1664 Y-1.4821
X38.1822 Y-1.4937
X38.2059 Y-1.5087
X38.2307 Y-1.5219
X38.256 Y-1.5331
X38.2825 Y-1.5425
X38.3093 Y-1.5497
X38.3368 Y-1.555
X38.3646 Y-1.5582
X38.3875 Y-1.5592
X38.6976
X38.7204 Y-1.5582
X38.7482 Y-1.555
X38.7757 Y-1.5497
X38.8025 Y-1.5425
X38.829 Y-1.5331
X38.8543 Y-1.5219
X38.8791 Y-1.5087
X38.9028 Y-1.4937
X38.9333 Y-1.4711
X38.9456 Y-1.465
X38.9585 Y-1.461
X38.9719 Y-1.4593
X39.8167 Y-1.4595
X39.8299 Y-1.4618
X39.8329 Y-1.4627
X39.8451 Y-1.4675
X39.8559 Y-1.474
X39.8684 Y-1.4837
X39.8841 Y-1.4948
X39.9056 Y-1.5085
X39.9294 Y-1.5213
X39.9543 Y-1.5325
X39.9829 Y-1.5427
X40.0105 Y-1.55
X40.0371 Y-1.555
X40.0646 Y-1.5582
X40.0874 Y-1.5592
X40.3976
X40.4204 Y-1.5582
X40.448 Y-1.555
X40.4746 Y-1.55
X40.5021 Y-1.5427
X40.5307 Y-1.5325
X40.5556 Y-1.5213
X40.5794 Y-1.5085
X40.601 Y-1.4948
X40.6184 Y-1.4823
X40.6322 Y-1.4718
X40.6456 Y-1.465
X40.6583 Y-1.4611
X40.6721 Y-1.4593
X41.5167 Y-1.4595
X41.5299 Y-1.4618
X41.5329 Y-1.4627
X41.5451 Y-1.4675
X41.5559 Y-1.474
X41.5684 Y-1.4837
X41.5841 Y-1.4948
X41.6056 Y-1.5085
X41.6294 Y-1.5213
X41.6543 Y-1.5325
X41.6829 Y-1.5427
X41.7105 Y-1.55
X41.7371 Y-1.555
X41.7646 Y-1.5582
X41.7874 Y-1.5592
X42.0976
X42.1204 Y-1.5582
X42.148 Y-1.555
X42.1745 Y-1.55
X42.2021 Y-1.5427
X42.2307 Y-1.5325
X42.2556 Y-1.5213
X42.2794 Y-1.5085
X42.301 Y-1.4948
X42.3184 Y-1.4823
X42.3322 Y-1.4718
X42.3456 Y-1.465
X42.3583 Y-1.4611
X42.3721 Y-1.4593
X43.2167 Y-1.4595
X43.2299 Y-1.4618
X43.2329 Y-1.4627
X43.2451 Y-1.4675
X43.2559 Y-1.474
X43.2684 Y-1.4837
X43.2841 Y-1.4948
X43.3056 Y-1.5085
X43.3294 Y-1.5213
X43.3543 Y-1.5325
X43.3829 Y-1.5427
X43.4105 Y-1.55
X43.4371 Y-1.555
X43.4646 Y-1.5582
X43.4874 Y-1.5592
X43.7976
X43.8204 Y-1.5582
X43.848 Y-1.555
X43.8746 Y-1.55
X43.9021 Y-1.5427
X43.9307 Y-1.5325
X43.9556 Y-1.5213
X43.9794 Y-1.5085
X44.001 Y-1.4948
X44.0184 Y-1.4823
X44.0322 Y-1.4718
X44.0456 Y-1.465
X44.0583 Y-1.4611
X44.0721 Y-1.4593
X45.3252 Y-1.4592
Z0.8051
G0 X-0.1247
Z0.805
G1 Z-0.775 F30.
X0.7164 Y-1.4595
X0.7298 Y-1.4618
X0.7331 Y-1.4627
X0.7457 Y-1.4678
X0.7572 Y-1.4749
X0.7662 Y-1.4819
X0.7823 Y-1.4937
X0.8059 Y-1.5087
X0.8305 Y-1.5219
X0.8561 Y-1.5332
X0.8825 Y-1.5425
X0.9094 Y-1.5498
X0.9368 Y-1.555
X0.9646 Y-1.5582
X0.9874 Y-1.5592
X1.2976
X1.3204 Y-1.5582
X1.3482 Y-1.555
X1.3756 Y-1.5498
X1.4025 Y-1.5425
X1.4289 Y-1.5332
X1.4545 Y-1.5219
X1.4791 Y-1.5087
X1.5027 Y-1.4937
X1.5334 Y-1.4711
X1.5455 Y-1.465
X1.5585 Y-1.461
X1.572 Y-1.4593
X2.4164 Y-1.4595
X2.4298 Y-1.4618
X2.4331 Y-1.4627
X2.4457 Y-1.4678
X2.4572 Y-1.4749
X2.4662 Y-1.4819
X2.4823 Y-1.4937
X2.5059 Y-1.5087
X2.5305 Y-1.5219
X2.5561 Y-1.5332
X2.5825 Y-1.5425
X2.6094 Y-1.5498
X2.6368 Y-1.555
X2.6646 Y-1.5582
X2.6874 Y-1.5592
X2.9976
X3.0204 Y-1.5582
X3.0482 Y-1.555
X3.0756 Y-1.5498
X3.1025 Y-1.5425
X3.1289 Y-1.5332
X3.1545 Y-1.5219
X3.1791 Y-1.5087
X3.2027 Y-1.4937
X3.2334 Y-1.4711
X3.2455 Y-1.465
X3.2585 Y-1.461
X3.272 Y-1.4593
X4.1164 Y-1.4595
X4.1299 Y-1.4618
X4.1331 Y-1.4627
X4.1457 Y-1.4678
X4.1572 Y-1.4749
X4.1664 Y-1.4821
X4.1822 Y-1.4937
X4.2059 Y-1.5087
X4.2307 Y-1.5219
X4.256 Y-1.5331
X4.2825 Y-1.5425
X4.3093 Y-1.5497
X4.3368 Y-1.555
X4.3646 Y-1.5582
X4.3875 Y-1.5592
X4.6976
X4.7204 Y-1.5582
X4.7482 Y-1.555
X4.7757 Y-1.5497
X4.8025 Y-1.5425
X4.829 Y-1.5331
X4.8543 Y-1.5219
X4.8791 Y-1.5087
X4.9028 Y-1.4937
X4.9333 Y-1.4711
X4.9456 Y-1.465
X4.9585 Y-1.461
X4.9719 Y-1.4593
X5.8164 Y-1.4595
X5.8299 Y-1.4618
X5.8331 Y-1.4627
X5.8457 Y-1.4678
X5.8572 Y-1.4749
X5.8664 Y-1.4821
X5.8822 Y-1.4937
X5.9059 Y-1.5087
X5.9307 Y-1.5219
X5.956 Y-1.5331
X5.9825 Y-1.5425
X6.0093 Y-1.5497
X6.0368 Y-1.555
X6.0646 Y-1.5582
X6.0875 Y-1.5592
X6.3976
X6.4204 Y-1.5582
X6.4482 Y-1.555
X6.4757 Y-1.5497
X6.5025 Y-1.5425
X6.529 Y-1.5331
X6.5543 Y-1.5219
X6.5791 Y-1.5087
X6.6028 Y-1.4937
X6.6333 Y-1.4711
X6.6456 Y-1.465
X6.6585 Y-1.461
X6.6719 Y-1.4593
X7.5164 Y-1.4595
X7.5299 Y-1.4618
X7.5331 Y-1.4627
X7.5457 Y-1.4678
X7.5572 Y-1.4749
X7.5664 Y-1.4821
X7.5822 Y-1.4937
X7.6059 Y-1.5087
X7.6307 Y-1.5219
X7.656 Y-1.5331
X7.6825 Y-1.5425
X7.7093 Y-1.5497
X7.7368 Y-1.555
X7.7646 Y-1.5582
X7.7875 Y-1.5592
X8.0976
X8.1204 Y-1.5582
X8.1482 Y-1.555
X8.1757 Y-1.5497
X8.2025 Y-1.5425
X8.229 Y-1.5331
X8.2543 Y-1.5219
X8.2791 Y-1.5087
X8.3028 Y-1.4937
X8.3333 Y-1.4711
X8.3456 Y-1.465
X8.3585 Y-1.461
X8.3719 Y-1.4593
X9.2164 Y-1.4595
X9.2299 Y-1.4618
X9.2331 Y-1.4627
X9.2457 Y-1.4678
X9.2572 Y-1.4749
X9.2664 Y-1.4821
X9.2822 Y-1.4937
X9.3059 Y-1.5087
X9.3307 Y-1.5219
X9.356 Y-1.5331
X9.3825 Y-1.5425
X9.4093 Y-1.5497
X9.4368 Y-1.555
X9.4646 Y-1.5582
X9.4875 Y-1.5592
X9.7976
X9.8204 Y-1.5582
X9.8482 Y-1.555
X9.8757 Y-1.5497
X9.9025 Y-1.5425
X9.929 Y-1.5331
X9.9543 Y-1.5219
X9.9791 Y-1.5087
X10.0028 Y-1.4937
X10.0333 Y-1.4711
X10.0456 Y-1.465
X10.0585 Y-1.461
X10.0719 Y-1.4593
X10.9164 Y-1.4595
X10.9299 Y-1.4618
X10.9331 Y-1.4627
X10.9457 Y-1.4678
X10.9572 Y-1.4749
X10.9664 Y-1.4821
X10.9822 Y-1.4937
X11.0059 Y-1.5087
X11.0307 Y-1.5219
X11.056 Y-1.5331
X11.0825 Y-1.5425
X11.1093 Y-1.5497
X11.1368 Y-1.555
X11.1646 Y-1.5582
X11.1875 Y-1.5592
X11.4976
X11.5204 Y-1.5582
X11.5482 Y-1.555
X11.5757 Y-1.5497
X11.6025 Y-1.5425
X11.629 Y-1.5331
X11.6543 Y-1.5219
X11.6791 Y-1.5087
X11.7028 Y-1.4937
X11.7333 Y-1.4711
X11.7456 Y-1.465
X11.7585 Y-1.461
X11.7719 Y-1.4593
X12.6164 Y-1.4595
X12.6299 Y-1.4618
X12.6331 Y-1.4627
X12.6457 Y-1.4678
X12.6572 Y-1.4749
X12.6664 Y-1.4821
X12.6822 Y-1.4937
X12.7059 Y-1.5087
X12.7307 Y-1.5219
X12.756 Y-1.5331
X12.7825 Y-1.5425
X12.8093 Y-1.5497
X12.8368 Y-1.555
X12.8646 Y-1.5582
X12.8875 Y-1.5592
X13.1976
X13.2204 Y-1.5582
X13.2482 Y-1.555
X13.2757 Y-1.5497
X13.3025 Y-1.5425
X13.329 Y-1.5331
X13.3543 Y-1.5219
X13.3791 Y-1.5087
X13.4028 Y-1.4937
X13.4333 Y-1.4711
X13.4456 Y-1.465
X13.4585 Y-1.461
X13.4719 Y-1.4593
X14.3164 Y-1.4595
X14.3299 Y-1.4618
X14.3331 Y-1.4627
X14.3457 Y-1.4678
X14.3572 Y-1.4749
X14.3664 Y-1.4821
X14.3822 Y-1.4937
X14.4059 Y-1.5087
X14.4307 Y-1.5219
X14.456 Y-1.5331
X14.4825 Y-1.5425
X14.5093 Y-1.5497
X14.5368 Y-1.555
X14.5646 Y-1.5582
X14.5875 Y-1.5592
X14.8976
X14.9204 Y-1.5582
X14.9482 Y-1.555
X14.9757 Y-1.5497
X15.0025 Y-1.5425
X15.029 Y-1.5331
X15.0543 Y-1.5219
X15.0791 Y-1.5087
X15.1028 Y-1.4937
X15.1333 Y-1.4711
X15.1456 Y-1.465
X15.1585 Y-1.461
X15.1719 Y-1.4593
X16.0164 Y-1.4595
X16.0299 Y-1.4618
X16.0331 Y-1.4627
X16.0457 Y-1.4678
X16.0572 Y-1.4749
X16.0664 Y-1.4821
X16.0822 Y-1.4937
X16.1059 Y-1.5087
X16.1307 Y-1.5219
X16.156 Y-1.5331
X16.1825 Y-1.5425
X16.2093 Y-1.5497
X16.2368 Y-1.555
X16.2646 Y-1.5582
X16.2875 Y-1.5592
X16.5976
X16.6204 Y-1.5582
X16.6482 Y-1.555
X16.6757 Y-1.5497
X16.7025 Y-1.5425
X16.729 Y-1.5331
X16.7543 Y-1.5219
X16.7791 Y-1.5087
X16.8028 Y-1.4937
X16.8333 Y-1.4711
X16.8456 Y-1.465
X16.8585 Y-1.461
X16.8719 Y-1.4593
X17.7164 Y-1.4595
X17.7299 Y-1.4618
X17.7331 Y-1.4627
X17.7457 Y-1.4678
X17.7572 Y-1.4749
X17.7664 Y-1.4821
X17.7822 Y-1.4937
X17.8059 Y-1.5087
X17.8307 Y-1.5219
X17.856 Y-1.5331
X17.8825 Y-1.5425
X17.9093 Y-1.5497
X17.9368 Y-1.555
X17.9646 Y-1.5582
X17.9875 Y-1.5592
X18.2976
X18.3204 Y-1.5582
X18.3482 Y-1.555
X18.3757 Y-1.5497
X18.4025 Y-1.5425
X18.429 Y-1.5331
X18.4543 Y-1.5219
X18.4791 Y-1.5087
X18.5028 Y-1.4937
X18.5333 Y-1.4711
X18.5456 Y-1.465
X18.5585 Y-1.461
X18.5719 Y-1.4593
X19.4164 Y-1.4595
X19.4299 Y-1.4618
X19.4331 Y-1.4627
X19.4457 Y-1.4678
X19.4572 Y-1.4749
X19.4664 Y-1.4821
X19.4822 Y-1.4937
X19.5059 Y-1.5087
X19.5307 Y-1.5219
X19.556 Y-1.5331
X19.5825 Y-1.5425
X19.6093 Y-1.5497
X19.6368 Y-1.555
X19.6646 Y-1.5582
X19.6875 Y-1.5592
X19.9976
X20.0204 Y-1.5582
X20.0482 Y-1.555
X20.0757 Y-1.5497
X20.1025 Y-1.5425
X20.129 Y-1.5331
X20.1543 Y-1.5219
X20.1791 Y-1.5087
X20.2028 Y-1.4937
X20.2333 Y-1.4711
X20.2456 Y-1.465
X20.2585 Y-1.461
X20.2719 Y-1.4593
X21.1164 Y-1.4595
X21.1299 Y-1.4618
X21.1331 Y-1.4627
X21.1457 Y-1.4678
X21.1572 Y-1.4749
X21.1664 Y-1.4821
X21.1822 Y-1.4937
X21.2059 Y-1.5087
X21.2307 Y-1.5219
X21.256 Y-1.5331
X21.2825 Y-1.5425
X21.3093 Y-1.5497
X21.3368 Y-1.555
X21.3646 Y-1.5582
X21.3875 Y-1.5592
X21.6976
X21.7204 Y-1.5582
X21.7482 Y-1.555
X21.7757 Y-1.5497
X21.8025 Y-1.5425
X21.829 Y-1.5331
X21.8543 Y-1.5219
X21.8791 Y-1.5087
X21.9028 Y-1.4937
X21.9333 Y-1.4711
X21.9456 Y-1.465
X21.9585 Y-1.461
X21.9719 Y-1.4593
X22.8164 Y-1.4595
X22.8299 Y-1.4618
X22.8331 Y-1.4627
X22.8457 Y-1.4678
X22.8572 Y-1.4749
X22.8664 Y-1.4821
X22.8822 Y-1.4937
X22.9059 Y-1.5087
X22.9307 Y-1.5219
X22.956 Y-1.5331
X22.9825 Y-1.5425
X23.0093 Y-1.5497
X23.0368 Y-1.555
X23.0646 Y-1.5582
X23.0875 Y-1.5592
X23.3976
X23.4204 Y-1.5582
X23.4482 Y-1.555
X23.4757 Y-1.5497
X23.5025 Y-1.5425
X23.529 Y-1.5331
X23.5543 Y-1.5219
X23.5791 Y-1.5087
X23.6028 Y-1.4937
X23.6333 Y-1.4711
X23.6456 Y-1.465
X23.6585 Y-1.461
X23.6719 Y-1.4593
X24.5164 Y-1.4595
X24.5299 Y-1.4618
X24.5331 Y-1.4627
X24.5457 Y-1.4678
X24.5572 Y-1.4749
X24.5664 Y-1.4821
X24.5822 Y-1.4937
X24.6059 Y-1.5087
X24.6307 Y-1.5219
X24.656 Y-1.5331
X24.6825 Y-1.5425
X24.7093 Y-1.5497
X24.7368 Y-1.555
X24.7646 Y-1.5582
X24.7875 Y-1.5592
X25.0976
X25.1204 Y-1.5582
X25.1482 Y-1.555
X25.1757 Y-1.5497
X25.2025 Y-1.5425
X25.229 Y-1.5331
X25.2543 Y-1.5219
X25.2791 Y-1.5087
X25.3028 Y-1.4937
X25.3333 Y-1.4711
X25.3456 Y-1.465
X25.3585 Y-1.461
X25.3719 Y-1.4593
X26.2164 Y-1.4595
X26.2299 Y-1.4618
X26.2331 Y-1.4627
X26.2457 Y-1.4678
X26.2572 Y-1.4749
X26.2664 Y-1.4821
X26.2822 Y-1.4937
X26.3059 Y-1.5087
X26.3307 Y-1.5219
X26.356 Y-1.5331
X26.3825 Y-1.5425
X26.4093 Y-1.5497
X26.4368 Y-1.555
X26.4646 Y-1.5582
X26.4875 Y-1.5592
X26.7976
X26.8204 Y-1.5582
X26.8482 Y-1.555
X26.8757 Y-1.5497
X26.9025 Y-1.5425
X26.929 Y-1.5331
X26.9543 Y-1.5219
X26.9791 Y-1.5087
X27.0028 Y-1.4937
X27.0333 Y-1.4711
X27.0456 Y-1.465
X27.0585 Y-1.461
X27.0719 Y-1.4593
X27.9164 Y-1.4595
X27.9299 Y-1.4618
X27.9331 Y-1.4627
X27.9457 Y-1.4678
X27.9572 Y-1.4749
X27.9664 Y-1.4821
X27.9822 Y-1.4937
X28.0059 Y-1.5087
X28.0307 Y-1.5219
X28.056 Y-1.5331
X28.0825 Y-1.5425
X28.1093 Y-1.5497
X28.1368 Y-1.555
X28.1646 Y-1.5582
X28.1875 Y-1.5592
X28.4976
X28.5204 Y-1.5582
X28.5482 Y-1.555
X28.5757 Y-1.5497
X28.6025 Y-1.5425
X28.629 Y-1.5331
X28.6543 Y-1.5219
X28.6791 Y-1.5087
X28.7028 Y-1.4937
X28.7333 Y-1.4711
X28.7456 Y-1.465
X28.7585 Y-1.461
X28.7719 Y-1.4593
X29.6164 Y-1.4595
X29.6299 Y-1.4618
X29.6331 Y-1.4627
X29.6457 Y-1.4678
X29.6572 Y-1.4749
X29.6664 Y-1.4821
X29.6822 Y-1.4937
X29.7059 Y-1.5087
X29.7307 Y-1.5219
X29.756 Y-1.5331
X29.7825 Y-1.5425
X29.8093 Y-1.5497
X29.8368 Y-1.555
X29.8646 Y-1.5582
X29.8875 Y-1.5592
X30.1976
X30.2204 Y-1.5582
X30.2482 Y-1.555
X30.2757 Y-1.5497
X30.3025 Y-1.5425
X30.329 Y-1.5331
X30.3543 Y-1.5219
X30.3791 Y-1.5087
X30.4028 Y-1.4937
X30.4333 Y-1.4711
X30.4456 Y-1.465
X30.4585 Y-1.461
X30.4719 Y-1.4593
X31.3164 Y-1.4595
X31.3299 Y-1.4618
X31.3331 Y-1.4627
X31.3457 Y-1.4678
X31.3572 Y-1.4749
X31.3664 Y-1.4821
X31.3822 Y-1.4937
X31.4059 Y-1.5087
X31.4307 Y-1.5219
X31.456 Y-1.5331
X31.4825 Y-1.5425
X31.5093 Y-1.5497
X31.5368 Y-1.555
X31.5646 Y-1.5582
X31.5875 Y-1.5592
X31.8976
X31.9204 Y-1.5582
X31.9482 Y-1.555
X31.9757 Y-1.5497
X32.0025 Y-1.5425
X32.029 Y-1.5331
X32.0543 Y-1.5219
X32.0791 Y-1.5087
X32.1028 Y-1.4937
X32.1333 Y-1.4711
X32.1456 Y-1.465
X32.1585 Y-1.461
X32.1719 Y-1.4593
X33.0164 Y-1.4595
X33.0299 Y-1.4618
X33.0331 Y-1.4627
X33.0457 Y-1.4678
X33.0572 Y-1.4749
X33.0664 Y-1.4821
X33.0822 Y-1.4937
X33.1059 Y-1.5087
X33.1307 Y-1.5219
X33.156 Y-1.5331
X33.1825 Y-1.5425
X33.2093 Y-1.5497
X33.2368 Y-1.555
X33.2646 Y-1.5582
X33.2875 Y-1.5592
X33.5976
X33.6204 Y-1.5582
X33.6482 Y-1.555
X33.6757 Y-1.5497
X33.7025 Y-1.5425
X33.729 Y-1.5331
X33.7543 Y-1.5219
X33.7791 Y-1.5087
X33.8028 Y-1.4937
X33.8333 Y-1.4711
X33.8456 Y-1.465
X33.8585 Y-1.461
X33.8719 Y-1.4593
X34.7164 Y-1.4595
X34.7299 Y-1.4618
X34.7331 Y-1.4627
X34.7457 Y-1.4678
X34.7572 Y-1.4749
X34.7664 Y-1.4821
X34.7822 Y-1.4937
X34.8059 Y-1.5087
X34.8307 Y-1.5219
X34.856 Y-1.5331
X34.8825 Y-1.5425
X34.9093 Y-1.5497
X34.9368 Y-1.555
X34.9646 Y-1.5582
X34.9875 Y-1.5592
X35.2976
X35.3204 Y-1.5582
X35.3482 Y-1.555
X35.3757 Y-1.5497
X35.4025 Y-1.5425
X35.429 Y-1.5331
X35.4543 Y-1.5219
X35.4791 Y-1.5087
X35.5028 Y-1.4937
X35.5333 Y-1.4711
X35.5456 Y-1.465
X35.5585 Y-1.461
X35.5719 Y-1.4593
X36.4164 Y-1.4595
X36.4299 Y-1.4618
X36.4331 Y-1.4627
X36.4457 Y-1.4678
X36.4572 Y-1.4749
X36.4664 Y-1.4821
X36.4822 Y-1.4937
X36.5059 Y-1.5087
X36.5307 Y-1.5219
X36.556 Y-1.5331
X36.5825 Y-1.5425
X36.6093 Y-1.5497
X36.6368 Y-1.555
X36.6646 Y-1.5582
X36.6875 Y-1.5592
X36.9976
X37.0204 Y-1.5582
X37.0482 Y-1.555
X37.0757 Y-1.5497
X37.1025 Y-1.5425
X37.129 Y-1.5331
X37.1543 Y-1.5219
X37.1791 Y-1.5087
X37.2028 Y-1.4937
X37.2333 Y-1.4711
X37.2456 Y-1.465
X37.2585 Y-1.461
X37.2719 Y-1.4593
X38.1164 Y-1.4595
X38.1299 Y-1.4618
X38.1331 Y-1.4627
X38.1457 Y-1.4678
X38.1572 Y-1.4749
X38.1664 Y-1.4821
X38.1822 Y-1.4937
X38.2059 Y-1.5087
X38.2307 Y-1.5219
X38.256 Y-1.5331
X38.2825 Y-1.5425
X38.3093 Y-1.5497
X38.3368 Y-1.555
X38.3646 Y-1.5582
X38.3875 Y-1.5592
X38.6976
X38.7204 Y-1.5582
X38.7482 Y-1.555
X38.7757 Y-1.5497
X38.8025 Y-1.5425
X38.829 Y-1.5331
X38.8543 Y-1.5219
X38.8791 Y-1.5087
X38.9028 Y-1.4937
X38.9333 Y-1.4711
X38.9456 Y-1.465
X38.9585 Y-1.461
X38.9719 Y-1.4593
X39.8167 Y-1.4595
X39.8299 Y-1.4618
X39.8329 Y-1.4627
X39.8451 Y-1.4675
X39.8559 Y-1.474
X39.8684 Y-1.4837
X39.8841 Y-1.4948
X39.9056 Y-1.5085
X39.9294 Y-1.5213
X39.9543 Y-1.5325
X39.9829 Y-1.5427
X40.0105 Y-1.55
X40.0371 Y-1.555
X40.0646 Y-1.5582
X40.0874 Y-1.5592
X40.3976
X40.4204 Y-1.5582
X40.448 Y-1.555
X40.4746 Y-1.55
X40.5021 Y-1.5427
X40.5307 Y-1.5325
X40.5556 Y-1.5213
X40.5794 Y-1.5085
X40.601 Y-1.4948
X40.6184 Y-1.4823
X40.6322 Y-1.4718
X40.6456 Y-1.465
X40.6583 Y-1.4611
X40.6721 Y-1.4593
X41.5167 Y-1.4595
X41.5299 Y-1.4618
X41.5329 Y-1.4627
X41.5451 Y-1.4675
X41.5559 Y-1.474
X41.5684 Y-1.4837
X41.5841 Y-1.4948
X41.6056 Y-1.5085
X41.6294 Y-1.5213
X41.6543 Y-1.5325
X41.6829 Y-1.5427
X41.7105 Y-1.55
X41.7371 Y-1.555
X41.7646 Y-1.5582
X41.7874 Y-1.5592
X42.0976
X42.1204 Y-1.5582
X42.148 Y-1.555
X42.1745 Y-1.55
X42.2021 Y-1.5427
X42.2307 Y-1.5325
X42.2556 Y-1.5213
X42.2794 Y-1.5085
X42.301 Y-1.4948
X42.3184 Y-1.4823
X42.3322 Y-1.4718
X42.3456 Y-1.465
X42.3583 Y-1.4611
X42.3721 Y-1.4593
X43.2167 Y-1.4595
X43.2299 Y-1.4618
X43.2329 Y-1.4627
X43.2451 Y-1.4675
X43.2559 Y-1.474
X43.2684 Y-1.4837
X43.2841 Y-1.4948
X43.3056 Y-1.5085
X43.3294 Y-1.5213
X43.3543 Y-1.5325
X43.3829 Y-1.5427
X43.4105 Y-1.55
X43.4371 Y-1.555
X43.4646 Y-1.5582
X43.4874 Y-1.5592
X43.7976
X43.8204 Y-1.5582
X43.848 Y-1.555
X43.8746 Y-1.55
X43.9021 Y-1.5427
X43.9307 Y-1.5325
X43.9556 Y-1.5213
X43.9794 Y-1.5085
X44.001 Y-1.4948
X44.0184 Y-1.4823
X44.0322 Y-1.4718
X44.0456 Y-1.465
X44.0583 Y-1.4611
X44.0721 Y-1.4593
X45.3252 Y-1.4592
Z0.805
G0 Z0.941

M5
G53 G0 Z0.
M30
