(INITIAL TRIM TOP)
(T1 D=2. CR=0. - ZMIN=0.283 - FACE MILL)
G90 G94 G91.1 G40 G49 G17
G20
G53 G0 Z0.

(POCKET1 2)
T1 M6
S5000 M3
G17 G90 G94
G55
G0 X43.1893 Y1.007
G43 Z1.141 H1
G0 Z0.641
G1 X43.1894 Y1.0069 Z0.6354 F30.
X43.1896 Z0.6299
X43.19 Z0.6243
X43.1906 Y1.0068 Z0.6188
X43.1912 Y1.0067 Z0.6133
X43.1921 Y1.0066 Z0.6078
X43.1931 Y1.0064 Z0.6023
X43.1942 Y1.0063 Z0.5969
X43.1955 Y1.0061 Z0.5915
X43.1969 Y1.0059 Z0.5861
X43.1985 Y1.0057 Z0.5808
X43.2003 Y1.0055 Z0.5755
X43.2021 Y1.0053 Z0.5703
X43.2042 Y1.005 Z0.5651
X43.2063 Y1.0048 Z0.56
X43.2086 Y1.0045 Z0.5549
X43.2111 Y1.0043 Z0.55
X43.2137 Y1.004 Z0.545
X43.2164 Y1.0037 Z0.5402
X43.2192 Y1.0034 Z0.5354
X43.2222 Y1.0031 Z0.5308
X43.2253 Y1.0028 Z0.5262
X43.2286 Y1.0026 Z0.5217
X43.232 Y1.0023 Z0.5172
X43.2354 Y1.002 Z0.5129
X43.2391 Y1.0017 Z0.5087
X43.2428 Y1.0015 Z0.5046
X43.2466 Y1.0012 Z0.5006
X43.2506 Y1.001 Z0.4967
X43.2546 Y1.0008 Z0.4929
X43.2588 Y1.0006 Z0.4892
X43.2631 Y1.0004 Z0.4856
X43.2674 Y1.0003 Z0.4822
X43.2719 Y1.0001 Z0.4789
X43.2764 Y1. Z0.4757
X43.2811 Y0.9999 Z0.4726
X43.2858 Z0.4697
X43.2906 Z0.4669
X43.2955 Z0.4642
X43.3004 Z0.4617
X43.3054 Y1. Z0.4593
X43.3105 Y1.0001 Z0.457
X43.3156 Y1.0002 Z0.4549
X43.3208 Y1.0004 Z0.453
X43.3261 Y1.0006 Z0.4511
X43.3314 Y1.0009 Z0.4495
X43.3367 Y1.0012 Z0.4479
X43.3421 Y1.0015 Z0.4466
X43.3475 Y1.0019 Z0.4453
X43.3529 Y1.0023 Z0.4442
X43.3584 Y1.0028 Z0.4433
X43.3639 Y1.0033 Z0.4426
X43.3694 Y1.0038 Z0.4419
X43.3749 Y1.0044 Z0.4415
G3 X43.3063 Y2.4997 Z0.2835 I-0.0826 J0.7454
G1 X43.3016 Y2.4998 Z0.2832
X43.297 Z0.283
X43.2923 Y2.4999
X2.3832 F60.
G3 X1.7764 Y1.8931 I0. J-0.6068
G1 Y1.3245
G3 X2.3832 Y0.7177 I0.6068 J0.
G1 X43.5766
G3 X44.1834 Y1.3245 I0. J0.6068
G1 Y1.8931
G3 X43.5766 Y2.4999 I-0.6068 J0.
G1 X43.2923
G2 X42.1794 Y3.2418 I0. J1.2057
G3 X41.0664 Y3.9838 I-1.1129 J-0.4637
G1 X0.2925
Y-0.7662
X45.6673
Y3.9838
X41.0664
X41.0608 Y3.9836 Z0.2831
X41.0552 Y3.9832 Z0.2833
X41.0497 Y3.9826 Z0.2837
X41.0441 Y3.9819 Z0.2842
X41.0386 Y3.9811 Z0.2849
X41.0332 Y3.9801 Z0.2858
X41.0278 Y3.9789 Z0.2868
X41.0225 Y3.9776 Z0.288
X41.0172 Y3.9762 Z0.2893
X41.012 Y3.9746 Z0.2908
X41.0069 Y3.9729 Z0.2924
X41.0019 Y3.971 Z0.2942
X40.997 Y3.9691 Z0.2961
X40.9922 Y3.967 Z0.2982
X40.9876 Y3.9649 Z0.3004
X40.983 Y3.9626 Z0.3028
X40.9786 Y3.9603 Z0.3053
X40.9742 Y3.9579 Z0.3079
X40.97 Y3.9554 Z0.3107
X40.966 Y3.9529 Z0.3136
X40.9621 Y3.9503 Z0.3167
X40.9583 Y3.9477 Z0.3199
X40.9546 Y3.945 Z0.3232
X40.9511 Y3.9423 Z0.3266
X40.9477 Y3.9396 Z0.3302
X40.9444 Y3.9369 Z0.3339
X40.9413 Y3.9341 Z0.3376
X40.9384 Y3.9314 Z0.3416
X40.9355 Y3.9287 Z0.3456
X40.9328 Y3.9261 Z0.3497
X40.9303 Y3.9234 Z0.3539
X40.9278 Y3.9208 Z0.3583
X40.9255 Y3.9183 Z0.3627
X40.9234 Y3.9158 Z0.3672
X40.9213 Y3.9133 Z0.3719
X40.9194 Y3.911 Z0.3766
X40.9176 Y3.9087 Z0.3814
X40.9159 Y3.9065 Z0.3862
X40.9143 Y3.9044 Z0.3912
X40.9128 Y3.9023 Z0.3962
X40.9115 Y3.9004 Z0.4013
X40.9102 Y3.8986 Z0.4064
X40.909 Y3.8969 Z0.4117
X40.908 Y3.8953 Z0.4169
X40.907 Y3.8938 Z0.4222
X40.9062 Y3.8924 Z0.4276
X40.9054 Y3.8911 Z0.433
X40.9047 Y3.89 Z0.4385
X40.9041 Y3.889 Z0.444
X40.9036 Y3.8881 Z0.4495
X40.9031 Y3.8874 Z0.455
X40.9028 Y3.8868 Z0.4606
X40.9025 Y3.8863 Z0.4662
X40.9023 Y3.886 Z0.4718
X40.9022 Y3.8857 Z0.4774
X40.9021 Z0.483
G0 Z1.141

M5
G53 G0 Z0.
M30
