(INITIAL TRIM TOP)
(T10 D=2. CR=0. - ZMIN=0. - FACE MILL)
G90 G94 G91.1 G40 G49 G17
G20
G53 G0 Z0.

(POCKET1 2)
T10 M6
S5000 M3
G17 G90 G94
G55
G0 X43.2802 Y3.9837
G43 Z0.858 H10
G0 Z0.358
G1 X43.2803 Z0.3526 F60.
X43.2805 Z0.3472
X43.2808 Z0.3419
X43.2813 Z0.3365
X43.282 Z0.3311
X43.2828 Z0.3258
X43.2837 Z0.3205
X43.2848 Z0.3152
X43.286 Y3.9838 Z0.31
X43.2874 Z0.3048
X43.2889 Z0.2996
X43.2905 Z0.2945
X43.2923 Z0.2894
X43.2943 Z0.2841
X43.2965 Z0.2789
X43.2988 Z0.2737
X43.3013 Y3.9837 Z0.2687
X43.3038 Z0.2636
X43.3066 Y3.9836 Z0.2587
X43.3095 Z0.2538
X43.3125 Y3.9835 Z0.2491
X43.3156 Y3.9834 Z0.2444
X43.3189 Y3.9833 Z0.2398
X43.3223 Y3.9832 Z0.2353
X43.3258 Y3.983 Z0.2309
X43.3294 Y3.9829 Z0.2265
X43.3332 Y3.9827 Z0.2223
X43.3371 Y3.9824 Z0.2182
X43.3411 Y3.9822 Z0.2143
X43.3452 Y3.9819 Z0.2104
X43.3494 Y3.9816 Z0.2066
X43.3537 Y3.9813 Z0.203
X43.3581 Y3.9809 Z0.1995
X43.3626 Y3.9805 Z0.1961
X43.3672 Y3.98 Z0.1929
X43.3719 Y3.9795 Z0.1898
X43.3767 Y3.979 Z0.1868
X43.3815 Y3.9785 Z0.1839
X43.3864 Y3.9779 Z0.1812
X43.3914 Y3.9772 Z0.1786
X43.3964 Y3.9765 Z0.1762
X43.4016 Y3.9758 Z0.1739
X43.4067 Y3.975 Z0.1718
X43.4119 Y3.9742 Z0.1698
X43.4172 Y3.9733 Z0.168
X43.4225 Y3.9724 Z0.1663
X43.4279 Y3.9714 Z0.1648
X43.4333 Y3.9704 Z0.1634
X43.4387 Y3.9694 Z0.1622
X43.4441 Y3.9683 Z0.1611
X43.4495 Y3.9671 Z0.1602
X43.455 Y3.9659 Z0.1594
X43.4605 Y3.9647 Z0.1588
X43.466 Y3.9634 Z0.1584
X43.4715 Y3.9621 Z0.1581
G2 X43.1132 Y2.5055 Z0.0758 I-0.1791 J-0.7283
X43.2853 Y3.9837 Z0.0001 I0.1791 J0.7283
G1 X43.2888 Y3.9838 Z0.
X43.2923
X45.6673
Y-0.7662
X0.2925
Y3.9838
X43.2923
G2 X44.6352 Y2.6991 I0. J-1.3442
X44.0438 Y0.9373 I-2.5794 J-0.1143
X43.5766 Y0.7177 I-0.4672 J0.3872
G1 X2.3832
G2 X1.7764 Y1.3245 I0. J0.6068
G1 Y1.8931
G2 X2.3832 Y2.4999 I0.6068 J0.
G1 X43.5766
G2 X44.1834 Y1.8931 I0. J-0.6068
G1 Y1.3245
G2 X44.0438 Y0.9373 I-0.6068 J0.
G1 Y0.9351
X44.0436 Y0.9328 Z0.0001
X44.0435 Y0.9306 Z0.0003
X44.0432 Y0.9284 Z0.0005
X44.0429 Y0.9262 Z0.0008
X44.0425 Y0.924 Z0.0011
X44.0421 Y0.9218 Z0.0015
X44.0416 Y0.9197 Z0.002
X44.041 Y0.9176 Z0.0025
X44.0404 Y0.9155 Z0.0031
X44.0398 Y0.9135 Z0.0038
X44.0391 Y0.9114 Z0.0045
X44.0383 Y0.9095 Z0.0053
X44.0375 Y0.9075 Z0.0061
X44.0367 Y0.9057 Z0.007
X44.0358 Y0.9038 Z0.0079
X44.0349 Y0.902 Z0.0089
X44.034 Y0.9003 Z0.01
X44.033 Y0.8986 Z0.0111
X44.032 Y0.897 Z0.0123
X44.031 Y0.8954 Z0.0135
X44.0299 Y0.8938 Z0.0148
X44.0289 Y0.8924 Z0.0161
X44.0278 Y0.8909 Z0.0175
X44.0268 Y0.8896 Z0.0189
X44.0257 Y0.8883 Z0.0204
X44.0246 Y0.887 Z0.0219
X44.0235 Y0.8858 Z0.0234
X44.0225 Y0.8847 Z0.0251
X44.0214 Y0.8836 Z0.0267
X44.0204 Y0.8825 Z0.0284
X44.0194 Y0.8815 Z0.0301
X44.0183 Y0.8806 Z0.0319
X44.0174 Y0.8797 Z0.0337
X44.0164 Y0.8789 Z0.0356
X44.0155 Y0.8781 Z0.0375
X44.0146 Y0.8774 Z0.0394
X44.0137 Y0.8767 Z0.0413
X44.0128 Y0.876 Z0.0433
X44.012 Y0.8754 Z0.0453
X44.0113 Y0.8749 Z0.0473
X44.0105 Y0.8744 Z0.0494
X44.0099 Y0.8739 Z0.0515
X44.0092 Y0.8735 Z0.0536
X44.0086 Y0.8731 Z0.0557
X44.0081 Y0.8727 Z0.0579
X44.0076 Y0.8724 Z0.06
X44.0071 Y0.8721 Z0.0622
X44.0067 Y0.8719 Z0.0644
X44.0064 Y0.8716 Z0.0666
X44.0061 Y0.8715 Z0.0689
X44.0059 Y0.8713 Z0.0711
X44.0057 Y0.8712 Z0.0733
X44.0055 Y0.8711 Z0.0756
Z0.0778
X44.0054 Z0.08
G0 Z0.858

M5
G53 G0 Z0.
M30
