(UPPER SHAPING)
(T13 D=0.2362 CR=0. TAPER=45DEG - ZMIN=0.1879 - CHAMFER MILL)
(T14 D=0.125 CR=0. - ZMIN=0.1289 - FLAT END MILL)
(T15 D=0.5 CR=0. - ZMIN=0.0789 - FLAT END MILL)
(T16 D=0.2362 CR=0. - ZMIN=0.0789 - FLAT END MILL)
(T17 D=0.4724 CR=0. - ZMIN=-0.585 - FLAT END MILL)
(T18 D=0.9843 CR=0. TAPER=45DEG - ZMIN=-0.615 - DOVETAIL MILL)
G90 G94 G91.1 G40 G49 G17
G20
G53 G0 Z0.

(POCKET2 3)
T15 M6
S12000 M3
G17 G90 G94
G55
G0 X23.0456 Y1.9733
G43 Z1.1289 H15
G0 Z0.4241
G1 Z0.3023 F50.
Y1.9736 Z0.2969
Y1.9744 Z0.2916
Y1.9759 Z0.2864
Y1.9778 Z0.2815
X23.0457 Y1.9803 Z0.2767
Y1.9833 Z0.2723
Y1.9867 Z0.2682
Y1.9906 Z0.2644
Y1.9948 Z0.2612
Y1.9994 Z0.2583
X23.0458 Y2.0042 Z0.256
Y2.0093 Z0.2543
Y2.0145 Z0.253
Y2.0198 Z0.2524
X23.0564 Y4.3382 Z0.0903
G2 X23.0914 Y4.3731 Z0.0864 I0.035 J-0.0002
G1 X23.1139 Z0.0848
G2 X23.1489 Y4.3379 Z0.081 I0. J-0.035
G1 X23.1488 Y4.3101 Z0.079
X23.1487 Y4.3066 Z0.0789
X23.1333 Y1.1552 F100.
G2 X23.1154 Y1.1248 I-0.035 J0.0002
G3 X23.1054 Y1.119 I0.2363 J-0.4215
X23.0954 Y1.113 I0.7462 J-1.2591
G2 X23.0419 Y1.1434 I-0.0182 J0.0302
G1 X23.0564 Y4.3382
G2 X23.0914 Y4.3731 I0.035 J-0.0002
G1 X23.1139
G2 X23.1489 Y4.3379 I0. J-0.035
G1 X23.1487 Y4.3066
G3 X23.2381 Y4.1712 I0.1462 J-0.0007
G2 X23.3274 Y4.0357 I-0.0569 J-0.1347
G1 X23.313 Y1.0847
G2 X23.2495 Y0.9902 I-0.103 J0.0005
G3 X23.0406 Y0.8095 I0.1686 J-0.4061
G2 X22.9789 Y0.8089 I-0.031 J0.0184
G3 X22.9423 Y0.8601 I-0.4121 J-0.2555
X22.8988 Y0.9056 I-0.3125 J-0.2552
G2 X22.8612 Y0.9903 I0.0753 J0.0842
G1 X22.877 Y4.4892
G2 X22.9413 Y4.5531 I0.0642 J-0.0003
G1 X23.2662
G2 X23.3296 Y4.4893 I0. J-0.0635
G1 X23.3274 Y4.0357
G3 X23.4173 Y3.8995 I0.1471 J-0.0007
G2 X23.5071 Y3.7633 I-0.0572 J-0.1355
G1 X23.4928 Y0.8427
X23.4246 Y0.8431
X23.4224 Y0.843
X23.4109 Y0.8429
X23.403 Y0.8426
X23.3972 Y0.8421
X23.3915 Y0.8416
X23.3857 Y0.8409
X23.3799 Y0.8401
X23.3742 Y0.8392
X23.3684 Y0.8381
X23.3626 Y0.8369
X23.3573 Y0.8356
X23.3523 Y0.8344
X23.3465 Y0.8327
X23.34 Y0.8307
X23.3338 Y0.8287
X23.328 Y0.8266
X23.3223 Y0.8244
X23.3165 Y0.822
X23.3085 Y0.8183
X23.2983 Y0.8133
X23.2926 Y0.8103
X23.2912 Y0.8095
X23.2876 Y0.8074
X23.2819 Y0.8039
X23.2761 Y0.8002
X23.2703 Y0.7963
X23.2652 Y0.7927
X23.2607 Y0.7893
X23.2549 Y0.7847
X23.2479 Y0.7787
X23.2415 Y0.7729
X23.2357 Y0.7674
X23.2299 Y0.7614
X23.2242 Y0.7551
X23.2192 Y0.7493
X23.215 Y0.7441
X23.2109 Y0.7389
X23.2071 Y0.7336
X23.2034 Y0.7283
X23.2 Y0.723
X23.198 Y0.7199
X23.1974 Y0.7189
X23.1954 Y0.7156
X23.1921 Y0.7098
X23.1889 Y0.7041
X23.186 Y0.6983
X23.1833 Y0.6926
X23.1808 Y0.6871
X23.1784 Y0.6813
X23.176 Y0.6754
X23.1739 Y0.6695
X23.1719 Y0.6637
X23.1701 Y0.658
X23.1684 Y0.6522
X23.1669 Y0.6464
X23.1655 Y0.6407
X23.1643 Y0.6349
X23.1632 Y0.6291
X23.1622 Y0.6234
X23.1614 Y0.6176
X23.1607 Y0.6118
X23.1601 Y0.6061
X23.1595 Y0.5976
X23.1591 Y0.5861
Y0.5822
X23.1502 Y-1.2387
Y-1.2428
X23.1505 Y-1.2544
X23.1509 Y-1.2608
X23.1513 Y-1.2659
X22.8535
X22.8539 Y-1.2586
X22.8541 Y-1.2535
X22.8543 Y-1.2419
X22.8544 Y-1.2399
X22.8626 Y0.5695
Y0.57
Y0.5815
X22.8623 Y0.5897
X22.8617 Y0.6005
X22.8608 Y0.6092
X22.86 Y0.6156
X22.859 Y0.6218
X22.858 Y0.6275
X22.8568 Y0.6333
X22.8555 Y0.6391
X22.8541 Y0.6448
X22.8525 Y0.6506
X22.8508 Y0.6563
X22.8489 Y0.6621
X22.8469 Y0.6679
X22.8447 Y0.6736
X22.8423 Y0.6797
X22.8395 Y0.6859
X22.8369 Y0.6917
X22.8343 Y0.6969
X22.8314 Y0.7025
X22.8282 Y0.7082
X22.8248 Y0.714
X22.8211 Y0.7197
X22.8183 Y0.7242
X22.8161 Y0.7273
X22.8119 Y0.7331
X22.8054 Y0.7415
X22.8026 Y0.7451
X22.7996 Y0.7485
X22.7946 Y0.7543
X22.7891 Y0.76
X22.7833 Y0.7658
X22.7775 Y0.7713
X22.7718 Y0.7763
X22.7683 Y0.7793
X22.7647 Y0.7821
X22.7563 Y0.7886
X22.7504 Y0.7928
X22.7474 Y0.7949
X22.743 Y0.7977
X22.7372 Y0.8013
X22.7315 Y0.8047
X22.7257 Y0.8079
X22.7201 Y0.8108
X22.7147 Y0.8135
X22.7089 Y0.8162
X22.7028 Y0.8188
X22.6968 Y0.8212
X22.6911 Y0.8234
X22.6853 Y0.8254
X22.6795 Y0.8273
X22.6794
X22.6972 Y4.7341
X23.5118
X23.5071 Y3.7633
X23.5069 Y3.7605 Z0.079
X23.5066 Y3.7578 Z0.0792
X23.5061 Y3.755 Z0.0796
X23.5055 Y3.7524 Z0.0802
X23.5047 Y3.7498 Z0.0809
X23.5038 Y3.7472 Z0.0817
X23.5028 Y3.7448 Z0.0827
X23.5017 Y3.7425 Z0.0839
X23.5005 Y3.7403 Z0.0852
X23.4993 Y3.7383 Z0.0866
X23.4979 Y3.7363 Z0.0881
X23.4966 Y3.7346 Z0.0898
X23.4952 Y3.7329 Z0.0916
X23.4938 Y3.7314 Z0.0936
X23.4925 Y3.73 Z0.0956
X23.4912 Y3.7288 Z0.0977
X23.4899 Y3.7277 Z0.1
X23.4887 Y3.7267 Z0.1023
X23.4876 Y3.7258 Z0.1047
X23.4865 Y3.725 Z0.1072
X23.4856 Y3.7244 Z0.1098
X23.4848 Y3.7238 Z0.1124
X23.4841 Y3.7234 Z0.1151
X23.4835 Y3.723 Z0.1178
X23.483 Y3.7227 Z0.1205
X23.4826 Y3.7225 Z0.1233
X23.4824 Y3.7224 Z0.1261
Z0.1289
G0 Z0.7289
X24.8425 Y1.0935
Z0.4241
G1 Z0.3023 F50.
Y1.0932 Z0.2969
Y1.0923 Z0.2916
Y1.0909 Z0.2864
Y1.089 Z0.2815
Y1.0865 Z0.2767
Y1.0835 Z0.2723
Y1.0801 Z0.2682
Y1.0762 Z0.2644
Y1.072 Z0.2612
Y1.0674 Z0.2583
Y1.0626 Z0.256
X24.8424 Y1.0575 Z0.2543
Y1.0523 Z0.253
Y1.047 Z0.2524
X24.8372 Y-1.239 Z0.0925
X24.8373 Y-1.2426 Z0.0923
X24.8376 Y-1.2541 Z0.0915
X24.8379 Y-1.2602 Z0.091
X24.8383 Y-1.2659 Z0.0906
X24.6724 Z0.079
X24.6689 Z0.0789
X24.5388 F100.
X24.5392 Y-1.2586
X24.5395 Y-1.2535
X24.5397 Y-1.2419
Y-1.2399
X24.5689 Y4.7341
X24.8508
X24.8372 Y-1.239
X24.8373 Y-1.2426
X24.8376 Y-1.2541
X24.8379 Y-1.2602
X24.8383 Y-1.2659
X24.6689
X24.6661 Y-1.2657 Z0.079
X24.6633 Y-1.2654 Z0.0792
X24.6606 Y-1.265 Z0.0796
X24.6579 Y-1.2644 Z0.0802
X24.6553 Y-1.2636 Z0.0809
X24.6528 Y-1.2627 Z0.0817
X24.6504 Y-1.2617 Z0.0827
X24.6481 Y-1.2606 Z0.0839
X24.6459 Y-1.2594 Z0.0852
X24.6438 Y-1.2582 Z0.0866
X24.6419 Y-1.2569 Z0.0881
X24.6401 Y-1.2555 Z0.0898
X24.6384 Y-1.2542 Z0.0916
X24.6369 Y-1.2528 Z0.0936
X24.6355 Y-1.2515 Z0.0956
X24.6343 Y-1.2502 Z0.0977
X24.6331 Y-1.2489 Z0.1
X24.6321 Y-1.2477 Z0.1023
X24.6313 Y-1.2466 Z0.1047
X24.6305 Y-1.2455 Z0.1072
X24.6299 Y-1.2446 Z0.1098
X24.6293 Y-1.2438 Z0.1124
X24.6288 Y-1.2431 Z0.1151
X24.6285 Y-1.2425 Z0.1178
X24.6282 Y-1.242 Z0.1205
X24.628 Y-1.2416 Z0.1233
X24.6279 Y-1.2414 Z0.1261
X24.6278 Z0.1289
G0 Z0.7289
X26.2199 Y1.9386
Z0.4241
G1 Z0.3023 F50.
Y1.9389 Z0.2969
Y1.9398 Z0.2916
Y1.9412 Z0.2864
Y1.9431 Z0.2815
Y1.9456 Z0.2767
Y1.9486 Z0.2723
Y1.952 Z0.2682
X26.22 Y1.9559 Z0.2644
Y1.9601 Z0.2612
Y1.9647 Z0.2583
Y1.9695 Z0.256
Y1.9746 Z0.2543
Y1.9798 Z0.253
Y1.9851 Z0.2524
X26.2254 Y4.3471 Z0.0872
G2 X26.2514 Y4.3731 Z0.0844 I0.026 J-0.0001
G1 X26.2637 Z0.0835
G2 X26.2897 Y4.3469 Z0.0806 I0. J-0.026
G1 X26.2896 Y4.3243 Z0.079
X26.2895 Y4.3208 Z0.0789
X26.2715 Y1.1826 F100.
G2 X26.2361 Y1.1585 I-0.026 J0.0001
G1 X26.2349 Y1.1589
G2 X26.2182 Y1.1833 I0.0093 J0.0243
G1 X26.2254 Y4.3471
G2 X26.2514 Y4.3731 I0.026 J-0.0001
G1 X26.2637
G2 X26.2897 Y4.3469 I0. J-0.026
G1 X26.2895 Y4.3208
G3 X26.3788 Y4.1852 I0.1462 J-0.0008
G2 X26.468 Y4.0497 I-0.057 J-0.1347
G1 X26.4496 Y0.8538
G2 X26.4434 Y0.8342 I-0.035 J0.0002
G1 X26.4401 Y0.8293
G2 X26.3746 Y0.8287 I-0.033 J0.0217
G3 X26.0998 Y1.0118 I-0.3654 J-0.2506
G2 X26.038 Y1.0878 I0.0157 J0.0759
G1 X26.0457 Y4.4892
G2 X26.1098 Y4.5531 I0.064 J-0.0001
G1 X26.4071
G2 X26.4705 Y4.4893 I0. J-0.0634
G1 X26.468 Y4.0497
G3 X26.5577 Y3.9135 I0.1471 J-0.0008
G2 X26.6474 Y3.7772 I-0.0573 J-0.1354
G1 X26.6301 Y0.7748
X26.627 Y0.7718
X26.6218 Y0.7667
X26.6186 Y0.7635
X26.6175 Y0.7623
X26.6145 Y0.7591
X26.61 Y0.754
X26.6056 Y0.7488
X26.6015 Y0.7437
X26.598 Y0.7392
X26.5952 Y0.7353
X26.5912 Y0.7296
X26.5862 Y0.7219
X26.5821 Y0.7152
X26.5788 Y0.7094
X26.5755 Y0.7033
X26.5723 Y0.6969
X26.5695 Y0.691
X26.5671 Y0.6856
X26.5649 Y0.6801
X26.5627 Y0.6747
X26.5607 Y0.6691
X26.5588 Y0.6633
X26.557 Y0.6576
X26.5554 Y0.6518
X26.5539 Y0.646
X26.5525 Y0.6403
X26.5513 Y0.6345
X26.5502 Y0.6287
X26.5491 Y0.6221
X26.5481 Y0.6146
X26.5475 Y0.6088
X26.5471 Y0.6048
X26.5466 Y0.5973
X26.5463 Y0.5858
X26.5462 Y0.5824
X26.5358 Y-1.227
Y-1.2273
X26.5357 Y-1.2388
X26.5358 Y-1.2429
X26.5361 Y-1.2545
X26.5364 Y-1.261
X26.5368 Y-1.2659
X26.2654
X26.2658 Y-1.2591
X26.2661 Y-1.2536
X26.2663 Y-1.2421
Y-1.2396
X26.2705 Y0.5813
X26.2704 Y0.5862
X26.2702 Y0.5919
X26.2698 Y0.5977
X26.2694 Y0.6035
X26.2688 Y0.6092
X26.2681 Y0.615
X26.2672 Y0.6207
X26.2662 Y0.6265
X26.2651 Y0.6323
X26.2639 Y0.638
X26.2625 Y0.6438
X26.261 Y0.6496
X26.2599 Y0.6533
X26.2594 Y0.6551
X26.2575 Y0.6609
X26.2541 Y0.6707
X26.2511 Y0.6784
X26.2486 Y0.6841
X26.246 Y0.6899
X26.2433 Y0.6957
X26.2404 Y0.7012
X26.2375 Y0.7066
X26.2342 Y0.7124
X26.2304 Y0.7185
X26.2267 Y0.7243
X26.223 Y0.7297
X26.2191 Y0.735
X26.215 Y0.7404
X26.2126 Y0.7434
X26.212 Y0.7442
X26.2092 Y0.7476
X26.2042 Y0.7533
X26.1987 Y0.7592
X26.1929 Y0.7652
X26.187 Y0.7708
X26.1813 Y0.7759
X26.1755 Y0.7808
X26.1697 Y0.7854
X26.1658 Y0.7885
X26.1637 Y0.79
X26.158 Y0.794
X26.1485 Y0.8002
G3 X26.1389 Y0.8059 I-0.0714 J-0.1086
G1 X26.1291 Y0.8112
X26.1233 Y0.8142
X26.1215 Y0.815
X26.1178 Y0.8167
X26.112 Y0.8193
X26.1063 Y0.8216
X26.1005 Y0.8238
X26.0947 Y0.8259
X26.0889 Y0.8278
X26.0832 Y0.8295
X26.0774 Y0.8312
X26.0716 Y0.8326
X26.0659 Y0.834
X26.0599 Y0.8352
X26.0537 Y0.8363
X26.045 Y0.8376
X26.0339 Y0.8388
G3 X26.023 Y0.8396 I-0.0145 J-0.1292
G1 X26.0114 Y0.8399
X26.0082
X25.8564 Y0.8403
X25.8653 Y4.7341
X26.6529
X26.6474 Y3.7772
X26.6472 Y3.7744 Z0.079
X26.6469 Y3.7716 Z0.0792
X26.6464 Y3.7689 Z0.0796
X26.6458 Y3.7662 Z0.0802
X26.645 Y3.7636 Z0.0809
X26.6441 Y3.7611 Z0.0817
X26.6431 Y3.7587 Z0.0827
X26.642 Y3.7564 Z0.0839
X26.6408 Y3.7542 Z0.0852
X26.6395 Y3.7521 Z0.0866
X26.6382 Y3.7502 Z0.0881
X26.6369 Y3.7484 Z0.0898
X26.6355 Y3.7468 Z0.0916
X26.6341 Y3.7453 Z0.0936
X26.6328 Y3.7439 Z0.0956
X26.6315 Y3.7426 Z0.0977
X26.6302 Y3.7415 Z0.1
X26.629 Y3.7405 Z0.1023
X26.6279 Y3.7397 Z0.1047
X26.6268 Y3.7389 Z0.1072
X26.6259 Y3.7383 Z0.1098
X26.6251 Y3.7377 Z0.1124
X26.6243 Y3.7373 Z0.1151
X26.6237 Y3.7369 Z0.1178
X26.6233 Y3.7366 Z0.1205
X26.6229 Y3.7364 Z0.1233
X26.6227 Y3.7363 Z0.1261
Z0.1289
G0 Z0.7289
X28.0142 Y1.9982
Z0.4241
G1 Z0.3023 F50.
Y1.9985 Z0.2969
Y1.9994 Z0.2916
X28.0143 Y2.0008 Z0.2864
Y2.0027 Z0.2815
Y2.0052 Z0.2767
Y2.0082 Z0.2723
Y2.0116 Z0.2682
Y2.0155 Z0.2644
X28.0144 Y2.0197 Z0.2612
Y2.0243 Z0.2583
Y2.0291 Z0.256
Y2.0342 Z0.2543
X28.0145 Y2.0394 Z0.253
Y2.0447 Z0.2524
X28.0276 Y4.3263 Z0.0928
G2 X28.0747 Y4.3731 Z0.0877 I0.0471 J-0.0003
G1 X28.0965 Z0.0862
G2 X28.1436 Y4.3258 Z0.081 I0. J-0.0471
G1 X28.1434 Y4.2983 Z0.079
Y4.2948 Z0.0789
X28.1251 Y1.1155 F100.
G2 X28.0502 Y1.0779 I-0.0471 J0.0003
G3 X28.0401 Y1.0851 I-0.6179 J-0.84
X28.03 Y1.0922 I-0.2554 J-0.356
G2 X28.0092 Y1.1315 I0.0263 J0.039
G1 X28.0276 Y4.3263
G2 X28.0747 Y4.3731 I0.0471 J-0.0003
G1 X28.0965
G2 X28.1436 Y4.3258 I0. J-0.0471
G1 X28.1434 Y4.2948
G3 X28.2326 Y4.1593 I0.1462 J-0.0008
G2 X28.3219 Y4.0238 I-0.057 J-0.1347
G1 X28.3048 Y1.0622
G2 X28.2416 Y0.9375 I-0.1565 J0.0009
G3 X28.1218 Y0.8026 I0.2636 J-0.3547
G2 X28.0612 Y0.8022 I-0.0304 J0.0174
G3 X28.0077 Y0.8759 I-0.4003 J-0.2341
X27.9405 Y0.9373 I-0.3235 J-0.2871
X27.9153 Y0.9532 I-0.1262 J-0.1716
G1 X27.8914 Y0.9661
G2 X27.8289 Y1.0715 I0.0564 J0.1047
G1 X27.8486 Y4.4891
G2 X27.9129 Y4.5531 I0.0643 J-0.0004
G1 X28.2611
G2 X28.3245 Y4.4893 I0. J-0.0634
G1 X28.3219 Y4.0238
G3 X28.4116 Y3.8875 I0.1471 J-0.0008
G2 X28.5013 Y3.7512 I-0.0573 J-0.1354
G1 X28.4845 Y0.8427
X28.48 Y0.8423
X28.4743 Y0.8417
X28.4685 Y0.8409
X28.4627 Y0.8401
X28.4569 Y0.8391
X28.4512 Y0.8379
X28.4444 Y0.8364
X28.4365 Y0.8344
X28.4307 Y0.8328
X28.4271 Y0.8317
X28.4223 Y0.8301
X28.4166 Y0.8281
X28.4108 Y0.826
X28.405 Y0.8237
X28.3993 Y0.8212
X28.3935 Y0.8186
X28.3877 Y0.8157
X28.382 Y0.8127
X28.3787 Y0.811
X28.3778 Y0.8105
X28.3747 Y0.8087
X28.3693 Y0.8056
X28.364 Y0.8022
X28.3587 Y0.7987
X28.3527 Y0.7945
X28.3462 Y0.7897
X28.3405 Y0.7851
X28.3354 Y0.781
X28.329 Y0.7752
X28.3213 Y0.7679
X28.3156 Y0.7621
X28.3118 Y0.758
X28.3068 Y0.7522
X28.3007 Y0.7449
X28.2978 Y0.7411
X28.2949 Y0.7373
X28.2895 Y0.7295
X28.2856 Y0.7237
X28.2832 Y0.72
X28.2804 Y0.7152
X28.2771 Y0.7094
X28.274 Y0.7037
X28.2711 Y0.6979
X28.2681 Y0.6917
X28.2652 Y0.685
X28.2628 Y0.6792
X28.2609 Y0.6744
X28.259 Y0.6691
X28.2571 Y0.6633
X28.2553 Y0.6576
X28.2537 Y0.6518
X28.2522 Y0.646
X28.2508 Y0.6403
X28.2496 Y0.6345
X28.2485 Y0.6288
X28.2475 Y0.623
X28.2467 Y0.6172
X28.246 Y0.6115
X28.2455 Y0.6057
X28.2449 Y0.5973
X28.2446 Y0.5858
X28.2445 Y0.5824
X28.2341 Y-1.227
Y-1.2273
X28.234 Y-1.2388
X28.2341 Y-1.243
X28.2344 Y-1.2545
X28.2348 Y-1.261
X28.2351 Y-1.2659
X27.9298
X27.9303 Y-1.2585
X27.9305 Y-1.2534
G3 X27.9307 Y-1.2401 I-0.8646 J0.023
G1 X27.9411 Y0.5693
Y0.5697
Y0.57
X27.9412 Y0.5815
X27.941 Y0.5877
X27.9407 Y0.5934
X27.9403 Y0.5992
X27.9398 Y0.605
X27.9392 Y0.6107
X27.9384 Y0.6165
X27.9375 Y0.6223
X27.9364 Y0.628
X27.9353 Y0.6334
X27.9341 Y0.6385
X27.9327 Y0.6443
X27.9309 Y0.6507
X27.9291 Y0.6568
X27.9272 Y0.6626
X27.9251 Y0.6684
X27.9229 Y0.6741
X27.9206 Y0.6799
X27.918 Y0.6857
X27.9152 Y0.6917
X27.9121 Y0.6979
X27.9089 Y0.7038
X27.9058 Y0.7093
X27.9025 Y0.7148
X27.899 Y0.7204
X27.8948 Y0.7266
X27.8899 Y0.7334
X27.8855 Y0.7392
X27.8818 Y0.7438
X27.878 Y0.7483
X27.8743 Y0.7525
X27.8704 Y0.7567
X27.8664 Y0.7609
X27.8627 Y0.7646
X27.8595 Y0.7677
X27.8538 Y0.7728
X27.8455 Y0.7799
X27.8419 Y0.7828
X27.8383 Y0.7856
X27.8322 Y0.7901
X27.8264 Y0.7941
X27.8209 Y0.7977
X27.8153 Y0.8011
X27.8096 Y0.8045
X27.8038 Y0.8077
X27.798 Y0.8107
X27.7934 Y0.8129
X27.7901 Y0.8145
X27.7843 Y0.8171
X27.7762 Y0.8204
X27.7692 Y0.8231
X27.7634 Y0.8251
X27.7576 Y0.8269
X27.7519 Y0.8286
X27.7461 Y0.8302
X27.7403 Y0.8316
X27.7346 Y0.8329
X27.7288 Y0.834
X27.723 Y0.835
X27.7173 Y0.8359
X27.7115 Y0.8366
X27.7057 Y0.8373
X27.699 Y0.8378
X27.6914 Y0.8382
X27.6854 Y0.8384
X27.6699 Y0.8385
X27.6697
X27.6465 Y0.8386
X27.669 Y4.7341
X28.5069
X28.5013 Y3.7512
X28.5011 Y3.7484 Z0.079
X28.5008 Y3.7456 Z0.0792
X28.5003 Y3.7429 Z0.0796
X28.4997 Y3.7402 Z0.0802
X28.4989 Y3.7376 Z0.0809
X28.498 Y3.7351 Z0.0817
X28.497 Y3.7327 Z0.0827
X28.4959 Y3.7304 Z0.0839
X28.4947 Y3.7282 Z0.0852
X28.4934 Y3.7262 Z0.0866
X28.4921 Y3.7242 Z0.0881
X28.4907 Y3.7224 Z0.0898
X28.4894 Y3.7208 Z0.0916
X28.488 Y3.7193 Z0.0936
X28.4867 Y3.7179 Z0.0956
X28.4853 Y3.7167 Z0.0977
X28.4841 Y3.7156 Z0.1
X28.4829 Y3.7146 Z0.1023
X28.4817 Y3.7137 Z0.1047
X28.4807 Y3.7129 Z0.1072
X28.4798 Y3.7123 Z0.1098
X28.4789 Y3.7117 Z0.1124
X28.4782 Y3.7113 Z0.1151
X28.4776 Y3.7109 Z0.1178
X28.4771 Y3.7106 Z0.1205
X28.4768 Y3.7104 Z0.1233
X28.4766 Y3.7103 Z0.1261
X28.4765 Z0.1289
G0 Z0.7289
X29.9345 Y3.677
Z0.4241
G1 Z0.3023 F50.
Y3.6767 Z0.2969
Y3.6759 Z0.2916
Y3.6744 Z0.2864
Y3.6725 Z0.2815
Y3.67 Z0.2767
Y3.667 Z0.2723
Y3.6636 Z0.2682
Y3.6597 Z0.2644
Y3.6555 Z0.2612
Y3.6509 Z0.2583
Y3.6461 Z0.256
Y3.641 Z0.2543
X29.9344 Y3.6358 Z0.253
Y3.6305 Z0.2524
X29.9284 Y1.1635 Z0.0799
G2 X29.9264 Y1.1519 Z0.079 I-0.035 J0.0001
G1 X29.9258 Y1.1503
X29.9251 Y1.1487 Z0.0789
G2 X29.9096 Y1.1326 I-0.0317 J0.0149 F100.
G3 X29.897 Y1.1258 I0.2679 J-0.5116
G2 X29.8426 Y1.1579 I-0.0178 J0.032
G1 X29.8608 Y4.3219
G2 X29.9361 Y4.3216 I0.0377 J-0.0002
G1 X29.9284 Y1.1635
G2 X29.9251 Y1.1487 I-0.035 J0.0001
G3 X29.9111 Y1.0145 I0.1858 J-0.0872
G2 X29.8761 Y0.8842 I-0.1385 J-0.0326
G3 X29.817 Y0.8055 I0.3184 J-0.3006
G2 X29.757 Y0.805 I-0.0302 J0.0177
G3 X29.7276 Y0.848 I-0.4347 J-0.2657
X29.6934 Y0.8873 I-0.3215 J-0.2449
G2 X29.6615 Y0.9658 I0.0787 J0.0778
G1 X29.6818 Y4.4902
G2 X29.7448 Y4.5529 I0.063 J-0.0004
G1 X30.0542
G2 X30.1166 Y4.4904 I0. J-0.0624
G1 X30.1082 Y1.0847
G2 X30.0468 Y0.9967 I-0.094 J0.0002
G3 X29.9154 Y0.921 I0.1569 J-0.4243
X29.8761 Y0.8842 I0.2791 J-0.3374
X29.8706 Y0.6894 I0.1064 J-0.1005
G2 X29.9372 Y0.5064 I-0.2165 J-0.1824
G1 X29.9329 Y-1.239
Y-1.2426
X29.9332 Y-1.2541
X29.9335 Y-1.2602
X29.9339 Y-1.2659
X29.6272
X29.6276 Y-1.2585
X29.6278 Y-1.2534
G3 X29.628 Y-1.2401 I-0.9019 J0.0236
G1 X29.6385 Y0.5693
Y0.5697
Y0.57
Y0.5815
X29.6383 Y0.5877
X29.6381 Y0.5934
X29.6377 Y0.5992
X29.6371 Y0.605
X29.6365 Y0.6107
X29.6357 Y0.6165
X29.6348 Y0.6223
X29.6337 Y0.628
X29.6326 Y0.6337
X29.6313 Y0.6392
X29.6298 Y0.645
X29.6282 Y0.651
X29.6264 Y0.6568
X29.6245 Y0.6626
X29.6224 Y0.6684
X29.6202 Y0.6741
X29.6179 Y0.6799
X29.6154 Y0.6857
X29.6127 Y0.6914
X29.6098 Y0.6972
X29.6074 Y0.7018
X29.6055 Y0.7053
X29.6021 Y0.7111
X29.5971 Y0.7191
G3 X29.5914 Y0.7276 I-0.1106 J-0.0684
G1 X29.5848 Y0.7366
X29.5804 Y0.7423
X29.5783 Y0.7449
X29.575 Y0.7487
X29.5705 Y0.7537
X29.5658 Y0.7587
X29.5609 Y0.7637
X29.5576 Y0.767
X29.556 Y0.7685
X29.5527 Y0.7714
X29.5477 Y0.7758
X29.5428 Y0.78
X29.5378 Y0.7839
X29.5331 Y0.7875
X29.5287 Y0.7907
X29.5229 Y0.7946
X29.5158 Y0.7992
X29.5093 Y0.8031
X29.5036 Y0.8064
X29.4978 Y0.8094
X29.492 Y0.8123
X29.4883 Y0.8141
X29.4866 Y0.8149
X29.4809 Y0.8174
X29.4794 Y0.818
X29.502 Y4.7341
X30.2983
X30.2888 Y0.8418
X30.207 Y0.842
X30.2067
X30.1952
X30.19 Y0.8419
X30.1843 Y0.8417
X30.1785 Y0.8413
X30.1727 Y0.8408
X30.167 Y0.8402
X30.1612 Y0.8395
X30.1554 Y0.8386
X30.1497 Y0.8376
X30.1442 Y0.8365
X30.139 Y0.8354
X30.1332 Y0.834
X30.1269 Y0.8323
X30.1208 Y0.8305
X30.1151 Y0.8286
X30.1093 Y0.8266
X30.1035 Y0.8245
X30.0977 Y0.8222
X30.092 Y0.8197
X30.0862 Y0.817
X30.0804 Y0.8142
X30.0771 Y0.8125
X30.0761 Y0.812
X30.0729 Y0.8103
X30.0676 Y0.8073
X30.0624 Y0.8042
X30.0571 Y0.8009
X30.0507 Y0.7967
X30.0433 Y0.7914
X30.0375 Y0.7871
X30.0335 Y0.7838
X30.0291 Y0.7802
X30.0246 Y0.7763
X30.0201 Y0.7722
X30.0155 Y0.7678
X30.012 Y0.7644
X30.0096 Y0.7618
X30.0063 Y0.7583
X30.0023 Y0.7538
X29.9984 Y0.7493
X29.9947 Y0.7448
X29.9909 Y0.7401
X29.9872 Y0.735
X29.9831 Y0.7292
X29.9788 Y0.7228
X29.975 Y0.7167
X29.9716 Y0.7109
X29.9684 Y0.7051
X29.9654 Y0.6994
X29.9635 Y0.6956
X29.9626 Y0.6939
X29.9601 Y0.6881
X29.9559 Y0.6784
X29.9529 Y0.6705
X29.9509 Y0.6648
X29.949 Y0.659
X29.9473 Y0.6533
X29.9458 Y0.6475
X29.9443 Y0.6417
X29.943 Y0.636
X29.9419 Y0.6302
X29.9407 Y0.6236
X29.9396 Y0.6163
X29.9389 Y0.6105
X29.9385 Y0.6063
X29.9379 Y0.5985
X29.9375 Y0.587
X29.9374 Y0.5819
X29.9372 Y0.5064
X29.937 Y0.5036 Z0.079
X29.9367 Y0.5008 Z0.0792
X29.9362 Y0.498 Z0.0796
X29.9356 Y0.4954 Z0.0802
X29.9348 Y0.4928 Z0.0809
X29.9339 Y0.4902 Z0.0817
X29.9329 Y0.4878 Z0.0827
X29.9318 Y0.4855 Z0.0839
X29.9306 Y0.4833 Z0.0852
X29.9294 Y0.4813 Z0.0866
X29.9281 Y0.4793 Z0.0881
X29.9267 Y0.4775 Z0.0898
X29.9254 Y0.4759 Z0.0916
X29.924 Y0.4744 Z0.0936
X29.9227 Y0.473 Z0.0956
X29.9213 Y0.4717 Z0.0977
X29.9201 Y0.4706 Z0.1
X29.9189 Y0.4696 Z0.1023
X29.9178 Y0.4688 Z0.1047
X29.9167 Y0.468 Z0.1072
X29.9158 Y0.4673 Z0.1098
X29.9149 Y0.4668 Z0.1124
X29.9142 Y0.4663 Z0.1151
X29.9136 Y0.466 Z0.1178
X29.9132 Y0.4657 Z0.1205
X29.9128 Y0.4655 Z0.1233
X29.9126 Y0.4654 Z0.1261
X29.9125 Y0.4653 Z0.1289
G0 Z0.7289
X31.314 Y2.7291
Z0.4241
G1 Z0.3023 F50.
Y2.7294 Z0.2969
Y2.7302 Z0.2916
Y2.7317 Z0.2864
Y2.7336 Z0.2815
X31.3141 Y2.7361 Z0.2767
Y2.7391 Z0.2723
Y2.7425 Z0.2682
Y2.7464 Z0.2644
Y2.7506 Z0.2612
Y2.7552 Z0.2583
Y2.76 Z0.256
Y2.7651 Z0.2543
Y2.7703 Z0.253
Y2.7756 Z0.2524
X31.3189 Y4.7341 Z0.1154
X31.6544 Z0.092
X31.6536 Y4.5493 Z0.079
Y4.5458 Z0.0789
X31.6294 Y-1.2388 F100.
Y-1.2428
X31.6298 Y-1.2543
X31.6301 Y-1.2607
X31.6305 Y-1.2659
X31.3034
X31.3038 Y-1.2591
X31.3041 Y-1.2536
X31.3043 Y-1.2421
Y-1.2396
X31.3189 Y4.7341
X31.6544
X31.6536 Y4.5458
X31.6535 Y4.543 Z0.079
X31.6531 Y4.5402 Z0.0792
X31.6527 Y4.5375 Z0.0796
X31.652 Y4.5348 Z0.0802
X31.6513 Y4.5322 Z0.0809
X31.6504 Y4.5297 Z0.0817
X31.6494 Y4.5273 Z0.0827
X31.6482 Y4.525 Z0.0839
X31.6471 Y4.5228 Z0.0852
X31.6458 Y4.5207 Z0.0866
X31.6445 Y4.5188 Z0.0881
X31.6431 Y4.517 Z0.0898
X31.6418 Y4.5154 Z0.0916
X31.6404 Y4.5138 Z0.0936
X31.639 Y4.5125 Z0.0956
X31.6377 Y4.5112 Z0.0977
X31.6365 Y4.5101 Z0.1
X31.6353 Y4.5091 Z0.1023
X31.6341 Y4.5082 Z0.1047
X31.6331 Y4.5075 Z0.1072
X31.6322 Y4.5068 Z0.1098
X31.6313 Y4.5063 Z0.1124
X31.6306 Y4.5058 Z0.1151
X31.63 Y4.5055 Z0.1178
X31.6295 Y4.5052 Z0.1205
X31.6292 Y4.505 Z0.1233
X31.629 Y4.5049 Z0.1261
X31.6289 Y4.5048 Z0.1289
G0 Z0.7289
X33.1258 Y3.6883
Z0.4241
G1 Z0.3023 F50.
Y3.688 Z0.2969
Y3.6871 Z0.2916
Y3.6857 Z0.2864
Y3.6837 Z0.2815
Y3.6812 Z0.2767
Y3.6783 Z0.2723
Y3.6748 Z0.2682
Y3.671 Z0.2644
Y3.6667 Z0.2612
Y3.6622 Z0.2583
Y3.6573 Z0.256
Y3.6523 Z0.2543
Y3.6471 Z0.253
Y3.6417 Z0.2524
X33.1236 Y1.1658 Z0.0792
X33.1235 Y1.163 Z0.079
X33.1233 Y1.1612
X33.1231 Y1.1595 Z0.0789
G2 X33.0686 Y1.1321 I-0.0374 J0.0064 F100.
G1 X33.0598 Y1.1365
X33.051 Y1.1408
G2 X33.031 Y1.1726 I0.015 J0.0317
G1 X33.0442 Y4.3199
G2 X33.1264 Y4.3197 I0.0411 J-0.0002
G1 X33.1236 Y1.1658
X33.1235 Y1.1627
X33.1231 Y1.1595
G3 X33.2092 Y1.023 I0.1191 J-0.0203
G2 X33.2559 Y0.8686 I-0.0261 J-0.0922
G3 X33.2186 Y0.8185 I0.3478 J-0.2978
G2 X33.1562 I-0.0312 J0.02
G3 X32.9119 Y1.0018 I-0.3672 J-0.235
G2 X32.8506 Y1.0841 I0.0241 J0.082
G1 X32.8648 Y4.4903
G2 X32.9278 Y4.5529 I0.0629 J-0.0003
G1 X33.244
G2 X33.3066 Y4.4903 I0. J-0.0625
G1 X33.3035 Y0.9637
G2 X33.2728 Y0.8873 I-0.1106 J0.0001
G3 X33.2559 Y0.8686 I0.3308 J-0.3165
X33.2598 Y0.6747 I0.1107 J-0.0947
G2 X33.3305 Y0.4942 I-0.1942 J-0.1803
G1 X33.329 Y-1.2392
X33.3291 Y-1.2424
X33.3293 Y-1.2539
X33.3295 Y-1.2581
X33.3298 Y-1.2633
X33.33 Y-1.2659
X33.0371
X33.0376 Y-1.2587
X33.0378 Y-1.2535
X33.038 Y-1.242
Y-1.2399
X33.0456 Y0.5695
Y0.57
Y0.5815
X33.0455 Y0.587
X33.0453 Y0.5928
X33.0449 Y0.5985
X33.0444 Y0.6043
X33.0438 Y0.6101
X33.043 Y0.6158
X33.0421 Y0.6216
X33.0411 Y0.6274
X33.04 Y0.6331
X33.0387 Y0.6389
X33.0372 Y0.6446
X33.0357 Y0.6504
X33.0339 Y0.6562
X33.0321 Y0.6619
X33.0301 Y0.6677
X33.0279 Y0.6735
X33.0255 Y0.6794
X33.0228 Y0.6856
X33.0202 Y0.6913
X33.0175 Y0.6967
X33.0147 Y0.7022
X33.0116 Y0.7078
X33.0082 Y0.7135
X33.0045 Y0.7195
X33.0006 Y0.7253
X32.9966 Y0.7311
X32.9923 Y0.7369
X32.9878 Y0.7426
X32.9841 Y0.7471
X32.9814 Y0.7502
X32.9781 Y0.7539
X32.9742 Y0.7581
X32.9701 Y0.7623
X32.9659 Y0.7665
X32.9621 Y0.7701
X32.9587 Y0.7732
X32.9543 Y0.777
X32.9489 Y0.7814
X32.9436 Y0.7856
X32.9382 Y0.7896
X32.9351 Y0.7919
X32.9343 Y0.7924
X32.931 Y0.7946
X32.9252 Y0.7984
X32.9195 Y0.802
X32.9137 Y0.8054
X32.9071 Y0.809
X32.8996 Y0.8128
X32.8938 Y0.8155
X32.8897 Y0.8173
X32.8849 Y0.8194
X32.8791 Y0.8217
X32.8733 Y0.8239
X32.8676 Y0.8258
X32.8618 Y0.8277
X32.856 Y0.8294
X32.8502 Y0.8309
X32.8445 Y0.8323
X32.8387 Y0.8336
X32.8329 Y0.8347
X32.8272 Y0.8357
X32.8214 Y0.8366
X32.8171 Y0.8372
X32.8143 Y0.8375
X32.8085 Y0.8381
X32.7998 Y0.8387
X32.7919 Y0.839
X32.7804 Y0.8391
X32.78
X32.7796
X32.6684 Y0.8396
X32.6847 Y4.7341
X33.4879
X33.4845 Y0.8187
X33.4759 Y0.8147
X33.4702 Y0.8118
X33.4681 Y0.8107
X33.4641 Y0.8085
X33.4583 Y0.8052
X33.4525 Y0.8016
X33.4468 Y0.7979
X33.4416 Y0.7944
X33.4369 Y0.791
X33.4311 Y0.7866
X33.4242 Y0.7811
X33.4175 Y0.7753
X33.411 Y0.7693
X33.4053 Y0.7637
X33.4003 Y0.7584
X33.3951 Y0.7527
X33.3897 Y0.7464
X33.3868 Y0.7428
X33.3839 Y0.739
X33.3777 Y0.7305
X33.3737 Y0.7247
X33.3717 Y0.7217
X33.369 Y0.7173
X33.3656 Y0.7115
X33.3623 Y0.7058
X33.3593 Y0.7
X33.3562 Y0.6938
X33.3531 Y0.6871
X33.3506 Y0.6814
X33.3487 Y0.6765
X33.3466 Y0.6712
X33.3446 Y0.6654
X33.3427 Y0.6597
X33.341 Y0.6539
X33.3394 Y0.6481
X33.3379 Y0.6424
X33.3366 Y0.6366
X33.3354 Y0.6309
X33.3343 Y0.6251
X33.3334 Y0.6193
X33.3326 Y0.6136
X33.332 Y0.6078
X33.3315 Y0.602
X33.3311 Y0.5963
X33.3308 Y0.5905
X33.3307 Y0.5848
X33.3306 Y0.5817
X33.3305 Y0.4942
X33.3304 Y0.4914 Z0.079
X33.3301 Y0.4886 Z0.0792
X33.3296 Y0.4859 Z0.0796
X33.329 Y0.4832 Z0.0802
X33.3282 Y0.4806 Z0.0809
X33.3273 Y0.4781 Z0.0817
X33.3263 Y0.4756 Z0.0827
X33.3252 Y0.4733 Z0.0839
X33.324 Y0.4711 Z0.0852
X33.3228 Y0.4691 Z0.0866
X33.3215 Y0.4672 Z0.0881
X33.3201 Y0.4654 Z0.0898
X33.3188 Y0.4637 Z0.0916
X33.3174 Y0.4622 Z0.0936
X33.3161 Y0.4608 Z0.0956
X33.3148 Y0.4596 Z0.0977
X33.3135 Y0.4584 Z0.1
X33.3123 Y0.4574 Z0.1023
X33.3112 Y0.4566 Z0.1047
X33.3101 Y0.4558 Z0.1072
X33.3092 Y0.4552 Z0.1098
X33.3084 Y0.4546 Z0.1124
X33.3077 Y0.4541 Z0.1151
X33.3071 Y0.4538 Z0.1178
X33.3066 Y0.4535 Z0.1205
X33.3062 Y0.4533 Z0.1233
X33.306 Y0.4532 Z0.1261
Y0.4531 Z0.1289
G0 Z0.7289
X34.887 Y1.9865
Z0.4241
G1 Z0.3023 F50.
Y1.9868 Z0.2969
Y1.9877 Z0.2916
X34.8871 Y1.9891 Z0.2864
Y1.9911 Z0.2815
Y1.9935 Z0.2767
Y1.9965 Z0.2723
Y2. Z0.2682
Y2.0038 Z0.2644
Y2.0081 Z0.2612
Y2.0126 Z0.2583
Y2.0175 Z0.256
Y2.0225 Z0.2543
Y2.0277 Z0.253
Y2.033 Z0.2524
X34.8891 Y4.3261 Z0.092
G2 X34.9361 Y4.3731 Z0.0869 I0.0471 J0.
G1 X34.9503 Z0.0859
G2 X34.9973 Y4.3258 Z0.0807 I0. J-0.0471
G1 Y4.3022 Z0.079
X34.9972 Y4.2987 Z0.0789
X34.984 Y1.1469 F100.
G2 X34.9621 Y1.1073 I-0.0471 J0.0002
G3 X34.9391 Y1.092 I0.3157 J-0.4994
G2 X34.8863 Y1.1197 I-0.0192 J0.0276
G1 X34.8891 Y4.3261
G2 X34.9361 Y4.3731 I0.0471 J0.
G1 X34.9503
G2 X34.9973 Y4.3258 I0. J-0.0471
G1 X34.9972 Y4.2987
G3 X35.0867 Y4.1634 I0.1462 J-0.0006
G2 X35.1761 Y4.028 I-0.0568 J-0.1348
G1 X35.1638 Y1.0799
G2 X35.1 Y0.9786 I-0.1132 J0.0005
G3 X34.9094 Y0.7974 I0.1899 J-0.3908
G2 X34.8496 Y0.7973 I-0.0299 J0.0167
G3 X34.8079 Y0.8584 I-0.3704 J-0.2081
X34.7567 Y0.9118 I-0.3671 J-0.3008
G2 X34.7062 Y1.0245 I0.1004 J0.1126
G1 X34.7092 Y4.4892
G2 X34.7732 Y4.5531 I0.0639 J-0.0001
G1 X35.1145
G2 X35.178 Y4.4893 I0. J-0.0635
G1 X35.1761 Y4.028
G3 X35.266 Y3.8919 I0.1471 J-0.0006
G2 X35.356 Y3.7557 I-0.0571 J-0.1355
G1 X35.3438 Y0.8426
X35.2942 Y0.8428
X35.29 Y0.8427
X35.2842 Y0.8426
X35.2784 Y0.8423
X35.2727 Y0.8418
X35.2669 Y0.8413
X35.2611 Y0.8406
X35.2554 Y0.8398
X35.2496 Y0.8388
X35.2419 Y0.8373
X35.2323 Y0.8352
X35.2266 Y0.8337
X35.2246 Y0.8332
X35.2207 Y0.8321
X35.215 Y0.8303
X35.2092 Y0.8284
X35.2034 Y0.8263
X35.1977 Y0.824
X35.1919 Y0.8217
X35.1861 Y0.8191
X35.1804 Y0.8164
X35.1756 Y0.814
X35.1718 Y0.812
X35.166 Y0.8087
X35.1582 Y0.8042
X35.1519 Y0.8002
X35.147 Y0.7969
X35.1421 Y0.7934
X35.1372 Y0.7898
X35.1339 Y0.7872
X35.1322 Y0.7859
X35.1285 Y0.7829
X35.1229 Y0.7781
X35.1171 Y0.7728
X35.1112 Y0.7671
X35.1057 Y0.7615
X35.1005 Y0.7559
X35.0957 Y0.7502
X35.0911 Y0.7446
X35.0879 Y0.7406
X35.0861 Y0.7382
X35.082 Y0.7325
X35.0759 Y0.7234
G3 X35.0701 Y0.714 I0.1078 J-0.0726
G1 X35.0647 Y0.7043
X35.0617 Y0.6985
X35.0608 Y0.6966
X35.059 Y0.6928
X35.0564 Y0.6871
X35.0539 Y0.6813
X35.0516 Y0.6756
X35.0495 Y0.6698
X35.0475 Y0.664
X35.0457 Y0.6583
X35.044 Y0.6525
X35.0421 Y0.6451
X35.04 Y0.6359
X35.0389 Y0.6301
X35.0384 Y0.6277
X35.0378 Y0.6237
X35.0369 Y0.6179
X35.0362 Y0.6122
X35.0356 Y0.6064
X35.035 Y0.5979
X35.0346 Y0.5863
X35.0345 Y0.5822
X35.0269 Y-1.2388
Y-1.2428
X35.0272 Y-1.2543
X35.0276 Y-1.2606
X35.028 Y-1.2659
X34.723
X34.7234 Y-1.2594
X34.7236 Y-1.2537
X34.7239 Y-1.2422
Y-1.2394
X34.7255 Y0.5815
Y0.5855
X34.7253 Y0.5913
X34.725 Y0.597
X34.7246 Y0.6028
X34.724 Y0.6086
X34.7233 Y0.6143
X34.7225 Y0.6201
X34.7215 Y0.6259
X34.7204 Y0.6316
X34.7192 Y0.6374
X34.7179 Y0.6431
X34.7164 Y0.6489
X34.7153 Y0.6527
X34.7148 Y0.6545
X34.713 Y0.6602
X34.7096 Y0.67
X34.7067 Y0.6777
X34.7043 Y0.6835
X34.7017 Y0.6893
X34.699 Y0.695
X34.6961 Y0.7007
X34.693 Y0.7064
X34.6897 Y0.7122
X34.6862 Y0.718
X34.6825 Y0.7237
X34.6788 Y0.7293
X34.6746 Y0.7351
X34.6701 Y0.741
X34.6653 Y0.7469
X34.6604 Y0.7527
X34.6551 Y0.7584
X34.6496 Y0.7642
X34.6464 Y0.7674
X34.6457 Y0.7681
X34.6425 Y0.771
X34.6367 Y0.7762
X34.6309 Y0.7811
X34.6252 Y0.7858
X34.6216 Y0.7885
X34.6202 Y0.7896
X34.617 Y0.7919
X34.6119 Y0.7954
X34.6068 Y0.7988
X34.6018 Y0.802
X34.5949 Y0.8061
X34.5862 Y0.8108
X34.5804 Y0.8138
X34.5776 Y0.8152
X34.5733 Y0.8172
X34.5675 Y0.8197
X34.5617 Y0.8221
X34.5559 Y0.8243
X34.5502 Y0.8264
X34.5444 Y0.8283
X34.5386 Y0.8301
X34.5329 Y0.8317
X34.5258 Y0.8335
X34.525 Y0.8336
X34.5284 Y4.7341
X35.3601
X35.356 Y3.7557
X35.3558 Y3.7529 Z0.079
X35.3555 Y3.7502 Z0.0792
X35.355 Y3.7474 Z0.0796
X35.3544 Y3.7448 Z0.0802
X35.3536 Y3.7421 Z0.0809
X35.3527 Y3.7396 Z0.0817
X35.3517 Y3.7372 Z0.0827
X35.3506 Y3.7349 Z0.0839
X35.3494 Y3.7327 Z0.0852
X35.3481 Y3.7307 Z0.0866
X35.3468 Y3.7287 Z0.0881
X35.3455 Y3.7269 Z0.0898
X35.3441 Y3.7253 Z0.0916
X35.3427 Y3.7238 Z0.0936
X35.3414 Y3.7224 Z0.0956
X35.3401 Y3.7212 Z0.0977
X35.3388 Y3.72 Z0.1
X35.3376 Y3.7191 Z0.1023
X35.3365 Y3.7182 Z0.1047
X35.3354 Y3.7174 Z0.1072
X35.3345 Y3.7168 Z0.1098
X35.3337 Y3.7162 Z0.1124
X35.3329 Y3.7158 Z0.1151
X35.3324 Y3.7154 Z0.1178
X35.3319 Y3.7151 Z0.1205
X35.3315 Y3.7149 Z0.1233
X35.3313 Y3.7148 Z0.1261
Z0.1289
G0 Z0.7289
X36.7297 Y1.0767
Z0.4241
G1 Z0.3023 F50.
Y1.0764 Z0.2969
X36.7298 Y1.0755 Z0.2916
Y1.0741 Z0.2864
Y1.0722 Z0.2815
Y1.0697 Z0.2767
Y1.0667 Z0.2723
Y1.0633 Z0.2682
Y1.0594 Z0.2644
X36.7299 Y1.0552 Z0.2612
Y1.0506 Z0.2583
Y1.0458 Z0.256
Y1.0407 Z0.2543
X36.73 Y1.0355 Z0.253
Y1.0302 Z0.2524
X36.7419 Y-1.24 Z0.0936
Y-1.2406
Y-1.2413 Z0.0935
Y-1.2419
X36.7421 Y-1.2534 Z0.0927
X36.7423 Y-1.2585 Z0.0923
X36.7428 Y-1.2659 Z0.0918
X36.5601 Z0.079
X36.5566 Z0.0789
X36.4106 F100.
X36.4111 Y-1.2587
X36.4113 Y-1.2535
X36.4115 Y-1.242
Y-1.2399
X36.4366 Y4.7341
X36.7106
X36.7419 Y-1.24
G3 X36.7421 Y-1.2534 I0.7784 J0.008
G1 X36.7423 Y-1.2585
X36.7428 Y-1.2659
X36.5566
X36.5538 Y-1.2657 Z0.079
X36.5511 Y-1.2654 Z0.0792
X36.5483 Y-1.265 Z0.0796
X36.5456 Y-1.2644 Z0.0802
X36.543 Y-1.2636 Z0.0809
X36.5405 Y-1.2627 Z0.0817
X36.5381 Y-1.2617 Z0.0827
X36.5358 Y-1.2606 Z0.0839
X36.5336 Y-1.2594 Z0.0852
X36.5315 Y-1.2582 Z0.0866
X36.5296 Y-1.2569 Z0.0881
X36.5278 Y-1.2555 Z0.0898
X36.5261 Y-1.2542 Z0.0916
X36.5246 Y-1.2528 Z0.0936
X36.5232 Y-1.2515 Z0.0956
X36.522 Y-1.2502 Z0.0977
X36.5209 Y-1.2489 Z0.1
X36.5199 Y-1.2477 Z0.1023
X36.519 Y-1.2466 Z0.1047
X36.5182 Y-1.2455 Z0.1072
X36.5176 Y-1.2446 Z0.1098
X36.517 Y-1.2438 Z0.1124
X36.5166 Y-1.2431 Z0.1151
X36.5162 Y-1.2425 Z0.1178
X36.5159 Y-1.242 Z0.1205
X36.5157 Y-1.2416 Z0.1233
X36.5156 Y-1.2414 Z0.1261
Z0.1289
G0 Z0.7289
X38.1091 Y2.0002
Z0.4241
G1 Z0.3023 F50.
Y2.0005 Z0.2969
Y2.0013 Z0.2916
Y2.0027 Z0.2864
X38.109 Y2.0047 Z0.2815
Y2.0072 Z0.2767
Y2.0102 Z0.2723
Y2.0136 Z0.2682
Y2.0175 Z0.2644
Y2.0217 Z0.2612
X38.1089 Y2.0263 Z0.2583
Y2.0311 Z0.256
Y2.0361 Z0.2543
Y2.0414 Z0.253
X38.1088 Y2.0467 Z0.2524
X38.097 Y4.3097 Z0.0941
G2 X38.16 Y4.3731 Z0.0872 I0.0631 J0.0003
G1 X38.1604
G2 X38.2234 Y4.3097 Z0.0802 I0. J-0.0631
G1 Y4.2931 Z0.079
X38.2233 Y4.2896 Z0.0789
X38.2091 Y1.1624 F100.
G2 X38.1543 Y1.1297 I-0.0372 J0.0002
G3 X38.1392 Y1.1377 I-0.4064 J-0.7591
G2 X38.1134 Y1.1794 I0.0213 J0.042
G1 X38.097 Y4.3097
G2 X38.16 Y4.3731 I0.0631 J0.0003
G1 X38.1604
G2 X38.2234 Y4.3097 I0. J-0.0631
G1 X38.2233 Y4.2896
G3 X38.3127 Y4.1542 I0.1462 J-0.0007
G2 X38.4021 Y4.0188 I-0.0569 J-0.1347
G1 X38.3881 Y0.9287
G2 X38.3669 Y0.8732 I-0.0844 J0.0004
G3 X38.3082 Y0.7874 I0.3149 J-0.2785
G2 X38.2503 I-0.0289 J0.0149
G3 X38.1483 Y0.9165 I-0.3816 J-0.1965
X38.0062 Y0.9994 I-0.2964 J-0.3453
G1 X38.0016 Y1.0008
X37.9971 Y1.0022
G2 X37.9338 Y1.0889 I0.0284 J0.0871
G1 X37.916 Y4.4893
G2 X37.9795 Y4.5531 I0.0635 J0.0003
G1 X38.3407
G2 X38.4042 Y4.4893 I0. J-0.0635
G1 X38.4021 Y4.0188
G3 X38.492 Y3.8826 I0.1471 J-0.0007
G2 X38.5819 Y3.7464 I-0.0572 J-0.1355
G1 X38.5685 Y0.8079
X38.5601 Y0.8028
G3 X38.5514 Y0.797 I0.0672 J-0.1113
G1 X38.5428 Y0.7908
X38.5371 Y0.7865
X38.5341 Y0.7841
X38.5302 Y0.7807
X38.5252 Y0.7764
X38.5203 Y0.7719
X38.5153 Y0.7671
X38.5121 Y0.7638
X38.5104 Y0.762
X38.5074 Y0.7587
X38.503 Y0.7538
X38.4988 Y0.7489
X38.4949 Y0.7441
X38.4913 Y0.7394
X38.4881 Y0.7351
X38.4841 Y0.7294
X38.4794 Y0.7222
X38.4754 Y0.7157
X38.472 Y0.7099
X38.4689 Y0.7041
X38.466 Y0.6984
X38.4643 Y0.6949
X38.4637 Y0.6938
X38.4612 Y0.688
X38.4569 Y0.6777
X38.4538 Y0.6696
X38.4518 Y0.6638
X38.45 Y0.658
X38.4484 Y0.6523
X38.4468 Y0.6465
X38.4455 Y0.6407
X38.4442 Y0.635
X38.4431 Y0.6292
X38.442 Y0.6223
X38.4409 Y0.6143
X38.4402 Y0.6085
X38.4399 Y0.605
X38.4394 Y0.5977
X38.439 Y0.5862
X38.4389 Y0.5822
X38.4307 Y-1.2387
Y-1.2428
X38.431 Y-1.2544
X38.4314 Y-1.2608
X38.4318 Y-1.2659
X38.1279
X38.1283 Y-1.2609
X38.1286 Y-1.2544
X38.1289 Y-1.2429
X38.129 Y-1.2386
X38.1194 Y0.5823
Y0.586
X38.119 Y0.5975
X38.1184 Y0.6059
X38.1179 Y0.6117
X38.1172 Y0.6175
X38.1163 Y0.6232
X38.1154 Y0.629
X38.1143 Y0.6348
X38.113 Y0.6405
X38.1117 Y0.6463
X38.1101 Y0.652
X38.1085 Y0.6578
X38.1066 Y0.6639
X38.1044 Y0.6703
X38.1022 Y0.6762
X38.1001 Y0.6816
X38.0978 Y0.6871
X38.0953 Y0.6925
X38.0926 Y0.6982
X38.0897 Y0.7039
X38.0866 Y0.7097
X38.0833 Y0.7154
X38.0812 Y0.7189
X38.0806 Y0.72
X38.0785 Y0.7232
X38.0751 Y0.7284
X38.0715 Y0.7336
X38.0677 Y0.7388
X38.0637 Y0.7441
X38.0593 Y0.7494
X38.0544 Y0.7552
X38.0488 Y0.7614
X38.043 Y0.7673
X38.0371 Y0.773
X38.0307 Y0.7788
X38.0238 Y0.7846
X38.018 Y0.7892
X38.0134 Y0.7927
X38.0081 Y0.7965
X38.0024 Y0.8004
X37.9966 Y0.8041
X37.9908 Y0.8075
X37.9874 Y0.8096
X37.9863 Y0.8102
X37.9831 Y0.8119
X37.9779 Y0.8146
X37.9727 Y0.8172
X37.9675 Y0.8197
X37.962 Y0.8221
X37.9562 Y0.8245
X37.9505 Y0.8268
X37.9447 Y0.8288
X37.9388 Y0.8308
X37.9327 Y0.8327
X37.927 Y0.8343
X37.9215 Y0.8357
X37.9158 Y0.837
X37.9101 Y0.8382
X37.9043 Y0.8393
X37.8985 Y0.8402
X37.8928 Y0.8411
X37.887 Y0.8417
X37.8812 Y0.8423
X37.8755 Y0.8427
X37.8676 Y0.843
X37.8561 Y0.8432
X37.8538
X37.7541 Y0.8427
X37.7337 Y4.7341
X38.5864
X38.5819 Y3.7464
X38.5817 Y3.7437 Z0.079
X38.5814 Y3.7409 Z0.0792
X38.5809 Y3.7381 Z0.0796
X38.5803 Y3.7355 Z0.0802
X38.5795 Y3.7329 Z0.0809
X38.5786 Y3.7303 Z0.0817
X38.5776 Y3.7279 Z0.0827
X38.5765 Y3.7256 Z0.0839
X38.5753 Y3.7234 Z0.0852
X38.574 Y3.7214 Z0.0866
X38.5727 Y3.7194 Z0.0881
X38.5714 Y3.7177 Z0.0898
X38.57 Y3.716 Z0.0916
X38.5686 Y3.7145 Z0.0936
X38.5673 Y3.7131 Z0.0956
X38.566 Y3.7119 Z0.0977
X38.5647 Y3.7108 Z0.1
X38.5635 Y3.7098 Z0.1023
X38.5624 Y3.7089 Z0.1047
X38.5613 Y3.7081 Z0.1072
X38.5604 Y3.7075 Z0.1098
X38.5596 Y3.7069 Z0.1124
X38.5588 Y3.7065 Z0.1151
X38.5582 Y3.7061 Z0.1178
X38.5578 Y3.7058 Z0.1205
X38.5574 Y3.7056 Z0.1233
X38.5572 Y3.7055 Z0.1261
Z0.1289
G0 Z0.7289
X40.0416 Y3.5803
Z0.4241
G1 Z0.3023 F50.
Y3.58 Z0.2969
Y3.5792 Z0.2916
Y3.5777 Z0.2864
Y3.5758 Z0.2815
Y3.5733 Z0.2767
Y3.5703 Z0.2723
Y3.5669 Z0.2682
X40.0415 Y3.563 Z0.2644
Y3.5588 Z0.2612
Y3.5542 Z0.2583
Y3.5494 Z0.256
Y3.5443 Z0.2543
Y3.5391 Z0.253
Y3.5338 Z0.2524
X40.0355 Y1.0991 Z0.0821
G2 X40.0251 Y1.0784 Z0.0804 I-0.026 J0.0001
G3 X40.0118 Y1.068 Z0.0793 I0.2946 J-0.393
G1 X40.0092 Y1.0662 Z0.079
X40.0077 Y1.0653
X40.0061 Y1.0646 Z0.0789
G2 X39.9795 Y1.0678 I-0.0106 J0.0238 F100.
G1 X39.9784 Y1.0686
G2 X39.9683 Y1.0893 I0.016 J0.0206
G1 X39.983 Y4.3263
G2 X40.0434 Y4.3261 I0.0302 J-0.0001
G1 X40.0355 Y1.0991
G2 X40.0251 Y1.0784 I-0.026 J0.0001
G3 X40.0118 Y1.068 I0.2946 J-0.393
G1 X40.0091 Y1.0661
X40.0061 Y1.0646
G3 X39.9679 Y0.9708 I0.0299 J-0.0669
G2 X39.8853 Y0.9123 I-0.0485 J-0.0191
G3 X39.8491 Y0.9404 I-0.2857 J-0.3301
G2 X39.7882 Y1.058 I0.0818 J0.117
G1 X39.8037 Y4.4903
G2 X39.8667 Y4.5529 I0.0629 J-0.0003
G1 X40.1614
G2 X40.2238 Y4.4904 I0. J-0.0624
G1 X40.2155 Y1.0641
G2 X40.1544 Y0.9494 I-0.1389 J0.0003
G3 X40.0278 Y0.8209 I0.2568 J-0.3797
G2 X39.9651 I-0.0314 J0.0205
G3 X39.8853 Y0.9123 I-0.3655 J-0.2387
X39.7434 Y0.8929 I-0.0624 J-0.0721
G2 X39.6064 Y0.9345 I-0.0623 J0.0413
G1 X39.6237 Y4.7341
X40.4056
X40.3961 Y0.842
X40.3905 Y0.8419
X40.3828 Y0.8416
X40.3771 Y0.8411
X40.3713 Y0.8406
X40.3655 Y0.8399
X40.3598 Y0.8391
X40.354 Y0.8382
X40.3482 Y0.8371
X40.3425 Y0.8359
X40.339 Y0.8351
X40.3379 Y0.8349
X40.3321 Y0.8333
X40.3217 Y0.8303
X40.3136 Y0.8277
X40.3079 Y0.8257
X40.3021 Y0.8234
X40.2963 Y0.821
X40.2892 Y0.8178
X40.2809 Y0.8138
X40.2751 Y0.8108
X40.272 Y0.8091
X40.2675 Y0.8065
X40.2617 Y0.803
X40.2559 Y0.7993
X40.2502 Y0.7954
X40.2457 Y0.7923
X40.2424 Y0.7898
X40.2366 Y0.7853
X40.2283 Y0.7784
X40.2218 Y0.7726
X40.2169 Y0.7679
X40.2111 Y0.762
X40.2044 Y0.7548
X40.1994 Y0.749
X40.1959 Y0.7447
X40.192 Y0.7397
X40.1877 Y0.734
X40.1837 Y0.7282
X40.1798 Y0.7224
X40.1762 Y0.7166
X40.1729 Y0.7109
X40.1697 Y0.7051
X40.1667 Y0.6993
X40.1638 Y0.6936
X40.1612 Y0.6878
X40.1586 Y0.6819
X40.1562 Y0.6758
X40.154 Y0.67
X40.1521 Y0.6644
X40.1503 Y0.6588
X40.1486 Y0.6531
X40.1471 Y0.6475
X40.1456 Y0.6417
X40.1443 Y0.6359
X40.1432 Y0.6302
X40.1422 Y0.6244
X40.1413 Y0.6186
X40.1405 Y0.6129
X40.1399 Y0.6071
X40.1393 Y0.5985
X40.1388 Y0.587
X40.1387 Y0.5819
X40.1342 Y-1.239
X40.1343 Y-1.2426
X40.1346 Y-1.2541
X40.1349 Y-1.2602
X40.1353 Y-1.2659
X39.847
X39.8475 Y-1.2586
X39.8477 Y-1.2535
X39.8479 Y-1.2419
X39.848 Y-1.2399
X39.8562 Y0.5695
Y0.57
Y0.5815
X39.8561 Y0.5872
X39.8558 Y0.593
X39.8554 Y0.5987
X39.8549 Y0.6045
X39.8543 Y0.6102
X39.8535 Y0.616
X39.8526 Y0.6218
X39.8516 Y0.6275
X39.8508 Y0.6315
X39.8504 Y0.6337
X39.849 Y0.6395
X39.8466 Y0.6488
X39.8444 Y0.6563
X39.8425 Y0.6621
X39.8405 Y0.6679
X39.8383 Y0.6736
X39.836 Y0.6793
X39.8337 Y0.6848
X39.831 Y0.6905
X39.828 Y0.6966
X39.825 Y0.7025
X39.8218 Y0.7082
X39.8183 Y0.714
X39.8147 Y0.7197
X39.8107 Y0.7258
X39.8063 Y0.7321
X39.802 Y0.7378
X39.7978 Y0.7431
X39.7921 Y0.7498
X39.7847 Y0.7579
X39.7792 Y0.7636
X39.7757 Y0.767
X39.77 Y0.7723
X39.7619 Y0.7792
X39.7584 Y0.7821
X39.7548 Y0.7849
X39.7487 Y0.7895
X39.7429 Y0.7936
X39.7375 Y0.7972
X39.7319 Y0.8007
X39.7262 Y0.8041
X39.7204 Y0.8073
X39.7146 Y0.8104
X39.7102 Y0.8126
X39.7071 Y0.8141
X39.7014 Y0.8167
X39.6929 Y0.8202
X39.6858 Y0.823
X39.68 Y0.825
X39.6742 Y0.8269
X39.6685 Y0.8287
X39.6627 Y0.8303
X39.6569 Y0.8317
X39.6512 Y0.833
X39.6454 Y0.8342
X39.6397 Y0.8352
X39.634 Y0.8361
X39.6282 Y0.8369
X39.6224 Y0.8376
X39.6137 Y0.8383
X39.606 Y0.8386
X39.6064 Y0.9345
X39.6066 Y0.9373 Z0.079
X39.6069 Y0.9401 Z0.0792
X39.6074 Y0.9429 Z0.0796
X39.608 Y0.9455 Z0.0802
X39.6088 Y0.9481 Z0.0809
X39.6097 Y0.9507 Z0.0817
X39.6107 Y0.9531 Z0.0827
X39.6118 Y0.9554 Z0.0839
X39.613 Y0.9576 Z0.0852
X39.6143 Y0.9596 Z0.0866
X39.6156 Y0.9616 Z0.0881
X39.6169 Y0.9633 Z0.0898
X39.6183 Y0.965 Z0.0916
X39.6197 Y0.9665 Z0.0936
X39.621 Y0.9679 Z0.0956
X39.6223 Y0.9691 Z0.0977
X39.6236 Y0.9702 Z0.1
X39.6248 Y0.9712 Z0.1023
X39.6259 Y0.9721 Z0.1047
X39.627 Y0.9729 Z0.1072
X39.6279 Y0.9735 Z0.1098
X39.6287 Y0.9741 Z0.1124
X39.6295 Y0.9745 Z0.1151
X39.6301 Y0.9749 Z0.1178
X39.6305 Y0.9752 Z0.1205
X39.6309 Y0.9754 Z0.1233
X39.6311 Y0.9755 Z0.1261
Z0.1289
G0 Z0.7289
X41.7874 Y1.974
Z0.4241
G1 Z0.3023 F50.
Y1.9743 Z0.2969
Y1.9752 Z0.2916
Y1.9766 Z0.2864
Y1.9785 Z0.2815
Y1.981 Z0.2767
Y1.984 Z0.2723
Y1.9875 Z0.2682
Y1.9913 Z0.2644
Y1.9955 Z0.2612
Y2.0001 Z0.2583
X41.7875 Y2.0049 Z0.256
Y2.01 Z0.2543
Y2.0152 Z0.253
Y2.0205 Z0.2524
X41.7932 Y4.3381 Z0.0903
G2 X41.8282 Y4.3731 Z0.0865 I0.035 J-0.0001
G1 X41.851 Z0.0849
G2 X41.8861 Y4.3377 Z0.081 I0. J-0.035
G1 X41.8858 Y4.3097 Z0.079
Y4.3062 Z0.0789
X41.8574 Y1.1747 F100.
G2 X41.8377 Y1.1435 I-0.035 J0.0003
G1 X41.836 Y1.1427
G2 X41.7854 Y1.1742 I-0.0155 J0.0314
G1 X41.7932 Y4.3381
G2 X41.8282 Y4.3731 I0.035 J-0.0001
G1 X41.851
G2 X41.8861 Y4.3377 I0. J-0.035
G1 X41.8858 Y4.3062
G3 X41.9746 Y4.1704 I0.1462 J-0.0013
G2 X42.0633 Y4.0346 I-0.0575 J-0.1345
G1 X42.0366 Y1.0908
G2 X41.9731 Y1.0044 I-0.0916 J0.0008
G3 X41.7233 Y0.7992 I0.1347 J-0.4186
G2 X41.6635 Y0.7989 I-0.03 J0.0166
G3 X41.6447 Y0.8289 I-0.3515 J-0.1991
X41.6235 Y0.8574 I-0.3905 J-0.269
G2 X41.6048 Y0.9105 I0.0658 J0.053
G1 X41.6135 Y4.4892
G2 X41.6776 Y4.5531 I0.0641 J-0.0002
G1 X42.0043
G2 X42.0675 Y4.4894 I0. J-0.0632
G1 X42.0633 Y4.0346
G3 X42.1526 Y3.8981 I0.1471 J-0.0013
G2 X42.2419 Y3.7615 I-0.0578 J-0.1352
G1 X42.2154 Y0.8438
X42.1121 Y0.8448
X42.1074 Y0.8447
X42.0958 Y0.8444
X42.0872 Y0.8439
X42.0815 Y0.8433
X42.0757 Y0.8427
X42.0699 Y0.8419
X42.0642 Y0.8409
X42.0584 Y0.8399
X42.0526 Y0.8387
X42.0469 Y0.8373
X42.04 Y0.8355
X42.032 Y0.8332
X42.0263 Y0.8314
X42.0227 Y0.8302
X42.018 Y0.8285
X42.0123 Y0.8262
X42.0065 Y0.8238
X42.0007 Y0.8213
X41.9952 Y0.8187
X41.99 Y0.8161
X41.9848 Y0.8133
X41.9795 Y0.8104
X41.9764 Y0.8086
X41.9753 Y0.808
X41.9719 Y0.8059
X41.9661 Y0.8022
X41.9603 Y0.7983
X41.9546 Y0.7942
X41.9497 Y0.7905
X41.9458 Y0.7874
X41.94 Y0.7826
X41.9324 Y0.7758
X41.9263 Y0.77
X41.9215 Y0.7652
X41.9157 Y0.759
X41.9089 Y0.7511
X41.9041 Y0.7453
X41.9013 Y0.7416
X41.8979 Y0.7369
X41.8938 Y0.7312
X41.89 Y0.7254
X41.8864 Y0.7196
X41.8841 Y0.7158
X41.883 Y0.7139
X41.8799 Y0.7082
X41.875 Y0.6986
X41.8713 Y0.6908
X41.8688 Y0.6851
X41.8665 Y0.6793
X41.8643 Y0.6735
X41.8623 Y0.6677
X41.8604 Y0.6617
X41.8586 Y0.656
X41.8571 Y0.6504
X41.8557 Y0.6447
X41.8544 Y0.6389
X41.8532 Y0.6332
X41.8522 Y0.6274
X41.8513 Y0.6217
X41.8506 Y0.6159
X41.8499 Y0.6101
X41.8494 Y0.6044
X41.849 Y0.5965
X41.8487 Y0.585
Y0.5828
X41.8322 Y-1.2266
Y-1.227
Y-1.2273
Y-1.2389
X41.8323 Y-1.2434
X41.8326 Y-1.2549
X41.833 Y-1.2614
X41.8333 Y-1.2659
X41.5353
X41.5358 Y-1.259
X41.536 Y-1.2536
X41.5362 Y-1.2421
X41.5363 Y-1.2396
X41.5407 Y0.5813
X41.5406 Y0.5862
X41.5404 Y0.592
X41.5401 Y0.5977
X41.5396 Y0.6035
X41.539 Y0.6093
X41.5383 Y0.615
X41.5375 Y0.6208
X41.5365 Y0.6266
X41.5355 Y0.6318
X41.5344 Y0.6366
X41.5331 Y0.6424
X41.5313 Y0.6491
X41.5295 Y0.6554
X41.5277 Y0.6611
X41.5257 Y0.6669
X41.5236 Y0.6727
X41.5213 Y0.6784
X41.5188 Y0.6842
X41.5162 Y0.69
X41.5135 Y0.6957
X41.5117 Y0.6992
X41.5111 Y0.7003
X41.5094 Y0.7035
X41.5065 Y0.7087
X41.5035 Y0.7139
X41.5003 Y0.7191
X41.496 Y0.7256
X41.4906 Y0.7333
X41.4863 Y0.739
X41.4833 Y0.7428
X41.4798 Y0.7471
X41.4757 Y0.7518
X41.4715 Y0.7565
X41.467 Y0.7613
X41.4636 Y0.7646
X41.4615 Y0.7667
X41.4581 Y0.7699
X41.4534 Y0.7742
X41.4487 Y0.7783
X41.444 Y0.7822
X41.4394 Y0.7858
X41.435 Y0.7891
X41.4293 Y0.7932
X41.4235 Y0.7971
X41.4331 Y4.7341
X42.2507
X42.2419 Y3.7615
X42.2417 Y3.7587 Z0.079
X42.2414 Y3.7559 Z0.0792
X42.2409 Y3.7532 Z0.0796
X42.2402 Y3.7505 Z0.0802
X42.2394 Y3.7479 Z0.0809
X42.2385 Y3.7454 Z0.0817
X42.2375 Y3.743 Z0.0827
X42.2364 Y3.7407 Z0.0839
X42.2352 Y3.7385 Z0.0852
X42.2339 Y3.7365 Z0.0866
X42.2326 Y3.7345 Z0.0881
X42.2312 Y3.7327 Z0.0898
X42.2299 Y3.7311 Z0.0916
X42.2285 Y3.7296 Z0.0936
X42.2271 Y3.7282 Z0.0956
X42.2258 Y3.727 Z0.0977
X42.2245 Y3.7259 Z0.1
X42.2233 Y3.7249 Z0.1023
X42.2222 Y3.724 Z0.1047
X42.2212 Y3.7233 Z0.1072
X42.2202 Y3.7226 Z0.1098
X42.2194 Y3.7221 Z0.1124
X42.2187 Y3.7216 Z0.1151
X42.2181 Y3.7213 Z0.1178
X42.2176 Y3.721 Z0.1205
X42.2172 Y3.7208 Z0.1233
X42.217 Y3.7207 Z0.1261
Y3.7206 Z0.1289
G0 Z0.7289
X43.524 Y1.0766
Z0.4241
G1 Z0.3023 F50.
Y1.0763 Z0.2969
Y1.0755 Z0.2916
Y1.074 Z0.2864
Y1.0721 Z0.2815
Y1.0696 Z0.2767
Y1.0666 Z0.2723
X43.5241 Y1.0632 Z0.2682
Y1.0593 Z0.2644
Y1.0551 Z0.2612
Y1.0505 Z0.2583
X43.5242 Y1.0457 Z0.256
Y1.0406 Z0.2543
X43.5243 Y1.0354 Z0.253
Y1.0301 Z0.2524
X43.5405 Y-1.2402 Z0.0936
Y-1.2408
Y-1.2413 Z0.0935
X43.5406 Y-1.2418
X43.5408 Y-1.2533 Z0.0927
X43.541 Y-1.2582 Z0.0924
X43.5414 Y-1.2659 Z0.0918
X43.3587 Z0.079
X43.3552 Z0.0789
X43.2088 F100.
X43.2092 Y-1.258
X43.2094 Y-1.2532
X43.2096 Y-1.2417
Y-1.2411
Y-1.2405
X43.2638 Y4.7341
X43.4978
X43.5405 Y-1.2402
G3 X43.5408 Y-1.2533 I0.8473 J0.009
G1 X43.541 Y-1.2582
X43.5414 Y-1.2659
X43.3552
X43.3524 Y-1.2657 Z0.079
X43.3496 Y-1.2654 Z0.0792
X43.3469 Y-1.265 Z0.0796
X43.3442 Y-1.2644 Z0.0802
X43.3416 Y-1.2636 Z0.0809
X43.3391 Y-1.2627 Z0.0817
X43.3367 Y-1.2617 Z0.0827
X43.3343 Y-1.2606 Z0.0839
X43.3322 Y-1.2594 Z0.0852
X43.3301 Y-1.2582 Z0.0866
X43.3282 Y-1.2569 Z0.0881
X43.3264 Y-1.2555 Z0.0898
X43.3247 Y-1.2542 Z0.0916
X43.3232 Y-1.2528 Z0.0936
X43.3218 Y-1.2515 Z0.0956
X43.3206 Y-1.2502 Z0.0977
X43.3194 Y-1.2489 Z0.1
X43.3184 Y-1.2477 Z0.1023
X43.3176 Y-1.2466 Z0.1047
X43.3168 Y-1.2455 Z0.1072
X43.3161 Y-1.2446 Z0.1098
X43.3156 Y-1.2438 Z0.1124
X43.3151 Y-1.2431 Z0.1151
X43.3148 Y-1.2425 Z0.1178
X43.3145 Y-1.242 Z0.1205
X43.3143 Y-1.2416 Z0.1233
X43.3142 Y-1.2414 Z0.1261
X43.3141 Z0.1289
G0 Z0.7289
X45.6127 Y-0.9049
Z0.1289
G1 X45.6124 Z0.1233 F100.
X45.6114 Z0.1178
X45.6099 Z0.1124
X45.6078 Z0.1072
X45.605 Z0.1023
X45.6018 Z0.0977
X45.5981 Z0.0936
X45.5939 Z0.0898
X45.5893 Z0.0866
X45.5844 Z0.0839
X45.5792 Z0.0817
X45.5738 Z0.0802
X45.5683 Z0.0792
X45.5627 Z0.0789
X45.4141
X45.3492
G2 X45.2848 Y-0.8409 I0. J0.0644
G1 X45.2479 Y4.3093
G2 X45.3112 Y4.3731 I0.0633 J0.0005
G1 X45.4141
X45.6107
X45.6163 Z0.0792
X45.6219 Z0.0802
X45.6273 Z0.0817
X45.6324 Z0.0839
X45.6373 Z0.0866
X45.6419 Z0.0898
X45.6461 Z0.0936
X45.6498 Z0.0977
X45.6531 Z0.1023
X45.6558 Z0.1072
X45.6579 Z0.1124
X45.6595 Z0.1178
X45.6604 Z0.1233
X45.6607 Z0.1289
G0 Z0.7289
X45.6127 Y-1.0849
Z0.1289
G1 X45.6124 Z0.1233 F100.
X45.6114 Z0.1178
X45.6099 Z0.1124
X45.6078 Z0.1072
X45.605 Z0.1023
X45.6018 Z0.0977
X45.5981 Z0.0936
X45.5939 Z0.0898
X45.5893 Z0.0866
X45.5844 Z0.0839
X45.5792 Z0.0817
X45.5738 Z0.0802
X45.5683 Z0.0792
X45.5627 Z0.0789
X45.4141
X45.1705
G2 X45.106 Y-1.0209 I0. J0.0644
G1 X45.0666 Y4.4893
G2 X45.1299 Y4.5531 I0.0633 J0.0005
G1 X45.4141
X45.6107
X45.6163 Z0.0792
X45.6219 Z0.0802
X45.6273 Z0.0817
X45.6324 Z0.0839
X45.6373 Z0.0866
X45.6419 Z0.0898
X45.6461 Z0.0936
X45.6498 Z0.0977
X45.6531 Z0.1023
X45.6558 Z0.1072
X45.6579 Z0.1124
X45.6595 Z0.1178
X45.6604 Z0.1233
X45.6607 Z0.1289
G0 Z0.7289
X45.6127 Y-1.2351
Z0.1239
G1 X45.6124 Z0.1189 F100.
X45.6116 Y-1.2353 Z0.1139
X45.6102 Y-1.2355 Z0.1091
X45.6083 Y-1.2358 Z0.1044
X45.6059 Y-1.2362 Z0.1
X45.603 Y-1.2366 Z0.0959
X45.5997 Y-1.2371 Z0.0921
X45.596 Y-1.2377 Z0.0887
X45.5919 Y-1.2384 Z0.0858
X45.5875 Y-1.2391 Z0.0834
X45.5829 Y-1.2398 Z0.0814
X45.5781 Y-1.2406 Z0.08
X45.5732 Y-1.2413 Z0.0792
X45.5683 Y-1.2421 Z0.0789
X45.422 Y-1.2653
X45.4181 Y-1.2657
X45.4142 Y-1.2659
X44.9254
X44.9258 Y-1.2612
X44.9262 Y-1.2547
X44.9265 Y-1.2431
X44.9266 Y-1.2386
X44.9264 Y-1.2155
Y-1.2153
X44.8839 Y4.7341
X45.4141
X45.4181 Y4.7339
X45.422 Y4.7335
X45.6162 Y4.7027
X45.6217 Y4.7018 Z0.0792
X45.6271 Y4.701 Z0.0802
X45.6325 Y4.7001 Z0.0817
X45.6376 Y4.6993 Z0.0839
X45.6424 Y4.6986 Z0.0866
X45.6469 Y4.6978 Z0.0898
X45.6511 Y4.6972 Z0.0936
X45.6548 Y4.6966 Z0.0977
X45.658 Y4.6961 Z0.1023
X45.6607 Y4.6957 Z0.1072
X45.6628 Y4.6953 Z0.1124
X45.6643 Y4.6951 Z0.1178
X45.6652 Y4.6949 Z0.1233
X45.6655 Z0.1289
G0 Z0.7289
X21.1576 Y2.0089
Z0.4241
G1 Z0.3023 F50.
Y2.0092 Z0.2969
Y2.0101 Z0.2916
Y2.0115 Z0.2864
Y2.0134 Z0.2815
Y2.0159 Z0.2767
Y2.0189 Z0.2723
X21.1577 Y2.0223 Z0.2682
Y2.0262 Z0.2644
Y2.0304 Z0.2612
Y2.035 Z0.2583
Y2.0398 Z0.256
Y2.0449 Z0.2543
Y2.0501 Z0.253
Y2.0554 Z0.2524
X21.1617 Y4.3261 Z0.0936
G2 X21.2087 Y4.3731 Z0.0884 I0.0471 J-0.0001
G1 X21.2378 Z0.0864
G2 X21.2848 Y4.3258 Z0.0812 I0. J-0.0471
G1 X21.2847 Y4.2947 Z0.079
Y4.2913 Z0.0789
X21.2703 Y1.1278 F100.
G2 X21.2165 Y1.0992 I-0.0346 J0.0002
G3 X21.1985 Y1.1106 I-0.2726 J-0.4086
X21.1801 Y1.1214 I-0.3634 J-0.5995
G2 X21.1562 Y1.1625 I0.0232 J0.041
G1 X21.1617 Y4.3261
G2 X21.2087 Y4.3731 I0.0471 J-0.0001
G1 X21.2378
G2 X21.2848 Y4.3258 I0. J-0.0471
G1 X21.2847 Y4.2913
G3 X21.3741 Y4.1559 I0.1462 J-0.0007
G2 X21.4634 Y4.0204 I-0.0569 J-0.1347
G1 X21.4498 Y1.0112
G2 X21.4035 Y0.9032 I-0.1509 J0.0007
G3 X21.3576 Y0.8522 I0.3314 J-0.3445
X21.32 Y0.7949 I0.3392 J-0.2639
G2 X21.2609 Y0.7945 I-0.0296 J0.0162
G3 X21.0386 Y0.9899 I-0.391 J-0.2208
G2 X20.976 Y1.0825 I0.037 J0.0925
G1 X20.982 Y4.4892
G2 X21.046 Y4.5531 I0.064 J-0.0001
G1 X21.4021
G2 X21.4656 Y4.4893 I0. J-0.0635
G1 X21.4634 Y4.0204
G3 X21.5533 Y3.8843 I0.1471 J-0.0007
G2 X21.6432 Y3.7481 I-0.0572 J-0.1355
G1 X21.63 Y0.8314
X21.6259 Y0.8301
X21.6202 Y0.8281
X21.6144 Y0.826
X21.6086 Y0.8238
X21.6029 Y0.8213
X21.5971 Y0.8187
X21.5913 Y0.816
X21.5867 Y0.8136
X21.5831 Y0.8117
X21.5773 Y0.8084
X21.5693 Y0.8037
X21.563 Y0.7996
X21.5583 Y0.7964
X21.5535 Y0.793
X21.5488 Y0.7895
X21.5454 Y0.7869
X21.5433 Y0.7852
X21.5396 Y0.7821
X21.5342 Y0.7774
X21.5288 Y0.7725
X21.5234 Y0.7673
X21.5203 Y0.7643
X21.5196 Y0.7635
X21.5168 Y0.7605
X21.5119 Y0.7551
X21.5072 Y0.7497
X21.5029 Y0.7443
X21.4996 Y0.7401
X21.4973 Y0.737
X21.4933 Y0.7313
X21.4876 Y0.7228
X21.4833 Y0.7159
X21.4802 Y0.7105
X21.4772 Y0.7051
X21.4745 Y0.6998
X21.4729 Y0.6967
X21.4725 Y0.6959
X21.471 Y0.6926
X21.4684 Y0.6869
X21.466 Y0.6811
X21.4637 Y0.6753
X21.4616 Y0.6696
X21.4596 Y0.6638
X21.4578 Y0.658
X21.4562 Y0.6523
X21.4546 Y0.6465
X21.4533 Y0.6408
X21.452 Y0.635
X21.4509 Y0.6292
X21.4503 Y0.6258
X21.4501 Y0.6248
X21.4493 Y0.6191
X21.4481 Y0.6086
G3 X21.4472 Y0.5977 I0.1291 J-0.0154
G1 X21.4468 Y0.5862
X21.4467 Y0.5822
X21.4385 Y-1.2387
Y-1.2428
X21.4388 Y-1.2544
X21.4392 Y-1.2607
X21.4396 Y-1.2659
X21.1314
X21.1319 Y-1.2583
X21.1321 Y-1.2537
X21.1323 Y-1.2421
X21.1324 Y-1.2395
X21.1355 Y0.5814
X21.1354 Y0.5859
X21.1353 Y0.5917
X21.1349 Y0.5974
X21.1345 Y0.6032
X21.1339 Y0.6089
X21.1332 Y0.6147
X21.1324 Y0.6205
X21.1314 Y0.6262
X21.1302 Y0.6327
X21.1286 Y0.6398
X21.1272 Y0.6456
X21.126 Y0.65
X21.1245 Y0.6551
X21.1227 Y0.6608
X21.1207 Y0.6666
X21.1186 Y0.6723
X21.1164 Y0.6781
X21.1139 Y0.6839
X21.1114 Y0.6896
X21.1086 Y0.6954
X21.1066 Y0.6995
X21.1053 Y0.7019
X21.1021 Y0.7077
X21.0967 Y0.7168
G3 X21.0909 Y0.7257 I-0.112 J-0.066
G1 X21.0848 Y0.7345
X21.0805 Y0.7402
X21.0783 Y0.743
X21.075 Y0.747
X21.0706 Y0.7521
X21.0659 Y0.7572
X21.061 Y0.7624
X21.0579 Y0.7655
X21.0566 Y0.7668
X21.0534 Y0.7698
X21.0483 Y0.7745
X21.0432 Y0.7789
X21.0381 Y0.7831
X21.0337 Y0.7865
X21.0302 Y0.7892
X21.0245 Y0.7932
X21.0165 Y0.7986
X21.0097 Y0.8029
X21.0041 Y0.8062
X20.9984 Y0.8093
X20.9923 Y0.8125
X20.9865 Y0.8153
X20.9807 Y0.818
X20.9749 Y0.8204
X20.9691 Y0.8228
X20.9634 Y0.8249
X20.9576 Y0.8269
X20.9518 Y0.8287
X20.9461 Y0.8304
X20.9403 Y0.832
X20.9345 Y0.8334
X20.9285 Y0.8347
X20.9221 Y0.836
X20.9135 Y0.8374
X20.9025 Y0.8387
G3 X20.8913 Y0.8397 I-0.0163 J-0.129
G1 X20.8798 Y0.8401
X20.875 Y0.8402
X20.7946 Y0.8404
X20.8014 Y4.7341
X21.6477
X21.6432 Y3.7481
X21.643 Y3.7453 Z0.079
X21.6427 Y3.7426 Z0.0792
X21.6422 Y3.7398 Z0.0796
X21.6416 Y3.7371 Z0.0802
X21.6408 Y3.7345 Z0.0809
X21.64 Y3.732 Z0.0817
X21.6389 Y3.7296 Z0.0827
X21.6378 Y3.7273 Z0.0839
X21.6366 Y3.7251 Z0.0852
X21.6354 Y3.7231 Z0.0866
X21.6341 Y3.7211 Z0.0881
X21.6327 Y3.7193 Z0.0898
X21.6313 Y3.7177 Z0.0916
X21.63 Y3.7162 Z0.0936
X21.6286 Y3.7148 Z0.0956
X21.6273 Y3.7136 Z0.0977
X21.626 Y3.7124 Z0.1
X21.6248 Y3.7115 Z0.1023
X21.6237 Y3.7106 Z0.1047
X21.6227 Y3.7098 Z0.1072
X21.6217 Y3.7092 Z0.1098
X21.6209 Y3.7086 Z0.1124
X21.6202 Y3.7082 Z0.1151
X21.6196 Y3.7078 Z0.1178
X21.6191 Y3.7075 Z0.1205
X21.6188 Y3.7073 Z0.1233
X21.6186 Y3.7072 Z0.1261
X21.6185 Z0.1289
G0 Z0.7289
X19.4174 Y2.7362
Z0.4241
G1 Z0.3023 F50.
Y2.7365 Z0.2969
Y2.7374 Z0.2916
Y2.7388 Z0.2864
Y2.7408 Z0.2815
Y2.7432 Z0.2767
Y2.7462 Z0.2723
Y2.7497 Z0.2682
X19.4173 Y2.7535 Z0.2644
Y2.7578 Z0.2612
Y2.7623 Z0.2583
Y2.7672 Z0.256
Y2.7722 Z0.2543
Y2.7774 Z0.253
X19.4172 Y2.7827 Z0.2524
X19.4108 Y4.7341 Z0.1159
X19.7515 Z0.0921
X19.7511 Y4.5474 Z0.079
Y4.5439 Z0.0789
X19.741 Y-1.2391 F100.
X19.7411 Y-1.2419
G3 X19.7414 Y-1.2549 I0.6478 J0.0095
G1 X19.7417 Y-1.26
X19.7421 Y-1.2659
X19.4295
X19.4299 Y-1.2604
X19.4302 Y-1.2542
X19.4305 Y-1.2427
X19.4306 Y-1.2389
X19.4108 Y4.7341
X19.7515
X19.7511 Y4.5439
X19.751 Y4.5411 Z0.079
X19.7507 Y4.5383 Z0.0792
X19.7502 Y4.5356 Z0.0796
X19.7496 Y4.5329 Z0.0802
X19.7488 Y4.5303 Z0.0809
X19.7479 Y4.5278 Z0.0817
X19.7469 Y4.5253 Z0.0827
X19.7458 Y4.523 Z0.0839
X19.7446 Y4.5208 Z0.0852
X19.7434 Y4.5188 Z0.0866
X19.7421 Y4.5169 Z0.0881
X19.7407 Y4.5151 Z0.0898
X19.7394 Y4.5134 Z0.0916
X19.738 Y4.5119 Z0.0936
X19.7366 Y4.5105 Z0.0956
X19.7353 Y4.5093 Z0.0977
X19.7341 Y4.5081 Z0.1
X19.7329 Y4.5072 Z0.1023
X19.7317 Y4.5063 Z0.1047
X19.7307 Y4.5055 Z0.1072
X19.7298 Y4.5049 Z0.1098
X19.7289 Y4.5043 Z0.1124
X19.7282 Y4.5039 Z0.1151
X19.7276 Y4.5035 Z0.1178
X19.7272 Y4.5032 Z0.1205
X19.7268 Y4.503 Z0.1233
X19.7266 Y4.5029 Z0.1261
X19.7265 Z0.1289
G0 Z0.7289
X18.0505 Y3.6411
Z0.4241
G1 Z0.3023 F50.
X18.0506 Y3.6408 Z0.2969
Y3.64 Z0.2916
Y3.6385 Z0.2864
Y3.6366 Z0.2815
Y3.6341 Z0.2767
Y3.6311 Z0.2723
Y3.6277 Z0.2682
Y3.6238 Z0.2644
Y3.6196 Z0.2612
Y3.615 Z0.2583
X18.0507 Y3.6102 Z0.256
Y3.6051 Z0.2543
Y3.5999 Z0.253
Y3.5946 Z0.2524
X18.0588 Y1.1644 Z0.0824
G2 X18.0439 Y1.1408 Z0.0804 I-0.026 J-0.0001
G1 X18.0355 Y1.1368 Z0.0797
X18.0325 Y1.1355 Z0.0795
X18.0293 Y1.1346 Z0.0793
X18.0261 Y1.1341 Z0.079
X18.0243 Y1.134
X18.0226 Y1.1341 Z0.0789
G2 X17.9978 Y1.1602 I0.0013 J0.026 F100.
G1 X18.0084 Y4.3341
G2 X18.0483 I0.0199 J-0.0001
G1 X18.0588 Y1.1644
G2 X18.0439 Y1.1408 I-0.026 J-0.0001
G1 X18.0355 Y1.1368
G2 X18.0226 Y1.1341 I-0.0116 J0.0233
G3 X17.9245 Y1.0821 I-0.0054 J-0.1084
G2 X17.8177 Y1.1123 I-0.0492 J0.03
G1 X17.8289 Y4.4903
G2 X17.8917 Y4.5529 I0.0628 J-0.0002
G1 X18.1649
G2 X18.2278 Y4.4903 I0. J-0.0628
G1 X18.239 Y1.0841
G2 X18.1781 Y1.0005 I-0.0874 J-0.0003
G3 X17.9319 Y0.8068 I0.1351 J-0.4251
G2 X17.8715 Y0.8066 I-0.0302 J0.0182
G3 X17.8354 Y0.8581 I-0.4087 J-0.2484
G2 X17.817 Y0.9104 I0.0643 J0.0521
G1 X17.8177 Y1.1123
G3 X17.7275 Y1.2485 I-0.1472 J0.0005
G2 X17.6374 Y1.3847 I0.0571 J0.1357
G1 X17.6485 Y4.7341
X18.4081
X18.421 Y0.8399
X18.3135 Y0.8396
X18.3113 Y0.8395
X18.2997 Y0.8393
X18.2948 Y0.8391
X18.2899 Y0.8387
X18.2802 Y0.8378
X18.2744 Y0.8371
X18.2726 Y0.8368
X18.2688 Y0.8362
X18.263 Y0.8352
X18.2573 Y0.8341
X18.2515 Y0.8329
X18.2457 Y0.8315
X18.24 Y0.8299
X18.2342 Y0.8282
X18.2284 Y0.8264
X18.2227 Y0.8244
X18.2169 Y0.8223
X18.2111 Y0.82
X18.2054 Y0.8175
X18.2014 Y0.8157
X18.1991 Y0.8147
X18.1933 Y0.8118
X18.184 Y0.8069
X18.1768 Y0.8028
X18.1717 Y0.7997
X18.1666 Y0.7964
X18.1615 Y0.7929
X18.1583 Y0.7907
X18.157 Y0.7897
X18.1534 Y0.7871
X18.1477 Y0.7826
X18.1419 Y0.7778
X18.1361 Y0.7728
X18.1327 Y0.7697
X18.1316 Y0.7686
X18.1282 Y0.7653
X18.1227 Y0.7598
X18.1173 Y0.754
X18.1121 Y0.7481
X18.1072 Y0.7422
X18.1027 Y0.7364
X18.0985 Y0.7306
X18.0945 Y0.7249
X18.0912 Y0.7198
X18.0885 Y0.7155
X18.0851 Y0.7098
X18.081 Y0.7026
X18.0776 Y0.6961
X18.0748 Y0.6903
X18.0722 Y0.6845
X18.0698 Y0.6788
X18.0674 Y0.6729
X18.0652 Y0.6668
X18.0632 Y0.661
X18.0614 Y0.6556
X18.0598 Y0.65
X18.0582 Y0.6442
X18.0568 Y0.6384
X18.0556 Y0.6327
X18.0544 Y0.6269
X18.0534 Y0.6211
X18.0526 Y0.6154
X18.0518 Y0.6096
X18.0512 Y0.6038
X18.0507 Y0.5981
X18.0504 Y0.5923
X18.0502 Y0.5866
X18.0501 Y0.5812
X18.0503 Y0.5121
Y0.512
X18.0561 Y-1.2397
Y-1.242
X18.0564 Y-1.2536
X18.0566 Y-1.2589
X18.057 Y-1.2659
X17.7464
X17.7468 Y-1.2588
X17.747 Y-1.2536
X17.7473 Y-1.242
Y-1.2397
X17.7533 Y0.5697
Y0.5699
Y0.5815
X17.7532 Y0.5866
X17.753 Y0.5924
X17.7527 Y0.5981
X17.7522 Y0.6039
X17.7516 Y0.6098
X17.7508 Y0.6159
X17.7499 Y0.6216
X17.7489 Y0.6271
X17.7478 Y0.6327
X17.7465 Y0.6385
X17.7451 Y0.6442
X17.7436 Y0.65
X17.7419 Y0.6558
X17.74 Y0.6615
X17.7381 Y0.6673
X17.7359 Y0.6731
X17.733 Y0.6802
X17.7292 Y0.6888
X17.7265 Y0.6945
X17.725 Y0.6975
X17.7227 Y0.7019
X17.7196 Y0.7076
X17.7162 Y0.7134
X17.7126 Y0.7192
X17.7092 Y0.7244
X17.7059 Y0.7292
X17.7017 Y0.735
X17.6965 Y0.7418
X17.6907 Y0.7487
X17.6844 Y0.7558
X17.6789 Y0.7616
X17.6745 Y0.7659
X17.6688 Y0.7713
X17.6617 Y0.7776
X17.6582 Y0.7805
X17.6547 Y0.7834
X17.6478 Y0.7886
X17.642 Y0.7928
X17.6373 Y0.796
X17.6354 Y0.7972
X17.6374 Y1.3847
X17.6376 Y1.3875 Z0.079
X17.6379 Y1.3903 Z0.0792
X17.6384 Y1.393 Z0.0796
X17.639 Y1.3957 Z0.0802
X17.6397 Y1.3983 Z0.0809
X17.6406 Y1.4008 Z0.0817
X17.6416 Y1.4032 Z0.0827
X17.6427 Y1.4055 Z0.0839
X17.6439 Y1.4077 Z0.0852
X17.6452 Y1.4098 Z0.0866
X17.6465 Y1.4117 Z0.0881
X17.6479 Y1.4135 Z0.0898
X17.6492 Y1.4151 Z0.0916
X17.6506 Y1.4167 Z0.0936
X17.6519 Y1.418 Z0.0956
X17.6532 Y1.4193 Z0.0977
X17.6545 Y1.4204 Z0.1
X17.6557 Y1.4214 Z0.1023
X17.6568 Y1.4223 Z0.1047
X17.6579 Y1.423 Z0.1072
X17.6588 Y1.4237 Z0.1098
X17.6597 Y1.4242 Z0.1124
X17.6604 Y1.4247 Z0.1151
X17.661 Y1.425 Z0.1178
X17.6614 Y1.4253 Z0.1205
X17.6618 Y1.4255 Z0.1233
X17.662 Y1.4256 Z0.1261
X17.6621 Y1.4257 Z0.1289
G0 Z0.7289
X16.177 Y1.9469
Z0.4241
G1 Z0.3023 F50.
Y1.9472 Z0.2969
Y1.9481 Z0.2916
Y1.9495 Z0.2864
Y1.9514 Z0.2815
Y1.9539 Z0.2767
Y1.9569 Z0.2723
Y1.9603 Z0.2682
Y1.9642 Z0.2644
Y1.9684 Z0.2612
Y1.973 Z0.2583
Y1.9778 Z0.256
Y1.9829 Z0.2543
Y1.9881 Z0.253
Y1.9934 Z0.2524
X16.1753 Y4.347 Z0.0878
G2 X16.2014 Y4.3731 Z0.0849 I0.026 J0.
G1 X16.2192 Z0.0837
G2 X16.2452 Y4.347 Z0.0808 I0. J-0.026
G1 Y4.3215 Z0.079
Y4.318 Z0.0789
X16.2344 Y1.0874 F100.
G2 X16.2248 Y1.0672 I-0.026 J0.0001
G1 X16.2203 Y1.0635
G2 X16.1776 Y1.0836 I-0.0166 J0.0201
G1 X16.1753 Y4.347
G2 X16.2014 Y4.3731 I0.026 J0.
G1 X16.2192
G2 X16.2452 Y4.347 I0. J-0.026
G1 Y4.318
G3 X16.3347 Y4.1827 I0.1463 J-0.0005
G2 X16.4243 Y4.0475 I-0.0567 J-0.1348
G1 X16.4144 Y1.0614
G2 X16.3519 Y0.9379 I-0.1543 J0.0005
G3 X16.2318 Y0.8044 I0.2678 J-0.3616
G2 X16.171 Y0.8043 I-0.0304 J0.0177
G3 X16.1308 Y0.8622 I-0.4102 J-0.2418
X16.0822 Y0.9132 I-0.3423 J-0.2773
X16.071 Y0.9222 I-0.0876 J-0.098
G2 X16.0595 Y0.9308 I0.2039 J0.2853
X15.9976 Y1.0571 I0.0985 J0.1265
G1 X15.9953 Y4.4892
G2 X16.0591 Y4.5531 I0.0638 J0.
G1 X16.3621
G2 X16.4257 Y4.4893 I0. J-0.0636
G1 X16.4243 Y4.0475
G3 X16.5143 Y3.9114 I0.1471 J-0.0005
G2 X16.6044 Y3.7754 I-0.057 J-0.1356
G1 X16.5946 Y0.8418
X16.592 Y0.8416
X16.5863 Y0.8411
X16.5805 Y0.8404
X16.5747 Y0.8396
X16.569 Y0.8387
X16.5632 Y0.8376
X16.5574 Y0.8364
X16.553 Y0.8355
X16.55 Y0.8347
X16.5442 Y0.8332
X16.5357 Y0.8307
X16.5286 Y0.8284
X16.5228 Y0.8263
X16.517 Y0.8241
X16.5113 Y0.8218
X16.5036 Y0.8183
X16.4941 Y0.8137
X16.4884 Y0.8107
X16.4864 Y0.8096
X16.4824 Y0.8073
X16.4767 Y0.8039
X16.4709 Y0.8002
X16.4651 Y0.7964
X16.4602 Y0.7929
X16.456 Y0.7898
X16.4502 Y0.7852
X16.4428 Y0.7791
X16.4363 Y0.7733
X16.4307 Y0.7679
X16.4249 Y0.7621
X16.419 Y0.7557
X16.414 Y0.7499
X16.4097 Y0.7448
X16.4057 Y0.7396
X16.4019 Y0.7344
X16.3982 Y0.7292
X16.3947 Y0.724
X16.3927 Y0.7208
X16.392 Y0.7197
X16.3899 Y0.7162
X16.3866 Y0.7105
X16.3834 Y0.7047
X16.3804 Y0.6989
X16.3766 Y0.6909
X16.3721 Y0.6806
X16.3698 Y0.6747
X16.3693 Y0.6736
X16.3681 Y0.6701
X16.3661 Y0.6644
X16.3642 Y0.6586
X16.3625 Y0.6528
X16.361 Y0.6471
X16.3596 Y0.6413
X16.3583 Y0.6356
X16.3572 Y0.6298
X16.3562 Y0.624
X16.3553 Y0.6183
X16.3546 Y0.6125
X16.354 Y0.6067
X16.3534 Y0.5982
X16.3529 Y0.5866
X16.3528 Y0.582
X16.3468 Y-1.2389
Y-1.2427
X16.3471 Y-1.2542
X16.3474 Y-1.2605
X16.3478 Y-1.2659
X16.0508
X16.0512 Y-1.2598
X16.0515 Y-1.2539
X16.0518 Y-1.2424
Y-1.2392
X16.0505 Y0.5817
Y0.5848
X16.0503 Y0.5906
X16.0501 Y0.5963
X16.0497 Y0.6021
X16.0491 Y0.6079
X16.0485 Y0.6136
X16.0477 Y0.6194
X16.0468 Y0.6252
X16.0457 Y0.6309
X16.0445 Y0.6367
X16.0432 Y0.6425
X16.0417 Y0.6482
X16.0404 Y0.653
X16.0393 Y0.6568
X16.0375 Y0.6625
X16.0348 Y0.6703
X16.0322 Y0.677
X16.0299 Y0.6828
X16.0273 Y0.6886
X16.0246 Y0.6943
X16.0214 Y0.7007
X16.0176 Y0.7078
X16.0144 Y0.7136
X16.0117 Y0.718
X16.0084 Y0.7231
X16.0045 Y0.7289
X16.0004 Y0.7347
X15.9961 Y0.7404
X15.9936 Y0.7437
X15.9929 Y0.7445
X15.9904 Y0.7476
X15.9858 Y0.753
X15.9809 Y0.7583
X15.9758 Y0.7637
X15.9723 Y0.7672
X15.9705 Y0.769
X15.9667 Y0.7725
X15.9609 Y0.7776
X15.9551 Y0.7825
X15.9493 Y0.7871
X15.9436 Y0.7915
X15.9378 Y0.7955
X15.932 Y0.7994
X15.9263 Y0.803
X15.92 Y0.8067
X15.9131 Y0.8106
X15.9073 Y0.8136
X15.9026 Y0.8159
X15.8975 Y0.8183
X15.8917 Y0.8208
X15.8859 Y0.8231
X15.8802 Y0.8253
X15.8744 Y0.8274
X15.8686 Y0.8293
X15.8628 Y0.831
X15.8571 Y0.8326
X15.8519 Y0.8339
X15.8474 Y0.835
X15.8417 Y0.8362
X15.8346 Y0.8375
X15.8282 Y0.8385
X15.8225 Y0.8393
X15.8168 Y0.8399
X15.8141 Y4.7341
X16.6075
X16.6044 Y3.7754
X16.6042 Y3.7726 Z0.079
X16.6039 Y3.7698 Z0.0792
X16.6034 Y3.767 Z0.0796
X16.6028 Y3.7644 Z0.0802
X16.602 Y3.7618 Z0.0809
X16.6011 Y3.7592 Z0.0817
X16.6001 Y3.7568 Z0.0827
X16.599 Y3.7545 Z0.0839
X16.5978 Y3.7523 Z0.0852
X16.5965 Y3.7503 Z0.0866
X16.5952 Y3.7483 Z0.0881
X16.5939 Y3.7465 Z0.0898
X16.5925 Y3.7449 Z0.0916
X16.5912 Y3.7434 Z0.0936
X16.5898 Y3.742 Z0.0956
X16.5885 Y3.7408 Z0.0977
X16.5872 Y3.7396 Z0.1
X16.586 Y3.7387 Z0.1023
X16.5849 Y3.7378 Z0.1047
X16.5839 Y3.737 Z0.1072
X16.5829 Y3.7364 Z0.1098
X16.5821 Y3.7358 Z0.1124
X16.5814 Y3.7354 Z0.1151
X16.5808 Y3.735 Z0.1178
X16.5803 Y3.7347 Z0.1205
X16.58 Y3.7345 Z0.1233
X16.5798 Y3.7344 Z0.1261
X16.5797 Z0.1289
G0 Z0.7289
X14.3268 Y1.9687
Z0.4241
G1 Z0.3023 F50.
Y1.969 Z0.2969
Y1.9699 Z0.2916
Y1.9713 Z0.2864
Y1.9733 Z0.2815
Y1.9758 Z0.2767
Y1.9787 Z0.2723
Y1.9822 Z0.2682
Y1.986 Z0.2644
Y1.9903 Z0.2612
Y1.9948 Z0.2583
Y1.9997 Z0.256
Y2.0047 Z0.2543
Y2.0099 Z0.253
Y2.0153 Z0.2524
X14.3252 Y4.338 Z0.09
G2 X14.3602 Y4.3731 Z0.0861 I0.035 J0.
G1 X14.3798 Z0.0847
G2 X14.4148 Y4.3381 Z0.0809 I0. J-0.035
G1 X14.4149 Y4.3118 Z0.079
Y4.3083 Z0.0789
X14.4171 Y1.1634 F100.
G2 X14.3621 Y1.1304 I-0.0374 J0.
G3 X14.347 Y1.1381 I-0.2305 J-0.4335
G2 X14.3274 Y1.1695 I0.0154 J0.0315
G1 X14.3252 Y4.338
G2 X14.3602 Y4.3731 I0.035 J0.
G1 X14.3798
G2 X14.4148 Y4.3381 I0. J-0.035
G1 X14.4149 Y4.3083
G3 X14.505 Y4.1733 I0.1463 J0.0001
G2 X14.5951 Y4.0384 I-0.0562 J-0.135
G1 X14.5972 Y0.9532
G2 X14.5683 Y0.8776 I-0.1129 J-0.0001
G3 X14.5137 Y0.8034 I0.3485 J-0.3135
G2 X14.453 Y0.8036 I-0.0303 J0.018
G3 X14.2105 Y0.9999 I-0.3808 J-0.2223
G2 X14.1474 Y1.0868 I0.0283 J0.0869
G1 X14.145 Y4.4892
G2 X14.2089 Y4.5531 I0.0638 J0.
G1 X14.5308
G2 X14.5947 Y4.4892 I0. J-0.0639
G1 X14.5951 Y4.0384
G3 X14.6857 Y3.9027 I0.1471 J0.0001
G2 X14.7762 Y3.767 I-0.0565 J-0.1358
G1 X14.7783 Y0.8134
X14.7749 Y0.8116
X14.7692 Y0.8086
X14.7635 Y0.8053
X14.7577 Y0.8019
X14.7519 Y0.7982
X14.7462 Y0.7943
X14.7425 Y0.7918
X14.7409 Y0.7906
X14.7376 Y0.7881
X14.7326 Y0.7843
X14.7277 Y0.7802
X14.7227 Y0.776
X14.7184 Y0.7721
X14.7147 Y0.7687
X14.7108 Y0.7649
X14.7067 Y0.7607
X14.7028 Y0.7565
X14.699 Y0.7523
X14.6958 Y0.7486
X14.6932 Y0.7455
X14.6897 Y0.7411
X14.6853 Y0.7353
X14.6812 Y0.7295
X14.6772 Y0.7238
X14.675 Y0.7204
X14.6744 Y0.7194
X14.6725 Y0.7163
X14.6694 Y0.711
X14.6664 Y0.7058
X14.6636 Y0.7005
X14.6608 Y0.6949
X14.658 Y0.6892
X14.6555 Y0.6834
X14.6531 Y0.6777
X14.6517 Y0.6742
X14.6513 Y0.673
X14.6492 Y0.6673
X14.6458 Y0.6569
X14.6434 Y0.6488
X14.6419 Y0.6431
X14.6405 Y0.6373
X14.6393 Y0.6316
X14.6382 Y0.6258
X14.6373 Y0.62
X14.6365 Y0.6143
X14.6358 Y0.6085
X14.6352 Y0.6027
X14.6348 Y0.597
X14.6345 Y0.5912
X14.6343 Y0.5854
Y0.5815
X14.6356 Y-1.2394
Y-1.2422
X14.6358 Y-1.2537
X14.6361 Y-1.2595
X14.6365 Y-1.2659
X14.3324
X14.3328 Y-1.2598
X14.3331 Y-1.2539
X14.3333 Y-1.2424
X14.3334 Y-1.2392
X14.3321 Y0.5817
X14.332 Y0.5848
X14.3319 Y0.5906
X14.3316 Y0.5964
X14.3312 Y0.6021
X14.3307 Y0.6079
X14.33 Y0.6136
X14.3293 Y0.6194
X14.3283 Y0.6252
X14.3273 Y0.6309
X14.3261 Y0.6367
X14.3248 Y0.6425
X14.3233 Y0.6482
X14.3219 Y0.6535
X14.3204 Y0.6582
X14.3186 Y0.6639
X14.3162 Y0.6708
X14.3138 Y0.677
X14.3114 Y0.6828
X14.3089 Y0.6886
X14.3062 Y0.6943
X14.3028 Y0.701
X14.2988 Y0.7086
X14.2955 Y0.7143
X14.2931 Y0.7183
X14.2899 Y0.7232
X14.2861 Y0.7289
X14.282 Y0.7347
X14.2776 Y0.7404
X14.275 Y0.7439
X14.274 Y0.745
X14.2714 Y0.7482
X14.2669 Y0.7534
X14.2622 Y0.7586
X14.2572 Y0.7638
X14.2537 Y0.7674
X14.2516 Y0.7694
X14.2477 Y0.773
X14.2421 Y0.778
X14.2363 Y0.7828
X14.2304 Y0.7875
X14.2246 Y0.7918
X14.2188 Y0.7959
X14.213 Y0.7997
X14.2073 Y0.8033
X14.2011 Y0.807
X14.1944 Y0.8107
X14.1887 Y0.8137
X14.1838 Y0.8161
X14.1784 Y0.8185
X14.1727 Y0.821
X14.1669 Y0.8234
X14.1611 Y0.8255
X14.1554 Y0.8276
X14.1496 Y0.8294
X14.1438 Y0.8312
X14.138 Y0.8328
X14.133 Y0.834
X14.1288 Y0.835
X14.123 Y0.8362
X14.1157 Y0.8376
X14.1092 Y0.8386
X14.1034 Y0.8394
X14.0977 Y0.84
X14.0919 Y0.8405
X14.0836 Y0.841
X14.0721 Y0.8412
X14.0689 Y0.8413
X13.9666 Y0.8412
X13.9639 Y4.7341
X14.7756
X14.7762 Y3.767
X14.7761 Y3.7642 Z0.079
X14.7758 Y3.7615 Z0.0792
X14.7753 Y3.7587 Z0.0796
X14.7747 Y3.756 Z0.0802
X14.774 Y3.7534 Z0.0809
X14.7731 Y3.7509 Z0.0817
X14.7721 Y3.7485 Z0.0827
X14.771 Y3.7462 Z0.0839
X14.7698 Y3.744 Z0.0852
X14.7685 Y3.7419 Z0.0866
X14.7672 Y3.74 Z0.0881
X14.7659 Y3.7382 Z0.0898
X14.7645 Y3.7365 Z0.0916
X14.7632 Y3.735 Z0.0936
X14.7618 Y3.7336 Z0.0956
X14.7605 Y3.7324 Z0.0977
X14.7593 Y3.7313 Z0.1
X14.7581 Y3.7303 Z0.1023
X14.757 Y3.7294 Z0.1047
X14.7559 Y3.7286 Z0.1072
X14.755 Y3.728 Z0.1098
X14.7541 Y3.7274 Z0.1124
X14.7534 Y3.7269 Z0.1151
X14.7528 Y3.7266 Z0.1178
X14.7524 Y3.7263 Z0.1205
X14.752 Y3.7261 Z0.1233
X14.7518 Y3.726 Z0.1261
Y3.7259 Z0.1289
G0 Z0.7289
X12.9462 Y1.0807
Z0.4241
G1 Z0.3023 F50.
Y1.0804 Z0.2969
Y1.0795 Z0.2916
Y1.0781 Z0.2864
Y1.0761 Z0.2815
Y1.0736 Z0.2767
Y1.0707 Z0.2723
Y1.0672 Z0.2682
Y1.0634 Z0.2644
Y1.0591 Z0.2612
Y1.0546 Z0.2583
Y1.0497 Z0.256
Y1.0447 Z0.2543
Y1.0395 Z0.253
Y1.0341 Z0.2524
X12.9478 Y-1.2394 Z0.0934
Y-1.2422 Z0.0932
X12.9481 Y-1.2537 Z0.0924
X12.9483 Y-1.2595 Z0.092
X12.9488 Y-1.2659 Z0.0915
X12.77 Z0.079
X12.7666 Z0.0789
X12.6236 F100.
X12.624 Y-1.2582
X12.6242 Y-1.2533
G3 X12.6244 Y-1.2402 I-0.968 J0.0243
G1 X12.6672 Y4.7341
X12.9436
X12.9478 Y-1.2394
Y-1.2422
X12.9481 Y-1.2537
X12.9483 Y-1.2595
X12.9488 Y-1.2659
X12.7666
X12.7638 Y-1.2657 Z0.079
X12.761 Y-1.2654 Z0.0792
X12.7582 Y-1.265 Z0.0796
X12.7556 Y-1.2644 Z0.0802
X12.7529 Y-1.2636 Z0.0809
X12.7504 Y-1.2627 Z0.0817
X12.748 Y-1.2617 Z0.0827
X12.7457 Y-1.2606 Z0.0839
X12.7435 Y-1.2594 Z0.0852
X12.7414 Y-1.2582 Z0.0866
X12.7395 Y-1.2569 Z0.0881
X12.7377 Y-1.2555 Z0.0898
X12.7361 Y-1.2542 Z0.0916
X12.7345 Y-1.2528 Z0.0936
X12.7332 Y-1.2515 Z0.0956
X12.7319 Y-1.2502 Z0.0977
X12.7308 Y-1.2489 Z0.1
X12.7298 Y-1.2477 Z0.1023
X12.7289 Y-1.2466 Z0.1047
X12.7282 Y-1.2455 Z0.1072
X12.7275 Y-1.2446 Z0.1098
X12.7269 Y-1.2438 Z0.1124
X12.7265 Y-1.2431 Z0.1151
X12.7261 Y-1.2425 Z0.1178
X12.7258 Y-1.242 Z0.1205
X12.7256 Y-1.2416 Z0.1233
X12.7255 Y-1.2414 Z0.1261
Z0.1289
G0 Z0.7289
X11.1167 Y2.0382
Z0.4241
G1 Z0.3023 F50.
Y2.0385 Z0.2969
Y2.0393 Z0.2916
Y2.0408 Z0.2864
Y2.0427 Z0.2815
Y2.0452 Z0.2767
Y2.0482 Z0.2723
Y2.0516 Z0.2682
X11.1166 Y2.0555 Z0.2644
Y2.0597 Z0.2612
Y2.0643 Z0.2583
Y2.0691 Z0.256
X11.1165 Y2.0742 Z0.2543
Y2.0794 Z0.253
Y2.0847 Z0.2524
X11.104 Y4.3093 Z0.0968
G2 X11.1675 Y4.3731 Z0.0898 I0.0634 J0.0004
G1 X11.1926 Z0.0881
G2 X11.2559 Y4.3093 Z0.0811 I0. J-0.0633
G1 X11.2557 Y4.2802 Z0.079
Y4.2767 Z0.0789
X11.2334 Y1.172 F100.
G2 X11.2085 Y1.1308 I-0.0471 J0.0003
G3 X11.1919 Y1.1216 I0.2263 J-0.4256
X11.1757 Y1.1119 I0.4101 J-0.7031
G2 X11.1217 Y1.1418 I-0.0185 J0.0302
G1 X11.104 Y4.3093
G2 X11.1675 Y4.3731 I0.0634 J0.0004
G1 X11.1926
G2 X11.2559 Y4.3093 I0. J-0.0633
G1 X11.2557 Y4.2767
G3 X11.3447 Y4.1411 I0.1462 J-0.001
G2 X11.4337 Y4.0054 I-0.0572 J-0.1346
G1 X11.4129 Y1.088
G2 X11.3491 Y0.9974 I-0.0973 J0.0007
G3 X11.1117 Y0.7876 I0.1504 J-0.4094
G2 X11.0539 I-0.0289 J0.0149
G3 X10.9759 Y0.8942 I-0.379 J-0.1955
G2 X10.9427 Y0.9735 I0.0797 J0.08
G1 X10.923 Y4.4893
G2 X10.9865 Y4.5531 I0.0634 J0.0004
G1 X11.3739
G2 X11.4372 Y4.4893 I0. J-0.0633
G1 X11.4337 Y4.0054
G3 X11.5233 Y3.869 I0.1471 J-0.0011
G2 X11.6128 Y3.7326 I-0.0575 J-0.1353
G1 X11.5921 Y0.8434
X11.5091 Y0.844
X11.5069
X11.4954 Y0.8439
X11.4876 Y0.8436
X11.4818 Y0.8432
X11.4761 Y0.8427
X11.4703 Y0.842
X11.4645 Y0.8412
X11.4587 Y0.8403
X11.453 Y0.8392
X11.4472 Y0.838
X11.44 Y0.8363
X11.4313 Y0.834
X11.4255 Y0.8323
X11.4227 Y0.8314
X11.4184 Y0.8299
X11.4126 Y0.8279
X11.4068 Y0.8256
X11.4011 Y0.8233
X11.3953 Y0.8207
X11.3895 Y0.818
X11.3838 Y0.8151
X11.378 Y0.8121
X11.3748 Y0.8103
X11.374 Y0.8099
X11.3709 Y0.8081
X11.3655 Y0.8048
X11.3601 Y0.8013
X11.3547 Y0.7977
X11.349 Y0.7936
X11.3429 Y0.789
X11.3371 Y0.7843
X11.3317 Y0.7797
X11.3254 Y0.774
X11.3183 Y0.7671
X11.3125 Y0.7611
X11.3081 Y0.7563
X11.3032 Y0.7505
X11.2978 Y0.7439
X11.2949 Y0.74
X11.292 Y0.7361
X11.2858 Y0.7271
X11.2821 Y0.7213
X11.2805 Y0.7187
X11.2781 Y0.7146
X11.2748 Y0.7088
X11.2717 Y0.7031
X11.2689 Y0.6973
X11.2655 Y0.6899
X11.2616 Y0.6808
X11.2593 Y0.675
X11.2584 Y0.6726
X11.257 Y0.6685
X11.2551 Y0.6627
X11.2533 Y0.657
X11.2517 Y0.6512
X11.2502 Y0.6454
X11.2489 Y0.6397
X11.2477 Y0.6339
X11.2467 Y0.6282
X11.2457 Y0.6224
X11.2449 Y0.6166
X11.2443 Y0.6109
X11.2437 Y0.6051
X11.2433 Y0.597
X11.2429 Y0.5854
Y0.5825
X11.2299 Y-1.2269
Y-1.2273
Y-1.2388
Y-1.2432
X11.2303 Y-1.2547
X11.2306 Y-1.2612
X11.231 Y-1.2659
X10.9321
X10.9325 Y-1.261
X10.9328 Y-1.2545
X10.9331 Y-1.2429
X10.9332 Y-1.2386
X10.9327 Y-1.1464
X10.923 Y0.5826
Y0.5862
X10.9226 Y0.5975
X10.922 Y0.6058
X10.9215 Y0.6115
X10.9208 Y0.6173
X10.92 Y0.6231
X10.919 Y0.6288
X10.9179 Y0.6346
X10.9167 Y0.6404
X10.9153 Y0.6461
X10.9138 Y0.6519
X10.9122 Y0.6576
X10.9104 Y0.6634
X10.9084 Y0.6692
X10.9057 Y0.6767
X10.9019 Y0.6859
X10.8994 Y0.6916
X10.8984 Y0.6939
X10.8964 Y0.698
X10.8935 Y0.7037
X10.8904 Y0.7095
X10.8871 Y0.7153
X10.8833 Y0.7214
X10.8791 Y0.728
X10.8751 Y0.7337
X10.8715 Y0.7387
X10.8678 Y0.7436
X10.864 Y0.7483
X10.8601 Y0.753
X10.8559 Y0.7577
X10.8528 Y0.7611
X10.8508 Y0.7632
X10.8475 Y0.7666
X10.8427 Y0.7713
X10.8379 Y0.7757
X10.8332 Y0.78
X10.8292 Y0.7834
X10.826 Y0.786
X10.8202 Y0.7904
X10.8119 Y0.7965
G3 X10.8033 Y0.8022 I-0.0766 J-0.1051
G1 X10.7944 Y0.8077
X10.7886 Y0.8111
X10.7859 Y0.8125
X10.7818 Y0.8147
X10.776 Y0.8175
X10.7702 Y0.8202
X10.7645 Y0.8228
X10.7625 Y0.8236
X10.7407 Y4.7341
X11.6199
X11.6128 Y3.7326
X11.6126 Y3.7298 Z0.079
X11.6123 Y3.7271 Z0.0792
X11.6118 Y3.7243 Z0.0796
X11.6112 Y3.7217 Z0.0802
X11.6104 Y3.719 Z0.0809
X11.6095 Y3.7165 Z0.0817
X11.6085 Y3.7141 Z0.0827
X11.6074 Y3.7118 Z0.0839
X11.6061 Y3.7096 Z0.0852
X11.6049 Y3.7076 Z0.0866
X11.6036 Y3.7057 Z0.0881
X11.6022 Y3.7039 Z0.0898
X11.6008 Y3.7022 Z0.0916
X11.5995 Y3.7007 Z0.0936
X11.5981 Y3.6993 Z0.0956
X11.5968 Y3.6981 Z0.0977
X11.5955 Y3.697 Z0.1
X11.5943 Y3.696 Z0.1023
X11.5932 Y3.6951 Z0.1047
X11.5921 Y3.6944 Z0.1072
X11.5912 Y3.6937 Z0.1098
X11.5904 Y3.6932 Z0.1124
X11.5896 Y3.6927 Z0.1151
X11.589 Y3.6924 Z0.1178
X11.5886 Y3.6921 Z0.1205
X11.5882 Y3.6919 Z0.1233
X11.588 Y3.6918 Z0.1261
Y3.6917 Z0.1289
G0 Z0.7289
X9.3322 Y3.6785
Z0.4241
G1 Z0.3023 F50.
Y3.6782 Z0.2969
Y3.6773 Z0.2916
Y3.6759 Z0.2864
Y3.674 Z0.2815
Y3.6715 Z0.2767
Y3.6685 Z0.2723
X9.3323 Y3.6651 Z0.2682
Y3.6612 Z0.2644
Y3.657 Z0.2612
Y3.6524 Z0.2583
X9.3324 Y3.6476 Z0.256
Y3.6425 Z0.2543
Y3.6373 Z0.253
Y3.632 Z0.2524
X9.3463 Y1.1532 Z0.079
Y1.1497 Z0.0789
Y1.1489 F100.
G2 X9.2925 Y1.1178 I-0.0358 J-0.0002
G3 X9.2749 Y1.1277 I-0.4218 J-0.7248
G2 X9.2505 Y1.1689 I0.0226 J0.0413
G1 X9.2428 Y4.3187
G2 X9.3286 Y4.319 I0.0429 J0.0001
G1 X9.3463 Y1.1497
G3 X9.44 Y1.0363 I0.1164 J0.0006
G2 X9.4816 Y0.8951 I-0.0162 J-0.0815
G3 X9.4501 Y0.8609 I0.2925 J-0.3022
X9.4152 Y0.8128 I0.3598 J-0.2975
G2 X9.3538 Y0.8133 I-0.0306 J0.0193
G3 X9.2582 Y0.9228 I-0.3705 J-0.2269
X9.1322 Y0.9954 I-0.2849 J-0.3487
G2 X9.0707 Y1.0842 I0.0336 J0.089
G1 X9.0624 Y4.4904
G2 X9.1248 Y4.5529 I0.0624 J0.0002
G1 X9.4447
G2 X9.5077 Y4.4902 I0. J-0.063
G1 X9.5272 Y0.9864
G2 X9.4911 Y0.9039 I-0.1106 J-0.0006
G3 X9.4816 Y0.8951 I0.2831 J-0.311
X9.4665 Y0.6999 I0.1027 J-0.1061
G2 X9.5293 Y0.5145 I-0.2476 J-0.1872
G1 X9.5391 Y-1.24
G3 X9.5394 Y-1.2534 I0.8482 J0.0093
G1 X9.5396 Y-1.2585
X9.54 Y-1.2659
X9.2415
X9.2419 Y-1.2603
X9.2422 Y-1.2541
X9.2425 Y-1.2426
Y-1.239
X9.2381 Y0.5819
X9.238 Y0.587
X9.2375 Y0.5985
X9.2368 Y0.6071
X9.2362 Y0.6129
X9.2355 Y0.6186
X9.2346 Y0.6244
X9.2336 Y0.6301
X9.2324 Y0.6359
X9.2311 Y0.6417
X9.2297 Y0.6474
X9.2281 Y0.6532
X9.2264 Y0.659
X9.2246 Y0.6647
X9.2225 Y0.6705
X9.2203 Y0.6764
X9.2179 Y0.6824
X9.2154 Y0.6881
X9.2129 Y0.6937
X9.2101 Y0.6993
X9.2071 Y0.7051
X9.2039 Y0.7108
X9.2005 Y0.7166
X9.1975 Y0.7215
X9.1949 Y0.7255
X9.1909 Y0.7313
X9.1855 Y0.7388
X9.1826 Y0.7425
X9.1797 Y0.7462
X9.1736 Y0.7533
X9.1685 Y0.7591
X9.1644 Y0.7634
X9.1586 Y0.7691
X9.1512 Y0.7759
X9.1446 Y0.7817
X9.1389 Y0.7863
X9.1331 Y0.7907
X9.1273 Y0.7949
X9.1215 Y0.7989
X9.1158 Y0.8026
X9.1097 Y0.8063
X9.1033 Y0.8099
X9.0974 Y0.8131
X9.0919 Y0.8158
X9.0865 Y0.8184
X9.081 Y0.8208
X9.0754 Y0.8232
X9.0696 Y0.8254
X9.0638 Y0.8275
X9.0581 Y0.8294
X9.0513 Y0.8315
X9.0435 Y0.8337
X9.0377 Y0.8351
X9.034 Y0.836
X9.0292 Y0.837
X9.0235 Y0.8381
X9.0177 Y0.839
X9.0119 Y0.8398
X9.0062 Y0.8405
X9.0004 Y0.8411
X8.9946 Y0.8415
X8.9889 Y0.8418
X8.9825 Y0.842
X8.971 Y0.8421
X8.9706
X8.9702
X8.8901 Y0.8419
X8.8806 Y4.7341
X9.6875
X9.7093 Y0.826
X9.7064 Y0.825
X9.7006 Y0.823
X9.6936 Y0.8204
X9.6855 Y0.817
X9.6797 Y0.8144
X9.6763 Y0.8128
X9.6717 Y0.8106
X9.666 Y0.8076
X9.6602 Y0.8044
X9.6544 Y0.801
X9.6489 Y0.7975
X9.6435 Y0.794
X9.6377 Y0.7899
X9.6315 Y0.7854
X9.6279 Y0.7826
X9.6243 Y0.7797
X9.6162 Y0.7727
X9.6104 Y0.7675
X9.6071 Y0.7643
X9.6015 Y0.7586
X9.5939 Y0.7503
X9.5882 Y0.7437
X9.5843 Y0.7388
X9.5799 Y0.7331
X9.5752 Y0.7264
X9.571 Y0.7202
X9.5674 Y0.7146
X9.564 Y0.7088
X9.5607 Y0.7029
X9.5576 Y0.6971
X9.5547 Y0.6913
X9.552 Y0.6856
X9.5495 Y0.6798
X9.5472 Y0.6741
X9.545 Y0.6683
X9.5429 Y0.6625
X9.541 Y0.6568
X9.5391 Y0.6503
X9.5371 Y0.6431
X9.5357 Y0.6374
X9.5347 Y0.633
X9.5337 Y0.6279
X9.5327 Y0.6222
X9.5318 Y0.6164
X9.531 Y0.6107
X9.5303 Y0.6049
X9.5298 Y0.5991
X9.5294 Y0.5934
X9.5291 Y0.5876
X9.529 Y0.5815
Y0.57
Y0.5694
X9.5293 Y0.5145
X9.5292 Y0.5117 Z0.079
X9.5289 Y0.5089 Z0.0792
X9.5284 Y0.5062 Z0.0796
X9.5278 Y0.5035 Z0.0802
X9.5271 Y0.5009 Z0.0809
X9.5262 Y0.4983 Z0.0817
X9.5252 Y0.4959 Z0.0827
X9.5241 Y0.4936 Z0.0839
X9.523 Y0.4914 Z0.0852
X9.5217 Y0.4893 Z0.0866
X9.5204 Y0.4874 Z0.0881
X9.5191 Y0.4856 Z0.0898
X9.5178 Y0.4839 Z0.0916
X9.5164 Y0.4824 Z0.0936
X9.5151 Y0.481 Z0.0956
X9.5138 Y0.4798 Z0.0977
X9.5125 Y0.4786 Z0.1
X9.5113 Y0.4776 Z0.1023
X9.5102 Y0.4767 Z0.1047
X9.5092 Y0.476 Z0.1072
X9.5082 Y0.4753 Z0.1098
X9.5074 Y0.4748 Z0.1124
X9.5067 Y0.4743 Z0.1151
X9.5061 Y0.4739 Z0.1178
X9.5056 Y0.4736 Z0.1205
X9.5053 Y0.4734 Z0.1233
X9.5051 Y0.4733 Z0.1261
X9.505 Z0.1289
G0 Z0.7289
X7.8165 Y1.0906
Z0.4241
G1 Z0.3023 F50.
Y1.0903 Z0.2969
Y1.0894 Z0.2916
Y1.088 Z0.2864
Y1.0861 Z0.2815
Y1.0836 Z0.2767
Y1.0806 Z0.2723
Y1.0772 Z0.2682
X7.8166 Y1.0733 Z0.2644
Y1.0691 Z0.2612
Y1.0645 Z0.2583
Y1.0597 Z0.256
Y1.0546 Z0.2543
Y1.0494 Z0.253
Y1.0441 Z0.2524
X7.8222 Y-1.2396 Z0.0927
Y-1.2421 Z0.0925
X7.8225 Y-1.2536 Z0.0917
X7.8227 Y-1.259 Z0.0913
X7.8231 Y-1.2659 Z0.0908
X7.6544 Z0.079
X7.6509 Z0.0789
X7.519 F100.
X7.5194 Y-1.26
X7.5197 Y-1.254
X7.52 Y-1.2424
Y-1.2391
X7.5117 Y4.7341
X7.8076
X7.8222 Y-1.2396
Y-1.2421
X7.8225 Y-1.2536
X7.8227 Y-1.259
X7.8231 Y-1.2659
X7.6509
X7.6481 Y-1.2657 Z0.079
X7.6453 Y-1.2654 Z0.0792
X7.6426 Y-1.265 Z0.0796
X7.6399 Y-1.2644 Z0.0802
X7.6373 Y-1.2636 Z0.0809
X7.6348 Y-1.2627 Z0.0817
X7.6323 Y-1.2617 Z0.0827
X7.63 Y-1.2606 Z0.0839
X7.6278 Y-1.2594 Z0.0852
X7.6258 Y-1.2582 Z0.0866
X7.6238 Y-1.2569 Z0.0881
X7.622 Y-1.2555 Z0.0898
X7.6204 Y-1.2542 Z0.0916
X7.6189 Y-1.2528 Z0.0936
X7.6175 Y-1.2515 Z0.0956
X7.6162 Y-1.2502 Z0.0977
X7.6151 Y-1.2489 Z0.1
X7.6141 Y-1.2477 Z0.1023
X7.6132 Y-1.2466 Z0.1047
X7.6125 Y-1.2455 Z0.1072
X7.6118 Y-1.2446 Z0.1098
X7.6113 Y-1.2438 Z0.1124
X7.6108 Y-1.2431 Z0.1151
X7.6104 Y-1.2425 Z0.1178
X7.6102 Y-1.242 Z0.1205
X7.61 Y-1.2416 Z0.1233
X7.6099 Y-1.2414 Z0.1261
X7.6098 Z0.1289
G0 Z0.7289
X6.0583 Y1.9439
Z0.4241
G1 Z0.3023 F50.
Y1.9442 Z0.2969
Y1.945 Z0.2916
Y1.9465 Z0.2864
Y1.9484 Z0.2815
Y1.9509 Z0.2767
Y1.9539 Z0.2723
Y1.9573 Z0.2682
Y1.9612 Z0.2644
Y1.9654 Z0.2612
Y1.97 Z0.2583
Y1.9748 Z0.256
X6.0582 Y1.9799 Z0.2543
Y1.9851 Z0.253
Y1.9904 Z0.2524
X6.0512 Y4.3379 Z0.0882
G2 X6.0863 Y4.3731 Z0.0844 I0.035 J0.0001
G1 X6.0893 Z0.0841
G2 X6.1244 Y4.3381 Z0.0803 I0. J-0.035
G1 Y4.3201 Z0.079
Y4.3166 Z0.0789
X6.1288 Y1.1626 F100.
G2 X6.1142 Y1.1391 I-0.026 J0.
G3 X6.0988 Y1.1314 I0.2638 J-0.5423
G2 X6.0607 Y1.1544 I-0.0121 J0.0231
G1 X6.0512 Y4.3379
G2 X6.0863 Y4.3731 I0.035 J0.0001
G1 X6.0893
G2 X6.1244 Y4.3381 I0. J-0.035
G1 Y4.3166
G3 X6.2146 Y4.1817 I0.1463 J0.0002
G2 X6.3048 Y4.0468 I-0.0561 J-0.1351
G1 X6.3089 Y1.0856
G2 X6.2469 Y0.9991 I-0.0911 J-0.0001
G3 X6.1135 Y0.9277 I0.1456 J-0.4322
X6.012 Y0.8154 I0.2626 J-0.3395
G2 X5.9492 I-0.0314 J0.0196
G3 X5.9029 Y0.8769 I-0.3782 J-0.236
G2 X5.8813 Y0.9331 I0.0628 J0.0564
G1 X5.8708 Y4.4893
G2 X5.9344 Y4.5531 I0.0636 J0.0002
G1 X6.2402
G2 X6.3042 Y4.4892 I0. J-0.064
G1 X6.3048 Y4.0468
G3 X6.3955 Y3.9112 I0.1471 J0.0002
G2 X6.4862 Y3.7756 I-0.0564 J-0.1358
G1 X6.4903 Y0.8405
X6.3864 Y0.8404
X6.3822 Y0.8403
X6.3707 Y0.8399
X6.3621 Y0.8393
X6.3564 Y0.8388
X6.3506 Y0.838
X6.3448 Y0.8372
X6.3414 Y0.8367
X6.3404 Y0.8365
X6.3347 Y0.8354
X6.3241 Y0.833
X6.316 Y0.831
X6.3102 Y0.8293
X6.3044 Y0.8275
X6.2987 Y0.8256
X6.2929 Y0.8234
X6.2871 Y0.8212
X6.2814 Y0.8187
X6.2756 Y0.8161
X6.272 Y0.8145
X6.2705 Y0.8137
X6.2672 Y0.8121
X6.2622 Y0.8094
X6.2572 Y0.8067
X6.2522 Y0.8038
X6.2451 Y0.7994
X6.2362 Y0.7934
X6.2305 Y0.7893
X6.2279 Y0.7874
X6.2238 Y0.7842
X6.2182 Y0.7797
X6.2125 Y0.7747
X6.2065 Y0.7692
X6.2008 Y0.7637
X6.1954 Y0.7581
X6.1904 Y0.7526
X6.1856 Y0.747
X6.1826 Y0.7433
X6.1812 Y0.7416
X6.1786 Y0.7383
X6.175 Y0.7334
X6.1715 Y0.7285
X6.1682 Y0.7236
X6.1642 Y0.7174
X6.1596 Y0.7097
X6.1564 Y0.7039
X6.1543 Y0.7
X6.1519 Y0.6952
X6.1492 Y0.6895
X6.1466 Y0.6837
X6.1442 Y0.678
X6.1419 Y0.6722
X6.1398 Y0.6664
X6.1379 Y0.6607
X6.1361 Y0.6549
X6.135 Y0.6512
X6.1345 Y0.6496
X6.1331 Y0.6439
X6.1308 Y0.634
X6.1292 Y0.6261
X6.1282 Y0.6203
X6.1274 Y0.6146
X6.1267 Y0.6088
X6.1261 Y0.603
X6.1257 Y0.5973
X6.1254 Y0.5915
X6.1252 Y0.5857
X6.1251 Y0.5814
X6.1277 Y-1.2395
Y-1.2421
X6.128 Y-1.2536
X6.1282 Y-1.2593
X6.1286 Y-1.2659
X5.8392
X5.8396 Y-1.2603
X5.8399 Y-1.2542
X5.8402 Y-1.2427
Y-1.2389
X5.8348 Y0.582
X5.8347 Y0.5868
X5.8343 Y0.5983
X5.8336 Y0.6069
X5.833 Y0.6126
X5.8323 Y0.6184
X5.8314 Y0.6242
X5.8304 Y0.6299
X5.8293 Y0.6357
X5.828 Y0.6415
X5.8266 Y0.6472
X5.825 Y0.653
X5.8233 Y0.6587
X5.8215 Y0.6645
X5.8195 Y0.6703
X5.8174 Y0.6758
X5.8153 Y0.6811
X5.8128 Y0.6869
X5.81 Y0.6931
X5.8071 Y0.6991
X5.8041 Y0.7049
X5.8009 Y0.7106
X5.7975 Y0.7164
X5.7947 Y0.7211
X5.7923 Y0.7247
X5.7884 Y0.7305
X5.7827 Y0.7384
X5.7798 Y0.7422
X5.7769 Y0.7458
X5.771 Y0.7528
X5.7659 Y0.7585
X5.7616 Y0.7631
X5.7559 Y0.7688
X5.7487 Y0.7756
X5.7421 Y0.7813
X5.7363 Y0.786
X5.7305 Y0.7905
X5.7248 Y0.7946
X5.7191 Y0.7986
X5.7133 Y0.8023
X5.7072 Y0.806
X5.7007 Y0.8097
X5.6891 Y4.7341
X6.4848
X6.4862 Y3.7756
X6.486 Y3.7728 Z0.079
X6.4857 Y3.77 Z0.0792
X6.4852 Y3.7673 Z0.0796
X6.4846 Y3.7646 Z0.0802
X6.4839 Y3.762 Z0.0809
X6.483 Y3.7595 Z0.0817
X6.482 Y3.757 Z0.0827
X6.4809 Y3.7547 Z0.0839
X6.4797 Y3.7525 Z0.0852
X6.4785 Y3.7505 Z0.0866
X6.4772 Y3.7485 Z0.0881
X6.4758 Y3.7467 Z0.0898
X6.4745 Y3.7451 Z0.0916
X6.4731 Y3.7436 Z0.0936
X6.4718 Y3.7422 Z0.0956
X6.4705 Y3.7409 Z0.0977
X6.4692 Y3.7398 Z0.1
X6.468 Y3.7388 Z0.1023
X6.4669 Y3.7379 Z0.1047
X6.4659 Y3.7372 Z0.1072
X6.4649 Y3.7365 Z0.1098
X6.4641 Y3.7359 Z0.1124
X6.4634 Y3.7355 Z0.1151
X6.4628 Y3.7351 Z0.1178
X6.4623 Y3.7348 Z0.1205
X6.462 Y3.7346 Z0.1233
X6.4618 Y3.7345 Z0.1261
X6.4617 Z0.1289
G0 Z0.7289
X4.2015 Y1.9688
Z0.4241
G1 Z0.3023 F50.
Y1.9691 Z0.2969
Y1.9699 Z0.2916
Y1.9714 Z0.2864
Y1.9733 Z0.2815
Y1.9758 Z0.2767
Y1.9788 Z0.2723
Y1.9822 Z0.2682
X4.2014 Y1.9861 Z0.2644
Y1.9903 Z0.2612
Y1.9949 Z0.2583
Y1.9997 Z0.256
Y2.0048 Z0.2543
Y2.01 Z0.253
X4.2013 Y2.0153 Z0.2524
X4.1924 Y4.3379 Z0.09
G2 X4.2275 Y4.3731 Z0.0861 I0.035 J0.0001
G1 X4.2472 Z0.0847
G2 X4.2822 Y4.3382 Z0.0809 I0. J-0.035
G1 X4.2823 Y4.3118 Z0.079
Y4.3083 Z0.0789
X4.2918 Y1.109 F100.
G2 X4.2393 Y1.0825 I-0.0329 J-0.0001
G3 X4.2202 Y1.096 I-0.3274 J-0.4417
G2 X4.2048 Y1.1249 I0.0196 J0.029
G1 X4.1924 Y4.3379
G2 X4.2275 Y4.3731 I0.035 J0.0001
G1 X4.2472
G2 X4.2822 Y4.3382 I0. J-0.035
G1 X4.2823 Y4.3083
G3 X4.3727 Y4.1736 I0.1462 J0.0004
G2 X4.4631 Y4.0389 I-0.0558 J-0.1352
G1 X4.4719 Y1.053
G2 X4.4101 Y0.9237 I-0.165 J-0.0005
G3 X4.3103 Y0.8106 I0.2741 J-0.3424
G2 X4.2482 Y0.8108 I-0.031 J0.0189
G3 X4.2021 Y0.8753 I-0.4267 J-0.2561
X4.1452 Y0.9306 I-0.3041 J-0.2562
X4.1161 Y0.9503 I-0.1457 J-0.1836
G1 X4.0877 Y0.9666
G2 X4.0249 Y1.0745 I0.0622 J0.1083
G1 X4.0118 Y4.4893
G2 X4.0754 Y4.5531 I0.0636 J0.0002
G1 X4.3977
G2 X4.4618 Y4.4892 I0. J-0.0641
G1 X4.4631 Y4.0389
G3 X4.554 Y3.9034 I0.1471 J0.0004
G2 X4.6449 Y3.7679 I-0.0562 J-0.1359
G1 X4.6536 Y0.8376
X4.6526 Y0.8375
X4.6469 Y0.8367
X4.6411 Y0.8357
X4.6353 Y0.8346
X4.6296 Y0.8334
X4.6238 Y0.8321
X4.618 Y0.8306
X4.6123 Y0.829
X4.6065 Y0.8272
X4.6007 Y0.8252
X4.5949 Y0.8232
X4.5892 Y0.8209
X4.5834 Y0.8185
X4.5788 Y0.8165
X4.5753 Y0.8149
X4.5695 Y0.812
X4.5615 Y0.8078
X4.5546 Y0.804
X4.5489 Y0.8005
X4.5431 Y0.7968
X4.5373 Y0.7929
X4.5315 Y0.7887
X4.5257 Y0.7843
X4.5199 Y0.7797
X4.5142 Y0.7747
X4.5102 Y0.7712
X4.5079 Y0.769
X4.5043 Y0.7656
X4.4994 Y0.7607
X4.4948 Y0.7558
X4.4904 Y0.7509
X4.4875 Y0.7476
X4.486 Y0.7458
X4.483 Y0.7421
X4.4785 Y0.7363
X4.4743 Y0.7305
X4.4703 Y0.7248
X4.4676 Y0.7206
X4.466 Y0.7182
X4.4625 Y0.7124
X4.4574 Y0.7034
X4.4535 Y0.696
X4.4507 Y0.6902
X4.4481 Y0.6844
X4.4456 Y0.6787
X4.4438 Y0.6743
X4.4427 Y0.6713
X4.4406 Y0.6655
X4.4378 Y0.657
X4.4357 Y0.6499
X4.4341 Y0.6441
X4.4327 Y0.6383
X4.4315 Y0.6326
X4.4303 Y0.6268
X4.4293 Y0.621
X4.4285 Y0.6153
X4.4277 Y0.6095
X4.4271 Y0.6037
X4.4267 Y0.598
X4.4263 Y0.5922
X4.4261 Y0.5865
X4.426 Y0.5812
X4.4266 Y0.3853
X4.4314 Y-1.2397
Y-1.242
X4.4317 Y-1.2536
X4.4319 Y-1.2589
X4.4323 Y-1.2659
X4.1367
X4.1371 Y-1.2606
X4.1374 Y-1.2543
X4.1378 Y-1.2428
Y-1.2388
X4.1308 Y0.5821
X4.1307 Y0.5864
X4.1303 Y0.598
X4.1297 Y0.6065
X4.1291 Y0.6123
X4.1283 Y0.6183
X4.1274 Y0.6246
X4.1258 Y0.6333
X4.1234 Y0.6443
X4.1212 Y0.6526
X4.1195 Y0.6584
X4.1177 Y0.6641
X4.1157 Y0.6699
X4.1136 Y0.6757
X4.1113 Y0.6814
X4.1089 Y0.6872
X4.1062 Y0.6929
X4.1046 Y0.6964
X4.1041 Y0.6975
X4.1025 Y0.7007
X4.0997 Y0.7059
X4.0969 Y0.7111
X4.0938 Y0.7163
X4.0895 Y0.7232
X4.0837 Y0.7318
X4.0796 Y0.7376
X4.0775 Y0.7405
X4.0742 Y0.7446
X4.0698 Y0.75
X4.0651 Y0.7554
X4.0602 Y0.7608
X4.0573 Y0.7638
X4.0566 Y0.7646
X4.0535 Y0.7676
X4.0481 Y0.7728
X4.0427 Y0.7777
X4.0373 Y0.7823
X4.0335 Y0.7855
X4.0314 Y0.7872
X4.028 Y0.7898
X4.0233 Y0.7933
X4.0186 Y0.7966
X4.0139 Y0.7998
X4.0074 Y0.8038
X3.9992 Y0.8087
X3.9934 Y0.8119
X3.9901 Y0.8137
X3.9856 Y0.816
X3.9798 Y0.8187
X3.974 Y0.8213
X3.9683 Y0.8237
X3.9625 Y0.8259
X3.9567 Y0.828
X3.951 Y0.83
X3.9452 Y0.8318
X3.941 Y0.833
X3.9383 Y0.8337
X3.9326 Y0.8352
X3.9237 Y0.8372
X3.9164 Y0.8386
X3.9106 Y0.8396
X3.9048 Y0.8404
X3.899 Y0.8411
X3.8933 Y0.8417
X3.8875 Y0.8421
X3.8817 Y0.8424
X3.876 Y0.8426
X3.8715 Y0.8427
X3.8448 Y0.8426
X3.8299 Y4.7341
X4.642
X4.6449 Y3.7679
X4.6448 Y3.7651 Z0.079
X4.6444 Y3.7623 Z0.0792
X4.644 Y3.7596 Z0.0796
X4.6434 Y3.7569 Z0.0802
X4.6426 Y3.7543 Z0.0809
X4.6418 Y3.7518 Z0.0817
X4.6408 Y3.7494 Z0.0827
X4.6397 Y3.747 Z0.0839
X4.6385 Y3.7448 Z0.0852
X4.6372 Y3.7428 Z0.0866
X4.6359 Y3.7408 Z0.0881
X4.6346 Y3.739 Z0.0898
X4.6333 Y3.7374 Z0.0916
X4.6319 Y3.7359 Z0.0936
X4.6306 Y3.7345 Z0.0956
X4.6293 Y3.7332 Z0.0977
X4.628 Y3.7321 Z0.1
X4.6268 Y3.7311 Z0.1023
X4.6257 Y3.7302 Z0.1047
X4.6247 Y3.7295 Z0.1072
X4.6237 Y3.7288 Z0.1098
X4.6229 Y3.7282 Z0.1124
X4.6222 Y3.7278 Z0.1151
X4.6216 Y3.7274 Z0.1178
X4.6211 Y3.7271 Z0.1205
X4.6208 Y3.7269 Z0.1233
X4.6206 Y3.7268 Z0.1261
X4.6205 Z0.1289
G0 Z0.7289
X2.4691 Y3.6936
Z0.4241
G1 Z0.3023 F50.
Y3.6933 Z0.2969
Y3.6925 Z0.2916
Y3.691 Z0.2864
Y3.6891 Z0.2815
Y3.6866 Z0.2767
Y3.6836 Z0.2723
Y3.6802 Z0.2682
X2.4692 Y3.6763 Z0.2644
Y3.6721 Z0.2612
Y3.6675 Z0.2583
Y3.6627 Z0.256
Y3.6576 Z0.2543
X2.4693 Y3.6524 Z0.253
Y3.6471 Z0.2524
X2.4787 Y1.1832 Z0.0801
G2 X2.476 Y1.1687 Z0.079 I-0.0394 J-0.0002
G1 X2.4754 Y1.1671
X2.4746 Y1.1655 Z0.0789
G2 X2.4232 Y1.1471 I-0.0353 J0.0175 F100.
G1 X2.4186 Y1.1491
G2 X2.3978 Y1.1811 I0.0142 J0.032
G1 X2.3956 Y4.3228
G2 X2.4667 Y4.323 I0.0355 J0.
G1 X2.4787 Y1.1832
G2 X2.4746 Y1.1655 I-0.0394 J-0.0002
G3 X2.4795 Y1.0452 I0.1121 J-0.0557
G2 X2.3944 Y0.96 I-0.0531 J-0.032
G3 X2.2899 Y1.0053 I-0.2235 J-0.3727
G1 X2.2845 Y1.0067
X2.279 Y1.008
G2 X2.2178 Y1.0873 I0.021 J0.0794
G1 X2.2155 Y4.4903
G2 X2.278 Y4.5529 I0.0625 J0.
G1 X2.5832
G2 X2.6461 Y4.4903 I0. J-0.0629
G1 X2.6598 Y0.9132
G2 X2.6409 Y0.8602 I-0.0827 J-0.0003
G3 X2.605 Y0.8098 I0.3409 J-0.281
G2 X2.5439 Y0.8103 I-0.0304 J0.0187
G3 X2.3944 Y0.96 I-0.373 J-0.2229
X2.213 Y0.9227 I-0.0704 J-0.1174
G2 X2.0367 Y0.9795 I-0.0789 J0.0569
G1 X2.0341 Y4.7341
X2.8263
X2.8414 Y0.7985
X2.835 Y0.7943
X2.8293 Y0.7904
X2.8264 Y0.7883
X2.8221 Y0.785
X2.8166 Y0.7806
X2.8108 Y0.7757
X2.8048 Y0.7704
X2.7991 Y0.7649
X2.7935 Y0.7593
X2.7883 Y0.7537
X2.7834 Y0.7482
X2.7804 Y0.7447
X2.7794 Y0.7433
X2.7768 Y0.7402
X2.7729 Y0.7351
X2.7692 Y0.7299
X2.7656 Y0.7248
X2.7618 Y0.719
X2.7577 Y0.7124
X2.7544 Y0.7066
X2.7517 Y0.7017
X2.7489 Y0.6964
X2.7461 Y0.6906
X2.7435 Y0.6848
X2.741 Y0.6791
X2.7379 Y0.6712
X2.7344 Y0.6612
X2.7324 Y0.6554
X2.732 Y0.6539
X2.7309 Y0.6503
X2.7294 Y0.6445
X2.7279 Y0.6387
X2.7267 Y0.633
X2.7255 Y0.6272
X2.7245 Y0.6214
X2.7236 Y0.6157
X2.7229 Y0.6099
X2.7222 Y0.6041
X2.7218 Y0.5984
X2.7214 Y0.5926
X2.7212 Y0.5869
X2.7211 Y0.5813
Y0.5582
Y0.5581
X2.728 Y-1.2398
Y-1.242
X2.7283 Y-1.2535
X2.7285 Y-1.2588
X2.7289 Y-1.2659
X2.4271
X2.4275 Y-1.2598
X2.4278 Y-1.2539
X2.4281 Y-1.2424
Y-1.2392
X2.4269 Y0.5817
X2.4268 Y0.5848
X2.4267 Y0.5906
X2.4264 Y0.5964
X2.426 Y0.6021
X2.4255 Y0.6079
X2.4248 Y0.6136
X2.424 Y0.6194
X2.4231 Y0.6252
X2.4221 Y0.6309
X2.4209 Y0.6367
X2.4195 Y0.6425
X2.4181 Y0.6482
X2.4171 Y0.6519
X2.4166 Y0.6534
X2.4148 Y0.6592
X2.4115 Y0.6692
X2.4086 Y0.677
X2.4062 Y0.6828
X2.4037 Y0.6886
X2.401 Y0.6943
X2.3981 Y0.7002
X2.3949 Y0.706
X2.3917 Y0.7118
X2.3883 Y0.7174
X2.3847 Y0.7231
X2.3809 Y0.7289
X2.3768 Y0.7346
X2.3724 Y0.7404
X2.3678 Y0.7462
X2.3629 Y0.752
X2.3578 Y0.7577
X2.3523 Y0.7635
X2.3489 Y0.7669
X2.3478 Y0.768
X2.3444 Y0.7712
X2.3386 Y0.7764
X2.3328 Y0.7814
X2.3271 Y0.786
X2.3238 Y0.7886
X2.3231 Y0.7891
X2.32 Y0.7913
X2.3146 Y0.7952
X2.3092 Y0.7988
X2.3038 Y0.8023
X2.2973 Y0.8061
X2.2897 Y0.8104
X2.2839 Y0.8134
X2.28 Y0.8154
X2.2751 Y0.8176
X2.2694 Y0.8202
X2.2636 Y0.8226
X2.2578 Y0.8248
X2.2521 Y0.8269
X2.2463 Y0.8288
X2.2405 Y0.8306
X2.2347 Y0.8322
X2.2292 Y0.8337
X2.224 Y0.8349
X2.2183 Y0.8361
X2.2119 Y0.8373
X2.2059 Y0.8383
X2.2001 Y0.8391
X2.1944 Y0.8398
X2.1886 Y0.8404
X2.1801 Y0.8409
X2.1686 Y0.8412
X2.1647 Y0.8413
X2.0368 Y0.8412
X2.0367 Y0.9795
X2.0369 Y0.9823 Z0.079
X2.0372 Y0.9851 Z0.0792
X2.0377 Y0.9878 Z0.0796
X2.0383 Y0.9905 Z0.0802
X2.039 Y0.9931 Z0.0809
X2.0399 Y0.9957 Z0.0817
X2.0409 Y0.9981 Z0.0827
X2.042 Y1.0004 Z0.0839
X2.0432 Y1.0026 Z0.0852
X2.0444 Y1.0046 Z0.0866
X2.0457 Y1.0066 Z0.0881
X2.0471 Y1.0084 Z0.0898
X2.0484 Y1.01 Z0.0916
X2.0498 Y1.0115 Z0.0936
X2.0511 Y1.0129 Z0.0956
X2.0525 Y1.0142 Z0.0977
X2.0537 Y1.0153 Z0.1
X2.0549 Y1.0163 Z0.1023
X2.056 Y1.0172 Z0.1047
X2.0571 Y1.0179 Z0.1072
X2.058 Y1.0186 Z0.1098
X2.0588 Y1.0192 Z0.1124
X2.0596 Y1.0196 Z0.1151
X2.0602 Y1.02 Z0.1178
X2.0606 Y1.0203 Z0.1205
X2.061 Y1.0205 Z0.1233
X2.0612 Y1.0206 Z0.1261
Z0.1289
G0 Z0.7289
X0.3473 Y4.3731
Z0.1289
G1 X0.3476 Z0.1233 F100.
X0.3486 Z0.1178
X0.3501 Z0.1124
X0.3522 Z0.1072
X0.355 Z0.1023
X0.3582 Z0.0977
X0.3619 Z0.0936
X0.3661 Z0.0898
X0.3707 Z0.0866
X0.3756 Z0.0839
X0.3808 Z0.0817
X0.3862 Z0.0802
X0.3917 Z0.0792
X0.3973 Z0.0789
X0.5458
X0.6108
G2 X0.6748 Y4.3092 I0. J-0.0639
G1 X0.6783 Y-0.841
G2 X0.6145 Y-0.9049 I-0.0638 J0.
G1 X0.5458
X0.3492
X0.3436 Z0.0792
X0.3381 Z0.0802
X0.3327 Z0.0817
X0.3275 Z0.0839
X0.3226 Z0.0866
X0.3181 Z0.0898
X0.3139 Z0.0936
X0.3101 Z0.0977
X0.3069 Z0.1023
X0.3042 Z0.1072
X0.302 Z0.1124
X0.3005 Z0.1178
X0.2995 Z0.1233
X0.2992 Z0.1289
G0 Z0.7289
X0.3473 Y4.5531
Z0.1289
G1 X0.3476 Z0.1233 F100.
X0.3486 Z0.1178
X0.3501 Z0.1124
X0.3522 Z0.1072
X0.355 Z0.1023
X0.3582 Z0.0977
X0.3619 Z0.0936
X0.3661 Z0.0898
X0.3707 Z0.0866
X0.3756 Z0.0839
X0.3808 Z0.0817
X0.3862 Z0.0802
X0.3917 Z0.0792
X0.3973 Z0.0789
X0.5459
X0.7907
G2 X0.8546 Y4.4892 I0. J-0.0639
G1 X0.8585 Y-1.021
G2 X0.7947 Y-1.0849 I-0.0638 J0.
G1 X0.5458
X0.3492
X0.3436 Z0.0792
X0.3381 Z0.0802
X0.3327 Z0.0817
X0.3275 Z0.0839
X0.3226 Z0.0866
X0.3181 Z0.0898
X0.3139 Z0.0936
X0.3101 Z0.0977
X0.3069 Z0.1023
X0.3042 Z0.1072
X0.302 Z0.1124
X0.3005 Z0.1178
X0.2995 Z0.1233
X0.2992 Z0.1289
G0 Z0.7289
X0.3473 Y4.7033
Z0.1239
G1 X0.3476 Z0.1189 F100.
X0.3484 Y4.7034 Z0.1139
X0.3498 Y4.7037 Z0.1091
X0.3517 Y4.704 Z0.1044
X0.3541 Y4.7043 Z0.1
X0.357 Y4.7048 Z0.0959
X0.3603 Y4.7053 Z0.0921
X0.364 Y4.7059 Z0.0887
X0.3681 Y4.7066 Z0.0858
X0.3725 Y4.7073 Z0.0834
X0.3771 Y4.708 Z0.0814
X0.3819 Y4.7087 Z0.08
X0.3868 Y4.7095 Z0.0792
X0.3917 Y4.7103 Z0.0789
X0.538 Y4.7335
X0.5419 Y4.7339
X0.5459 Y4.7341
X1.0355
X1.0396 Y-1.2394
X1.0397 Y-1.2422
X1.0399 Y-1.2537
X1.0402 Y-1.2595
X1.0406 Y-1.2659
X0.5459
X0.5419 Y-1.2657
X0.538 Y-1.2653
X0.3438 Y-1.2345
X0.3383 Y-1.2337 Z0.0792
X0.3329 Y-1.2328 Z0.0802
X0.3275 Y-1.2319 Z0.0817
X0.3224 Y-1.2311 Z0.0839
X0.3176 Y-1.2304 Z0.0866
X0.3131 Y-1.2297 Z0.0898
X0.3089 Y-1.229 Z0.0936
X0.3052 Y-1.2284 Z0.0977
X0.302 Y-1.2279 Z0.1023
X0.2994 Y-1.2275 Z0.1072
X0.2972 Y-1.2271 Z0.1124
X0.2957 Y-1.2269 Z0.1178
X0.2948 Y-1.2268 Z0.1233
X0.2945 Y-1.2267 Z0.1289
G0 Z1.1289
M5
G53 G0 Z0.

(POCKET2 4)
M1
T16 M6
S24000 M3
G17 G90 G94
G55
G0 X0.481 Y4.8904
G43 Z1.1289 H16
G0 Z0.1002
G1 X0.4813 Y4.8905 Z0.0969 F100.
X0.4821 Y4.8906 Z0.0936
X0.4833 Y4.8908 Z0.0905
X0.485 Y4.891 Z0.0877
X0.4872 Y4.8914 Z0.0851
X0.4897 Y4.8918 Z0.083
X0.4925 Y4.8922 Z0.0812
X0.4955 Y4.8927 Z0.08
X0.4987 Y4.8932 Z0.0792
X0.502 Y4.8937 Z0.0789
X0.6919 Y4.9238
X0.6956 Y4.9241
X1.1772
X1.1815 Y-1.237
Y-1.2373
Y-1.2377
X1.1816 Y-1.2455
X1.1817 Y-1.2474
X1.182 Y-1.2552
X1.1822 Y-1.258
X1.183 Y-1.2658
X1.1833 Y-1.2688
X1.1845 Y-1.2766
X1.1849 Y-1.2791
X1.1864 Y-1.2869
X1.1869 Y-1.2894
X1.1888 Y-1.2972
X1.1895 Y-1.2998
X1.1917 Y-1.3076
X1.1926 Y-1.3105
X1.1953 Y-1.3183
X1.1959 Y-1.32
X1.1969 Y-1.3225
X1.1975 Y-1.3242
X1.1997 Y-1.3294
X1.2006 Y-1.3315
X1.2042 Y-1.3393
X1.2049 Y-1.3407
X1.2069 Y-1.3448
X1.2082 Y-1.3473
X1.2102 Y-1.3509
X1.211 Y-1.3523
X1.2156 Y-1.3601
X1.2169 Y-1.3622
G3 X1.2226 Y-1.3707 I0.301 J0.1937
G1 X1.2241 Y-1.3729
X1.2279 Y-1.378
X1.2288 Y-1.3792
X1.2308 Y-1.3818
X1.2322 Y-1.3836
X1.238 Y-1.3904
X1.2395 Y-1.3921
X1.2403 Y-1.3931
X1.2414 Y-1.3942
X1.2483 Y-1.4014
X1.2509 Y-1.404
X1.2586 Y-1.4112
X1.2613 Y-1.4135
X1.2691 Y-1.4199
X1.2715 Y-1.4217
G3 X1.2798 Y-1.4277 I0.3106 J0.4187
G1 X1.2823 Y-1.4295
X1.2901 Y-1.4345
X1.2929 Y-1.4362
X1.3006 Y-1.4406
X1.3033 Y-1.442
X1.3092 Y-1.445
X1.3096 Y-1.4452
X1.3099 Y-1.4453
X1.3118 Y-1.4462
X1.3139 Y-1.4472
X1.3216 Y-1.4506
X1.3242 Y-1.4517
X1.332 Y-1.4547
X1.3345 Y-1.4556
X1.3423 Y-1.4581
X1.3452 Y-1.459
X1.3529 Y-1.4612
X1.356 Y-1.4619
X1.3637 Y-1.4636
X1.3663 Y-1.4641
G3 X1.3783 Y-1.4661 I0.0568 J0.3023
G1 X1.3802 Y-1.4664
X1.3851 Y-1.467
X1.387 Y-1.4672
X1.3947 Y-1.4678
X1.3979 Y-1.468
X1.4056 Y-1.4683
X1.4074
X1.423
X1.4231
X2.0527 Y-1.4679
X2.053
X2.0608 Y-1.4678
X2.0624
X2.0702 Y-1.4675
X2.0734 Y-1.4674
X2.0822 Y-1.4666
X2.0851 Y-1.4663
X2.0918 Y-1.4653
X2.0939 Y-1.465
X2.1017 Y-1.4636
X2.1043 Y-1.4631
X2.1121 Y-1.4614
X2.1151 Y-1.4606
X2.1229 Y-1.4585
X2.1253 Y-1.4577
X2.1302 Y-1.4561
X2.1306 Y-1.456
X2.1309 Y-1.4559
X2.1312 Y-1.4558
X2.1341 Y-1.4548
X2.1361 Y-1.4541
X2.1438 Y-1.4511
X2.1464 Y-1.45
X2.1542 Y-1.4466
X2.1568 Y-1.4454
X2.1646 Y-1.4415
X2.1674 Y-1.44
X2.1752 Y-1.4355
X2.178 Y-1.4338
X2.1857 Y-1.4288
X2.1882 Y-1.4272
G3 X2.1965 Y-1.4211 I-0.2585 J0.3634
G1 X2.1988 Y-1.4193
G3 X2.2071 Y-1.4125 I-0.3171 J0.3942
G1 X2.2094 Y-1.4105
X2.2172 Y-1.4032
X2.2197 Y-1.4007
G3 X2.2283 Y-1.3916 I-0.2498 J0.2447
G1 X2.2301 Y-1.3897
X2.2352 Y-1.3836
X2.2364 Y-1.382
X2.2391 Y-1.3786
X2.2402 Y-1.3772
X2.2434 Y-1.3728
X2.2447 Y-1.3709
G3 X2.2506 Y-1.3621 I-0.2739 J0.1896
G1 X2.2517 Y-1.3603
X2.2564 Y-1.3525
X2.2573 Y-1.3509
X2.2598 Y-1.3463
X2.2611 Y-1.3438
G3 X2.2668 Y-1.3317 I-0.3092 J0.1536
G1 X2.2679 Y-1.3293
X2.2705 Y-1.3231
X2.271 Y-1.3216
X2.2716 Y-1.3201
X2.2723 Y-1.3183
X2.2749 Y-1.3106
X2.2759 Y-1.3077
X2.2781 Y-1.2999
X2.2788 Y-1.2974
X2.2807 Y-1.2896
X2.281 Y-1.2881
X2.2814 Y-1.2863
X2.2815 Y-1.2859
X2.2816 Y-1.2854
X2.2817 Y-1.285
X2.2828 Y-1.2791
X2.2832 Y-1.2767
X2.2844 Y-1.2689
X2.2847 Y-1.2659
X2.2855 Y-1.2581
X2.2857 Y-1.2553
X2.2861 Y-1.2475
Y-1.2455
X2.2862 Y-1.2378
Y-1.2375
Y-1.2372
Y-1.2369
X2.285 Y0.5802
Y0.5805
Y0.5809
Y0.5812
X2.2849 Y0.5851
X2.2847 Y0.5888
X2.2844 Y0.5927
X2.284 Y0.5966
X2.2834 Y0.6004
X2.2827 Y0.6043
X2.2818 Y0.6082
X2.2812 Y0.611
X2.2807 Y0.6128
X2.28 Y0.6152
X2.279 Y0.6182
X2.278 Y0.6212
X2.2769 Y0.6242
X2.2755 Y0.6276
X2.2737 Y0.6315
X2.2718 Y0.6354
X2.2697 Y0.6393
X2.2677 Y0.6427
X2.2659 Y0.6457
X2.2641 Y0.6483
X2.2624 Y0.6507
X2.2606 Y0.6532
X2.2587 Y0.6556
X2.2567 Y0.6579
X2.2548 Y0.6601
X2.2527 Y0.6624
X2.2505 Y0.6647
X2.2476 Y0.6675
X2.244 Y0.6707
X2.2411 Y0.6731
X2.239 Y0.6748
X2.2369 Y0.6763
X2.2349 Y0.6778
X2.2319 Y0.6798
X2.228 Y0.6823
X2.224 Y0.6846
X2.2199 Y0.6868
X2.216 Y0.6887
X2.2122 Y0.6903
X2.2084 Y0.6918
X2.2046 Y0.6932
X2.2008 Y0.6944
X2.1969 Y0.6955
X2.193 Y0.6964
X2.1891 Y0.6973
X2.1852 Y0.6979
X2.1813 Y0.6985
X2.1775 Y0.6989
X2.1736 Y0.6992
X2.1696 Y0.6993
X2.1618 Y0.6994
X2.1614
X1.895 Y0.6992
X1.8921 Y4.9241
X2.9675
X2.9837 Y0.6974
X2.9767 Y0.6973
X2.9722 Y0.697
X2.9683 Y0.6967
X2.9644 Y0.6962
X2.9605 Y0.6956
X2.9566 Y0.6948
X2.9527 Y0.6939
X2.9488 Y0.6929
X2.945 Y0.6917
X2.9421 Y0.6908
X2.9404 Y0.6901
X2.938 Y0.6892
X2.935 Y0.688
X2.932 Y0.6867
X2.929 Y0.6853
X2.9255 Y0.6835
X2.9216 Y0.6813
X2.9177 Y0.6789
X2.9139 Y0.6764
X2.9098 Y0.6734
X2.9057 Y0.6702
X2.9018 Y0.6668
X2.8982 Y0.6634
X2.8957 Y0.6609
X2.8944 Y0.6595
X2.892 Y0.6569
X2.8888 Y0.653
X2.8858 Y0.6491
X2.8831 Y0.6452
X2.8805 Y0.6411
X2.878 Y0.6369
X2.8759 Y0.633
X2.8742 Y0.6295
X2.8725 Y0.6258
X2.8709 Y0.6219
X2.8695 Y0.618
X2.8682 Y0.6141
X2.867 Y0.6098
X2.8658 Y0.6052
X2.865 Y0.6013
X2.8645 Y0.5982
X2.864 Y0.5947
X2.8635 Y0.5908
X2.8632 Y0.5869
X2.863 Y0.5831
X2.8629 Y0.58
X2.8699 Y-1.2371
Y-1.2375
X2.87 Y-1.2453
Y-1.247
X2.8703 Y-1.2548
X2.8705 Y-1.2578
X2.8712 Y-1.2656
X2.8716 Y-1.2685
X2.8727 Y-1.2762
X2.8731 Y-1.2786
X2.8745 Y-1.2864
X2.875 Y-1.2889
X2.8768 Y-1.2967
X2.8775 Y-1.2996
X2.8797 Y-1.3074
X2.8806 Y-1.3103
X2.8833 Y-1.3181
X2.8842 Y-1.3207
X2.8873 Y-1.3284
X2.8884 Y-1.331
X2.8919 Y-1.3388
X2.8927 Y-1.3406
X2.8935 Y-1.3422
X2.8937 Y-1.3425
X2.8938 Y-1.3428
X2.894 Y-1.3432
X2.8972 Y-1.3494
X2.8986 Y-1.3519
X2.9032 Y-1.3598
X2.9049 Y-1.3626
X2.9099 Y-1.3702
X2.9116 Y-1.3728
G3 X2.9177 Y-1.3809 I0.5149 J0.3746
G1 X2.9196 Y-1.3833
G3 X2.9264 Y-1.3916 I0.4278 J0.3499
G1 X2.9284 Y-1.3938
G3 X2.9365 Y-1.4023 I0.2818 J0.2582
G1 X2.9384 Y-1.4042
X2.9449 Y-1.4103
X2.9462 Y-1.4115
X2.948 Y-1.4132
X2.9495 Y-1.4144
X2.9555 Y-1.4193
X2.9574 Y-1.4209
G3 X2.9661 Y-1.4273 I0.1886 J0.2442
G1 X2.9684 Y-1.4289
X2.9761 Y-1.434
X2.9789 Y-1.4357
X2.9866 Y-1.4403
X2.9887 Y-1.4414
X2.9942 Y-1.4444
X2.9963 Y-1.4454
G3 X3.0075 Y-1.4506 I0.1424 J0.2929
G1 X3.0101 Y-1.4517
X3.0179 Y-1.4548
X3.0208 Y-1.4559
X3.0285 Y-1.4585
X3.0315 Y-1.4594
X3.0392 Y-1.4616
X3.0418 Y-1.4623
X3.0496 Y-1.4641
X3.0513 Y-1.4645
X3.0568 Y-1.4656
X3.0595 Y-1.4661
G3 X3.0702 Y-1.4677 I0.0765 J0.4855
G1 X3.0734 Y-1.468
X3.0811 Y-1.4687
X3.0839 Y-1.4689
X3.0916 Y-1.4692
X3.0936 Y-1.4693
X3.1013 Y-1.4694
X3.1017
X3.1022
X3.7696 Y-1.4668
X3.7715
X3.7802 Y-1.4665
X3.7834 Y-1.4663
X3.7911 Y-1.4656
X3.7937 Y-1.4653
X3.8015 Y-1.4643
X3.8039 Y-1.4639
X3.8117 Y-1.4625
X3.8143 Y-1.462
X3.8221 Y-1.4602
X3.8253 Y-1.4594
X3.8346 Y-1.4568
X3.8377 Y-1.4558
X3.844 Y-1.4537
X3.8461 Y-1.4529
X3.8538 Y-1.4499
X3.8559 Y-1.4491
X3.8619 Y-1.4465
X3.865 Y-1.445
X3.8745 Y-1.4403
X3.8773 Y-1.4388
X3.8826 Y-1.4358
X3.8828 Y-1.4356
X3.8831 Y-1.4355
X3.8856 Y-1.4341
X3.888 Y-1.4326
X3.8958 Y-1.4275
X3.8975 Y-1.4263
X3.8994 Y-1.425
X3.9007 Y-1.4241
X3.9066 Y-1.4197
X3.9086 Y-1.4181
G3 X3.9172 Y-1.4111 I-0.2195 J0.2748
G1 X3.9192 Y-1.4093
G3 X3.9276 Y-1.4014 I-0.2781 J0.3068
G1 X3.9297 Y-1.3994
G3 X3.9381 Y-1.3904 I-0.2875 J0.2794
G1 X3.9401 Y-1.3882
X3.944 Y-1.3835
X3.9449 Y-1.3824
X3.9487 Y-1.3776
X3.9502 Y-1.3757
X3.9524 Y-1.3727
X3.9535 Y-1.3711
X3.9591 Y-1.3629
X3.9608 Y-1.3602
X3.9652 Y-1.3529
X3.9664 Y-1.3508
X3.9698 Y-1.3447
X3.971 Y-1.3423
G3 X3.9759 Y-1.3321 I-0.4042 J0.1992
G1 X3.9772 Y-1.3292
X3.9804 Y-1.3212
X3.9816 Y-1.3182
X3.9842 Y-1.3107
X3.985 Y-1.3082
X3.9873 Y-1.3004
X3.988 Y-1.2979
X3.99 Y-1.2902
X3.9905 Y-1.2879
X3.9914 Y-1.2838
Y-1.2835
X3.9915 Y-1.2831
X3.9922 Y-1.2794
X3.9927 Y-1.2767
X3.9939 Y-1.2689
X3.9942 Y-1.2665
X3.995 Y-1.2587
X3.9953 Y-1.2557
X3.9957 Y-1.2479
X3.9958 Y-1.2457
X3.9959 Y-1.238
Y-1.2375
Y-1.2371
Y-1.2367
X3.9889 Y0.5804
Y0.5821
X3.9887 Y0.5898
X3.9882 Y0.5952
X3.9878 Y0.5991
X3.9872 Y0.6029
X3.9864 Y0.6068
X3.9855 Y0.6107
X3.9845 Y0.6146
X3.9833 Y0.6185
X3.982 Y0.6224
X3.9805 Y0.6264
X3.9787 Y0.6307
X3.9769 Y0.6345
X3.9751 Y0.6381
X3.9732 Y0.6416
X3.9711 Y0.645
X3.9689 Y0.6484
X3.9665 Y0.6519
X3.9649 Y0.654
X3.9643 Y0.6549
X3.9623 Y0.6573
X3.9591 Y0.6611
X3.9565 Y0.664
X3.9546 Y0.6659
X3.9525 Y0.6679
X3.9504 Y0.6699
X3.9475 Y0.6725
X3.9437 Y0.6756
X3.9399 Y0.6784
X3.9361 Y0.6811
X3.9325 Y0.6834
X3.929 Y0.6854
X3.9251 Y0.6875
X3.9208 Y0.6896
X3.9167 Y0.6915
X3.9128 Y0.693
X3.9089 Y0.6944
X3.905 Y0.6957
X3.9011 Y0.6968
X3.8973 Y0.6978
X3.8934 Y0.6986
X3.8895 Y0.6993
X3.8856 Y0.6998
X3.8817 Y0.7003
X3.8778 Y0.7006
X3.8739 Y0.7007
X3.8712 Y0.7008
X3.7035 Y0.7001
X3.6873 Y4.9241
X4.7834
X4.7959 Y0.6981
X4.6873 Y0.6978
X4.687
X4.6867
X4.6828 Y0.6977
X4.6793 Y0.6976
X4.6754 Y0.6973
X4.6715 Y0.6969
X4.6676 Y0.6963
X4.6637 Y0.6956
X4.6599 Y0.6948
X4.656 Y0.6939
X4.6521 Y0.6928
X4.6482 Y0.6915
X4.6443 Y0.6901
X4.6404 Y0.6886
X4.6365 Y0.6869
X4.6326 Y0.685
X4.6288 Y0.6829
X4.6253 Y0.681
X4.6223 Y0.6791
X4.6193 Y0.6771
X4.6163 Y0.675
X4.6139 Y0.6732
X4.6122 Y0.6718
X4.6096 Y0.6697
X4.6063 Y0.6668
X4.6029 Y0.6636
X4.5996 Y0.6601
X4.5974 Y0.6577
X4.5963 Y0.6565
X4.5944 Y0.6542
X4.5919 Y0.651
X4.5895 Y0.6477
X4.5873 Y0.6445
X4.5854 Y0.6415
X4.5838 Y0.6388
X4.5823 Y0.6362
X4.5809 Y0.6335
X4.5796 Y0.6309
X4.5785 Y0.6285
X4.5771 Y0.6254
X4.5756 Y0.6215
X4.5742 Y0.6176
X4.5729 Y0.6137
X4.5718 Y0.6098
X4.5709 Y0.606
X4.5701 Y0.6021
X4.5694 Y0.5982
X4.5688 Y0.5943
X4.5684 Y0.5904
X4.5681 Y0.5865
X4.5679 Y0.5827
Y0.58
X4.5733 Y-1.2371
Y-1.2373
Y-1.2376
X4.5734 Y-1.2453
Y-1.2471
X4.5737 Y-1.2549
X4.5739 Y-1.2572
X4.5742 Y-1.2616
X4.5744 Y-1.2632
X4.5747 Y-1.2665
X4.575 Y-1.2686
X4.5761 Y-1.2763
X4.5765 Y-1.2788
X4.5779 Y-1.2865
X4.5785 Y-1.289
X4.5803 Y-1.2968
X4.581 Y-1.2996
X4.5832 Y-1.3074
X4.5839 Y-1.3098
X4.5848 Y-1.3124
X4.5849 Y-1.3127
X4.585 Y-1.313
X4.5851 Y-1.3133
X4.5869 Y-1.3185
X4.5878 Y-1.3208
X4.5908 Y-1.3286
X4.5918 Y-1.3308
X4.5947 Y-1.3374
X4.5956 Y-1.3393
G3 X4.6007 Y-1.3493 I0.3133 J0.1534
G1 X4.6019 Y-1.3515
X4.6051 Y-1.3571
X4.6061 Y-1.3588
X4.6074 Y-1.3609
X4.6084 Y-1.3625
X4.6135 Y-1.3703
X4.6155 Y-1.3731
X4.6212 Y-1.3808
X4.6232 Y-1.3833
G3 X4.6301 Y-1.3916 I0.4256 J0.3495
G1 X4.6321 Y-1.3938
G3 X4.64 Y-1.4022 I0.3121 J0.2883
G1 X4.642 Y-1.4042
X4.647 Y-1.4089
X4.6481 Y-1.4099
X4.6515 Y-1.4129
X4.6533 Y-1.4144
X4.6576 Y-1.418
X4.6592 Y-1.4193
X4.6646 Y-1.4234
X4.6658 Y-1.4244
X4.6682 Y-1.4261
X4.6701 Y-1.4274
G3 X4.6801 Y-1.4341 I0.1942 J0.2797
G1 X4.6821 Y-1.4353
X4.6886 Y-1.4392
X4.691 Y-1.4405
X4.6987 Y-1.4446
X4.7014 Y-1.4459
X4.7091 Y-1.4496
X4.7119 Y-1.4508
X4.7197 Y-1.4539
X4.7221 Y-1.4549
X4.7243 Y-1.4556
X4.7246 Y-1.4558
X4.725 Y-1.4559
X4.7306 Y-1.4578
X4.7331 Y-1.4586
X4.7409 Y-1.4609
X4.7434 Y-1.4616
X4.7512 Y-1.4635
X4.7537 Y-1.464
X4.7615 Y-1.4656
X4.7644 Y-1.466
X4.7721 Y-1.4672
X4.7752 Y-1.4676
X4.783 Y-1.4683
X4.7855 Y-1.4685
X4.7933 Y-1.4689
X4.7954 Y-1.469
X4.8032 Y-1.4691
X4.8036
X4.8039
X4.8043
X5.4649 Y-1.4671
X5.4651
X5.4729
X5.4746 Y-1.467
X5.4824 Y-1.4668
X5.4855 Y-1.4666
X5.4932 Y-1.4659
X5.4958 Y-1.4656
X5.5035 Y-1.4646
X5.506 Y-1.4642
X5.5138 Y-1.4629
X5.5164 Y-1.4623
X5.5242 Y-1.4606
X5.5273 Y-1.4599
X5.535 Y-1.4577
X5.5364 Y-1.4573
X5.5391 Y-1.4565
X5.5412 Y-1.4558
X5.5463 Y-1.454
X5.5481 Y-1.4533
X5.5559 Y-1.4503
X5.5582 Y-1.4494
X5.5651 Y-1.4464
X5.568 Y-1.445
X5.5767 Y-1.4407
X5.5795 Y-1.4392
X5.5873 Y-1.4348
X5.5901 Y-1.4331
X5.5979 Y-1.428
X5.5999 Y-1.4267
X5.6023 Y-1.4249
X5.6034 Y-1.4242
X5.6087 Y-1.4202
X5.6108 Y-1.4186
G3 X5.6193 Y-1.4116 I-0.2255 J0.283
G1 X5.6213 Y-1.4098
G3 X5.6297 Y-1.402 I-0.2868 J0.3174
G1 X5.6318 Y-1.4
G3 X5.6402 Y-1.3911 I-0.29 J0.283
G1 X5.6422 Y-1.3889
X5.6466 Y-1.3835
X5.6476 Y-1.3824
X5.6509 Y-1.3782
X5.6523 Y-1.3763
X5.655 Y-1.3727
X5.6561 Y-1.371
X5.6614 Y-1.3633
X5.6631 Y-1.3606
X5.6678 Y-1.3528
X5.6689 Y-1.3509
X5.6719 Y-1.3456
X5.6731 Y-1.3432
G3 X5.6785 Y-1.332 I-0.3434 J0.171
G1 X5.6797 Y-1.3292
X5.6829 Y-1.3214
X5.684 Y-1.3185
X5.6867 Y-1.3107
X5.6876 Y-1.3081
X5.6899 Y-1.3003
X5.6906 Y-1.2978
X5.6925 Y-1.29
X5.693 Y-1.288
X5.6935 Y-1.2853
X5.6936 Y-1.285
X5.6937 Y-1.2846
X5.6947 Y-1.2795
X5.6952 Y-1.2767
X5.6963 Y-1.269
X5.6967 Y-1.2663
X5.6975 Y-1.2585
X5.6977 Y-1.2555
X5.6981 Y-1.2478
X5.6982 Y-1.2457
X5.6983 Y-1.2379
Y-1.2375
Y-1.2371
Y-1.2367
X5.6929 Y0.5804
Y0.5807
Y0.5846
X5.6928 Y0.5878
X5.6925 Y0.5917
X5.6922 Y0.5956
X5.6917 Y0.5994
X5.691 Y0.6033
X5.6902 Y0.6072
X5.6893 Y0.6111
X5.6883 Y0.615
X5.6871 Y0.6189
X5.6858 Y0.6227
X5.6841 Y0.627
X5.6822 Y0.6315
X5.6803 Y0.6354
X5.6786 Y0.6386
X5.6766 Y0.6422
X5.6742 Y0.646
X5.6716 Y0.6499
X5.6688 Y0.6538
X5.6669 Y0.6563
X5.666 Y0.6573
X5.6641 Y0.6596
X5.6611 Y0.6629
X5.6578 Y0.6663
X5.6543 Y0.6696
X5.6519 Y0.6718
X5.6507 Y0.6728
X5.6481 Y0.6749
X5.6442 Y0.6778
X5.6403 Y0.6805
X5.6365 Y0.683
X5.6333 Y0.6849
X5.631 Y0.6862
X5.6285 Y0.6875
X5.6258 Y0.6888
X5.623 Y0.6901
X5.6203 Y0.6913
X5.617 Y0.6926
X5.6131 Y0.694
X5.6092 Y0.6952
X5.6054 Y0.6964
X5.6015 Y0.6973
X5.5976 Y0.6982
X5.5937 Y0.6989
X5.5898 Y0.6994
X5.5859 Y0.6999
X5.582 Y0.7002
X5.5783 Y0.7003
X5.5744 Y0.7004
G3 X5.5591 I-0.0058 J-0.7532
G1 X5.5466 Y4.9241
X6.6264
X6.6323 Y0.6988
X6.3896 Y0.6985
X6.3893
X6.3889
X6.3812 Y0.6984
X6.3767 Y0.6982
X6.3728 Y0.6978
X6.3689 Y0.6973
X6.365 Y0.6967
X6.3612 Y0.696
X6.3573 Y0.6951
X6.3534 Y0.6941
X6.3495 Y0.693
X6.3452 Y0.6915
X6.3405 Y0.6897
X6.3366 Y0.688
X6.3335 Y0.6866
