(LOWER SHAPING)
(T13 D=0.2362 CR=0. TAPER=45DEG - ZMIN=0.296 - CHAMFER MILL)
(T15 D=0.5 CR=0. - ZMIN=0.173 - FLAT END MILL)
(T18 D=0.9843 CR=0. TAPER=45DEG - ZMIN=-0.635 - DOVETAIL MILL)
(T19 D=0.2362 CR=0. - ZMIN=-0.585 - FLAT END MILL)
(T20 D=0.0625 CR=0. - ZMIN=0.223 - FLAT END MILL)
(T22 D=0.25 CR=0. - ZMIN=-0.5849 - FLAT END MILL)
G90 G94 G91.1 G40 G49 G17
G20
G53 G0 Z0.

(ROUGH TOP PASS)
T15 M6
S10000 M3
G17 G90 G94
G55
G0 X22.8307 Y1.9247
G43 Z1.223 H15
G0 Z0.5182
G1 Z0.3963 F50.
Y1.925 Z0.391 F100.
Y1.9259 Z0.3857
Y1.9273 Z0.3805
Y1.9292 Z0.3755
Y1.9317 Z0.3708
Y1.9347 Z0.3663
Y1.9381 Z0.3622
Y1.942 Z0.3585
Y1.9462 Z0.3552
Y1.9508 Z0.3524
Y1.9556 Z0.3501
Y1.9607 Z0.3483
Y1.9659 Z0.3471
Y1.9712 Z0.3465
X22.832 Y4.3471 Z0.1803
G2 X22.858 Y4.3731 Z0.1775 I0.026 J0.
G1 X22.861 Z0.1773
G2 X22.887 Y4.3469 Z0.1744 I0. J-0.026
G1 X22.8869 Y4.3289 Z0.1731
Y4.3254 Z0.173
X22.8715 Y1.1659 F140.
G2 X22.8437 Y1.1487 I-0.0193 J0.0001
G1 X22.8411 Y1.1499
G2 X22.8303 Y1.1673 I0.0084 J0.0173
G1 X22.832 Y4.3471
G2 X22.858 Y4.3731 I0.026 J0.
G1 X22.861
G2 X22.887 Y4.3469 I0. J-0.026
G1 X22.8869 Y4.3254
G3 X22.9763 Y4.19 I0.1462 J-0.0007
G2 X23.0656 Y4.0545 I-0.0569 J-0.1347
G1 X23.0502 Y0.8979
G2 X23.0376 Y0.8603 I-0.0631 J0.0003
G3 X23.0231 Y0.8401 I0.4617 J-0.3461
X23.0097 Y0.8192 I0.3146 J-0.2153
G2 X22.9482 Y0.8188 I-0.0309 J0.0183
G3 X22.8474 Y0.9342 I-0.3885 J-0.2375
X22.7132 Y1.0082 I-0.2711 J-0.3326
G2 X22.6502 Y1.0959 I0.0295 J0.0876
G1 X22.652 Y4.4892
G2 X22.7159 Y4.5531 I0.0639 J0.
G1 X23.0042
G2 X23.0677 Y4.4893 I0. J-0.0635
G1 X23.0656 Y4.0545
G3 X23.1554 Y3.9184 I0.1471 J-0.0007
G2 X23.2453 Y3.7822 I-0.0572 J-0.1355
G1 X23.2307 Y0.7999
X23.2289 Y0.7986
X23.2242 Y0.7948
X23.2194 Y0.7908
X23.2146 Y0.7866
X23.2104 Y0.7827
X23.2067 Y0.7792
X23.2028 Y0.7753
X23.1987 Y0.771
X23.1948 Y0.7667
X23.191 Y0.7624
X23.1879 Y0.7588
X23.1855 Y0.7558
X23.1822 Y0.7515
X23.1779 Y0.7457
X23.1738 Y0.74
X23.17 Y0.7342
X23.1676 Y0.7305
X23.1666 Y0.7288
X23.1633 Y0.7231
X23.1579 Y0.7132
X23.1539 Y0.7054
X23.1512 Y0.6996
X23.1487 Y0.6938
X23.1464 Y0.6881
X23.1447 Y0.6836
X23.1436 Y0.6805
X23.1416 Y0.6748
X23.139 Y0.6664
X23.137 Y0.6593
X23.1356 Y0.6535
X23.1343 Y0.6477
X23.1331 Y0.642
X23.1321 Y0.6362
X23.1312 Y0.6304
X23.1304 Y0.6247
X23.1298 Y0.6189
X23.1291 Y0.6103
X23.1286 Y0.5988
X23.1285 Y0.5938
X23.1194 Y-1.2659
X22.8297
X22.8306 Y0.5931
Y0.597
X22.8305 Y0.6004
X22.8302 Y0.6061
X22.8296 Y0.6143
X22.8289 Y0.6213
X22.8281 Y0.627
X22.8272 Y0.6328
X22.8262 Y0.6386
X22.8251 Y0.6443
X22.8238 Y0.6501
X22.8224 Y0.6559
X22.8208 Y0.6616
X22.8191 Y0.6674
X22.8173 Y0.6731
X22.8153 Y0.6789
X22.8131 Y0.6847
X22.8109 Y0.6903
X22.8085 Y0.6958
X22.8059 Y0.7016
X22.803 Y0.7076
X22.7999 Y0.7135
X22.7967 Y0.7193
X22.7934 Y0.725
X22.7898 Y0.7308
X22.7871 Y0.735
X22.7852 Y0.7378
X22.781 Y0.7436
X22.7744 Y0.7524
X22.7715 Y0.756
X22.7686 Y0.7595
X22.7637 Y0.7651
X22.7583 Y0.7709
X22.7524 Y0.7768
X22.7466 Y0.7823
X22.741 Y0.7873
X22.7375 Y0.7903
X22.734 Y0.7931
X22.7256 Y0.7996
X22.7198 Y0.8039
X22.7166 Y0.8061
X22.7122 Y0.809
X22.7064 Y0.8126
X22.7007 Y0.8161
X22.6949 Y0.8193
X22.6895 Y0.8221
X22.6846 Y0.8246
X22.6788 Y0.8273
X22.6722 Y0.8302
X22.666 Y0.8328
X22.6603 Y0.835
X22.6545 Y0.837
X22.6487 Y0.8389
X22.643 Y0.8407
X22.6372 Y0.8423
X22.6314 Y0.8437
X22.6257 Y0.845
X22.6179 Y0.8466
X22.6081 Y0.8482
X22.6023 Y0.849
X22.6006 Y0.8492
X22.5968 Y0.8496
X22.5911 Y0.8501
X22.5853 Y0.8505
X22.5795 Y0.8508
X22.5739 Y0.8509
X22.5508
X22.5506
X22.4691 Y0.851
X22.4712 Y4.7341
X23.2499
X23.2453 Y3.7822
X23.2451 Y3.7794 Z0.1731
X23.2448 Y3.7766 Z0.1733
X23.2443 Y3.7739 Z0.1737
X23.2437 Y3.7712 Z0.1743
X23.2429 Y3.7686 Z0.175
X23.242 Y3.7661 Z0.1758
X23.241 Y3.7636 Z0.1768
X23.2399 Y3.7613 Z0.178
X23.2387 Y3.7592 Z0.1792
X23.2374 Y3.7571 Z0.1807
X23.2361 Y3.7552 Z0.1822
X23.2348 Y3.7534 Z0.1839
X23.2334 Y3.7517 Z0.1857
X23.232 Y3.7502 Z0.1876
X23.2307 Y3.7488 Z0.1897
X23.2294 Y3.7476 Z0.1918
X23.2281 Y3.7465 Z0.1941
X23.2269 Y3.7455 Z0.1964
X23.2258 Y3.7446 Z0.1988
X23.2247 Y3.7439 Z0.2013
X23.2238 Y3.7432 Z0.2039
X23.2229 Y3.7427 Z0.2065
X23.2222 Y3.7422 Z0.2092
X23.2216 Y3.7418 Z0.2119
X23.2212 Y3.7416 Z0.2146
X23.2208 Y3.7414 Z0.2174
X23.2206 Y3.7413 Z0.2202
X23.2205 Y3.7412 Z0.223
G0 Z0.823
X24.6553 Y1.9212
Z0.5182
G1 Z0.3963 F50.
Y1.9215 Z0.391 F100.
X24.6554 Y1.9223 Z0.3857
Y1.9238 Z0.3805
Y1.9257 Z0.3755
Y1.9282 Z0.3708
Y1.9312 Z0.3663
Y1.9346 Z0.3622
Y1.9385 Z0.3585
X24.6555 Y1.9427 Z0.3552
Y1.9473 Z0.3524
Y1.9521 Z0.3501
Y1.9572 Z0.3483
Y1.9624 Z0.3471
X24.6556 Y1.9677 Z0.3465
X24.6672 Y4.3539 Z0.1796
G2 X24.6865 Y4.3731 Z0.1775 I0.0193 J-0.0001
G1 X24.6968 Z0.1768
G2 X24.7161 Y4.3537 Z0.1746 I0. J-0.0193
G1 X24.716 Y4.332 Z0.1731
X24.7159 Y4.3285 Z0.173
X24.699 Y1.085 F140.
G2 X24.6921 Y1.0703 I-0.0193 J0.0001
G1 X24.689 Y1.0677
G2 X24.6642 Y1.0676 I-0.0125 J0.0147
G1 X24.6584 Y1.0723
G2 X24.6513 Y1.0874 I0.0121 J0.015
G1 X24.6672 Y4.3539
G2 X24.6865 Y4.3731 I0.0193 J-0.0001
G1 X24.6968
G2 X24.7161 Y4.3537 I0. J-0.0193
G1 X24.7159 Y4.3285
G3 X24.8052 Y4.1931 I0.1462 J-0.0008
G2 X24.8945 Y4.0576 I-0.057 J-0.1347
G1 X24.8789 Y1.0683
G2 X24.8158 Y0.9389 I-0.1659 J0.0009
G3 X24.7563 Y0.8818 I0.2626 J-0.3328
X24.7083 Y0.8146 I0.3576 J-0.306
G2 X24.6474 I-0.0305 J0.018
G3 X24.5971 Y0.8834 I-0.3778 J-0.2229
X24.5341 Y0.9409 I-0.307 J-0.2736
G2 X24.4712 Y1.0663 I0.0919 J0.1247
G1 X24.4879 Y4.4892
G2 X24.5521 Y4.5531 I0.0643 J-0.0003
G1 X24.8333
G2 X24.8968 Y4.4893 I0. J-0.0635
G1 X24.8945 Y4.0576
G3 X24.9843 Y3.9214 I0.1471 J-0.0008
G2 X25.0741 Y3.7852 I-0.0573 J-0.1355
G1 X25.0587 Y0.8516
X25.0551 Y0.8511
X25.0493 Y0.8503
X25.0435 Y0.8493
X25.0379 Y0.8482
X25.0324 Y0.847
X25.0266 Y0.8456
X25.0206 Y0.844
X25.0147 Y0.8423
X25.0089 Y0.8405
X25.0032 Y0.8386
X24.9974 Y0.8364
X24.9916 Y0.8342
X24.9859 Y0.8317
X24.9801 Y0.8291
X24.9743 Y0.8264
X24.9707 Y0.8245
X24.9691 Y0.8237
X24.9658 Y0.822
X24.9608 Y0.8192
X24.9559 Y0.8163
X24.9509 Y0.8132
X24.9443 Y0.8088
X24.9362 Y0.8032
X24.9305 Y0.7989
X24.927 Y0.7962
X24.9229 Y0.7927
X24.918 Y0.7886
X24.9132 Y0.7842
X24.9083 Y0.7796
X24.905 Y0.7763
X24.9032 Y0.7744
X24.9 Y0.7711
X24.8956 Y0.7663
X24.8914 Y0.7614
X24.8874 Y0.7566
X24.8839 Y0.7521
X24.8807 Y0.7479
X24.8766 Y0.7422
X24.8717 Y0.7348
X24.8675 Y0.7283
X24.8641 Y0.7225
X24.8608 Y0.7166
X24.8577 Y0.7104
X24.8548 Y0.7046
X24.8522 Y0.699
X24.8498 Y0.6934
X24.8476 Y0.6878
X24.8455 Y0.6822
X24.8434 Y0.6764
X24.8416 Y0.6706
X24.8398 Y0.6649
X24.8383 Y0.6591
X24.8368 Y0.6533
X24.8355 Y0.6476
X24.8344 Y0.6418
X24.8336 Y0.6377
X24.8332 Y0.6353
X24.8324 Y0.6296
X24.8313 Y0.6204
G3 X24.8304 Y0.6102 I0.129 J-0.0158
G1 X24.8299 Y0.5986
X24.8298 Y0.5938
X24.8201 Y-1.2659
X24.5194
X24.5284 Y0.581
Y0.5815
Y0.582
Y0.5935
X24.5282 Y0.6002
X24.5279 Y0.6059
X24.5275 Y0.6117
X24.5269 Y0.6175
X24.526 Y0.6246
X24.5247 Y0.6331
X24.5236 Y0.6388
X24.523 Y0.6419
X24.5221 Y0.6463
X24.5207 Y0.652
X24.5192 Y0.6578
X24.5175 Y0.6636
X24.5157 Y0.6693
X24.5138 Y0.6751
X24.5117 Y0.6809
X24.5094 Y0.6866
X24.5065 Y0.6935
X24.5028 Y0.7016
X24.5 Y0.7073
X24.4982 Y0.7108
X24.4956 Y0.7154
X24.4923 Y0.7212
X24.4888 Y0.727
X24.4851 Y0.7327
X24.4819 Y0.7375
X24.4792 Y0.7413
X24.4748 Y0.7471
X24.4686 Y0.7548
X24.4629 Y0.7616
X24.4575 Y0.7675
X24.4518 Y0.7733
X24.446 Y0.7789
X24.4402 Y0.7842
X24.4345 Y0.789
X24.4309 Y0.792
X24.4272 Y0.7948
X24.4182 Y0.8015
X24.4123 Y0.8056
X24.4098 Y0.8072
X24.4057 Y0.8098
X24.4 Y0.8133
X24.3942 Y0.8166
X24.3884 Y0.8196
X24.382 Y0.8229
X24.3749 Y0.8262
X24.3691 Y0.8287
X24.3647 Y0.8305
X24.3596 Y0.8325
X24.3538 Y0.8346
X24.348 Y0.8365
X24.3423 Y0.8383
X24.3365 Y0.8399
X24.3307 Y0.8414
X24.325 Y0.8428
X24.3192 Y0.844
X24.3134 Y0.8451
X24.3077 Y0.846
X24.3019 Y0.8468
X24.2961 Y0.8475
X24.2904 Y0.8481
X24.2891
X24.3081 Y4.7341
X25.0791
X25.0741 Y3.7852
X25.0739 Y3.7824 Z0.1731
X25.0736 Y3.7796 Z0.1733
X25.0731 Y3.7769 Z0.1737
X25.0725 Y3.7742 Z0.1743
X25.0717 Y3.7716 Z0.175
X25.0708 Y3.7691 Z0.1758
X25.0698 Y3.7666 Z0.1768
X25.0687 Y3.7643 Z0.178
X25.0675 Y3.7621 Z0.1792
X25.0663 Y3.7601 Z0.1807
X25.0649 Y3.7582 Z0.1822
X25.0636 Y3.7564 Z0.1839
X25.0622 Y3.7547 Z0.1857
X25.0609 Y3.7532 Z0.1876
X25.0595 Y3.7518 Z0.1897
X25.0582 Y3.7506 Z0.1918
X25.0569 Y3.7495 Z0.1941
X25.0557 Y3.7485 Z0.1964
X25.0546 Y3.7476 Z0.1988
X25.0535 Y3.7469 Z0.2013
X25.0526 Y3.7462 Z0.2039
X25.0518 Y3.7457 Z0.2065
X25.051 Y3.7452 Z0.2092
X25.0505 Y3.7448 Z0.2119
X25.05 Y3.7446 Z0.2146
X25.0496 Y3.7444 Z0.2174
X25.0494 Y3.7443 Z0.2202
Y3.7442 Z0.223
G0 Z0.823
X26.6772 Y3.4407
Z0.5182
G1 Z0.3963 F50.
Y3.4405 Z0.391 F100.
Y3.4396 Z0.3857
Y3.4382 Z0.3805
Y3.4362 Z0.3755
Y3.4337 Z0.3708
Y3.4308 Z0.3663
Y3.4273 Z0.3622
Y3.4235 Z0.3585
Y3.4192 Z0.3552
Y3.4147 Z0.3524
Y3.4098 Z0.3501
Y3.4048 Z0.3483
Y3.3996 Z0.3471
Y3.3942 Z0.3465
X26.6756 Y1.0915 Z0.1854
G2 X26.6138 Y0.9994 Z0.1772 I-0.0996 J0.0001
G3 X26.5613 Y0.9737 Z0.1731 I0.1694 J-0.4122
G1 X26.5598 Y0.9728 Z0.173
X26.5583 Y0.972
G3 X26.4964 Y0.9283 I0.2249 J-0.3848 F140.
X26.407 Y0.8241 I0.2734 J-0.3251
G2 X26.345 Y0.8239 I-0.031 J0.0189
G3 X26.3149 Y0.8659 I-0.3284 J-0.2031
G2 X26.301 Y0.9053 I0.0479 J0.0391
G1 X26.3198 Y4.4902
G2 X26.3828 Y4.5529 I0.063 J-0.0003
G1 X26.6154
G2 X26.6779 Y4.4903 I0. J-0.0625
G1 X26.6756 Y1.1469
Y1.0915
G2 X26.6138 Y0.9994 I-0.0996 J0.0001
G3 X26.5583 Y0.972 I0.1694 J-0.4122
X26.4891 Y0.7856 I0.0792 J-0.1354
G2 X26.5218 Y0.5895 I-0.5698 J-0.1957
G1 X26.5205 Y-1.2659
X26.222
X26.2317 Y0.5809
Y0.5815
Y0.582
X26.2316 Y0.5935
X26.2314 Y0.6003
X26.2311 Y0.6061
X26.2307 Y0.6119
X26.2301 Y0.6176
X26.2294 Y0.6234
X26.2285 Y0.6291
X26.2276 Y0.6349
X26.2265 Y0.6407
X26.2252 Y0.6464
X26.2238 Y0.6522
X26.2223 Y0.658
X26.2207 Y0.6637
X26.2189 Y0.6693
X26.2171 Y0.6746
X26.215 Y0.6804
X26.2126 Y0.6866
X26.2101 Y0.6925
X26.2075 Y0.6983
X26.2047 Y0.7041
X26.2018 Y0.7098
X26.1976 Y0.7175
X26.1919 Y0.7269
X26.1883 Y0.7327
X26.1869 Y0.7347
X26.1842 Y0.7387
X26.18 Y0.7444
X26.1755 Y0.7502
X26.1708 Y0.7559
X26.1678 Y0.7595
X26.1666 Y0.761
X26.1636 Y0.7642
X26.1589 Y0.7693
X26.1539 Y0.7743
X26.1486 Y0.7794
X26.1451 Y0.7825
X26.1436 Y0.7839
X26.14 Y0.787
X26.1342 Y0.7917
X26.1285 Y0.7962
X26.1227 Y0.8005
X26.1193 Y0.8029
X26.1399 Y4.7341
X26.8593
X26.8566 Y0.8514
X26.7841 Y0.8515
X26.7803 Y0.8514
X26.7687 Y0.8511
G3 X26.7578 Y0.8503 I0.0037 J-0.1299
G1 X26.747 Y0.8491
X26.7383 Y0.8478
X26.7318 Y0.8466
X26.7257 Y0.8453
X26.7199 Y0.844
X26.7141 Y0.8425
X26.7084 Y0.8409
X26.7026 Y0.8391
X26.6968 Y0.8372
X26.691 Y0.8351
X26.6853 Y0.8329
X26.6795 Y0.8305
X26.6737 Y0.8279
X26.6702 Y0.8263
X26.6688 Y0.8256
X26.6655 Y0.824
X26.6605 Y0.8214
X26.6554 Y0.8187
X26.6503 Y0.8158
X26.6432 Y0.8114
X26.634 Y0.8054
X26.6283 Y0.8014
X26.6259 Y0.7996
X26.6218 Y0.7964
X26.6161 Y0.7919
X26.6104 Y0.7869
X26.6045 Y0.7817
X26.5988 Y0.7762
X26.5932 Y0.7705
X26.588 Y0.7648
X26.583 Y0.759
X26.5801 Y0.7555
X26.5791 Y0.7543
X26.5766 Y0.7512
X26.5727 Y0.746
X26.569 Y0.7409
X26.5655 Y0.7357
X26.5616 Y0.7298
X26.5575 Y0.723
X26.5542 Y0.7172
X26.5516 Y0.7125
X26.549 Y0.7072
X26.5462 Y0.7014
X26.5436 Y0.6957
X26.5411 Y0.6899
X26.5389 Y0.6843
X26.5369 Y0.6789
X26.5349 Y0.6731
X26.533 Y0.667
X26.5313 Y0.6611
X26.5297 Y0.6553
X26.5283 Y0.6496
X26.5271 Y0.6438
X26.526 Y0.638
X26.525 Y0.6323
X26.5241 Y0.6265
X26.5234 Y0.6207
X26.5228 Y0.615
X26.5224 Y0.6092
X26.5221 Y0.6035
X26.5219 Y0.5977
X26.5218 Y0.5932
Y0.5895
X26.5216 Y0.5867 Z0.1731
X26.5213 Y0.5839 Z0.1733
X26.5208 Y0.5812 Z0.1737
X26.5202 Y0.5785 Z0.1743
X26.5195 Y0.5759 Z0.175
X26.5186 Y0.5734 Z0.1758
X26.5176 Y0.571 Z0.1768
X26.5165 Y0.5687 Z0.178
X26.5153 Y0.5665 Z0.1792
X26.514 Y0.5644 Z0.1807
X26.5127 Y0.5625 Z0.1822
X26.5114 Y0.5607 Z0.1839
X26.51 Y0.559 Z0.1857
X26.5087 Y0.5575 Z0.1876
X26.5073 Y0.5561 Z0.1897
X26.506 Y0.5549 Z0.1918
X26.5047 Y0.5538 Z0.1941
X26.5035 Y0.5528 Z0.1964
X26.5024 Y0.5519 Z0.1988
X26.5014 Y0.5511 Z0.2013
X26.5004 Y0.5505 Z0.2039
X26.4996 Y0.5499 Z0.2065
X26.4989 Y0.5495 Z0.2092
X26.4983 Y0.5491 Z0.2119
X26.4978 Y0.5488 Z0.2146
X26.4975 Y0.5486 Z0.2174
X26.4973 Y0.5485 Z0.2202
X26.4972 Z0.223
G0 Z0.823
X27.917 Y2.7124
Z0.5182
G1 Z0.3963 F50.
Y2.7127 Z0.391 F100.
Y2.7136 Z0.3857
Y2.715 Z0.3805
Y2.717 Z0.3755
Y2.7195 Z0.3708
Y2.7224 Z0.3663
Y2.7259 Z0.3622
Y2.7297 Z0.3585
Y2.734 Z0.3552
Y2.7385 Z0.3524
Y2.7434 Z0.3501
Y2.7484 Z0.3483
Y2.7536 Z0.3471
Y2.759 Z0.3465
X27.9184 Y4.7341 Z0.2083
X28.2429 Z0.1857
X28.2421 Y4.5549 Z0.1731
Y4.5514 Z0.173
X28.2167 Y-1.2659 F140.
X27.9142
X27.9183 Y4.5724
X27.9184 Y4.7341
X28.2429
X28.2421 Y4.5514
X28.2419 Y4.5486 Z0.1731
X28.2416 Y4.5459 Z0.1733
X28.2411 Y4.5431 Z0.1737
X28.2405 Y4.5405 Z0.1743
X28.2397 Y4.5379 Z0.175
X28.2388 Y4.5353 Z0.1758
X28.2378 Y4.5329 Z0.1768
X28.2367 Y4.5306 Z0.178
X28.2355 Y4.5284 Z0.1792
X28.2342 Y4.5264 Z0.1807
X28.2329 Y4.5244 Z0.1822
X28.2316 Y4.5227 Z0.1839
X28.2302 Y4.521 Z0.1857
X28.2289 Y4.5195 Z0.1876
X28.2275 Y4.5181 Z0.1897
X28.2262 Y4.5169 Z0.1918
X28.2249 Y4.5158 Z0.1941
X28.2237 Y4.5148 Z0.1964
X28.2226 Y4.5139 Z0.1988
X28.2216 Y4.5131 Z0.2013
X28.2206 Y4.5125 Z0.2039
X28.2198 Y4.5119 Z0.2065
X28.2191 Y4.5115 Z0.2092
X28.2185 Y4.5111 Z0.2119
X28.218 Y4.5108 Z0.2146
X28.2177 Y4.5106 Z0.2174
X28.2174 Y4.5105 Z0.2202
Z0.223
G0 Z0.823
X29.7237 Y3.6633
Z0.5182
G1 Z0.3963 F50.
Y3.663 Z0.391 F100.
Y3.6622 Z0.3857
Y3.6607 Z0.3805
Y3.6588 Z0.3755
Y3.6563 Z0.3708
Y3.6533 Z0.3663
Y3.6499 Z0.3622
Y3.646 Z0.3585
Y3.6418 Z0.3552
Y3.6372 Z0.3524
Y3.6324 Z0.3501
Y3.6273 Z0.3483
Y3.6221 Z0.3471
X29.7238 Y3.6168 Z0.3465
X29.7259 Y1.1515 Z0.1741
G2 X29.7225 Y1.1386 Z0.1731 I-0.026 J0.
G1 X29.7216 Y1.1371 Z0.173
X29.7206 Y1.1357
G2 X29.6869 Y1.1289 I-0.0207 J0.0158 F140.
G1 X29.6836 Y1.1308
G2 X29.6703 Y1.1536 I0.0128 J0.0227
G1 X29.6842 Y4.3346
G2 X29.7231 Y4.3345 I0.0195 J-0.0001
G1 X29.7259 Y1.1547
Y1.1515
G2 X29.7206 Y1.1357 I-0.026 J0.
G3 X29.6954 Y1.0306 I0.1061 J-0.081
G2 X29.6063 Y0.9695 I-0.0582 J-0.0107
G1 X29.6027 Y0.9716
G3 X29.5759 Y0.9851 I-0.1104 J-0.1858
G1 X29.5516 Y0.9953
G2 X29.49 Y1.0884 I0.0389 J0.0926
G1 X29.5049 Y4.4903
G2 X29.5678 Y4.5529 I0.0629 J-0.0003
G1 X29.8403
G2 X29.903 Y4.4903 I0. J-0.0627
G1 X29.9061 Y0.9867
G2 X29.8729 Y0.9076 I-0.1106 J-0.0001
G3 X29.8397 Y0.8716 I0.337 J-0.3439
X29.8107 Y0.8323 I0.3244 J-0.2699
G2 X29.7475 I-0.0316 J0.0206
G3 X29.6063 Y0.9695 I-0.3747 J-0.2444
X29.4585 Y0.9258 I-0.0542 J-0.0885
G2 X29.3083 Y0.9602 I-0.0712 J0.0341
G1 X29.3248 Y4.7341
X30.084
X30.0874 Y0.8338
X30.0872 Y0.8337
X30.0814 Y0.8314
X30.0762 Y0.8292
X30.0714 Y0.8271
X30.0656 Y0.8243
X30.0588 Y0.8209
X30.0526 Y0.8175
X30.0468 Y0.8141
X30.041 Y0.8106
X30.0353 Y0.8068
X30.0317 Y0.8044
X30.0303 Y0.8034
X30.027 Y0.8011
X30.022 Y0.7973
X30.0169 Y0.7933
X30.0118 Y0.7892
X30.0073 Y0.7853
X30.0034 Y0.7817
X29.9976 Y0.7761
X29.99 Y0.7683
X29.9846 Y0.7625
X29.9814 Y0.7587
X29.9776 Y0.7541
X29.9732 Y0.7485
X29.9689 Y0.7427
X29.9648 Y0.7368
X29.9609 Y0.7309
X29.9573 Y0.7252
X29.9539 Y0.7194
X29.9508 Y0.7136
X29.9468 Y0.7059
X29.9423 Y0.6962
X29.9397 Y0.6904
X29.939 Y0.6886
X29.9375 Y0.6848
X29.9353 Y0.6791
X29.9333 Y0.6733
X29.9315 Y0.6675
X29.9298 Y0.6618
X29.9282 Y0.656
X29.9268 Y0.6502
X29.9255 Y0.6445
X29.9244 Y0.6387
X29.9233 Y0.633
X29.9225 Y0.6272
X29.9217 Y0.6214
X29.9211 Y0.6157
X29.9206 Y0.6099
X29.9202 Y0.6041
X29.92 Y0.5984
X29.9199 Y0.5931
Y0.5239
X29.9215 Y-1.2659
X29.6313
X29.6393 Y0.581
Y0.5815
Y0.5819
Y0.5935
X29.6391 Y0.6
X29.6388 Y0.6057
X29.6384 Y0.6115
X29.6378 Y0.6173
X29.6371 Y0.623
X29.6363 Y0.6288
X29.6354 Y0.6345
X29.6343 Y0.6403
X29.6336 Y0.6437
X29.6334 Y0.6447
X29.632 Y0.6505
X29.6292 Y0.661
X29.6267 Y0.6691
X29.6248 Y0.6749
X29.6227 Y0.6807
X29.6205 Y0.6864
X29.6171 Y0.6942
X29.6126 Y0.704
X29.6097 Y0.7097
X29.6088 Y0.7115
X29.6067 Y0.7152
X29.6034 Y0.721
X29.6 Y0.7268
X29.5963 Y0.7325
X29.5926 Y0.7379
X29.589 Y0.743
X29.5846 Y0.7488
X29.5794 Y0.7552
X29.5736 Y0.7619
X29.5673 Y0.7688
X29.5617 Y0.7745
X29.5568 Y0.7792
X29.5511 Y0.7844
X29.5444 Y0.7901
X29.5408 Y0.793
X29.5371 Y0.7959
X29.5291 Y0.8017
X29.5233 Y0.8057
X29.5197 Y0.8081
X29.515 Y0.811
X29.5093 Y0.8144
X29.5035 Y0.8176
X29.4977 Y0.8207
X29.4919 Y0.8235
X29.4861 Y0.8263
X29.4803 Y0.8288
X29.4746 Y0.8311
X29.4689 Y0.8333
X29.4631 Y0.8353
X29.4574 Y0.8372
X29.4516 Y0.8389
X29.4458 Y0.8405
X29.4401 Y0.842
X29.4343 Y0.8433
X29.4285 Y0.8445
X29.4227 Y0.8455
X29.417 Y0.8464
X29.4112 Y0.8472
X29.4054 Y0.8479
X29.3968 Y0.8485
X29.3853 Y0.8491
X29.38 Y0.8492
X29.3078 Y0.8495
X29.3083 Y0.9602
X29.3085 Y0.963 Z0.1731
X29.3088 Y0.9658 Z0.1733
X29.3093 Y0.9685 Z0.1737
X29.3099 Y0.9712 Z0.1743
X29.3107 Y0.9738 Z0.175
X29.3115 Y0.9763 Z0.1758
X29.3126 Y0.9788 Z0.1768
X29.3137 Y0.9811 Z0.178
X29.3149 Y0.9833 Z0.1792
X29.3161 Y0.9853 Z0.1807
X29.3174 Y0.9872 Z0.1822
X29.3188 Y0.989 Z0.1839
X29.3202 Y0.9907 Z0.1857
X29.3215 Y0.9922 Z0.1876
X29.3229 Y0.9936 Z0.1897
X29.3242 Y0.9948 Z0.1918
X29.3255 Y0.9959 Z0.1941
X29.3267 Y0.9969 Z0.1964
X29.3278 Y0.9978 Z0.1988
X29.3288 Y0.9985 Z0.2013
X29.3298 Y0.9992 Z0.2039
X29.3306 Y0.9997 Z0.2065
X29.3313 Y1.0002 Z0.2092
X29.3319 Y1.0006 Z0.2119
X29.3324 Y1.0008 Z0.2146
X29.3327 Y1.001 Z0.2174
X29.3329 Y1.0012 Z0.2202
X29.333 Z0.223
G0 Z0.823
X31.5912 Y3.634
Z0.5182
G1 Z0.3963 F50.
Y3.6337 Z0.391 F100.
Y3.6328 Z0.3857
Y3.6314 Z0.3805
Y3.6294 Z0.3755
Y3.6269 Z0.3708
Y3.624 Z0.3663
Y3.6205 Z0.3622
Y3.6167 Z0.3585
Y3.6124 Z0.3552
Y3.6079 Z0.3524
Y3.603 Z0.3501
Y3.598 Z0.3483
Y3.5928 Z0.3471
Y3.5874 Z0.3465
X31.5934 Y1.1628 Z0.1769
G2 X31.5754 Y1.1322 Z0.1743 I-0.035 J0.
G1 X31.574 Y1.1314 Z0.1742
G2 X31.5595 Y1.127 Z0.1731 I-0.0171 J0.0306
G1 X31.5577 Y1.1269 Z0.173
X31.556
G2 X31.5218 Y1.1619 I0.0009 J0.035 F140.
G1 Y1.1636
X31.519 Y4.3229
G2 X31.5906 I0.0358 J0.
G1 X31.5934 Y1.1628
G2 X31.5754 Y1.1322 I-0.035 J0.
G1 X31.574 Y1.1314
G2 X31.556 Y1.1269 I-0.0171 J0.0306
G3 X31.4556 Y1.067 I-0.0027 J-0.1096
G2 X31.3419 Y1.0942 I-0.0536 J0.0272
G1 X31.3389 Y4.4892
G2 X31.4027 Y4.5531 I0.0638 J0.0001
G1 X31.7065
G2 X31.7705 Y4.4892 I0. J-0.0639
G1 X31.7734 Y1.0922
G2 X31.7109 Y0.9983 I-0.1017 J-0.0001
G3 X31.5864 Y0.9204 I0.1734 J-0.4157
X31.4945 Y0.8058 I0.2836 J-0.3215
G2 X31.4348 Y0.8059 I-0.0298 J0.0164
G3 X31.4089 Y0.8472 I-0.3558 J-0.1948
X31.3785 Y0.8855 I-0.4064 J-0.2909
G1 X31.3754 Y0.8888
X31.3722 Y0.8921
G2 X31.342 Y0.9688 I0.0827 J0.0768
G1 X31.3419 Y1.0942
G3 X31.2512 Y1.2299 I-0.1471 J-0.0001
G2 X31.1606 Y1.3656 I0.0564 J0.1358
G1 X31.1577 Y4.7341
X31.9512
X31.9546 Y0.8508
X31.8824
X31.8794 Y0.8507
X31.8679 Y0.8505
X31.8593 Y0.85
X31.8528 Y0.8494
X31.847 Y0.8487
X31.842 Y0.848
X31.8366 Y0.8472
X31.8308 Y0.8462
X31.825 Y0.845
X31.8193 Y0.8437
X31.8135 Y0.8422
X31.8077 Y0.8407
X31.802 Y0.8389
X31.7962 Y0.837
X31.7904 Y0.835
X31.7846 Y0.8328
X31.7789 Y0.8305
X31.7731 Y0.828
X31.7672 Y0.8252
X31.761 Y0.8222
X31.7552 Y0.8191
X31.7498 Y0.8161
X31.7426 Y0.8118
X31.7337 Y0.8059
X31.7279 Y0.802
X31.7254 Y0.8002
X31.7212 Y0.797
X31.7154 Y0.7924
X31.7097 Y0.7876
X31.7039 Y0.7824
X31.6981 Y0.777
X31.6924 Y0.7713
X31.687 Y0.7655
X31.682 Y0.7598
X31.6791 Y0.7564
X31.6783 Y0.7555
X31.6759 Y0.7524
X31.6718 Y0.7471
X31.6679 Y0.7418
X31.6642 Y0.7365
X31.6605 Y0.7308
X31.6567 Y0.7247
X31.6533 Y0.719
X31.6503 Y0.7135
X31.6474 Y0.7079
X31.6446 Y0.7021
X31.6419 Y0.6964
X31.6395 Y0.6906
X31.6366 Y0.6832
X31.6333 Y0.6743
X31.6314 Y0.6685
X31.6306 Y0.6659
X31.6294 Y0.6618
X31.6279 Y0.656
X31.6264 Y0.6502
X31.6251 Y0.6445
X31.624 Y0.6387
X31.623 Y0.633
X31.6221 Y0.6272
X31.6214 Y0.6214
X31.6207 Y0.6157
X31.6202 Y0.6099
X31.6199 Y0.6041
X31.6197 Y0.5984
X31.6195 Y0.5931
X31.6196 Y0.5239
X31.6211 Y-1.2659
X31.3111
X31.3094 Y0.5933
X31.3093 Y0.5998
X31.3087 Y0.61
X31.3083 Y0.6158
X31.3082 Y0.6171
X31.3078 Y0.6207
X31.3071 Y0.6264
X31.3062 Y0.6322
X31.3053 Y0.638
X31.3041 Y0.6437
X31.3029 Y0.6495
X31.3015 Y0.6552
X31.3 Y0.661
X31.2983 Y0.6668
X31.2965 Y0.6725
X31.2945 Y0.6783
X31.2924 Y0.6841
X31.2899 Y0.6905
X31.2869 Y0.6975
X31.2842 Y0.7032
X31.282 Y0.7077
X31.2794 Y0.7129
X31.2762 Y0.7186
X31.2729 Y0.7244
X31.2694 Y0.7302
X31.2663 Y0.735
X31.2636 Y0.739
X31.2594 Y0.7448
X31.2537 Y0.7523
X31.2509 Y0.7559
X31.2479 Y0.7594
X31.2421 Y0.7661
X31.2368 Y0.7718
X31.2319 Y0.7767
X31.2262 Y0.7822
X31.2195 Y0.7882
X31.2126 Y0.7939
X31.2055 Y0.7995
X31.1997 Y0.8037
X31.1953 Y0.8068
X31.1902 Y0.8101
X31.1844 Y0.8138
X31.1786 Y0.8172
X31.1729 Y0.8204
X31.1683 Y0.8228
X31.1651 Y0.8244
X31.1611 Y0.8263
X31.1606 Y1.3656
X31.1608 Y1.3684 Z0.1731
X31.1611 Y1.3711 Z0.1733
X31.1616 Y1.3739 Z0.1737
X31.1622 Y1.3765 Z0.1743
X31.1629 Y1.3792 Z0.175
X31.1638 Y1.3817 Z0.1758
X31.1648 Y1.3841 Z0.1768
X31.1659 Y1.3864 Z0.178
X31.1671 Y1.3886 Z0.1792
X31.1683 Y1.3907 Z0.1807
X31.1696 Y1.3926 Z0.1822
X31.171 Y1.3944 Z0.1839
X31.1723 Y1.3961 Z0.1857
X31.1737 Y1.3976 Z0.1876
X31.175 Y1.399 Z0.1897
X31.1763 Y1.4002 Z0.1918
X31.1776 Y1.4013 Z0.1941
X31.1788 Y1.4023 Z0.1964
X31.1799 Y1.4032 Z0.1988
X31.181 Y1.404 Z0.2013
X31.1819 Y1.4046 Z0.2039
X31.1827 Y1.4052 Z0.2065
X31.1834 Y1.4056 Z0.2092
X31.184 Y1.406 Z0.2119
X31.1845 Y1.4063 Z0.2146
X31.1848 Y1.4065 Z0.2174
X31.1851 Y1.4066 Z0.2202
Z0.223
G0 Z0.823
X33.3241 Y1.0905
Z0.5182
G1 Z0.3963 F50.
Y1.0902 Z0.391 F100.
X33.3242 Y1.0893 Z0.3857
Y1.0879 Z0.3805
Y1.0859 Z0.3755
Y1.0835 Z0.3708
Y1.0805 Z0.3663
Y1.077 Z0.3622
Y1.0732 Z0.3585
Y1.0689 Z0.3552
Y1.0644 Z0.3524
Y1.0595 Z0.3501
Y1.0545 Z0.3483
Y1.0493 Z0.3471
X33.3243 Y1.044 Z0.3465
X33.3295 Y-1.2659 Z0.1849
X33.1606 Z0.1731
X33.1571 Z0.173
X33.0252 F140.
X33.0199 Y4.7341
X33.3159
X33.3291 Y-1.1132
X33.3295 Y-1.2659
X33.1571
X33.1543 Y-1.2657 Z0.1731
X33.1515 Y-1.2654 Z0.1733
X33.1488 Y-1.265 Z0.1737
X33.1461 Y-1.2644 Z0.1743
X33.1435 Y-1.2636 Z0.175
X33.141 Y-1.2627 Z0.1758
X33.1385 Y-1.2617 Z0.1768
X33.1362 Y-1.2606 Z0.178
X33.134 Y-1.2594 Z0.1792
X33.132 Y-1.2582 Z0.1807
X33.13 Y-1.2569 Z0.1822
X33.1283 Y-1.2555 Z0.1839
X33.1266 Y-1.2542 Z0.1857
X33.1251 Y-1.2528 Z0.1876
X33.1237 Y-1.2515 Z0.1897
X33.1224 Y-1.2502 Z0.1918
X33.1213 Y-1.2489 Z0.1941
X33.1203 Y-1.2477 Z0.1964
X33.1195 Y-1.2466 Z0.1988
X33.1187 Y-1.2455 Z0.2013
X33.118 Y-1.2446 Z0.2039
X33.1175 Y-1.2438 Z0.2065
X33.117 Y-1.2431 Z0.2092
X33.1167 Y-1.2425 Z0.2119
X33.1164 Y-1.242 Z0.2146
X33.1162 Y-1.2416 Z0.2174
X33.1161 Y-1.2414 Z0.2202
X33.116 Z0.223
G0 Z0.823
X34.7293 Y1.9668
Z0.5182
G1 Z0.3963 F50.
Y1.9671 Z0.391 F100.
Y1.9679 Z0.3857
Y1.9694 Z0.3805
Y1.9713 Z0.3755
Y1.9738 Z0.3708
Y1.9768 Z0.3663
Y1.9802 Z0.3622
Y1.9841 Z0.3585
Y1.9883 Z0.3552
X34.7292 Y1.9929 Z0.3524
Y1.9977 Z0.3501
Y2.0028 Z0.3483
Y2.008 Z0.3471
Y2.0133 Z0.3465
X34.7239 Y4.338 Z0.1839
G2 X34.759 Y4.3731 Z0.18 I0.035 J0.0001
G1 X34.7772 Z0.1788
G2 X34.8123 Y4.338 Z0.1749 I0. J-0.035
G1 X34.8122 Y4.3124 Z0.1731
Y4.3089 Z0.173
X34.809 Y1.1739 F140.
G2 X34.754 Y1.1409 I-0.0374 J0.
G1 X34.75 Y1.143
G2 X34.7311 Y1.174 I0.0161 J0.0311
G1 X34.7239 Y4.338
G2 X34.759 Y4.3731 I0.035 J0.0001
G1 X34.7772
G2 X34.8123 Y4.338 I0. J-0.035
G1 X34.8122 Y4.3089
G3 X34.9021 Y4.1738 I0.1462 J-0.0002
G2 X34.992 Y4.0387 I-0.0564 J-0.1349
G1 X34.9887 Y0.9629
G2 X34.9602 Y0.8881 I-0.1129 J0.0001
G3 X34.9309 Y0.852 I0.3945 J-0.3505
X34.9053 Y0.8132 I0.3383 J-0.251
G2 X34.8448 I-0.0303 J0.0176
G3 X34.614 Y1.0066 I-0.3841 J-0.224
G2 X34.5513 Y1.0962 I0.033 J0.0898
G1 X34.5436 Y4.4893
G2 X34.6073 Y4.5531 I0.0637 J0.0001
G1 X34.9286
G2 X34.9924 Y4.4892 I0. J-0.0638
G1 X34.992 Y4.0387
G3 X35.0823 Y3.9029 I0.1471 J-0.0002
G2 X35.1727 Y3.767 I-0.0567 J-0.1357
G1 X35.1696 Y0.8238
X35.166 Y0.8219
X35.1603 Y0.8188
X35.1545 Y0.8155
X35.1487 Y0.812
X35.1429 Y0.8082
X35.1369 Y0.8042
X35.1311 Y0.8
X35.1255 Y0.7957
X35.1186 Y0.79
X35.1104 Y0.7827
X35.1047 Y0.7774
X35.1014 Y0.7741
X35.096 Y0.7684
X35.0887 Y0.7602
X35.083 Y0.7533
X35.0787 Y0.7477
X35.0745 Y0.742
X35.0704 Y0.736
X35.0666 Y0.7301
X35.0631 Y0.7243
X35.0597 Y0.7186
X35.0566 Y0.7128
X35.0547 Y0.7092
X35.0539 Y0.7077
X35.0512 Y0.7019
X35.0468 Y0.6919
X35.0436 Y0.684
X35.0415 Y0.6782
X35.0395 Y0.6725
X35.0377 Y0.6667
X35.036 Y0.6609
X35.0345 Y0.6552
X35.0331 Y0.6494
X35.0319 Y0.6436
X35.0311 Y0.6397
X35.0307 Y0.6375
X35.0298 Y0.6317
X35.0285 Y0.6224
X35.0277 Y0.6148
X35.0272 Y0.6091
X35.0269 Y0.6033
X35.0267 Y0.5975
X35.0266 Y0.5933
X35.0247 Y-1.2659
X34.7275
X34.7233 Y0.5934
X34.7232 Y0.597
X34.723 Y0.6028
X34.7227 Y0.6085
X34.7223 Y0.6143
X34.7217 Y0.6201
X34.7211 Y0.6258
X34.7202 Y0.6316
X34.7193 Y0.6373
X34.7182 Y0.6431
X34.717 Y0.6489
X34.7156 Y0.6546
X34.7141 Y0.6604
X34.7125 Y0.6662
X34.7107 Y0.6719
X34.7088 Y0.6777
X34.7067 Y0.6835
X34.7043 Y0.6895
X34.7017 Y0.6958
X34.6991 Y0.7015
X34.6966 Y0.7068
X34.6938 Y0.7123
X34.6907 Y0.718
X34.6874 Y0.7238
X34.684 Y0.7296
X34.681 Y0.7343
X34.6785 Y0.738
X34.6744 Y0.7438
X34.6686 Y0.7516
X34.6657 Y0.7553
X34.6628 Y0.7588
X34.6571 Y0.7654
X34.6518 Y0.7711
X34.647 Y0.7761
X34.6413 Y0.7816
X34.6345 Y0.7877
X34.6277 Y0.7935
X34.6208 Y0.7989
X34.6151 Y0.8032
X34.6104 Y0.8065
X34.6052 Y0.81
X34.5994 Y0.8136
X34.5937 Y0.8171
X34.5879 Y0.8203
X34.5837 Y0.8226
X34.581 Y0.8239
X34.5753 Y0.8267
X34.5664 Y0.8308
X34.5591 Y0.8338
X34.5533 Y0.8361
X34.5475 Y0.8381
X34.5417 Y0.84
X34.536 Y0.8418
X34.5302 Y0.8434
X34.5244 Y0.8448
X34.5187 Y0.8462
X34.5147 Y0.847
X34.5125 Y0.8475
X34.5067 Y0.8485
X34.4974 Y0.8499
X34.4898 Y0.8508
X34.4841 Y0.8513
X34.4783 Y0.8517
X34.4725 Y0.852
X34.4667 Y0.8521
X34.4551
X34.4546
X34.3708 Y0.8519
X34.362 Y4.7341
X35.1737
X35.1727 Y3.767
X35.1725 Y3.7642 Z0.1731
X35.1722 Y3.7614 Z0.1733
X35.1717 Y3.7587 Z0.1737
X35.1711 Y3.756 Z0.1743
X35.1704 Y3.7534 Z0.175
X35.1695 Y3.7509 Z0.1758
X35.1685 Y3.7485 Z0.1768
X35.1674 Y3.7462 Z0.178
X35.1662 Y3.744 Z0.1792
X35.1649 Y3.7419 Z0.1807
X35.1636 Y3.74 Z0.1822
X35.1623 Y3.7382 Z0.1839
X35.1609 Y3.7365 Z0.1857
X35.1596 Y3.735 Z0.1876
X35.1582 Y3.7336 Z0.1897
X35.1569 Y3.7324 Z0.1918
X35.1556 Y3.7313 Z0.1941
X35.1544 Y3.7303 Z0.1964
X35.1533 Y3.7294 Z0.1988
X35.1523 Y3.7286 Z0.2013
X35.1513 Y3.728 Z0.2039
X35.1505 Y3.7274 Z0.2065
X35.1498 Y3.727 Z0.2092
X35.1492 Y3.7266 Z0.2119
X35.1487 Y3.7263 Z0.2146
X35.1484 Y3.7261 Z0.2174
X35.1482 Y3.726 Z0.2202
X35.1481 Z0.223
G0 Z0.823
X36.5649 Y1.9354
Z0.5182
G1 Z0.3963 F50.
Y1.9356 Z0.391 F100.
Y1.9365 Z0.3857
Y1.9379 Z0.3805
Y1.9399 Z0.3755
Y1.9424 Z0.3708
Y1.9453 Z0.3663
Y1.9488 Z0.3622
Y1.9526 Z0.3585
Y1.9569 Z0.3552
Y1.9614 Z0.3524
Y1.9663 Z0.3501
Y1.9713 Z0.3483
Y1.9766 Z0.3471
Y1.9819 Z0.3465
X36.5674 Y4.3471 Z0.1811
G2 X36.5934 Y4.3731 Z0.1782 I0.026 J0.
G1 X36.6035 Z0.1775
G2 X36.6295 Y4.3469 Z0.1746 I0. J-0.026
G1 X36.6294 Y4.3253 Z0.1731
Y4.3218 Z0.173
X36.6085 Y1.0855 F140.
G2 X36.6016 Y1.0709 I-0.0193 J0.0001
G1 X36.5973 Y1.0673
G2 X36.5727 I-0.0124 J0.0148
G1 X36.571 Y1.0687
G2 X36.564 Y1.0836 I0.0122 J0.0149
G1 X36.5674 Y4.3471
G2 X36.5934 Y4.3731 I0.026 J0.
G1 X36.6035
G2 X36.6295 Y4.3469 I0. J-0.026
G1 X36.6294 Y4.3218
G3 X36.7185 Y4.1863 I0.1462 J-0.0009
G2 X36.8076 Y4.0507 I-0.0571 J-0.1346
G1 X36.7884 Y1.0689
G2 X36.7258 Y0.94 I-0.1662 J0.0011
G3 X36.6161 Y0.8124 I0.2816 J-0.3531
G2 X36.5557 Y0.8125 I-0.0301 J0.0175
G3 X36.509 Y0.8782 I-0.3662 J-0.2108
X36.4511 Y0.9344 I-0.3531 J-0.3056
G1 X36.4486 Y0.9364
X36.446 Y0.9383
G2 X36.384 Y1.0657 I0.0995 J0.1273
G1 X36.3875 Y4.4892
G2 X36.4515 Y4.5531 I0.064 J-0.0001
G1 X36.7471
G2 X36.8104 Y4.4893 I0. J-0.0634
G1 X36.8076 Y4.0507
G3 X36.8972 Y3.9144 I0.1471 J-0.0009
G2 X36.9869 Y3.778 I-0.0574 J-0.1354
G1 X36.968 Y0.8521
X36.966 Y0.8518
X36.9602 Y0.851
X36.9545 Y0.8501
X36.9487 Y0.849
X36.9429 Y0.8478
X36.9387 Y0.8468
X36.9361 Y0.8462
X36.9303 Y0.8446
X36.9214 Y0.842
X36.9141 Y0.8396
X36.9083 Y0.8376
X36.9025 Y0.8353
X36.8968 Y0.8329
X36.8893 Y0.8296
X36.8802 Y0.8251
X36.8745 Y0.8221
X36.8721 Y0.8208
X36.8679 Y0.8184
X36.8622 Y0.8149
X36.8564 Y0.8112
X36.8506 Y0.8073
X36.8459 Y0.804
X36.8421 Y0.8012
X36.8363 Y0.7966
X36.8285 Y0.7901
X36.822 Y0.7843
X36.8168 Y0.7793
X36.811 Y0.7734
X36.8047 Y0.7665
X36.7997 Y0.7607
X36.7959 Y0.756
X36.7919 Y0.7509
X36.7878 Y0.7454
X36.7838 Y0.7397
X36.7799 Y0.7336
X36.7762 Y0.7278
X36.7729 Y0.722
X36.7697 Y0.7162
X36.7667 Y0.7105
X36.7639 Y0.7047
X36.7613 Y0.699
X36.7589 Y0.6932
X36.7565 Y0.6874
X36.7544 Y0.6816
X36.7524 Y0.6759
X36.7506 Y0.6701
X36.7489 Y0.6644
X36.7473 Y0.6586
X36.7459 Y0.6528
X36.7446 Y0.6471
X36.7435 Y0.6413
X36.7425 Y0.6355
X36.7416 Y0.6298
X36.7409 Y0.624
X36.7403 Y0.6183
X36.7397 Y0.6097
X36.7392 Y0.5982
X36.7391 Y0.594
X36.7271 Y-1.2615
Y-1.2618
Y-1.2659
X36.4326
X36.4346 Y0.5815
Y0.5818
X36.4345 Y0.5933
X36.4344 Y0.5985
X36.4342 Y0.6042
X36.4338 Y0.61
X36.4333 Y0.6158
X36.4327 Y0.6215
X36.432 Y0.6273
X36.4311 Y0.633
X36.4301 Y0.6388
X36.4288 Y0.645
X36.4273 Y0.6516
X36.4259 Y0.6573
X36.4245 Y0.6623
X36.4229 Y0.6676
X36.4211 Y0.6734
X36.419 Y0.6791
X36.4169 Y0.6849
X36.4146 Y0.6907
X36.4121 Y0.6964
X36.4094 Y0.7022
X36.4066 Y0.708
X36.4047 Y0.7116
X36.4039 Y0.7132
X36.4021 Y0.7165
X36.3993 Y0.7215
X36.3963 Y0.7265
X36.3932 Y0.7314
X36.3889 Y0.7379
X36.3833 Y0.7457
X36.3789 Y0.7514
X36.376 Y0.7551
X36.3725 Y0.7593
X36.3684 Y0.764
X36.3641 Y0.7687
X36.3596 Y0.7733
X36.3562 Y0.7767
X36.354 Y0.7789
X36.3505 Y0.7821
X36.3459 Y0.7863
X36.3412 Y0.7902
X36.3366 Y0.794
X36.3319 Y0.7977
X36.3271 Y0.8013
X36.3213 Y0.8053
X36.3146 Y0.8097
X36.3083 Y0.8136
X36.3025 Y0.817
X36.2968 Y0.8202
X36.291 Y0.8231
X36.2873 Y0.825
X36.2858 Y0.8257
X36.2801 Y0.8283
X36.2701 Y0.8325
X36.2622 Y0.8355
X36.2564 Y0.8375
X36.2506 Y0.8393
X36.2449 Y0.841
X36.2391 Y0.8426
X36.2333 Y0.844
X36.2276 Y0.8452
X36.2218 Y0.8464
X36.215 Y0.8475
X36.2071 Y0.8486
X36.2027 Y0.8492
X36.2068 Y4.7341
X36.993
X36.9869 Y3.778
X36.9867 Y3.7752 Z0.1731
X36.9864 Y3.7724 Z0.1733
X36.9859 Y3.7697 Z0.1737
X36.9852 Y3.767 Z0.1743
X36.9845 Y3.7644 Z0.175
X36.9836 Y3.7619 Z0.1758
X36.9826 Y3.7595 Z0.1768
X36.9814 Y3.7572 Z0.178
X36.9802 Y3.755 Z0.1792
X36.979 Y3.753 Z0.1807
X36.9777 Y3.751 Z0.1822
X36.9763 Y3.7493 Z0.1839
X36.9749 Y3.7476 Z0.1857
X36.9736 Y3.7461 Z0.1876
X36.9722 Y3.7447 Z0.1897
X36.9709 Y3.7435 Z0.1918
X36.9696 Y3.7424 Z0.1941
X36.9684 Y3.7414 Z0.1964
X36.9673 Y3.7405 Z0.1988
X36.9663 Y3.7398 Z0.2013
X36.9653 Y3.7391 Z0.2039
X36.9645 Y3.7386 Z0.2065
X36.9638 Y3.7381 Z0.2092
X36.9632 Y3.7377 Z0.2119
X36.9627 Y3.7375 Z0.2146
X36.9623 Y3.7373 Z0.2174
X36.9621 Y3.7371 Z0.2202
Z0.223
G0 Z0.823
X38.4325 Y3.6491
Z0.5182
G1 Z0.3963 F50.
Y3.6488 Z0.391 F100.
Y3.6479 Z0.3857
Y3.6465 Z0.3805
Y3.6446 Z0.3755
Y3.6421 Z0.3708
Y3.6391 Z0.3663
Y3.6357 Z0.3622
X38.4324 Y3.6318 Z0.3585
Y3.6276 Z0.3552
Y3.623 Z0.3524
Y3.6182 Z0.3501
X38.4323 Y3.6131 Z0.3483
Y3.6079 Z0.3471
Y3.6026 Z0.3465
X38.42 Y1.1707 Z0.1764
G2 X38.4056 Y1.1476 Z0.1744 I-0.026 J0.0001
G1 X38.3999 Y1.1447 Z0.174
G2 X38.3885 Y1.1418 Z0.1731 I-0.012 J0.0231
G1 X38.3868 Z0.173
X38.385 Y1.142
G2 X38.3619 Y1.168 I0.0029 J0.0259 F140.
G1 X38.3823 Y4.3287
G2 X38.436 Y4.3284 I0.0268 J-0.0002
G1 X38.42 Y1.1728
Y1.1707
G2 X38.4056 Y1.1476 I-0.026 J0.0001
G1 X38.3999 Y1.1447
G2 X38.385 Y1.142 I-0.012 J0.0231
G3 X38.2906 Y1.0837 I-0.0101 J-0.0893
G2 X38.1815 Y1.1035 I-0.0528 J0.0195
G1 X38.2033 Y4.4902
G2 X38.2664 Y4.5529 I0.0631 J-0.0004
G1 X38.5546
G2 X38.6168 Y4.4904 I0. J-0.0622
G1 X38.5996 Y1.0964
G2 X38.5376 Y1.0088 I-0.0935 J0.0005
G3 X38.3108 Y0.8252 I0.1482 J-0.4149
G2 X38.2492 Y0.8247 I-0.031 J0.019
G3 X38.2294 Y0.8535 I-0.441 J-0.2814
X38.2074 Y0.8807 I-0.3069 J-0.226
G1 X38.2049 Y0.8834
X38.2023 Y0.886
G2 X38.1804 Y0.9426 I0.0609 J0.056
G1 X38.1815 Y1.1035
G3 X38.0918 Y1.24 I-0.1472 J0.001
G2 X38.0021 Y1.3765 I0.0575 J0.1355
G1 X38.0237 Y4.7341
X38.7992
X38.7796 Y0.8529
X38.689 Y0.8533
X38.6847
X38.6732 Y0.853
X38.6646 Y0.8525
X38.6588 Y0.8519
X38.6531 Y0.8512
X38.6473 Y0.8504
X38.64 Y0.8492
X38.6311 Y0.8474
X38.6253 Y0.8461
X38.6227 Y0.8455
X38.6185 Y0.8444
X38.6127 Y0.8428
X38.6069 Y0.841
X38.6012 Y0.8391
X38.5954 Y0.837
X38.5896 Y0.8348
X38.5839 Y0.8324
X38.5781 Y0.8298
X38.5726 Y0.8273
X38.5675 Y0.8247
X38.5617 Y0.8217
X38.5553 Y0.818
X38.5492 Y0.8144
X38.5435 Y0.8107
X38.5376 Y0.8068
X38.5317 Y0.8025
X38.5259 Y0.7981
X38.5202 Y0.7935
X38.5145 Y0.7887
X38.5088 Y0.7835
X38.5051 Y0.78
X38.5033 Y0.7782
X38.4998 Y0.7746
X38.4946 Y0.7692
X38.4898 Y0.7638
X38.4852 Y0.7584
X38.4827 Y0.7553
X38.4821 Y0.7546
X38.4797 Y0.7514
X38.4754 Y0.7457
X38.4714 Y0.7399
X38.4675 Y0.7341
X38.4642 Y0.7288
X38.4613 Y0.7239
X38.4581 Y0.7182
X38.4545 Y0.7115
X38.4515 Y0.7053
X38.4488 Y0.6995
X38.4463 Y0.6938
X38.444 Y0.688
X38.4412 Y0.6807
X38.4382 Y0.6717
X38.4364 Y0.6659
X38.4357 Y0.6633
X38.4346 Y0.6592
X38.4332 Y0.6534
X38.4319 Y0.6477
X38.4307 Y0.6419
X38.4297 Y0.6361
X38.4288 Y0.6304
X38.428 Y0.6246
X38.4274 Y0.6189
X38.4267 Y0.6102
X38.4262 Y0.5987
X38.4261 Y0.5938
X38.4167 Y-1.2659
X38.1247
X38.1367 Y0.5808
G3 X38.1366 Y0.5937 I-1.2989 J0.0016
G1 X38.1364 Y0.6009
X38.1361 Y0.6066
X38.1356 Y0.6124
X38.135 Y0.6182
X38.1342 Y0.6239
X38.1334 Y0.6297
X38.1324 Y0.6354
X38.1313 Y0.6412
X38.13 Y0.647
X38.1286 Y0.6527
X38.127 Y0.6585
X38.1254 Y0.6643
X38.1235 Y0.67
X38.1215 Y0.6758
X38.1194 Y0.6817
X38.117 Y0.6876
X38.1145 Y0.6935
X38.1119 Y0.6991
X38.1091 Y0.7048
X38.1062 Y0.7104
X38.1033 Y0.7157
X38.1005 Y0.7207
X38.0974 Y0.7257
X38.0943 Y0.7306
X38.0921 Y0.7339
X38.091 Y0.7355
X38.0884 Y0.7392
X38.0842 Y0.745
X38.0797 Y0.7507
X38.075 Y0.7565
X38.0718 Y0.7602
X38.0703 Y0.7618
X38.0671 Y0.7653
X38.0622 Y0.7705
X38.0572 Y0.7754
X38.0522 Y0.7801
X38.0489 Y0.7831
X38.0473 Y0.7845
X38.0437 Y0.7876
X38.0379 Y0.7923
X38.0321 Y0.7967
X38.0264 Y0.8009
X38.0225 Y0.8036
X38.0207 Y0.8048
X38.0149 Y0.8084
X38.0053 Y0.8142
X37.9985 Y0.818
X38.0021 Y1.3765
X38.0022 Y1.3793 Z0.1731
X38.0026 Y1.382 Z0.1733
X38.003 Y1.3848 Z0.1737
X38.0037 Y1.3874 Z0.1743
X38.0044 Y1.39 Z0.175
X38.0053 Y1.3926 Z0.1758
X38.0064 Y1.395 Z0.1768
X38.0075 Y1.3973 Z0.178
X38.0087 Y1.3995 Z0.1792
X38.0099 Y1.4015 Z0.1807
X38.0113 Y1.4034 Z0.1822
X38.0126 Y1.4052 Z0.1839
X38.014 Y1.4069 Z0.1857
X38.0154 Y1.4084 Z0.1876
X38.0167 Y1.4098 Z0.1897
X38.018 Y1.411 Z0.1918
X38.0193 Y1.4121 Z0.1941
X38.0205 Y1.4131 Z0.1964
X38.0216 Y1.414 Z0.1988
X38.0227 Y1.4147 Z0.2013
X38.0236 Y1.4154 Z0.2039
X38.0244 Y1.4159 Z0.2065
X38.0252 Y1.4164 Z0.2092
X38.0258 Y1.4167 Z0.2119
X38.0262 Y1.417 Z0.2146
X38.0266 Y1.4172 Z0.2174
X38.0268 Y1.4173 Z0.2202
Y1.4174 Z0.223
G0 Z0.823
X40.1225 Y1.0867
Z0.5182
G1 Z0.3963 F50.
Y1.0864 Z0.391 F100.
Y1.0855 Z0.3857
Y1.0841 Z0.3805
Y1.0821 Z0.3755
Y1.0797 Z0.3708
Y1.0767 Z0.3663
Y1.0732 Z0.3622
Y1.0694 Z0.3585
Y1.0651 Z0.3552
Y1.0606 Z0.3524
Y1.0557 Z0.3501
Y1.0507 Z0.3483
Y1.0455 Z0.3471
X40.1226 Y1.0402 Z0.3465
X40.1262 Y-1.2659 Z0.1852
X39.9535 Z0.1731
X39.95 Z0.173
X39.8132 F140.
X39.8436 Y4.7341
X40.1168
X40.1259 Y-1.1094
X40.1262 Y-1.2659
X39.95
X39.9472 Y-1.2657 Z0.1731
X39.9444 Y-1.2654 Z0.1733
X39.9417 Y-1.265 Z0.1737
X39.939 Y-1.2644 Z0.1743
X39.9364 Y-1.2636 Z0.175
X39.9338 Y-1.2627 Z0.1758
X39.9314 Y-1.2617 Z0.1768
X39.9291 Y-1.2606 Z0.178
X39.9269 Y-1.2594 Z0.1792
X39.9249 Y-1.2582 Z0.1807
X39.9229 Y-1.2569 Z0.1822
X39.9211 Y-1.2555 Z0.1839
X39.9195 Y-1.2542 Z0.1857
X39.918 Y-1.2528 Z0.1876
X39.9166 Y-1.2515 Z0.1897
X39.9153 Y-1.2502 Z0.1918
X39.9142 Y-1.2489 Z0.1941
X39.9132 Y-1.2477 Z0.1964
X39.9123 Y-1.2466 Z0.1988
X39.9116 Y-1.2455 Z0.2013
X39.9109 Y-1.2446 Z0.2039
X39.9104 Y-1.2438 Z0.2065
X39.9099 Y-1.2431 Z0.2092
X39.9095 Y-1.2425 Z0.2119
X39.9093 Y-1.242 Z0.2146
X39.9091 Y-1.2416 Z0.2174
X39.9089 Y-1.2414 Z0.2202
Z0.223
G0 Z0.823
X41.5391 Y1.9841
Z0.5182
G1 Z0.3963 F50.
Y1.9844 Z0.391 F100.
Y1.9852 Z0.3857
Y1.9866 Z0.3805
Y1.9886 Z0.3755
Y1.9911 Z0.3708
Y1.9941 Z0.3663
Y1.9975 Z0.3622
Y2.0014 Z0.3585
Y2.0056 Z0.3552
Y2.0102 Z0.3524
Y2.015 Z0.3501
Y2.02 Z0.3483
Y2.0253 Z0.3471
X41.539 Y2.0306 Z0.3465
X41.5354 Y4.326 Z0.186
G2 X41.5825 Y4.3731 Z0.1808 I0.0471 J0.0001
G1 X41.5948 Z0.1799
G2 X41.6419 Y4.3256 Z0.1747 I0. J-0.0471
G1 X41.6417 Y4.3029 Z0.1731
X41.6416 Y4.2994 Z0.173
X41.6121 Y1.1647 F140.
G2 X41.56 Y1.1344 I-0.035 J0.0003
G1 X41.5584 Y1.1353
G2 X41.5404 Y1.1659 I0.017 J0.0306
G1 X41.5354 Y4.326
G2 X41.5825 Y4.3731 I0.0471 J0.0001
G1 X41.5948
G2 X41.6419 Y4.3256 I0. J-0.0471
G1 X41.6416 Y4.2994
G3 X41.7304 Y4.1636 I0.1462 J-0.0014
G2 X41.8191 Y4.0277 I-0.0575 J-0.1345
G1 X41.7902 Y0.9597
G2 X41.7617 Y0.8858 I-0.1129 J0.0011
G3 X41.7304 Y0.8458 I0.3029 J-0.2692
X41.7041 Y0.8024 I0.3706 J-0.2543
G2 X41.6456 Y0.8022 I-0.0293 J0.0156
G3 X41.4235 Y1.0006 I-0.3861 J-0.2087
G2 X41.3605 Y1.0939 I0.0378 J0.0934
G1 X41.3552 Y4.4892
G2 X41.4189 Y4.5531 I0.0637 J0.0001
G1 X41.7603
G2 X41.8234 Y4.4894 I0. J-0.0631
G1 X41.8191 Y4.0277
G3 X41.9083 Y3.8911 I0.1471 J-0.0014
G2 X41.9975 Y3.7545 I-0.0578 J-0.1352
G1 X41.9699 Y0.824
X41.9673 Y0.8226
X41.9615 Y0.8193
X41.9542 Y0.8148
X41.9481 Y0.8109
X41.9433 Y0.8075
X41.9384 Y0.804
X41.9336 Y0.8003
X41.9303 Y0.7977
X41.9284 Y0.7962
X41.9248 Y0.7931
X41.9194 Y0.7884
X41.914 Y0.7834
X41.9086 Y0.7781
X41.9056 Y0.775
X41.9048 Y0.7742
X41.902 Y0.7712
X41.8972 Y0.7658
X41.8927 Y0.7604
X41.8884 Y0.7551
X41.885 Y0.7507
X41.8826 Y0.7474
X41.8786 Y0.7417
X41.8732 Y0.7334
X41.869 Y0.7264
X41.8657 Y0.7207
X41.8626 Y0.7149
X41.8597 Y0.7091
X41.857 Y0.7034
X41.8544 Y0.6976
X41.8521 Y0.6918
X41.8498 Y0.6861
X41.8478 Y0.6803
X41.8458 Y0.6746
X41.8441 Y0.6688
X41.8424 Y0.663
X41.841 Y0.6573
X41.8396 Y0.6515
X41.8384 Y0.6457
X41.8373 Y0.64
X41.8364 Y0.6343
X41.8356 Y0.6286
X41.8349 Y0.6229
X41.8344 Y0.617
X41.8338 Y0.6088
X41.8335 Y0.5972
X41.8334 Y0.5944
X41.8159 Y-1.2611
Y-1.2615
Y-1.2619
Y-1.2659
X41.521
X41.518 Y0.5933
X41.5179 Y0.5993
X41.5174 Y0.6089
X41.517 Y0.6147
X41.5169 Y0.6165
X41.5165 Y0.6204
X41.5158 Y0.6261
X41.5149 Y0.6319
X41.514 Y0.6377
X41.5129 Y0.6434
X41.5116 Y0.6492
X41.5103 Y0.6549
X41.5087 Y0.6607
X41.5071 Y0.6665
X41.5053 Y0.6722
X41.5033 Y0.678
X41.5012 Y0.6838
X41.4987 Y0.6902
X41.4956 Y0.6974
X41.493 Y0.7031
X41.4909 Y0.7075
X41.4883 Y0.7126
X41.4852 Y0.7183
X41.4819 Y0.7241
X41.4784 Y0.7299
X41.4752 Y0.7348
X41.4724 Y0.739
X41.4683 Y0.7448
X41.4627 Y0.7521
X41.4599 Y0.7557
X41.4569 Y0.7593
X41.451 Y0.7661
X41.4456 Y0.7718
X41.441 Y0.7765
X41.4353 Y0.782
X41.4284 Y0.7882
X41.4215 Y0.794
X41.4147 Y0.7993
X41.4089 Y0.8036
X41.4042 Y0.8069
X41.3989 Y0.8104
X41.3931 Y0.814
X41.3874 Y0.8174
X41.3816 Y0.8206
X41.3773 Y0.8229
X41.3746 Y0.8242
X41.3689 Y0.827
X41.3601 Y0.8309
X41.3528 Y0.834
X41.347 Y0.8361
X41.3412 Y0.8382
X41.3354 Y0.84
X41.3297 Y0.8418
X41.3239 Y0.8434
X41.3181 Y0.8448
X41.3124 Y0.8461
X41.3078 Y0.847
X41.3045 Y0.8477
X41.2987 Y0.8486
X41.2905 Y0.8498
X41.2835 Y0.8506
X41.2778 Y0.8511
X41.272 Y0.8515
X41.2662 Y0.8517
X41.2607 Y0.8518
X41.2376
X41.2374
X41.1799 Y0.8517
X41.1738 Y4.7341
X42.0068
X41.9975 Y3.7545
X41.9973 Y3.7517 Z0.1731
X41.997 Y3.749 Z0.1733
X41.9965 Y3.7462 Z0.1737
X41.9959 Y3.7435 Z0.1743
X41.9951 Y3.7409 Z0.175
X41.9942 Y3.7384 Z0.1758
X41.9932 Y3.736 Z0.1768
X41.992 Y3.7337 Z0.178
X41.9908 Y3.7315 Z0.1792
X41.9896 Y3.7295 Z0.1807
X41.9882 Y3.7276 Z0.1822
X41.9869 Y3.7258 Z0.1839
X41.9855 Y3.7241 Z0.1857
X41.9841 Y3.7226 Z0.1876
X41.9828 Y3.7213 Z0.1897
X41.9815 Y3.72 Z0.1918
X41.9802 Y3.7189 Z0.1941
X41.979 Y3.7179 Z0.1964
X41.9778 Y3.7171 Z0.1988
X41.9768 Y3.7163 Z0.2013
X41.9759 Y3.7157 Z0.2039
X41.975 Y3.7151 Z0.2065
X41.9743 Y3.7147 Z0.2092
X41.9737 Y3.7143 Z0.2119
X41.9732 Y3.714 Z0.2146
X41.9729 Y3.7138 Z0.2174
X41.9727 Y3.7137 Z0.2202
X41.9726 Z0.223
G0 Z0.823
X43.5027 Y3.665
Z0.5182
G1 Z0.3963 F50.
Y3.6647 Z0.391 F100.
Y3.6638 Z0.3857
Y3.6624 Z0.3805
Y3.6605 Z0.3755
Y3.658 Z0.3708
Y3.655 Z0.3663
Y3.6516 Z0.3622
Y3.6477 Z0.3585
Y3.6435 Z0.3552
Y3.6389 Z0.3524
Y3.6341 Z0.3501
X43.5026 Y3.629 Z0.3483
Y3.6238 Z0.3471
Y3.6185 Z0.3465
X43.497 Y1.1554 Z0.1742
G2 X43.4924 Y1.1406 Z0.1731 I-0.026 J0.0001
G1 X43.4914 Y1.1392 Z0.173
X43.4903 Y1.1379
X43.4883 Y1.1359 F140.
X43.4861 Y1.1342
X43.4837 Y1.1327
X43.4809 Y1.1311
G2 X43.442 Y1.154 I-0.0129 J0.0226
G1 X43.4669 Y3.7915
G2 X43.503 Y3.7913 I0.0181 J-0.0002
G1 X43.497 Y1.1564
Y1.1554
G2 X43.4903 Y1.1379 I-0.026 J0.0001
G3 X43.4536 Y0.9731 I0.1259 J-0.1145
G2 X43.3077 Y0.8883 I-0.0827 J-0.0256
G3 X43.2939 Y0.9024 I-0.3077 J-0.2882
G2 X43.2604 Y0.9828 I0.0771 J0.0793
G1 X43.2934 Y4.4902
G2 X43.3568 Y4.5529 I0.0633 J-0.0006
G1 X43.6222
G2 X43.6846 Y4.4904 I0. J-0.0624
G1 X43.6769 Y1.0912
G2 X43.6155 Y0.9974 I-0.1027 J0.0002
G3 X43.5038 Y0.9278 I0.1857 J-0.4224
X43.4173 Y0.8287 I0.278 J-0.3298
G2 X43.3549 Y0.8281 I-0.0314 J0.0199
G3 X43.3264 Y0.8669 I-0.3866 J-0.2539
X43.3077 Y0.8883 I-0.3265 J-0.2668
X43.1843 Y0.9137 I-0.0797 J-0.0746
G2 X43.0792 Y0.9832 I-0.0301 J0.0688
G1 X43.1145 Y4.7341
X43.8664
X43.8575 Y0.852
X43.7987 Y0.8521
X43.7983
X43.7868
X43.7811 Y0.852
X43.7754 Y0.8518
X43.7696 Y0.8514
X43.7638 Y0.8509
X43.7561 Y0.8499
X43.7464 Y0.8485
X43.7407 Y0.8475
X43.7388 Y0.8471
X43.735 Y0.8463
X43.7292 Y0.845
X43.7235 Y0.8435
X43.7177 Y0.842
X43.7119 Y0.8402
X43.7062 Y0.8383
X43.7004 Y0.8363
X43.6946 Y0.8341
X43.6871 Y0.831
X43.6779 Y0.8268
X43.6721 Y0.824
X43.6698 Y0.8228
X43.6658 Y0.8207
X43.66 Y0.8174
X43.6542 Y0.814
X43.6485 Y0.8104
X43.6431 Y0.8068
X43.6381 Y0.8033
X43.6323 Y0.799
X43.6258 Y0.7939
X43.619 Y0.7881
X43.6119 Y0.7818
X43.6062 Y0.7762
X43.6017 Y0.7716
X43.5964 Y0.7659
X43.5904 Y0.759
X43.5874 Y0.7555
X43.5846 Y0.7518
X43.5791 Y0.7445
X43.575 Y0.7387
X43.5722 Y0.7345
X43.5691 Y0.7296
X43.5656 Y0.7238
X43.5623 Y0.718
X43.5592 Y0.7123
X43.5566 Y0.7071
X43.5544 Y0.7026
X43.5518 Y0.6968
X43.5488 Y0.6898
X43.5463 Y0.6834
X43.5443 Y0.6777
X43.5423 Y0.6719
X43.5405 Y0.6662
X43.5389 Y0.6604
X43.5374 Y0.6546
X43.5361 Y0.6489
X43.5348 Y0.6431
X43.5337 Y0.6373
X43.5328 Y0.6316
X43.532 Y0.6258
X43.5313 Y0.62
X43.5308 Y0.6149
X43.5304 Y0.6102
X43.5301 Y0.6045
X43.5299 Y0.5976
X43.5298 Y0.5934
X43.5256 Y-1.2659
X43.2281
X43.2455 Y0.5804
Y0.5828
X43.2454 Y0.5943
X43.245 Y0.6023
X43.2446 Y0.608
X43.2441 Y0.6138
X43.2434 Y0.6196
X43.2426 Y0.6253
X43.2417 Y0.6311
X43.2407 Y0.6369
X43.2395 Y0.6426
X43.2381 Y0.6484
X43.2367 Y0.6541
X43.235 Y0.6599
X43.2333 Y0.6657
X43.2311 Y0.6722
X43.2285 Y0.6794
X43.2262 Y0.6851
X43.2244 Y0.6894
X43.2222 Y0.6945
X43.2195 Y0.7003
X43.2166 Y0.706
X43.2135 Y0.7118
X43.21 Y0.7179
X43.2061 Y0.7245
X43.2024 Y0.7302
X43.199 Y0.7352
X43.1954 Y0.7403
X43.1915 Y0.7455
X43.1875 Y0.7506
X43.1832 Y0.7558
X43.1805 Y0.7589
X43.1794 Y0.7601
X43.1763 Y0.7635
X43.171 Y0.769
X43.1658 Y0.7742
X43.1606 Y0.7791
X43.1573 Y0.7821
X43.156 Y0.7832
X43.1528 Y0.7859
X43.1477 Y0.7901
X43.1425 Y0.7941
X43.1374 Y0.7979
X43.1322 Y0.8015
X43.1268 Y0.8051
X43.1211 Y0.8087
X43.1149 Y0.8124
X43.1089 Y0.8157
X43.1031 Y0.8187
X43.0974 Y0.8216
X43.0916 Y0.8242
X43.086 Y0.8267
X43.0807 Y0.8288
X43.0777 Y0.83
X43.0792 Y0.9832
X43.0794 Y0.986 Z0.1731
X43.0797 Y0.9888 Z0.1733
X43.0802 Y0.9915 Z0.1737
X43.0808 Y0.9942 Z0.1743
X43.0816 Y0.9968 Z0.175
X43.0825 Y0.9993 Z0.1758
X43.0835 Y1.0017 Z0.1768
X43.0847 Y1.004 Z0.178
X43.0859 Y1.0062 Z0.1792
X43.0872 Y1.0082 Z0.1807
X43.0885 Y1.0102 Z0.1822
X43.0898 Y1.0119 Z0.1839
X43.0912 Y1.0136 Z0.1857
X43.0926 Y1.0151 Z0.1876
X43.0939 Y1.0165 Z0.1897
X43.0953 Y1.0177 Z0.1918
X43.0965 Y1.0188 Z0.1941
X43.0977 Y1.0198 Z0.1964
X43.0989 Y1.0207 Z0.1988
X43.0999 Y1.0214 Z0.2013
X43.1009 Y1.0221 Z0.2039
X43.1017 Y1.0226 Z0.2065
X43.1024 Y1.0231 Z0.2092
X43.103 Y1.0234 Z0.2119
X43.1035 Y1.0237 Z0.2146
X43.1038 Y1.0239 Z0.2174
X43.104 Y1.024 Z0.2202
X43.1041 Y1.0241 Z0.223
G0 Z0.823
X45.5927 Y-0.9049
Z0.223
G1 X45.5924 Z0.2174 F140.
X45.5915 Z0.2119
X45.5899 Z0.2065
X45.5878 Z0.2013
X45.585 Z0.1964
X45.5818 Z0.1918
X45.5781 Z0.1876
X45.5739 Z0.1839
X45.5693 Z0.1807
X45.5644 Z0.178
X45.5592 Z0.1758
X45.5538 Z0.1743
X45.5483 Z0.1733
X45.5427 Z0.173
X45.3941
X45.356
G2 X45.2923 Y-0.8411 I0. J0.0637
G1 X45.304 Y4.3092
G2 X45.368 Y4.3731 I0.064 J-0.0001
G1 X45.3942
X45.5908
X45.5964 Z0.1733
X45.6019 Z0.1743
X45.6073 Z0.1758
X45.6125 Z0.178
X45.6174 Z0.1807
X45.6219 Z0.1839
X45.6261 Z0.1876
X45.6299 Z0.1918
X45.6331 Z0.1964
X45.6358 Z0.2013
X45.638 Z0.2065
X45.6395 Z0.2119
X45.6405 Z0.2174
X45.6408 Z0.223
G0 Z0.823
X45.5927 Y-1.0849
Z0.223
G1 X45.5924 Z0.2174 F140.
X45.5915 Z0.2119
X45.5899 Z0.2065
X45.5878 Z0.2013
X45.585 Z0.1964
X45.5818 Z0.1918
X45.5781 Z0.1876
X45.5739 Z0.1839
X45.5693 Z0.1807
X45.5644 Z0.178
X45.5592 Z0.1758
X45.5538 Z0.1743
X45.5483 Z0.1733
X45.5427 Z0.173
X45.3941
X45.1756
G2 X45.1119 Y-1.0211 I0. J0.0637
G1 X45.1244 Y4.4892
G2 X45.1884 Y4.5531 I0.064 J-0.0001
G1 X45.3941
X45.5907
X45.5963 Z0.1733
X45.6019 Z0.1743
X45.6073 Z0.1758
X45.6124 Z0.178
X45.6173 Z0.1807
X45.6219 Z0.1839
X45.6261 Z0.1876
X45.6298 Z0.1918
X45.6331 Z0.1964
X45.6358 Z0.2013
X45.6379 Z0.2065
X45.6395 Z0.2119
X45.6404 Z0.2174
X45.6407 Z0.223
G0 Z0.823
X45.5927 Y-1.2351
Z0.218
G1 X45.5924 Z0.213 F140.
X45.5916 Y-1.2353 Z0.208
X45.5902 Y-1.2355 Z0.2031
X45.5883 Y-1.2358 Z0.1985
X45.5859 Y-1.2362 Z0.1941
X45.583 Y-1.2366 Z0.1899
X45.5797 Y-1.2371 Z0.1862
X45.576 Y-1.2377 Z0.1828
X45.5719 Y-1.2384 Z0.1799
X45.5675 Y-1.2391 Z0.1775
X45.5629 Y-1.2398 Z0.1755
X45.5581 Y-1.2406 Z0.1741
X45.5532 Y-1.2413 Z0.1733
X45.5483 Y-1.2421 Z0.173
X45.402 Y-1.2653
X45.3981 Y-1.2657
X45.3942 Y-1.2659
X44.9303
X44.9439 Y4.7341
X45.3941
X45.3981 Y4.7339
X45.4019 Y4.7335
X45.5961 Y4.7027
X45.6017 Y4.7018 Z0.1733
X45.6071 Y4.701 Z0.1743
X45.6125 Y4.7001 Z0.1758
X45.6176 Y4.6993 Z0.178
X45.6224 Y4.6986 Z0.1807
X45.6269 Y4.6978 Z0.1839
X45.6311 Y4.6972 Z0.1877
X45.6347 Y4.6966 Z0.1918
X45.638 Y4.6961 Z0.1964
X45.6406 Y4.6957 Z0.2013
X45.6428 Y4.6953 Z0.2065
X45.6443 Y4.6951 Z0.2119
X45.6452 Y4.6949 Z0.2174
X45.6455 Z0.223
G0 Z0.823
X21.4217 Y1.0883
Z0.5182
G1 Z0.3963 F50.
Y1.0881 Z0.391 F100.
Y1.0872 Z0.3857
Y1.0858 Z0.3805
Y1.0838 Z0.3755
Y1.0813 Z0.3708
Y1.0783 Z0.3663
Y1.0749 Z0.3622
Y1.071 Z0.3585
Y1.0668 Z0.3552
Y1.0623 Z0.3524
X21.4216 Y1.0574 Z0.3501
Y1.0524 Z0.3483
Y1.0471 Z0.3471
Y1.0418 Z0.3465
X21.4204 Y-1.2659 Z0.1851
X21.2494 Z0.1731
X21.2459 Z0.173
X21.11 F140.
X21.1582 Y4.7341
X21.4236
X21.4205 Y-1.1115
X21.4204 Y-1.2659
X21.2459
X21.2431 Y-1.2657 Z0.1731
X21.2403 Y-1.2654 Z0.1733
X21.2376 Y-1.265 Z0.1737
X21.2349 Y-1.2644 Z0.1743
X21.2323 Y-1.2636 Z0.175
X21.2298 Y-1.2627 Z0.1758
X21.2273 Y-1.2617 Z0.1768
X21.225 Y-1.2606 Z0.178
X21.2228 Y-1.2594 Z0.1792
X21.2208 Y-1.2582 Z0.1807
X21.2188 Y-1.2569 Z0.1822
X21.2171 Y-1.2555 Z0.1839
X21.2154 Y-1.2542 Z0.1857
X21.2139 Y-1.2528 Z0.1876
X21.2125 Y-1.2515 Z0.1897
X21.2112 Y-1.2502 Z0.1918
X21.2101 Y-1.2489 Z0.1941
X21.2091 Y-1.2477 Z0.1964
X21.2083 Y-1.2466 Z0.1988
X21.2075 Y-1.2455 Z0.2013
X21.2068 Y-1.2446 Z0.2039
X21.2063 Y-1.2438 Z0.2065
X21.2058 Y-1.2431 Z0.2092
X21.2055 Y-1.2425 Z0.2119
X21.2052 Y-1.242 Z0.2146
X21.205 Y-1.2416 Z0.2174
X21.2049 Y-1.2414 Z0.2202
X21.2048 Z0.223
G0 Z0.823
X19.6589 Y1.9214
Z0.5182
G1 Z0.3963 F50.
Y1.9217 Z0.391 F100.
Y1.9225 Z0.3857
Y1.924 Z0.3805
Y1.9259 Z0.3755
Y1.9284 Z0.3708
Y1.9314 Z0.3663
Y1.9348 Z0.3622
Y1.9387 Z0.3585
Y1.9429 Z0.3552
Y1.9475 Z0.3524
X19.659 Y1.9523 Z0.3501
Y1.9574 Z0.3483
Y1.9626 Z0.3471
Y1.9679 Z0.3465
X19.6652 Y4.3471 Z0.1801
G2 X19.6913 Y4.3731 Z0.1772 I0.026 J-0.0001
G1 X19.692
G2 X19.718 Y4.3469 Z0.1743 I0. J-0.026
G1 X19.7179 Y4.33 Z0.1731
Y4.3265 Z0.173
X19.6932 Y1.2588 F140.
G2 X19.6571 Y1.259 I-0.0181 J0.0001
G1 X19.6652 Y4.3471
G2 X19.6913 Y4.3731 I0.026 J-0.0001
G1 X19.692
G2 X19.718 Y4.3469 I0. J-0.026
G1 X19.7179 Y4.3265
G3 X19.8068 Y4.1908 I0.1462 J-0.0012
G2 X19.8957 Y4.055 I-0.0573 J-0.1345
G1 X19.8719 Y1.0944
G2 X19.8087 Y0.997 I-0.1081 J0.0009
G3 X19.6962 Y0.9241 I0.1902 J-0.4168
X19.6107 Y0.8209 I0.2833 J-0.3218
G2 X19.5488 Y0.8204 I-0.0311 J0.0184
G3 X19.4982 Y0.8876 I-0.3854 J-0.2369
G2 X19.4763 Y0.9446 I0.0625 J0.0567
G1 X19.4856 Y4.4892
G2 X19.5497 Y4.5531 I0.0641 J-0.0002
G1 X19.8359
G2 X19.8992 Y4.4893 I0. J-0.0632
G1 X19.8957 Y4.055
G3 X19.9851 Y3.9186 I0.1471 J-0.0012
G2 X20.0745 Y3.7821 I-0.0577 J-0.1353
G1 X20.051 Y0.8541
X19.9908 Y0.8546
X19.9874
X19.9816 Y0.8545
X19.9758 Y0.8543
X19.9701 Y0.8539
X19.9643 Y0.8534
X19.9585 Y0.8528
X19.9528 Y0.852
X19.947 Y0.8512
X19.9412 Y0.8501
X19.9355 Y0.849
X19.9294 Y0.8476
X19.9231 Y0.846
X19.9171 Y0.8444
X19.9117 Y0.8428
X19.9062 Y0.841
X19.9007 Y0.8391
X19.8951 Y0.837
X19.8893 Y0.8346
X19.8835 Y0.8322
X19.8778 Y0.8295
X19.872 Y0.8267
X19.8663 Y0.8237
X19.8605 Y0.8205
X19.8547 Y0.8171
X19.8489 Y0.8135
X19.8432 Y0.8097
X19.8374 Y0.8056
X19.8315 Y0.8013
X19.8257 Y0.7968
X19.82 Y0.792
X19.8143 Y0.7869
X19.8085 Y0.7815
X19.805 Y0.7781
X19.8037 Y0.7767
X19.8003 Y0.7732
X19.795 Y0.7674
X19.7899 Y0.7616
X19.785 Y0.7555
X19.7806 Y0.7497
X19.7765 Y0.7441
X19.7726 Y0.7384
X19.769 Y0.7328
X19.7653 Y0.7266
X19.7614 Y0.7199
X19.7583 Y0.7141
X19.7559 Y0.7093
X19.7534 Y0.704
X19.7508 Y0.6983
X19.7484 Y0.6925
X19.7461 Y0.6867
X19.744 Y0.681
X19.7421 Y0.6752
X19.7403 Y0.6695
X19.7386 Y0.6637
X19.7375 Y0.6595
X19.7368 Y0.6569
X19.7355 Y0.6512
X19.7337 Y0.6422
X19.7324 Y0.6349
X19.7315 Y0.6291
X19.7308 Y0.6234
X19.7303 Y0.6176
X19.7297 Y0.6092
X19.7293 Y0.5977
X19.7292 Y0.5942
X19.7143 Y-1.2613
Y-1.2618
Y-1.2659
X19.428
X19.4328 Y0.5813
Y0.5818
Y0.5933
X19.4326 Y0.5992
X19.4324 Y0.6049
X19.432 Y0.6107
X19.4314 Y0.6165
X19.4308 Y0.6222
X19.43 Y0.628
X19.4291 Y0.6337
X19.428 Y0.6395
X19.4263 Y0.6475
X19.4238 Y0.6576
X19.4223 Y0.6633
X19.4218 Y0.6647
X19.4207 Y0.6683
X19.4188 Y0.6741
X19.4168 Y0.6799
X19.4146 Y0.6856
X19.4122 Y0.6914
X19.4097 Y0.6971
X19.407 Y0.7029
X19.4041 Y0.7087
X19.4019 Y0.713
X19.4002 Y0.716
X19.3969 Y0.7218
X19.3916 Y0.7304
G3 X19.3858 Y0.739 I-0.1107 J-0.0681
G1 X19.3796 Y0.7476
X19.3751 Y0.7533
X19.3728 Y0.7562
X19.3694 Y0.7601
X19.3651 Y0.765
X19.3605 Y0.7699
X19.3557 Y0.7748
X19.3523 Y0.7781
X19.3505 Y0.7798
X19.3472 Y0.7828
X19.3423 Y0.7871
X19.3375 Y0.7912
X19.3326 Y0.7951
X19.3279 Y0.7987
X19.3232 Y0.8021
X19.3175 Y0.806
X19.3106 Y0.8105
X19.3042 Y0.8143
X19.2985 Y0.8176
X19.295 Y0.8195
X19.3052 Y4.7341
X20.0822
X20.0745 Y3.7821
X20.0743 Y3.7793 Z0.1731
X20.074 Y3.7765 Z0.1733
X20.0735 Y3.7738 Z0.1737
X20.0729 Y3.7711 Z0.1743
X20.0721 Y3.7685 Z0.175
X20.0712 Y3.766 Z0.1758
X20.0702 Y3.7636 Z0.1768
X20.0691 Y3.7613 Z0.178
X20.0679 Y3.7591 Z0.1792
X20.0666 Y3.757 Z0.1807
X20.0653 Y3.7551 Z0.1822
X20.0639 Y3.7533 Z0.1839
X20.0625 Y3.7517 Z0.1857
X20.0612 Y3.7502 Z0.1876
X20.0598 Y3.7488 Z0.1897
X20.0585 Y3.7476 Z0.1918
X20.0572 Y3.7465 Z0.1941
X20.056 Y3.7455 Z0.1964
X20.0549 Y3.7446 Z0.1988
X20.0538 Y3.7439 Z0.2013
X20.0529 Y3.7432 Z0.2039
X20.0521 Y3.7427 Z0.2065
X20.0513 Y3.7422 Z0.2092
X20.0507 Y3.7419 Z0.2119
X20.0503 Y3.7416 Z0.2146
X20.0499 Y3.7414 Z0.2174
X20.0497 Y3.7413 Z0.2202
Y3.7412 Z0.223
G0 Z0.823
X17.7581 Y1.9717
Z0.5182
G1 Z0.3963 F50.
Y1.972 Z0.391 F100.
Y1.9729 Z0.3857
Y1.9743 Z0.3805
Y1.9763 Z0.3755
Y1.9788 Z0.3708
Y1.9817 Z0.3663
Y1.9852 Z0.3622
Y1.989 Z0.3585
Y1.9933 Z0.3552
Y1.9978 Z0.3524
X17.7582 Y2.0027 Z0.3501
Y2.0077 Z0.3483
Y2.0129 Z0.3471
Y2.0183 Z0.3465
X17.7639 Y4.3381 Z0.1842
G2 X17.7989 Y4.3731 Z0.1804 I0.035 J-0.0001
G1 X17.8204 Z0.1789
G2 X17.8555 Y4.338 Z0.175 I0. J-0.035
G1 X17.8554 Y4.3107 Z0.1731
Y4.3072 Z0.173
X17.8471 Y1.1501 F140.
G2 X17.7932 Y1.1199 I-0.0355 J0.0001
G3 X17.7739 Y1.1312 I-0.3825 J-0.6289
G2 X17.7561 Y1.1618 I0.0172 J0.0305
G1 X17.7638 Y4.327
X17.7639 Y4.3381
G2 X17.7989 Y4.3731 I0.035 J-0.0001
G1 X17.8204
G2 X17.8555 Y4.338 I0. J-0.035
G1 X17.8554 Y4.3072
G3 X17.945 Y4.1719 I0.1463 J-0.0004
G2 X18.0347 Y4.0367 I-0.0566 J-0.1349
G1 X18.0268 Y1.0214
G2 X17.9793 Y0.9119 I-0.1509 J0.0004
G3 X17.9068 Y0.8221 I0.2896 J-0.3079
G2 X17.8443 Y0.8219 I-0.0313 J0.0189
G3 X17.6391 Y0.997 I-0.3703 J-0.2262
G2 X17.5759 Y1.0914 I0.0386 J0.0942
G1 X17.5842 Y4.4892
G2 X17.6483 Y4.5531 I0.0641 J-0.0002
G1 X17.9722
G2 X18.0359 Y4.4893 I0. J-0.0637
G1 X18.0347 Y4.0367
G3 X18.1248 Y3.9007 I0.1471 J-0.0004
G2 X18.215 Y3.7647 I-0.0569 J-0.1356
G1 X18.2073 Y0.841
X18.2041 Y0.84
X18.1983 Y0.8381
X18.1925 Y0.836
X18.1868 Y0.8338
X18.181 Y0.8314
X18.1751 Y0.8288
X18.169 Y0.8259
X18.1632 Y0.823
X18.1576 Y0.82
X18.1519 Y0.8168
X18.1463 Y0.8134
X18.1397 Y0.8092
X18.1323 Y0.804
X18.1265 Y0.7999
X18.1225 Y0.7967
X18.1181 Y0.7932
X18.1133 Y0.7892
X18.1086 Y0.785
X18.1038 Y0.7806
X18.1005 Y0.7773
X18.0984 Y0.7753
X18.0951 Y0.7719
X18.0907 Y0.7672
X18.0865 Y0.7624
X18.0825 Y0.7577
X18.079 Y0.7533
X18.0759 Y0.7493
X18.0717 Y0.7435
X18.0665 Y0.736
X18.0623 Y0.7295
X18.0589 Y0.7239
X18.0556 Y0.7181
X18.0524 Y0.7122
X18.0495 Y0.7063
X18.0468 Y0.7006
X18.0442 Y0.6948
X18.0418 Y0.689
X18.0396 Y0.6833
X18.0375 Y0.6775
X18.0356 Y0.6718
X18.0338 Y0.666
X18.0317 Y0.6582
X18.0293 Y0.6483
X18.028 Y0.6425
X18.0277 Y0.6409
X18.027 Y0.6372
X18.0261 Y0.6314
X18.0253 Y0.6257
X18.0246 Y0.6199
X18.0241 Y0.6141
X18.0236 Y0.6084
X18.0233 Y0.6026
X18.0232 Y0.5968
X18.0231 Y0.5935
X18.0183 Y-1.2659
X17.7246
X17.7291 Y0.5813
Y0.5818
Y0.5933
X17.729 Y0.5991
X17.7287 Y0.6048
X17.7283 Y0.6106
X17.7278 Y0.6164
X17.7272 Y0.6221
X17.7264 Y0.6279
X17.7255 Y0.6337
X17.7244 Y0.6394
X17.7232 Y0.6452
X17.7219 Y0.6509
X17.7205 Y0.6567
X17.7189 Y0.6625
X17.7165 Y0.67
X17.7134 Y0.6792
X17.7112 Y0.685
X17.7103 Y0.6872
X17.7086 Y0.6913
X17.7061 Y0.6971
X17.7034 Y0.7028
X17.7006 Y0.7086
X17.6966 Y0.716
X17.6913 Y0.7251
X17.6878 Y0.7308
X17.6862 Y0.7333
X17.6834 Y0.7374
X17.6793 Y0.7432
X17.675 Y0.7489
X17.6704 Y0.7547
X17.6674 Y0.7583
X17.6662 Y0.7598
X17.6633 Y0.763
X17.6587 Y0.7681
X17.6538 Y0.7731
X17.6487 Y0.7781
X17.6452 Y0.7814
X17.6434 Y0.7831
X17.6396 Y0.7864
X17.6339 Y0.7912
X17.6281 Y0.7958
X17.6223 Y0.8002
X17.6189 Y0.8026
X17.618 Y0.8033
X17.6148 Y0.8054
X17.6096 Y0.8089
X17.6043 Y0.8122
X17.599 Y0.8153
X17.5915 Y0.8194
X17.5818 Y0.8243
X17.576 Y0.8271
X17.5742 Y0.8279
X17.5704 Y0.8295
X17.5646 Y0.8319
X17.5589 Y0.8341
X17.5531 Y0.8361
X17.5473 Y0.838
X17.5416 Y0.8398
X17.5358 Y0.8414
X17.53 Y0.8428
X17.5242 Y0.8442
X17.5185 Y0.8453
X17.5127 Y0.8464
X17.5069 Y0.8473
X17.4987 Y0.8483
X17.4879 Y0.8494
X17.4822 Y0.8498
X17.4814
X17.4767 Y0.8499
G3 X17.4639 Y0.8501 I-0.0197 J-1.0765
G1 X17.3943 Y0.8503
X17.4038 Y4.7341
X18.2175
X18.215 Y3.7647
X18.2148 Y3.7619 Z0.1731
X18.2145 Y3.7592 Z0.1733
X18.214 Y3.7564 Z0.1737
X18.2134 Y3.7537 Z0.1743
X18.2126 Y3.7511 Z0.175
X18.2117 Y3.7486 Z0.1758
X18.2107 Y3.7462 Z0.1768
X18.2096 Y3.7439 Z0.178
X18.2084 Y3.7417 Z0.1792
X18.2072 Y3.7396 Z0.1807
X18.2059 Y3.7377 Z0.1822
X18.2045 Y3.7359 Z0.1839
X18.2031 Y3.7343 Z0.1857
X18.2018 Y3.7328 Z0.1876
X18.2004 Y3.7314 Z0.1897
X18.1991 Y3.7301 Z0.1918
X18.1979 Y3.729 Z0.1941
X18.1967 Y3.728 Z0.1964
X18.1955 Y3.7271 Z0.1988
X18.1945 Y3.7264 Z0.2013
X18.1936 Y3.7257 Z0.2039
X18.1927 Y3.7252 Z0.2065
X18.192 Y3.7247 Z0.2092
X18.1914 Y3.7244 Z0.2119
X18.1909 Y3.7241 Z0.2146
X18.1906 Y3.7239 Z0.2174
X18.1904 Y3.7238 Z0.2202
X18.1903 Y3.7237 Z0.223
G0 Z0.823
X16.0151 Y2.7083
Z0.5182
G1 Z0.3963 F50.
Y2.7086 Z0.391 F100.
Y2.7095 Z0.3857
Y2.7109 Z0.3805
Y2.7128 Z0.3755
X16.0152 Y2.7153 Z0.3708
Y2.7183 Z0.3663
Y2.7217 Z0.3622
Y2.7256 Z0.3585
Y2.7298 Z0.3552
Y2.7344 Z0.3524
Y2.7392 Z0.3501
Y2.7443 Z0.3483
Y2.7495 Z0.3471
Y2.7548 Z0.3465
X16.0169 Y4.7341 Z0.2081
X16.3387 Z0.1856
X16.3383 Y4.5564 Z0.1731
Y4.5529 Z0.173
X16.3241 Y-1.2659 F140.
X16.0117
X16.0168 Y4.5731
X16.0169 Y4.7341
X16.3387
X16.3383 Y4.5529
X16.3381 Y4.5501 Z0.1731
X16.3378 Y4.5473 Z0.1733
X16.3373 Y4.5446 Z0.1737
X16.3367 Y4.5419 Z0.1743
X16.336 Y4.5393 Z0.175
X16.3351 Y4.5368 Z0.1758
X16.3341 Y4.5344 Z0.1768
X16.333 Y4.5321 Z0.178
X16.3318 Y4.5299 Z0.1792
X16.3305 Y4.5278 Z0.1807
X16.3292 Y4.5259 Z0.1822
X16.3278 Y4.5241 Z0.1839
X16.3265 Y4.5225 Z0.1857
X16.3251 Y4.5209 Z0.1876
X16.3238 Y4.5196 Z0.1897
X16.3225 Y4.5183 Z0.1918
X16.3212 Y4.5172 Z0.1941
X16.32 Y4.5162 Z0.1964
X16.3189 Y4.5153 Z0.1988
X16.3178 Y4.5146 Z0.2013
X16.3169 Y4.5139 Z0.2039
X16.3161 Y4.5134 Z0.2065
X16.3153 Y4.5129 Z0.2092
X16.3147 Y4.5125 Z0.2119
X16.3143 Y4.5123 Z0.2146
X16.3139 Y4.5121 Z0.2174
X16.3137 Y4.5119 Z0.2202
Z0.223
G0 Z0.823
X14.6387 Y3.6875
Z0.5182
G1 Z0.3963 F50.
Y3.6872 Z0.391 F100.
Y3.6863 Z0.3857
Y3.6849 Z0.3805
Y3.6829 Z0.3755
Y3.6805 Z0.3708
Y3.6775 Z0.3663
Y3.674 Z0.3622
Y3.6702 Z0.3585
Y3.6659 Z0.3552
Y3.6614 Z0.3524
Y3.6565 Z0.3501
Y3.6515 Z0.3483
Y3.6463 Z0.3471
Y3.641 Z0.3465
X14.6365 Y1.1783 Z0.1743
G2 X14.6329 Y1.1627 Z0.1731 I-0.035 J0.
G1 X14.632 Y1.1612 Z0.173
X14.6311 Y1.1597
G2 X14.6173 Y1.1471 I-0.0297 J0.0187 F140.
G1 X14.6162 Y1.1465
G2 X14.5653 Y1.178 I-0.0158 J0.0313
G1 X14.5812 Y4.3271
G2 X14.6393 Y4.327 I0.029 J-0.0001
G1 X14.6365 Y1.1785
Y1.1783
G2 X14.6311 Y1.1597 I-0.035 J0.
G3 X14.5993 Y1.0163 I0.1847 J-0.1162
G2 X14.5577 Y0.8755 I-0.1817 J-0.0228
G3 X14.513 Y0.8119 I0.3388 J-0.2855
G2 X14.4535 I-0.0298 J0.0172
G3 X14.4047 Y0.8796 I-0.3566 J-0.2056
G2 X14.384 Y0.9347 I0.0621 J0.0547
G1 X14.402 Y4.4903
G2 X14.465 Y4.5529 I0.063 J-0.0003
G1 X14.7569
G2 X14.8194 Y4.4903 I0. J-0.0625
G1 X14.8165 Y1.0954
G2 X14.7549 Y1.0098 I-0.0904 J0.0001
G3 X14.5577 Y0.8755 I0.1415 J-0.4199
X14.5634 Y0.6817 I0.1112 J-0.0937
G2 X14.6351 Y0.5015 I-0.1896 J-0.1799
G1 X14.6336 Y-1.2659
X14.3235
X14.3328 Y0.581
Y0.5815
Y0.582
Y0.5935
X14.3326 Y0.6002
X14.3323 Y0.606
X14.3318 Y0.6118
X14.3313 Y0.6175
X14.3306 Y0.6233
X14.3297 Y0.6291
X14.3287 Y0.6348
X14.3276 Y0.6406
X14.3266 Y0.6454
X14.3258 Y0.6492
X14.3243 Y0.655
X14.3221 Y0.6627
X14.3201 Y0.6694
X14.3181 Y0.6752
X14.316 Y0.6809
X14.3137 Y0.6867
X14.3114 Y0.6923
X14.309 Y0.6977
X14.3062 Y0.7035
X14.3031 Y0.7096
X14.2999 Y0.7155
X14.2966 Y0.7213
X14.2931 Y0.727
X14.2894 Y0.7328
X14.2854 Y0.7386
X14.2813 Y0.7443
X14.2768 Y0.7501
X14.2722 Y0.7558
X14.2664 Y0.7624
X14.2596 Y0.7698
X14.2539 Y0.7755
X14.2495 Y0.7797
X14.2437 Y0.7848
X14.2366 Y0.7908
X14.233 Y0.7938
X14.2292 Y0.7966
X14.2216 Y0.8021
X14.2158 Y0.8061
X14.2119 Y0.8086
X14.2071 Y0.8116
X14.2023 Y0.8144
X14.2221 Y4.7341
X15.0008
X14.9974 Y0.8515
X14.9028
X14.9025
X14.9021
X14.8906
X14.8843 Y0.8513
X14.8785 Y0.851
X14.8727 Y0.8506
X14.867 Y0.85
X14.8616 Y0.8493
X14.8567 Y0.8487
X14.8509 Y0.8477
X14.8443 Y0.8465
X14.8381 Y0.8452
X14.8324 Y0.8438
X14.8266 Y0.8423
X14.8208 Y0.8407
X14.8151 Y0.8389
X14.8093 Y0.8369
X14.8035 Y0.8348
X14.7978 Y0.8326
X14.7915 Y0.8299
X14.7846 Y0.8268
X14.7789 Y0.824
X14.7742 Y0.8216
X14.7689 Y0.8188
X14.7631 Y0.8155
X14.7574 Y0.812
X14.7516 Y0.8083
X14.7472 Y0.8053
X14.7443 Y0.8032
X14.7384 Y0.7989
X14.7299 Y0.7921
X14.723 Y0.7863
X14.7178 Y0.7816
X14.712 Y0.776
X14.7057 Y0.7695
X14.7004 Y0.7637
X14.696 Y0.7586
X14.692 Y0.7537
X14.6882 Y0.7489
X14.6846 Y0.744
X14.6812 Y0.7392
X14.6789 Y0.7358
X14.6777 Y0.734
X14.6753 Y0.7302
X14.6717 Y0.7244
X14.6684 Y0.7187
X14.6653 Y0.7129
X14.6619 Y0.7061
X14.6582 Y0.6984
X14.6557 Y0.6926
X14.6541 Y0.6888
X14.6522 Y0.6841
X14.6501 Y0.6783
X14.6482 Y0.6725
X14.6463 Y0.6668
X14.6447 Y0.661
X14.6431 Y0.6553
X14.6418 Y0.6495
X14.6405 Y0.6437
X14.6394 Y0.638
X14.6384 Y0.6322
X14.6376 Y0.6264
X14.6369 Y0.6207
X14.6363 Y0.6149
X14.6358 Y0.6091
X14.6355 Y0.6034
X14.6353 Y0.5976
X14.6352 Y0.5933
X14.6351 Y0.5015
X14.635 Y0.4987 Z0.1731
X14.6347 Y0.496 Z0.1733
X14.6342 Y0.4932 Z0.1737
X14.6336 Y0.4905 Z0.1743
X14.6328 Y0.4879 Z0.175
X14.6319 Y0.4854 Z0.1758
X14.6309 Y0.483 Z0.1768
X14.6298 Y0.4807 Z0.178
X14.6286 Y0.4785 Z0.1792
X14.6274 Y0.4764 Z0.1807
X14.6261 Y0.4745 Z0.1822
X14.6247 Y0.4727 Z0.1839
X14.6234 Y0.4711 Z0.1857
X14.622 Y0.4695 Z0.1876
X14.6207 Y0.4682 Z0.1897
X14.6194 Y0.4669 Z0.1918
X14.6181 Y0.4658 Z0.1941
X14.6169 Y0.4648 Z0.1964
X14.6158 Y0.4639 Z0.1988
X14.6147 Y0.4632 Z0.2013
X14.6138 Y0.4625 Z0.2039
X14.613 Y0.4619 Z0.2065
X14.6123 Y0.4615 Z0.2092
X14.6117 Y0.4611 Z0.2119
X14.6112 Y0.4608 Z0.2146
X14.6108 Y0.4606 Z0.2174
X14.6106 Y0.4605 Z0.2202
Z0.223
G0 Z0.823
X12.7668 Y1.9213
Z0.5182
G1 Z0.3963 F50.
Y1.9216 Z0.391 F100.
Y1.9224 Z0.3857
Y1.9239 Z0.3805
Y1.9258 Z0.3755
Y1.9283 Z0.3708
Y1.9313 Z0.3663
Y1.9347 Z0.3622
Y1.9386 Z0.3585
Y1.9428 Z0.3552
Y1.9474 Z0.3524
Y1.9522 Z0.3501
Y1.9573 Z0.3483
Y1.9625 Z0.3471
Y1.9678 Z0.3465
X12.7634 Y4.347 Z0.1801
G2 X12.7895 Y4.3731 Z0.1772 I0.026 J0.
G1 X12.7902
G2 X12.8162 Y4.3469 Z0.1743 I0. J-0.026
G1 Y4.3301 Z0.1731
X12.8161 Y4.3266 Z0.173
X12.8032 Y1.765 F140.
G2 X12.767 I-0.0181 J0.0001
G1 X12.7634 Y4.3465
Y4.347
G2 X12.7895 Y4.3731 I0.026 J0.
G1 X12.7902
G2 X12.8162 Y4.3469 I0. J-0.026
G1 X12.8161 Y4.3266
G3 X12.9055 Y4.1911 I0.1462 J-0.0007
G2 X12.9948 Y4.0557 I-0.0569 J-0.1347
G1 X12.9796 Y1.0661
G2 X12.9174 Y0.9352 I-0.1705 J0.0009
G3 X12.8148 Y0.815 I0.2857 J-0.3478
G2 X12.7541 Y0.8149 I-0.0304 J0.0179
G3 X12.708 Y0.8795 I-0.3999 J-0.2367
X12.6511 Y0.9346 I-0.3138 J-0.2672
G2 X12.588 Y1.0653 I0.1043 J0.1309
G1 X12.5832 Y4.4892
G2 X12.647 Y4.5531 I0.0638 J0.0001
G1 X12.9335
G2 X12.997 Y4.4893 I0. J-0.0635
G1 X12.9948 Y4.0557
G3 X13.0846 Y3.9195 I0.1471 J-0.0007
G2 X13.1744 Y3.7832 I-0.0572 J-0.1355
G1 X13.1595 Y0.8508
X13.1575 Y0.8505
X13.1518 Y0.8496
X13.1458 Y0.8484
X13.1396 Y0.8471
X13.1338 Y0.8458
X13.1285 Y0.8444
X13.1229 Y0.8429
X13.1171 Y0.8411
X13.1114 Y0.8392
X13.1056 Y0.8371
X13.0998 Y0.8349
X13.0941 Y0.8325
X13.0883 Y0.83
X13.0825 Y0.8273
X13.0785 Y0.8253
X13.0761 Y0.824
X13.0702 Y0.8209
X13.0611 Y0.8156
G3 X13.052 Y0.8098 I0.0652 J-0.1125
G1 X13.0431 Y0.8036
X13.0374 Y0.7994
X13.0348 Y0.7974
X13.0308 Y0.7941
X13.0255 Y0.7896
X13.0202 Y0.7849
X13.0149 Y0.7799
X13.0118 Y0.7769
X13.0109 Y0.7759
X13.008 Y0.7729
X13.003 Y0.7676
X12.9984 Y0.7623
X12.9939 Y0.7569
X12.9907 Y0.7528
X12.9885 Y0.75
X12.9843 Y0.7443
X12.9784 Y0.7356
X12.974 Y0.7287
X12.9711 Y0.7238
X12.9683 Y0.7188
X12.9656 Y0.7138
X12.9639 Y0.7105
X12.9631 Y0.709
X12.9614 Y0.7053
X12.9587 Y0.6995
X12.9562 Y0.6938
X12.9539 Y0.688
X12.9517 Y0.6822
X12.9497 Y0.6765
X12.9478 Y0.6707
X12.9461 Y0.665
X12.9442 Y0.6579
X12.9422 Y0.6495
X12.9409 Y0.6437
X12.9403 Y0.6406
X12.9396 Y0.6361
X12.9387 Y0.6304
X12.9379 Y0.6246
X12.9373 Y0.6189
X12.9366 Y0.6102
X12.9361 Y0.5987
X12.936 Y0.5938
X12.9266 Y-1.2659
X12.6363
X12.6337 Y0.5933
X12.6336 Y0.5985
X12.6333 Y0.6066
X12.6329 Y0.6123
X12.6326 Y0.6158
X12.6321 Y0.6204
X12.6314 Y0.6262
X12.6306 Y0.632
X12.6296 Y0.6377
X12.6285 Y0.6435
X12.6273 Y0.6492
X12.6259 Y0.655
X12.6244 Y0.6608
X12.6227 Y0.6665
X12.6209 Y0.6723
X12.619 Y0.6781
X12.6169 Y0.6838
X12.6144 Y0.6901
X12.6115 Y0.697
X12.6089 Y0.7027
X12.6066 Y0.7074
X12.6039 Y0.7126
X12.6008 Y0.7184
X12.5975 Y0.7242
X12.594 Y0.7299
X12.5909 Y0.7348
X12.5882 Y0.7387
X12.5841 Y0.7445
X12.5784 Y0.7521
X12.5756 Y0.7557
X12.5726 Y0.7592
X12.5668 Y0.7659
X12.5615 Y0.7716
X12.5567 Y0.7765
X12.5509 Y0.782
X12.5442 Y0.7881
X12.5373 Y0.7938
X12.5304 Y0.7993
X12.5246 Y0.8036
X12.52 Y0.8067
X12.5148 Y0.8101
X12.5091 Y0.8138
X12.5033 Y0.8172
X12.4975 Y0.8204
X12.4932 Y0.8227
X12.4902 Y0.8242
X12.4844 Y0.827
X12.4759 Y0.8308
X12.4687 Y0.8338
X12.4629 Y0.836
X12.4572 Y0.838
X12.4514 Y0.8399
X12.4456 Y0.8416
X12.4398 Y0.8432
X12.4341 Y0.8447
X12.4283 Y0.846
X12.4235 Y0.847
X12.4196 Y0.8477
X12.4139 Y0.8486
X12.4073 Y0.8496
X12.4019 Y4.7341
X13.1792
X13.1744 Y3.7832
X13.1742 Y3.7804 Z0.1731
X13.1739 Y3.7777 Z0.1733
X13.1734 Y3.7749 Z0.1737
X13.1728 Y3.7723 Z0.1743
X13.172 Y3.7697 Z0.175
X13.1711 Y3.7671 Z0.1758
X13.1701 Y3.7647 Z0.1768
X13.169 Y3.7624 Z0.178
X13.1678 Y3.7602 Z0.1792
X13.1665 Y3.7582 Z0.1807
X13.1652 Y3.7562 Z0.1822
X13.1639 Y3.7545 Z0.1839
X13.1625 Y3.7528 Z0.1857
X13.1611 Y3.7513 Z0.1876
X13.1598 Y3.7499 Z0.1897
X13.1585 Y3.7487 Z0.1918
X13.1572 Y3.7476 Z0.1941
X13.156 Y3.7466 Z0.1964
X13.1549 Y3.7457 Z0.1988
X13.1538 Y3.7449 Z0.2013
X13.1529 Y3.7443 Z0.2039
X13.1521 Y3.7437 Z0.2065
X13.1513 Y3.7433 Z0.2092
X13.1507 Y3.7429 Z0.2119
X13.1503 Y3.7426 Z0.2146
X13.1499 Y3.7425 Z0.2174
X13.1497 Y3.7423 Z0.2202
Z0.223
G0 Z0.823
X11.1326 Y2.9686
Z0.5182
G1 Z0.3963 F50.
Y2.9683 Z0.391 F100.
Y2.9675 Z0.3857
Y2.966 Z0.3805
Y2.9641 Z0.3755
Y2.9616 Z0.3708
Y2.9586 Z0.3663
Y2.9552 Z0.3622
Y2.9513 Z0.3585
Y2.9471 Z0.3552
Y2.9425 Z0.3524
Y2.9377 Z0.3501
Y2.9326 Z0.3483
Y2.9274 Z0.3471
Y2.9221 Z0.3465
X11.1355 Y0.8829 Z0.2039
G2 X11.1242 Y0.8472 Z0.2012 I-0.0618 J-0.0001
G3 X11.0985 Y0.8067 Z0.1979 I0.4078 J-0.2872
G2 X11.0399 Y0.8072 Z0.1929 I-0.0292 J0.0168
G3 X10.9387 Y0.9296 Z0.1817 I-0.3773 J-0.2088
X10.8349 Y0.9943 Z0.1731 I-0.2843 J-0.3409
G1 X10.8333 Y0.995 Z0.173
X10.8317 Y0.9957
G3 X10.8005 Y1.0079 I-0.1773 J-0.407 F140.
G2 X10.739 Y1.0945 I0.0302 J0.0867
G1 X10.7378 Y4.4903
G2 X10.8004 Y4.5529 I0.0626 J0.
G1 X11.0677
G2 X11.1304 Y4.4903 I0. J-0.0627
G1 X11.1355 Y0.8829
G2 X11.1242 Y0.8472 I-0.0618 J-0.0001
G3 X11.0985 Y0.8067 I0.4078 J-0.2872
G2 X11.0399 Y0.8072 I-0.0292 J0.0168
G3 X10.9387 Y0.9296 I-0.3773 J-0.2088
X10.8317 Y0.9957 I-0.2843 J-0.3409
X10.6995 Y0.939 I-0.0394 J-0.0906
G2 X10.5578 Y0.964 I-0.0686 J0.0251
G1 X10.5565 Y4.7341
X11.3113
X11.3168 Y0.7904
X11.3119 Y0.7863
X11.308 Y0.7829
X11.3061 Y0.781
X11.3025 Y0.7777
X11.2975 Y0.7727
X11.2927 Y0.7677
X11.2882 Y0.7627
X11.2853 Y0.7594
X11.284 Y0.7579
X11.281 Y0.7542
X11.2765 Y0.7485
X11.2722 Y0.7427
X11.2682 Y0.7369
X11.2654 Y0.7328
X11.2637 Y0.7302
X11.2602 Y0.7245
X11.2551 Y0.7155
X11.2511 Y0.7081
X11.2483 Y0.7024
X11.2456 Y0.6966
X11.2431 Y0.6908
X11.2414 Y0.6866
X11.2403 Y0.6839
X11.2382 Y0.6781
X11.2353 Y0.6693
X11.233 Y0.662
X11.2315 Y0.6563
X11.23 Y0.6505
X11.2287 Y0.6447
X11.2276 Y0.639
X11.2265 Y0.6332
X11.2256 Y0.6274
X11.2249 Y0.6217
X11.2243 Y0.6159
X11.2238 Y0.6101
X11.2234 Y0.6044
X11.2231 Y0.5986
X11.223 Y0.5931
Y0.5585
Y0.5584
X11.2256 Y-1.2659
X10.9158
X10.9151 Y0.5932
X10.915 Y0.5998
X10.9145 Y0.6095
X10.9141 Y0.6152
X10.9139 Y0.6171
X10.9134 Y0.6209
X10.9127 Y0.6267
X10.9119 Y0.6324
X10.9109 Y0.6382
X10.9098 Y0.644
X10.9085 Y0.6497
X10.9071 Y0.6555
X10.9056 Y0.6612
X10.9039 Y0.667
X10.902 Y0.6728
X10.9001 Y0.6785
X10.8979 Y0.6843
X10.8954 Y0.6905
X10.8926 Y0.6973
X10.8899 Y0.703
X10.8876 Y0.7078
X10.8848 Y0.7131
X10.8817 Y0.7189
X10.8783 Y0.7246
X10.8748 Y0.7304
X10.8718 Y0.7351
X10.8693 Y0.7388
X10.8651 Y0.7446
X10.8591 Y0.7524
X10.8563 Y0.756
X10.8534 Y0.7595
X10.8478 Y0.7659
X10.8424 Y0.7717
X10.8373 Y0.7768
X10.8315 Y0.7823
X10.8251 Y0.788
X10.8182 Y0.7938
X10.8107 Y0.7996
X10.8049 Y0.8038
X10.8008 Y0.8067
X10.7959 Y0.8099
X10.7902 Y0.8135
X10.7844 Y0.8169
X10.7786 Y0.8201
X10.7738 Y0.8226
X10.7701 Y0.8245
X10.7643 Y0.8272
X10.7566 Y0.8307
X10.7498 Y0.8335
X10.744 Y0.8356
X10.7382 Y0.8377
X10.7325 Y0.8395
X10.7267 Y0.8413
X10.7209 Y0.8428
X10.7152 Y0.8443
X10.7094 Y0.8456
X10.7032 Y0.8468
X10.6966 Y0.848
X10.6908 Y0.8488
X10.6859 Y0.8495
X10.6806 Y0.8501
X10.6748 Y0.8506
X10.669 Y0.8509
X10.6632 Y0.8512
X10.6578 Y0.8513
X10.6232
X10.5579
X10.5578 Y0.964
X10.558 Y0.9668 Z0.1731
X10.5583 Y0.9696 Z0.1733
X10.5588 Y0.9723 Z0.1737
X10.5594 Y0.975 Z0.1743
X10.5601 Y0.9776 Z0.175
X10.561 Y0.9802 Z0.1758
X10.562 Y0.9826 Z0.1768
X10.5631 Y0.9849 Z0.178
X10.5643 Y0.9871 Z0.1792
X10.5656 Y0.9891 Z0.1807
X10.5669 Y0.9911 Z0.1822
X10.5682 Y0.9929 Z0.1839
X10.5696 Y0.9945 Z0.1857
X10.5709 Y0.9961 Z0.1876
X10.5723 Y0.9974 Z0.1897
X10.5736 Y0.9987 Z0.1918
X10.5748 Y0.9998 Z0.1941
X10.576 Y1.0008 Z0.1964
X10.5772 Y1.0017 Z0.1988
X10.5782 Y1.0024 Z0.2013
X10.5791 Y1.0031 Z0.2039
X10.58 Y1.0037 Z0.2065
X10.5807 Y1.0041 Z0.2092
X10.5813 Y1.0045 Z0.2119
X10.5817 Y1.0048 Z0.2146
X10.5821 Y1.005 Z0.2174
X10.5823 Y1.0051 Z0.2202
X10.5824 Z0.223
G0 Z0.823
X9.5342 Y1.0928
Z0.5182
G1 Z0.3963 F50.
Y1.0925 Z0.391 F100.
Y1.0917 Z0.3857
Y1.0902 Z0.3805
Y1.0883 Z0.3755
Y1.0858 Z0.3708
Y1.0828 Z0.3663
Y1.0794 Z0.3622
Y1.0755 Z0.3585
Y1.0713 Z0.3552
Y1.0667 Z0.3524
Y1.0619 Z0.3501
Y1.0568 Z0.3483
Y1.0516 Z0.3471
Y1.0463 Z0.3465
X9.535 Y-1.2659 Z0.1848
X9.3684 Z0.1731
X9.3649 Z0.173
X9.2339 F140.
X9.2716 Y4.7341
X9.5329
X9.5349 Y-1.116
X9.535 Y-1.2659
X9.3649
X9.3621 Y-1.2657 Z0.1731
X9.3593 Y-1.2654 Z0.1733
X9.3566 Y-1.265 Z0.1737
X9.3539 Y-1.2644 Z0.1743
X9.3513 Y-1.2636 Z0.175
X9.3488 Y-1.2627 Z0.1758
X9.3464 Y-1.2617 Z0.1768
X9.3441 Y-1.2606 Z0.178
X9.3419 Y-1.2594 Z0.1792
X9.3398 Y-1.2582 Z0.1807
X9.3379 Y-1.2569 Z0.1822
X9.3361 Y-1.2555 Z0.1839
X9.3344 Y-1.2542 Z0.1857
X9.3329 Y-1.2528 Z0.1876
X9.3315 Y-1.2515 Z0.1897
X9.3303 Y-1.2502 Z0.1918
X9.3292 Y-1.2489 Z0.1941
X9.3282 Y-1.2477 Z0.1964
X9.3273 Y-1.2466 Z0.1988
X9.3265 Y-1.2455 Z0.2013
X9.3259 Y-1.2446 Z0.2039
X9.3253 Y-1.2438 Z0.2065
X9.3248 Y-1.2431 Z0.2092
X9.3245 Y-1.2425 Z0.2119
X9.3242 Y-1.242 Z0.2146
X9.324 Y-1.2416 Z0.2174
X9.3239 Y-1.2414 Z0.2202
X9.3238 Z0.223
G0 Z0.823
X7.745 Y1.9472
Z0.5182
G1 Z0.3963 F50.
Y1.9475 Z0.391 F100.
Y1.9484 Z0.3857
Y1.9498 Z0.3805
Y1.9517 Z0.3755
Y1.9542 Z0.3708
Y1.9572 Z0.3663
X7.7451 Y1.9606 Z0.3622
Y1.9645 Z0.3585
Y1.9687 Z0.3552
Y1.9733 Z0.3524
Y1.9781 Z0.3501
Y1.9832 Z0.3483
Y1.9884 Z0.3471
Y1.9937 Z0.3465
X7.7492 Y4.3471 Z0.1819
G2 X7.7753 Y4.3731 Z0.179 I0.026 J0.
G1 X7.7932 Z0.1778
G2 X7.8192 Y4.3469 Z0.1749 I0. J-0.026
G1 X7.8191 Y4.3214 Z0.1731
Y4.3179 Z0.173
X7.7992 Y1.1588 F140.
G2 X7.786 Y1.1362 I-0.026 J0.0002
G1 X7.7826 Y1.1343
G2 X7.7436 Y1.157 I-0.0129 J0.0226
G1 X7.7492 Y4.3471
G2 X7.7753 Y4.3731 I0.026 J0.
G1 X7.7932
G2 X7.8192 Y4.3469 I0. J-0.026
G1 X7.8191 Y4.3179
G3 X7.9082 Y4.1823 I0.1462 J-0.0009
G2 X7.9974 Y4.0468 I-0.0571 J-0.1346
G1 X7.9788 Y1.095
G2 X7.9158 Y0.9997 I-0.1046 J0.0007
G3 X7.799 Y0.9266 I0.1817 J-0.42
X7.7104 Y0.821 I0.278 J-0.323
G2 X7.6485 Y0.8206 I-0.0311 J0.0185
G3 X7.6228 Y0.8579 I-0.3636 J-0.222
X7.5936 Y0.8925 I-0.3792 J-0.2911
G2 X7.5633 Y0.9696 I0.0827 J0.0769
G1 X7.5695 Y4.4892
G2 X7.6335 Y4.5531 I0.064 J-0.0001
G1 X7.9368
G2 X8.0001 Y4.4893 I0. J-0.0634
G1 X7.9974 Y4.0468
G3 X8.087 Y3.9104 I0.1471 J-0.0009
G2 X8.1767 Y3.7741 I-0.0574 J-0.1354
G1 X8.1583 Y0.8535
X8.0978 Y0.8539
X8.0974
X8.0971
X8.0856
X8.0794 Y0.8538
X8.0737 Y0.8535
X8.0679 Y0.8531
X8.0621 Y0.8526
X8.0564 Y0.8519
X8.0506 Y0.8512
X8.0448 Y0.8502
X8.0391 Y0.8492
X8.0332 Y0.848
X8.0272 Y0.8466
X8.0214 Y0.8451
X8.0159 Y0.8436
X8.0102 Y0.8419
X8.0044 Y0.84
X7.9987 Y0.8379
X7.9929 Y0.8357
X7.9871 Y0.8334
X7.9814 Y0.8308
X7.9756 Y0.8281
X7.9698 Y0.8253
X7.9665 Y0.8236
X7.9656 Y0.8231
X7.9625 Y0.8213
X7.9572 Y0.8183
X7.9518 Y0.8151
X7.9465 Y0.8117
X7.9403 Y0.8075
X7.9332 Y0.8024
X7.9274 Y0.798
X7.923 Y0.7945
X7.9186 Y0.7908
X7.9143 Y0.787
X7.91 Y0.783
X7.9057 Y0.7788
X7.9021 Y0.7752
X7.8992 Y0.7722
X7.8941 Y0.7665
X7.8869 Y0.758
X7.8839 Y0.7544
X7.8811 Y0.7508
X7.8768 Y0.7449
X7.8728 Y0.7391
X7.8691 Y0.7335
X7.8656 Y0.7278
X7.8622 Y0.722
X7.8591 Y0.7162
X7.8561 Y0.7105
X7.8539 Y0.706
X7.8524 Y0.7027
X7.8498 Y0.697
X7.8464 Y0.6887
X7.8438 Y0.6817
X7.8418 Y0.6759
X7.8399 Y0.6701
X7.8382 Y0.6644
X7.8367 Y0.6586
X7.8353 Y0.6528
X7.834 Y0.6471
X7.8329 Y0.6413
X7.8319 Y0.6356
X7.831 Y0.6298
X7.8303 Y0.624
X7.8297 Y0.6183
X7.8291 Y0.6113
X7.8287 Y0.6031
X7.8285 Y0.5973
X7.8168 Y-1.2615
Y-1.2618
Y-1.2659
X7.5291
X7.5323 Y0.5814
Y0.5818
Y0.5933
X7.5322 Y0.5988
X7.5319 Y0.6045
X7.5316 Y0.6103
X7.5311 Y0.6161
X7.5304 Y0.6218
X7.5296 Y0.6276
X7.5287 Y0.6334
X7.5277 Y0.6391
X7.5265 Y0.6449
X7.5252 Y0.6506
X7.5238 Y0.6564
X7.5222 Y0.6622
X7.5197 Y0.6702
X7.5161 Y0.6806
X7.514 Y0.6863
X7.5135 Y0.6875
X7.5121 Y0.691
X7.5096 Y0.6967
X7.5069 Y0.7025
X7.5041 Y0.7083
X7.5013 Y0.7136
X7.4986 Y0.7185
X7.4957 Y0.7234
X7.4927 Y0.7283
X7.4906 Y0.7316
X7.4895 Y0.7333
X7.487 Y0.7371
X7.4829 Y0.7429
X7.4786 Y0.7486
X7.4741 Y0.7544
X7.4708 Y0.7583
X7.469 Y0.7604
X7.466 Y0.7639
X7.4617 Y0.7686
X7.4571 Y0.7733
X7.4523 Y0.778
X7.4487 Y0.7814
X7.4463 Y0.7836
X7.4422 Y0.7872
X7.4364 Y0.792
X7.4305 Y0.7967
X7.4245 Y0.8011
X7.4187 Y0.8052
X7.4131 Y0.809
X7.4074 Y0.8125
X7.4017 Y0.8159
X7.3946 Y0.8198
X7.3859 Y0.8242
X7.3821 Y0.8261
X7.3889 Y4.7341
X8.1827
X8.1767 Y3.7741
X8.1765 Y3.7713 Z0.1731
X8.1762 Y3.7686 Z0.1733
X8.1757 Y3.7658 Z0.1737
X8.175 Y3.7631 Z0.1743
X8.1743 Y3.7605 Z0.175
X8.1734 Y3.758 Z0.1758
X8.1724 Y3.7556 Z0.1768
X8.1712 Y3.7533 Z0.178
X8.17 Y3.7511 Z0.1792
X8.1688 Y3.7491 Z0.1807
X8.1675 Y3.7471 Z0.1822
X8.1661 Y3.7454 Z0.1839
X8.1647 Y3.7437 Z0.1857
X8.1634 Y3.7422 Z0.1876
X8.162 Y3.7408 Z0.1897
X8.1607 Y3.7396 Z0.1918
X8.1594 Y3.7385 Z0.1941
X8.1582 Y3.7375 Z0.1964
X8.1571 Y3.7366 Z0.1988
X8.1561 Y3.7359 Z0.2013
X8.1551 Y3.7352 Z0.2039
X8.1543 Y3.7347 Z0.2065
X8.1536 Y3.7342 Z0.2092
X8.153 Y3.7338 Z0.2119
X8.1525 Y3.7336 Z0.2146
X8.1521 Y3.7334 Z0.2174
X8.1519 Y3.7332 Z0.2202
Z0.223
G0 Z0.823
X5.8511 Y1.9627
Z0.5182
G1 Z0.3963 F50.
Y1.963 Z0.391 F100.
Y1.9638 Z0.3857
Y1.9653 Z0.3805
Y1.9672 Z0.3755
Y1.9697 Z0.3708
Y1.9727 Z0.3663
Y1.9761 Z0.3622
Y1.98 Z0.3585
Y1.9842 Z0.3552
Y1.9888 Z0.3524
Y1.9936 Z0.3501
Y1.9987 Z0.3483
Y2.0039 Z0.3471
Y2.0092 Z0.3465
X5.8503 Y4.338 Z0.1836
G2 X5.8853 Y4.3731 Z0.1798 I0.035 J0.
G1 X5.9009 Z0.1787
G2 X5.9359 Y4.338 Z0.1748 I0. J-0.035
G1 Y4.3137 Z0.1731
X5.9358 Y4.3102 Z0.173
X5.9304 Y1.1656 F140.
G2 X5.8757 Y1.1336 I-0.0367 J0.0001
G1 X5.8697 Y1.1369
G2 X5.8514 Y1.1677 I0.0168 J0.0308
G1 X5.8503 Y4.3299
Y4.338
G2 X5.8853 Y4.3731 I0.035 J0.
G1 X5.9009
G2 X5.9359 Y4.338 I0. J-0.035
G1 X5.9358 Y4.3102
G3 X6.0256 Y4.1751 I0.1462 J-0.0003
G2 X6.1154 Y4.0399 I-0.0565 J-0.1349
G1 X6.11 Y0.9859
G2 X6.0767 Y0.906 I-0.1129 J0.0002
G3 X6.0107 Y0.823 I0.3204 J-0.3226
G2 X5.9482 Y0.8232 I-0.0312 J0.0193
G3 X5.7348 Y1.0016 I-0.37 J-0.2258
G2 X5.6714 Y1.094 I0.0357 J0.0924
G1 X5.6702 Y4.4892
G2 X5.7341 Y4.5531 I0.0638 J0.
G1 X6.0524
G2 X6.1162 Y4.4892 I0. J-0.0637
G1 X6.1154 Y4.0399
G3 X6.2056 Y3.904 I0.1471 J-0.0003
G2 X6.2959 Y3.7681 I-0.0568 J-0.1357
G1 X6.2908 Y0.8337
X6.2864 Y0.832
X6.2807 Y0.8295
X6.276 Y0.8274
X6.2725 Y0.8257
X6.2667 Y0.8227
X6.2587 Y0.8184
X6.252 Y0.8145
X6.2465 Y0.8111
X6.2407 Y0.8073
X6.2347 Y0.8031
X6.2287 Y0.7987
X6.223 Y0.7942
X6.2172 Y0.7894
X6.2114 Y0.7843
X6.2078 Y0.781
X6.2062 Y0.7795
X6.2028 Y0.7761
X6.1975 Y0.7707
X6.1925 Y0.7653
X6.1878 Y0.7598
X6.1852 Y0.7568
X6.1846 Y0.756
X6.1821 Y0.7528
X6.1777 Y0.7471
X6.1735 Y0.7413
X6.1696 Y0.7355
X6.1663 Y0.7305
X6.1637 Y0.7263
X6.1604 Y0.7206
X6.1564 Y0.7133
X6.153 Y0.7067
X6.1503 Y0.701
X6.1477 Y0.6952
X6.1453 Y0.6894
X6.1429 Y0.6832
X6.1405 Y0.6766
X6.1386 Y0.6709
X6.1371 Y0.666
X6.1356 Y0.6606
X6.1341 Y0.6549
X6.1327 Y0.6491
X6.1315 Y0.6433
X6.1304 Y0.6376
X6.1294 Y0.6318
X6.1286 Y0.626
X6.1279 Y0.6203
X6.1273 Y0.6145
X6.1269 Y0.6088
X6.1266 Y0.603
X6.1264 Y0.5972
X6.1263 Y0.5934
X6.1231 Y-1.2659
X5.8338
X5.8331 Y0.5932
Y0.5978
X5.8328 Y0.6036
X5.8325 Y0.6094
X5.832 Y0.6151
X5.8315 Y0.6209
X5.8307 Y0.6267
X5.8299 Y0.6324
X5.8289 Y0.6382
X5.8278 Y0.6439
X5.8265 Y0.6497
X5.8251 Y0.6555
X5.8236 Y0.6612
X5.8226 Y0.6647
X5.8222 Y0.6658
X5.8204 Y0.6716
X5.8168 Y0.682
X5.8137 Y0.6901
X5.8112 Y0.6958
X5.8086 Y0.7016
X5.8058 Y0.7073
X5.8031 Y0.7127
X5.8004 Y0.7177
X5.7971 Y0.7234
X5.793 Y0.73
X5.7892 Y0.7359
X5.7857 Y0.7411
X5.7819 Y0.7463
X5.778 Y0.7515
X5.7755 Y0.7546
X5.7746 Y0.7557
X5.7717 Y0.7592
X5.7667 Y0.7649
X5.7613 Y0.7707
X5.7556 Y0.7765
X5.7499 Y0.782
X5.7442 Y0.7871
X5.7384 Y0.792
X5.7327 Y0.7966
X5.7286 Y0.7997
X5.7262 Y0.8015
X5.7205 Y0.8055
X5.7113 Y0.8115
X5.7042 Y0.8159
X5.6991 Y0.8188
X5.6939 Y0.8216
X5.6888 Y0.8242
X5.6856 Y0.8258
X5.6843 Y0.8264
X5.6808 Y0.828
X5.675 Y0.8305
X5.6692 Y0.8329
X5.6635 Y0.8351
X5.6577 Y0.8372
X5.6519 Y0.8391
X5.6462 Y0.8408
X5.6404 Y0.8425
X5.6346 Y0.8439
X5.6289 Y0.8453
X5.6231 Y0.8465
X5.6173 Y0.8475
X5.6137 Y0.8481
X5.6121 Y0.8484
X5.6064 Y0.8491
X5.5964 Y0.8502
G3 X5.5859 Y0.851 I-0.0141 J-0.1292
G1 X5.5743 Y0.8513
X5.5707
X5.4905
X5.4892 Y4.7341
X6.2976
X6.2959 Y3.7681
X6.2957 Y3.7653 Z0.1731
X6.2954 Y3.7625 Z0.1733
X6.295 Y3.7598 Z0.1737
X6.2943 Y3.7571 Z0.1743
X6.2936 Y3.7545 Z0.175
X6.2927 Y3.752 Z0.1758
X6.2917 Y3.7496 Z0.1768
X6.2906 Y3.7473 Z0.178
X6.2894 Y3.7451 Z0.1792
X6.2881 Y3.743 Z0.1807
X6.2868 Y3.7411 Z0.1822
X6.2855 Y3.7393 Z0.1839
X6.2841 Y3.7376 Z0.1857
X6.2828 Y3.7361 Z0.1876
X6.2814 Y3.7347 Z0.1897
X6.2801 Y3.7335 Z0.1918
X6.2788 Y3.7324 Z0.1941
X6.2776 Y3.7314 Z0.1964
X6.2765 Y3.7305 Z0.1988
X6.2755 Y3.7297 Z0.2013
X6.2745 Y3.7291 Z0.2039
X6.2737 Y3.7285 Z0.2065
X6.273 Y3.7281 Z0.2092
X6.2724 Y3.7277 Z0.2119
X6.2719 Y3.7274 Z0.2146
X6.2716 Y3.7272 Z0.2174
X6.2714 Y3.7271 Z0.2202
X6.2713 Z0.223
G0 Z0.823
X4.1039 Y2.6963
Z0.5182
G1 Z0.3963 F50.
Y2.6966 Z0.391 F100.
Y2.6974 Z0.3857
Y2.6989 Z0.3805
Y2.7008 Z0.3755
Y2.7033 Z0.3708
Y2.7063 Z0.3663
Y2.7097 Z0.3622
Y2.7136 Z0.3585
Y2.7178 Z0.3552
Y2.7224 Z0.3524
Y2.7272 Z0.3501
Y2.7323 Z0.3483
Y2.7375 Z0.3471
Y2.7428 Z0.3465
X4.1029 Y4.7341 Z0.2072
X4.4169 Z0.1853
X4.417 Y4.5606 Z0.1731
Y4.5571 Z0.173
X4.419 Y-1.2659 F140.
X4.106
X4.1029 Y4.5766
Y4.7341
X4.4169
X4.417 Y4.5571
X4.4168 Y4.5543 Z0.1731
X4.4165 Y4.5516 Z0.1733
X4.416 Y4.5488 Z0.1737
X4.4154 Y4.5462 Z0.1743
X4.4147 Y4.5435 Z0.175
X4.4138 Y4.541 Z0.1758
X4.4128 Y4.5386 Z0.1768
X4.4117 Y4.5363 Z0.178
X4.4105 Y4.5341 Z0.1792
X4.4092 Y4.532 Z0.1807
X4.4079 Y4.5301 Z0.1822
X4.4066 Y4.5283 Z0.1839
X4.4052 Y4.5266 Z0.1857
X4.4039 Y4.5251 Z0.1876
X4.4025 Y4.5237 Z0.1897
X4.4012 Y4.5225 Z0.1918
X4.4 Y4.5214 Z0.1941
X4.3988 Y4.5204 Z0.1964
X4.3976 Y4.5195 Z0.1988
X4.3966 Y4.5187 Z0.2013
X4.3957 Y4.5181 Z0.2039
X4.3948 Y4.5175 Z0.2065
X4.3941 Y4.5171 Z0.2092
X4.3935 Y4.5167 Z0.2119
X4.3931 Y4.5164 Z0.2146
X4.3927 Y4.5162 Z0.2174
X4.3925 Y4.5161 Z0.2202
X4.3924 Z0.223
G0 Z0.823
X2.8741 Y3.6525
Z0.5182
G1 Z0.3963 F50.
Y3.6522 Z0.391 F100.
Y3.6513 Z0.3857
Y3.6499 Z0.3805
Y3.6479 Z0.3755
Y3.6455 Z0.3708
Y3.6425 Z0.3663
Y3.639 Z0.3622
Y3.6352 Z0.3585
Y3.6309 Z0.3552
Y3.6264 Z0.3524
Y3.6215 Z0.3501
Y3.6165 Z0.3483
Y3.6113 Z0.3471
Y3.606 Z0.3465
X2.8754 Y1.1272 Z0.1731
Y1.1237 Z0.173
Y1.0903 F140.
G2 X2.8139 Y0.9973 I-0.1009 J-0.0001
G3 X2.6977 Y0.9255 I0.1753 J-0.4135
X2.6094 Y0.8212 I0.2742 J-0.3214
G2 X2.548 Y0.8208 I-0.0308 J0.0185
G3 X2.5161 Y0.8656 I-0.3602 J-0.2223
G2 X2.5023 Y0.905 I0.048 J0.039
G1 X2.5248 Y4.4902
G2 X2.5879 Y4.5529 I0.0631 J-0.0004
G1 X2.811
G2 X2.8736 Y4.4903 I0. J-0.0626
G1 X2.8754 Y1.1435
Y1.1237
G3 X2.966 Y0.9879 I0.1472 J0.0001
G2 X3.0567 Y0.852 I-0.0565 J-0.1359
G1 Y0.851
X2.9868 Y0.8509
X2.9822
X2.9706 Y0.8504
X2.962 Y0.8498
X2.956 Y0.8492
X2.9502 Y0.8485
X2.9447 Y0.8477
X2.939 Y0.8467
X2.9332 Y0.8456
X2.9274 Y0.8443
X2.9217 Y0.8429
X2.9159 Y0.8414
X2.9101 Y0.8397
X2.9044 Y0.8379
X2.8986 Y0.8359
X2.893 Y0.8339
X2.8876 Y0.8317
X2.8819 Y0.8293
X2.8757 Y0.8265
X2.8698 Y0.8237
X2.864 Y0.8207
X2.8582 Y0.8175
X2.8525 Y0.8142
X2.8459 Y0.8101
X2.8386 Y0.8053
X2.8328 Y0.8012
X2.8286 Y0.7981
X2.824 Y0.7946
X2.8191 Y0.7906
X2.8142 Y0.7864
X2.8093 Y0.782
X2.806 Y0.7789
X2.8043 Y0.7772
X2.801 Y0.774
X2.7963 Y0.769
X2.7918 Y0.7641
X2.7875 Y0.7592
X2.7841 Y0.7551
X2.7816 Y0.7521
X2.7773 Y0.7463
X2.7713 Y0.7379
G3 X2.7655 Y0.7291 I0.1057 J-0.0756
G1 X2.76 Y0.7199
X2.7567 Y0.7141
X2.7554 Y0.7118
X2.7534 Y0.7077
X2.7506 Y0.702
X2.7479 Y0.6962
X2.7455 Y0.6904
X2.7432 Y0.6847
X2.741 Y0.6789
X2.739 Y0.6731
X2.7372 Y0.6674
X2.7358 Y0.6627
X2.7347 Y0.659
X2.7333 Y0.6532
X2.7315 Y0.6454
X2.7301 Y0.6386
X2.7291 Y0.6328
X2.7282 Y0.627
X2.7275 Y0.6213
X2.7268 Y0.6155
X2.7264 Y0.6097
X2.726 Y0.604
X2.7258 Y0.5982
X2.7257 Y0.5931
X2.7266 Y-1.2659
X2.4214
X2.433 Y0.5808
G3 X2.4329 Y0.5937 I-1.0572 J0.0026
G1 X2.4327 Y0.6008
X2.4323 Y0.6066
X2.4319 Y0.6123
X2.4313 Y0.6181
X2.4305 Y0.6239
X2.4297 Y0.6296
X2.4287 Y0.6354
X2.4276 Y0.6412
X2.4263 Y0.6469
X2.4249 Y0.6527
X2.4234 Y0.6585
X2.4217 Y0.6642
X2.4197 Y0.6702
X2.4176 Y0.6765
X2.4154 Y0.6823
X2.4133 Y0.6875
X2.411 Y0.693
X2.4084 Y0.6988
X2.4056 Y0.7046
X2.4026 Y0.7103
X2.3992 Y0.7165
X2.3954 Y0.723
X2.3918 Y0.7288
X2.3885 Y0.7338
X2.3849 Y0.7389
X2.381 Y0.7443
X2.3769 Y0.7497
X2.3725 Y0.755
X2.37 Y0.7581
X2.3693 Y0.7589
X2.3664 Y0.7621
X2.3613 Y0.7676
X2.3559 Y0.7731
X2.3502 Y0.7786
X2.347 Y0.7816
X2.3464 Y0.7821
X2.3434 Y0.7847
X2.3379 Y0.7893
X2.3324 Y0.7937
X2.3269 Y0.7978
X2.3222 Y0.8013
X2.3205 Y0.8025
X2.3452 Y4.7341
X3.0547
X3.0567 Y0.852
Y0.8519
Y0.8518
Y0.8517
Z0.1731
X3.0566 Y0.8516
Y0.8515 Z0.1732
X3.0565
Y0.8514
Z0.1733
X3.0564
Y0.8513 Z0.1734
Z0.1735
X3.0563 Y0.8512 Z0.1736
Z0.1737
Z0.1738
Z0.1739
Z0.174
G0 Z0.823
X0.3273 Y4.3731
Z0.223
G1 X0.3276 Z0.2174 F140.
X0.3285 Z0.2119
X0.3301 Z0.2065
X0.3322 Z0.2013
X0.335 Z0.1964
X0.3382 Z0.1918
X0.3419 Z0.1876
X0.3461 Z0.1839
X0.3507 Z0.1807
X0.3556 Z0.178
X0.3608 Z0.1758
X0.3662 Z0.1743
X0.3717 Z0.1733
X0.3773 Z0.173
X0.5258
X0.6252
G2 X0.6886 Y4.3093 I0. J-0.0634
G1 X0.6562 Y-0.8409
G2 X0.5919 Y-0.9049 I-0.0644 J0.0004
G1 X0.5259
X0.3292
X0.3236 Z0.1733
X0.3181 Z0.1743
X0.3127 Z0.1758
X0.3076 Z0.178
X0.3026 Z0.1807
X0.2981 Z0.1839
X0.2939 Z0.1876
X0.2902 Z0.1918
X0.2869 Z0.1964
X0.2842 Z0.2013
X0.2821 Z0.2065
X0.2805 Z0.2119
X0.2796 Z0.2174
X0.2792 Z0.223
G0 Z0.823
X0.3273 Y4.5531
Z0.223
G1 X0.3276 Z0.2174 F140.
X0.3285 Z0.2119
X0.3301 Z0.2065
X0.3322 Z0.2013
X0.335 Z0.1964
X0.3382 Z0.1918
X0.3419 Z0.1876
X0.3461 Z0.1839
X0.3507 Z0.1807
X0.3556 Z0.178
X0.3608 Z0.1758
X0.3662 Z0.1743
X0.3717 Z0.1733
X0.3773 Z0.173
X0.5259
X0.8063
G2 X0.8697 Y4.4893 I0. J-0.0634
G1 X0.8351 Y-1.0209
G2 X0.7707 Y-1.0849 I-0.0644 J0.0004
G1 X0.5259
X0.3292
X0.3236 Z0.1733
X0.3181 Z0.1743
X0.3127 Z0.1758
X0.3076 Z0.178
X0.3026 Z0.1807
X0.2981 Z0.1839
X0.2939 Z0.1876
X0.2902 Z0.1918
X0.2869 Z0.1964
X0.2842 Z0.2013
X0.2821 Z0.2065
X0.2805 Z0.2119
X0.2796 Z0.2174
X0.2792 Z0.223
G0 Z0.823
X0.3273 Y4.7033
Z0.218
G1 X0.3276 Z0.213 F140.
X0.3284 Y4.7034 Z0.208
X0.3298 Y4.7037 Z0.2031
X0.3317 Y4.704 Z0.1985
X0.3341 Y4.7043 Z0.1941
X0.337 Y4.7048 Z0.1899
X0.3403 Y4.7053 Z0.1862
X0.344 Y4.7059 Z0.1828
X0.3481 Y4.7066 Z0.1799
X0.3525 Y4.7073 Z0.1775
X0.3571 Y4.708 Z0.1755
X0.3619 Y4.7087 Z0.1741
X0.3668 Y4.7095 Z0.1733
X0.3717 Y4.7103 Z0.173
X0.518 Y4.7335
X0.5219 Y4.7339
X0.5259 Y4.7341
X1.0523
X1.0146 Y-1.2615
Y-1.2618
Y-1.2659
X0.5258
X0.5219 Y-1.2657
X0.518 Y-1.2653
X0.3238 Y-1.2345
X0.3183 Y-1.2337 Z0.1733
X0.3128 Y-1.2328 Z0.1743
X0.3075 Y-1.2319 Z0.1758
X0.3024 Y-1.2311 Z0.178
X0.2976 Y-1.2304 Z0.1807
X0.293 Y-1.2297 Z0.1839
X0.2889 Y-1.229 Z0.1876
X0.2852 Y-1.2284 Z0.1918
X0.282 Y-1.2279 Z0.1964
X0.2793 Y-1.2275 Z0.2013
X0.2772 Y-1.2271 Z0.2065
X0.2757 Y-1.2269 Z0.2119
X0.2748 Y-1.2268 Z0.2174
X0.2744 Y-1.2267 Z0.223
G0 Z1.223
M5
G53 G0 Z0.

(FINISH TOP PASS)
M1
T19 M6
S16000 M3
G17 G90 G94
G55
M8
G0 X0.463 Y4.8911
G43 Z1.223 H19
G0 Z0.1943
G1 X0.4633 Z0.1909 F80.
X0.4641 Y4.8913 Z0.1877
X0.4653 Y4.8915 Z0.1846
X0.467 Y4.8917 Z0.1818
X0.4692 Y4.8921 Z0.1792
X0.4717 Y4.8925 Z0.1771
X0.4745 Y4.8929 Z0.1753
X0.4775 Y4.8934 Z0.174
X0.4807 Y4.8939 Z0.1733
X0.484 Y4.8944 Z0.173
X0.6695 Y4.9238
X0.6732 Y4.9241
X1.1973
X1.1584 Y-1.2707
X1.1585 Y-1.2734
X1.1588 Y-1.2811
Y-1.2826
X1.1593 Y-1.2903
X1.1595 Y-1.292
X1.1599 Y-1.2959
X1.1604 Y-1.2997
X1.161 Y-1.3036
X1.1615 Y-1.3061
G3 X1.1651 Y-1.3228 I0.4088 J0.0818
G1 X1.1659 Y-1.3257
X1.1669 Y-1.3287
G3 X1.1728 Y-1.3451 I0.4498 J0.152
G1 X1.1741 Y-1.3485
X1.1758 Y-1.3524
X1.1776 Y-1.356
X1.1805 Y-1.3616
X1.1807 Y-1.3619
X1.184 Y-1.3679
X1.185 Y-1.3698
X1.1871 Y-1.3733
X1.1893 Y-1.3768
X1.1917 Y-1.3803
X1.1929 Y-1.382
G3 X1.2013 Y-1.3932 I0.3314 J0.2382
G1 X1.2032 Y-1.3956
X1.2057 Y-1.3985
X1.2082 Y-1.4012
G3 X1.219 Y-1.4122 I0.5782 J0.5597
G1 X1.2215 Y-1.4145
X1.224 Y-1.4168
X1.2273 Y-1.4195
G3 X1.2392 Y-1.4287 I0.5267 J0.6757
G1 X1.2418 Y-1.4305
X1.2457 Y-1.4331
X1.249 Y-1.4352
G3 X1.2663 Y-1.4446 I0.1962 J0.3374
G1 X1.2702 Y-1.4465
X1.2723 Y-1.4475
X1.2748 Y-1.4485
G3 X1.2885 Y-1.4537 I0.3518 J0.9046
G1 X1.2918 Y-1.4548
X1.2957 Y-1.456
X1.2993 Y-1.457
G3 X1.3163 Y-1.4608 I0.1139 J0.4685
G1 X1.3199 Y-1.4615
X1.3238 Y-1.462
X1.3273 Y-1.4624
G3 X1.3435 Y-1.4636 I0.0556 J0.6331
G1 X1.3471 Y-1.4638
X2.0792 Y-1.4684
X2.0794
X2.0871
X2.0908 Y-1.4683
G3 X2.1071 Y-1.4672 I-0.0302 J0.5836
G1 X2.1108 Y-1.4668
X2.1147 Y-1.4663
X2.1181 Y-1.4657
G3 X2.1351 Y-1.462 I-0.0964 J0.4926
G1 X2.1389 Y-1.461
X2.1428 Y-1.4598
X2.1457 Y-1.4589
X2.1534 Y-1.4561
X2.1547 Y-1.4556
X2.1624 Y-1.4526
X2.1653 Y-1.4513
X2.1681 Y-1.45
X2.1761 Y-1.4458
X2.1772 Y-1.4452
X2.1846 Y-1.4411
X2.1882 Y-1.439
X2.1908 Y-1.4373
X2.1935 Y-1.4354
G3 X2.2072 Y-1.4253 I-0.3329 J0.4613
G1 X2.2097 Y-1.4232
X2.2122 Y-1.421
G3 X2.2249 Y-1.4087 I-0.3199 J0.3445
G1 X2.2273 Y-1.4062
X2.2309 Y-1.4022
X2.2338 Y-1.3987
X2.2413 Y-1.3888
X2.2422 Y-1.3876
X2.2442 Y-1.3848
X2.2461 Y-1.3821
X2.2478 Y-1.3793
X2.2496 Y-1.3764
X2.2539 Y-1.3687
X2.2546 Y-1.3674
X2.2587 Y-1.3597
X2.2601 Y-1.3568
X2.2613 Y-1.3539
G3 X2.2676 Y-1.3376 I-0.4816 J0.1943
G1 X2.2688 Y-1.3338
X2.27 Y-1.3299
X2.2709 Y-1.3266
G3 X2.2746 Y-1.3095 I-0.4884 J0.1167
G1 X2.2752 Y-1.3057
X2.2758 Y-1.3019
X2.2761 Y-1.2988
G3 X2.2773 Y-1.2825 I-0.5502 J0.0478
G1 X2.2774 Y-1.2792
X2.2891 Y0.5845
Y0.5859
X2.2889 Y0.5936
X2.2886 Y0.5987
X2.2882 Y0.6026
X2.2877 Y0.6064
X2.287 Y0.6103
X2.2862 Y0.6141
X2.2853 Y0.618
X2.2842 Y0.6218
X2.2829 Y0.6257
X2.2815 Y0.6296
X2.2799 Y0.6337
X2.2781 Y0.6376
X2.2764 Y0.6412
X2.2744 Y0.6449
X2.2721 Y0.6488
X2.2697 Y0.6526
X2.267 Y0.6565
X2.2651 Y0.659
X2.2641 Y0.6603
X2.2622 Y0.6626
X2.2595 Y0.6658
X2.2565 Y0.669
X2.2533 Y0.6722
X2.2508 Y0.6746
X2.249 Y0.6761
X2.2463 Y0.6784
X2.2424 Y0.6814
X2.2386 Y0.6841
X2.2347 Y0.6867
X2.2322 Y0.6882
X2.2311 Y0.6889
X2.2289 Y0.6901
X2.2256 Y0.6918
X2.2223 Y0.6934
X2.219 Y0.6949
X2.2154 Y0.6964
X2.2116 Y0.6978
X2.2077 Y0.6991
X2.2039 Y0.7003
X2.2 Y0.7013
X2.1962 Y0.7021
X2.1923 Y0.7028
X2.1884 Y0.7034
X2.1846 Y0.7039
X2.1807 Y0.7042
X2.1771 Y0.7044
X2.1759
X2.2024 Y4.9241
X3.1985
X3.2007 Y0.7077
X2.9888 Y0.7071
X2.9884
X2.988 Y0.707
X2.9876
X2.9799 Y0.7069
X2.9748 Y0.7065
X2.971 Y0.7061
X2.9671 Y0.7055
X2.9633 Y0.7049
X2.959 Y0.7039
X2.9541 Y0.7027
X2.9503 Y0.7015
X2.9474 Y0.7006
X2.944 Y0.6993
X2.9402 Y0.6977
X2.9363 Y0.696
X2.9325 Y0.6941
X2.9292 Y0.6924
X2.9265 Y0.6908
X2.9238 Y0.6892
X2.9212 Y0.6875
X2.9187 Y0.6857
X2.9163 Y0.684
X2.9134 Y0.6818
X2.9101 Y0.6791
X2.9067 Y0.6761
X2.9034 Y0.6728
X2.9012 Y0.6706
X2.9002 Y0.6696
X2.8983 Y0.6674
X2.8955 Y0.6641
X2.8929 Y0.6608
X2.8905 Y0.6575
X2.888 Y0.6538
X2.8855 Y0.6496
X2.8833 Y0.6458
X2.8815 Y0.6422
X2.8798 Y0.6385
X2.8781 Y0.6346
X2.8766 Y0.6308
X2.8753 Y0.6269
X2.8741 Y0.6231
X2.8731 Y0.6192
X2.8722 Y0.6154
X2.8714 Y0.6115
X2.8708 Y0.6077
X2.8703 Y0.6038
X2.8699 Y0.6
X2.8697 Y0.5961
X2.8696 Y0.5926
Y0.5463
X2.8705 Y-1.2711
Y-1.2715
Y-1.2719
X2.8706 Y-1.2796
X2.8708 Y-1.2829
G3 X2.8721 Y-1.2995 I0.4441 J0.0279
G1 X2.8725 Y-1.3025
X2.873 Y-1.3055
G3 X2.8765 Y-1.322 I0.4434 J0.084
G1 X2.877 Y-1.3244
X2.8778 Y-1.3275
X2.8788 Y-1.3306
X2.8798 Y-1.3337
X2.8806 Y-1.336
G3 X2.8858 Y-1.3498 I0.5991 J0.2179
G1 X2.8872 Y-1.3533
X2.889 Y-1.3571
X2.8907 Y-1.3604
X2.8949 Y-1.3681
X2.895 Y-1.3683
X2.8971 Y-1.3722
X2.8986 Y-1.3747
X2.901 Y-1.3786
X2.9037 Y-1.3826
G3 X2.9141 Y-1.3966 I0.4679 J0.3383
G1 X2.9161 Y-1.399
X2.9182 Y-1.4015
X2.9207 Y-1.4041
G3 X2.933 Y-1.4164 I0.3712 J0.3596
G1 X2.9357 Y-1.4189
X2.9382 Y-1.421
X2.9406 Y-1.423
G3 X2.9546 Y-1.4334 I0.3178 J0.4123
G1 X2.9586 Y-1.4361
X2.9625 Y-1.4385
X2.965 Y-1.4399
G3 X2.9773 Y-1.4466 I0.2601 J0.4648
G1 X2.9801 Y-1.448
X2.9839 Y-1.4498
X2.9874 Y-1.4512
G3 X3.0014 Y-1.4564 I0.2395 J0.6177
G1 X3.004 Y-1.4574
X3.007 Y-1.4583
X3.0099 Y-1.4591
X3.0129 Y-1.4599
X3.0151 Y-1.4604
G3 X3.0317 Y-1.4639 I0.0967 J0.4254
G1 X3.0347 Y-1.4644
X3.0377 Y-1.4647
G3 X3.0542 Y-1.4661 I0.0451 J0.4611
G1 X3.0576 Y-1.4662
X3.0653 Y-1.4663
X3.0656
X3.066
X3.7673 Y-1.4659
X3.7676
X3.768
X3.7683
X3.776 Y-1.4658
X3.7792 Y-1.4656
X3.7869 Y-1.4651
X3.7882 Y-1.465
X3.7959 Y-1.4642
X3.7989 Y-1.4639
X3.8019 Y-1.4634
G3 X3.8183 Y-1.4599 I-0.0965 J0.4981
G1 X3.8216 Y-1.4591
X3.8258 Y-1.4579
X3.8295 Y-1.4567
G3 X3.8462 Y-1.4504 I-0.1462 J0.4165
G1 X3.8501 Y-1.4488
X3.8545 Y-1.4467
X3.8572 Y-1.4453
G3 X3.8721 Y-1.4369 I-0.1935 J0.363
G1 X3.8753 Y-1.4349
X3.8765 Y-1.4342
X3.8789 Y-1.4324
G3 X3.892 Y-1.4227 I-0.326 J0.4493
G1 X3.8948 Y-1.4204
X3.8979 Y-1.4177
X3.9004 Y-1.4153
G3 X3.9116 Y-1.4042 I-0.461 J0.4719
G1 X3.914 Y-1.4016
X3.9166 Y-1.3986
X3.9191 Y-1.3956
G3 X3.9287 Y-1.3826 I-0.5161 J0.3956
G1 X3.9304 Y-1.3803
X3.9312 Y-1.379
X3.9332 Y-1.3758
X3.9369 Y-1.3693
X3.9376 Y-1.3681
X3.9418 Y-1.3604
X3.9432 Y-1.3576
X3.945 Y-1.3537
X3.9466 Y-1.35
G3 X3.953 Y-1.3329 I-0.395 J0.157
G1 X3.9542 Y-1.3292
X3.9553 Y-1.3253
X3.9561 Y-1.322
G3 X3.9595 Y-1.3057 I-0.5132 J0.1166
G1 X3.9604 Y-1.2997
X3.9612 Y-1.292
X3.9613 Y-1.2906
X3.9618 Y-1.2829
X3.962 Y-1.2798
X3.9621 Y-1.2721
Y-1.2718
Y-1.2714
Y-1.2711
X3.9589 Y4.9241
X4.5607
X4.5629 Y-1.2711
Y-1.2715
Y-1.272
X4.563 Y-1.2797
X4.5631 Y-1.2829
G3 X4.5645 Y-1.2995 I0.43 J0.0267
G1 X4.565 Y-1.3037
X4.5654 Y-1.306
X4.566 Y-1.3088
X4.5688 Y-1.3219
X4.5695 Y-1.3249
X4.5706 Y-1.3287
X4.5717 Y-1.3325
X4.5731 Y-1.3363
X4.5735 Y-1.3376
G3 X4.5781 Y-1.3498 I0.5257 J0.1916
G1 X4.5796 Y-1.3533
X4.5814 Y-1.3572
X4.5831 Y-1.3605
X4.5894 Y-1.372
X4.591 Y-1.3748
X4.5933 Y-1.3786
X4.5958 Y-1.3822
G3 X4.6077 Y-1.398 I0.319 J0.2287
G1 X4.6102 Y-1.401
X4.6112 Y-1.4022
X4.6133 Y-1.4044
G3 X4.6249 Y-1.416 I0.4108 J0.3992
G1 X4.6279 Y-1.4187
X4.6312 Y-1.4216
X4.6341 Y-1.4238
G3 X4.6473 Y-1.4336 I0.2973 J0.3875
G1 X4.6507 Y-1.4359
X4.6537 Y-1.4378
X4.6565 Y-1.4394
X4.6671 Y-1.4452
X4.6684 Y-1.4459
X4.6707 Y-1.4471
X4.6731 Y-1.4483
X4.6755 Y-1.4493
X4.6789 Y-1.4508
G3 X4.6939 Y-1.4565 I0.24 J0.6136
G1 X4.6958 Y-1.4571
X4.6969 Y-1.4575
X4.6994 Y-1.4582
X4.7032 Y-1.4593
X4.7066 Y-1.4602
X4.7182 Y-1.4627
X4.7198 Y-1.463
X4.7236 Y-1.4638
X4.7274 Y-1.4644
X4.7313 Y-1.4648
X4.7341 Y-1.4651
G3 X4.7505 Y-1.4662 I0.0401 J0.5016
G1 X4.7537
X5.4935 Y-1.466
X5.4939
X5.5016 Y-1.4659
X5.5052 Y-1.4658
G3 X5.5214 Y-1.4646 I-0.0391 J0.6292
G1 X5.5257 Y-1.4641
X5.5295 Y-1.4635
X5.5328 Y-1.4629
X5.5443 Y-1.4604
X5.5456 Y-1.4601
X5.5486 Y-1.4593
X5.5515 Y-1.4585
X5.5545 Y-1.4577
X5.5569 Y-1.4569
X5.5587 Y-1.4563
X5.5601 Y-1.4558
X5.5716 Y-1.4515
X5.5746 Y-1.4503
X5.5784 Y-1.4486
X5.5814 Y-1.4472
X5.5835 Y-1.4461
X5.5851 Y-1.4453
G3 X5.5992 Y-1.4374 I-0.2604 J0.4838
G1 X5.6019 Y-1.4358
X5.6046 Y-1.434
G3 X5.6163 Y-1.4254 I-0.2575 J0.3648
G1 X5.6175 Y-1.4244
X5.622 Y-1.4209
X5.626 Y-1.4174
X5.6304 Y-1.4132
X5.6316 Y-1.4121
X5.6392 Y-1.4044
X5.6414 Y-1.4021
X5.6432 Y-1.4001
X5.6449 Y-1.3981
X5.6465 Y-1.3961
X5.6479 Y-1.3943
X5.6556 Y-1.384
X5.6567 Y-1.3825
X5.6575 Y-1.3814
X5.6591 Y-1.3789
X5.6615 Y-1.3751
X5.6633 Y-1.3721
X5.6696 Y-1.3605
X5.6711 Y-1.3575
X5.6729 Y-1.3536
X5.6745 Y-1.35
G3 X5.6809 Y-1.3327 I-0.3957 J0.157
G1 X5.6821 Y-1.329
X5.6831 Y-1.3252
X5.6839 Y-1.322
G3 X5.6874 Y-1.3057 I-0.501 J0.114
G1 X5.6879 Y-1.3027
X5.6882 Y-1.2997
X5.689 Y-1.292
X5.6891 Y-1.2906
X5.6896 Y-1.2829
X5.6898 Y-1.2798
X5.6899 Y-1.2721
Y-1.2718
Y-1.2714
Y-1.2711
X5.6893 Y0.5926
X5.6892 Y0.5957
X5.689 Y0.5996
X5.6886 Y0.6034
X5.6881 Y0.6073
X5.6875 Y0.6111
X5.6868 Y0.615
X5.6859 Y0.6188
X5.6849 Y0.6227
X5.6838 Y0.6265
X5.6825 Y0.6304
X5.681 Y0.6342
X5.6794 Y0.6381
X5.6779 Y0.6414
X5.6766 Y0.6441
X5.6752 Y0.6467
X5.6738 Y0.6492
X5.6723 Y0.6517
X5.6708 Y0.6542
X5.6689 Y0.657
X5.6667 Y0.6601
X5.6643 Y0.6632
X5.6618 Y0.6663
X5.6598 Y0.6686
X5.6585 Y0.6701
X5.6562 Y0.6724
X5.653 Y0.6755
X5.6499 Y0.6785
X5.6467 Y0.6812
X5.6438 Y0.6834
X5.6413 Y0.6853
X5.6388 Y0.6871
X5.6362 Y0.6888
X5.6336 Y0.6905
X5.631 Y0.692
X5.6277 Y0.6938
X5.6239 Y0.6957
X5.62 Y0.6975
X5.6162 Y0.6991
X5.613 Y0.7004
X5.6107 Y0.7012
X5.6081 Y0.702
X5.6055 Y0.7028
X5.6028 Y0.7036
X5.6002 Y0.7042
X5.5969 Y0.705
X5.593 Y0.7057
X5.5892 Y0.7063
X5.5853 Y0.7068
X5.5815 Y0.7071
X5.5776 Y0.7073
X5.5744 Y0.7074
X5.3472
X5.3452 Y4.9235
X6.4418 Y4.9241
X6.4345 Y0.7082
X6.3873 Y0.708
X6.3869
X6.3865
X6.3827
X6.379 Y0.7078
X6.3751 Y0.7075
X6.3713 Y0.707
X6.3674 Y0.7065
X6.3635 Y0.7058
X6.3597 Y0.7049
X6.3564 Y0.7041
X6.3535 Y0.7033
X6.3507 Y0.7024
X6.3479 Y0.7015
X6.3454 Y0.7006
X6.3434 Y0.6998
X6.3404 Y0.6986
X6.3366 Y0.6968
X6.3327 Y0.6949
X6.3289 Y0.6928
X6.3258 Y0.691
X6.3235 Y0.6896
X6.3211 Y0.688
X6.3188 Y0.6864
X6.3161 Y0.6844
X6.313 Y0.682
X6.3101 Y0.6795
X6.3074 Y0.6771
X6.3046 Y0.6744
X6.3019 Y0.6716
X6.2994 Y0.6689
X6.2972 Y0.6664
X6.2951 Y0.6638
X6.2932 Y0.6612
X6.2913 Y0.6587
X6.2895 Y0.6561
X6.2876 Y0.653
X6.2854 Y0.6493
X6.2833 Y0.6455
X6.2813 Y0.6414
X6.2795 Y0.6375
X6.278 Y0.6336
X6.2766 Y0.6298
X6.2753 Y0.6259
X6.2742 Y0.6221
X6.2732 Y0.6182
X6.2724 Y0.6144
X6.2717 Y0.6105
X6.2712 Y0.6067
X6.2707 Y0.6028
X6.2704 Y0.599
X6.2703 Y0.5951
X6.2702 Y0.5927
X6.2669 Y-1.271
X6.267 Y-1.2724
X6.2671 Y-1.2801
X6.2673 Y-1.2828
G3 X6.2682 Y-1.2957 I0.5957 J0.037
G1 X6.2685 Y-1.2987
X6.2689 Y-1.3019
X6.2696 Y-1.3059
G3 X6.2731 Y-1.3221 I0.5887 J0.117
G1 X6.274 Y-1.3258
X6.2751 Y-1.3296
X6.2763 Y-1.3333
X6.279 Y-1.3405
X6.2791 Y-1.3408
X6.2807 Y-1.3452
X6.2812 Y-1.3466
X6.2828 Y-1.3504
X6.2845 Y-1.3543
X6.2863 Y-1.3581
X6.2875 Y-1.3604
G3 X6.2941 Y-1.3724 I0.7869 J0.4228
G1 X6.296 Y-1.3757
X6.2985 Y-1.3795
X6.3007 Y-1.3827
G3 X6.3106 Y-1.3958 I0.4292 J0.3122
G1 X6.3133 Y-1.3991
X6.316 Y-1.4021
X6.3182 Y-1.4044
G3 X6.329 Y-1.4153 I0.3618 J0.352
G1 X6.3314 Y-1.4175
X6.334 Y-1.4197
X6.3367 Y-1.4219
G3 X6.3449 Y-1.4281 I0.3198 J0.4124
G1 X6.3461 Y-1.429
X6.3529 Y-1.4339
X6.3563 Y-1.4361
X6.3571 Y-1.4366
X6.3593 Y-1.4379
G3 X6.3729 Y-1.4454 I0.3797 J0.6748
G1 X6.3755 Y-1.4467
X6.3778 Y-1.4478
X6.3817 Y-1.4495
G3 X6.3981 Y-1.4557 I0.1791 J0.4449
G1 X6.4009 Y-1.4567
X6.4031 Y-1.4574
X6.4067 Y-1.4584
X6.4122 Y-1.4597
X6.4135 Y-1.4601
G3 X6.4261 Y-1.4627 I0.0902 J0.3923
G1 X6.4298 Y-1.4633
X6.4336 Y-1.4639
X6.437 Y-1.4642
G3 X6.4532 Y-1.4653 I0.0503 J0.6091
G1 X6.4567 Y-1.4655
X7.1888 Y-1.4667
X7.1891
X7.1893
X7.197
X7.2005 Y-1.4666
G3 X7.2168 Y-1.4653 I-0.0347 J0.5704
G1 X7.2228 Y-1.4645
X7.2305 Y-1.4631
X7.232 Y-1.4628
X7.2397 Y-1.4611
X7.2417 Y-1.4606
X7.2456 Y-1.4597
X7.2496 Y-1.4585
X7.2537 Y-1.4571
X7.2557 Y-1.4564
X7.267 Y-1.4522
X7.2703 Y-1.4509
X7.2741 Y-1.4492
X7.2775 Y-1.4475
G3 X7.2946 Y-1.4381 I-0.1852 J0.3564
G1 X7.2982 Y-1.4359
X7.2997 Y-1.4349
X7.302 Y-1.4333
X7.3124 Y-1.4256
X7.3144 Y-1.424
X7.318 Y-1.4211
X7.3217 Y-1.4178
G3 X7.3356 Y-1.404 I-0.2736 J0.2889
G1 X7.3388 Y-1.4005
X7.3416 Y-1.3971
X7.3433 Y-1.3949
X7.351 Y-1.3846
X7.3525 Y-1.3825
X7.3537 Y-1.3808
X7.356 Y-1.377
G3 X7.3655 Y-1.36 I-0.3416 J0.2015
G1 X7.3672 Y-1.3566
X7.3689 Y-1.3527
X7.3703 Y-1.3493
X7.3747 Y-1.3378
X7.3754 Y-1.3358
X7.3767 Y-1.3319
X7.3778 Y-1.3281
X7.3788 Y-1.3242
X7.3794 Y-1.322
X7.3811 Y-1.3143
X7.3813 Y-1.3129
X7.3828 Y-1.3052
X7.3837 Y-1.2992
G3 X7.385 Y-1.2829 I-0.5475 J0.0517
G1 X7.3851 Y-1.2795
X7.3852 Y-1.2718
Y-1.2715
Y-1.2712
X7.3884 Y0.5848
Y0.5851
Y0.5928
X7.3883 Y0.5967
X7.388 Y0.6005
X7.3876 Y0.6044
X7.3871 Y0.6082
X7.3864 Y0.6121
X7.3856 Y0.6159
X7.3846 Y0.6198
X7.3835 Y0.6238
X7.3823 Y0.6277
X7.3809 Y0.6315
X7.3794 Y0.6353
X7.3777 Y0.6391
X7.3759 Y0.6429
X7.3738 Y0.6467
X7.3715 Y0.6507
X7.3689 Y0.6549
X7.3661 Y0.6588
X7.3633 Y0.6625
X7.3602 Y0.6662
X7.3569 Y0.6699
X7.3544 Y0.6725
X7.3529 Y0.674
X7.3511 Y0.6756
X7.3492 Y0.6774
X7.3473 Y0.6791
X7.3454 Y0.6806
X7.3425 Y0.6829
X7.3385 Y0.6858
X7.3347 Y0.6883
X7.3308 Y0.6907
X7.327 Y0.6928
X7.3232 Y0.6947
X7.3194 Y0.6965
X7.3155 Y0.6982
X7.3117 Y0.6996
X7.3078 Y0.7009
X7.305 Y0.7018
X7.3033 Y0.7023
X7.3009 Y0.7029
X7.2979 Y0.7036
X7.2949 Y0.7043
X7.2919 Y0.7048
X7.2885 Y0.7053
X7.2847 Y0.7058
X7.2808 Y0.7062
X7.277 Y0.7064
X7.2738 Y0.7065
X7.238 Y0.7066
X7.2453 Y4.924
X8.3278 Y4.9241
X8.3013 Y0.7087
X8.0909 Y0.71
X8.0906
X8.0903
X8.0865
X8.083 Y0.7099
X8.0792 Y0.7097
X8.0753 Y0.7093
X8.0714 Y0.7088
X8.0676 Y0.7081
X8.0637 Y0.7074
X8.0599 Y0.7065
X8.056 Y0.7054
X8.0522 Y0.7042
X8.0483 Y0.7029
X8.0445 Y0.7014
X8.0408 Y0.6998
X8.037 Y0.698
X8.033 Y0.6959
X8.029 Y0.6937
X8.0252 Y0.6913
X8.0213 Y0.6886
X8.0175 Y0.6858
X8.0135 Y0.6825
X8.0094 Y0.6789
X8.0065 Y0.6761
X8.0046 Y0.6742
X8.0025 Y0.672
X8.0003 Y0.6694
X7.9977 Y0.6663
X7.9948 Y0.6624
X7.9921 Y0.6586
X7.9896 Y0.6547
X7.9875 Y0.6511
X7.9856 Y0.6478
X7.9837 Y0.6439
X7.9818 Y0.6396
X7.9801 Y0.6355
X7.9787 Y0.6316
X7.9774 Y0.6278
X7.9763 Y0.6239
X7.9754 Y0.6201
X7.9746 Y0.6162
X7.9739 Y0.6124
X7.9733 Y0.6085
X7.9729 Y0.6046
X7.9726 Y0.6008
X7.9724 Y0.5973
Y0.5935
Y0.5932
Y0.5929
X7.9607 Y-1.2707
Y-1.2734
X7.961 Y-1.2811
X7.9611 Y-1.2826
X7.9616 Y-1.2903
X7.9617 Y-1.2921
X7.9621 Y-1.2959
X7.9626 Y-1.2998
X7.9632 Y-1.3036
X7.9637 Y-1.3062
G3 X7.9674 Y-1.3228 I0.4058 J0.0813
G1 X7.9682 Y-1.3258
X7.9691 Y-1.3287
G3 X7.9753 Y-1.3459 I0.4713 J0.1595
G1 X7.9764 Y-1.3486
X7.9781 Y-1.3524
X7.9798 Y-1.3558
G3 X7.9862 Y-1.3679 I0.6089 J0.3171
G1 X7.9874 Y-1.37
X7.9897 Y-1.3738
X7.9921 Y-1.3776
X7.9948 Y-1.3814
X7.9956 Y-1.3826
X8.0013 Y-1.3903
X8.0022 Y-1.3914
X8.0041 Y-1.3939
X8.0061 Y-1.3963
X8.0082 Y-1.3988
X8.0103 Y-1.4011
G3 X8.0215 Y-1.4124 I0.4648 J0.4477
G1 X8.0238 Y-1.4145
X8.0263 Y-1.4168
X8.0288 Y-1.4189
X8.0313 Y-1.4209
X8.0324 Y-1.4217
X8.0401 Y-1.4276
X8.0414 Y-1.4286
X8.0453 Y-1.4313
X8.0493 Y-1.4339
X8.0536 Y-1.4365
X8.0552 Y-1.4374
G3 X8.0668 Y-1.4438 I0.2647 J0.4689
G1 X8.0703 Y-1.4455
X8.0743 Y-1.4473
X8.0775 Y-1.4487
G3 X8.0941 Y-1.4548 I0.1559 J0.396
G1 X8.0971 Y-1.4558
X8.1 Y-1.4566
G3 X8.1165 Y-1.4604 I0.118 J0.4712
G1 X8.1195 Y-1.461
X8.1233 Y-1.4616
X8.1271 Y-1.4621
X8.131 Y-1.4625
X8.1323 Y-1.4626
X8.14 Y-1.4632
X8.1418 Y-1.4633
X8.1495 Y-1.4637
X8.1519 Y-1.4638
X8.8917 Y-1.4684
X8.8919
X8.8996
X8.9033 Y-1.4683
G3 X8.9195 Y-1.4673 I-0.0287 J0.5672
G1 X8.9232 Y-1.4669
X8.927 Y-1.4663
X8.9304 Y-1.4658
G3 X8.9475 Y-1.4621 I-0.0966 J0.4949
G1 X8.9512 Y-1.4611
X8.9551 Y-1.46
X8.9581 Y-1.4589
X8.9658 Y-1.4561
X8.9671 Y-1.4557
X8.9748 Y-1.4527
X8.9777 Y-1.4514
X8.9805 Y-1.4501
X8.9887 Y-1.4458
X8.9899 Y-1.4452
X8.9971 Y-1.4412
X9.0006 Y-1.4391
X9.0033 Y-1.4374
X9.006 Y-1.4355
G3 X9.0198 Y-1.4253 I-0.3255 J0.4514
G1 X9.0224 Y-1.4232
X9.0248 Y-1.421
G3 X9.0374 Y-1.4088 I-0.3264 J0.351
G1 X9.0398 Y-1.4063
X9.0435 Y-1.4023
X9.0464 Y-1.3987
X9.0538 Y-1.389
X9.0546 Y-1.3879
X9.0567 Y-1.385
X9.0586 Y-1.3822
X9.0604 Y-1.3794
X9.0622 Y-1.3764
X9.0665 Y-1.3687
X9.0672 Y-1.3673
X9.0713 Y-1.3596
X9.0727 Y-1.3568
X9.0739 Y-1.3539
G3 X9.0802 Y-1.3376 I-0.4766 J0.1922
G1 X9.0814 Y-1.3338
X9.0826 Y-1.3299
X9.0834 Y-1.3266
G3 X9.0872 Y-1.3098 I-0.5224 J0.1246
G1 X9.0878 Y-1.3061
X9.0883 Y-1.302
X9.0887 Y-1.2988
G3 X9.0898 Y-1.2825 I-0.5446 J0.0473
G1 X9.09 Y-1.2792
X9.1289 Y4.9241
X9.6767
X9.6789 Y-1.2711
Y-1.2715
Y-1.272
X9.679 Y-1.2797
X9.6792 Y-1.2829
G3 X9.6805 Y-1.2995 I0.4315 J0.0269
G1 X9.6809 Y-1.3025
X9.6814 Y-1.3055
G3 X9.6848 Y-1.322 I0.4563 J0.0868
G1 X9.6855 Y-1.3249
X9.6866 Y-1.3287
X9.6877 Y-1.3325
X9.6891 Y-1.3363
X9.6895 Y-1.3376
X9.6931 Y-1.347
X9.6937 Y-1.3486
X9.6949 Y-1.3516
X9.6962 Y-1.3546
X9.6976 Y-1.3576
X9.6991 Y-1.3604
G3 X9.7061 Y-1.3733 I0.6938 J0.3712
G1 X9.7077 Y-1.376
X9.7096 Y-1.379
X9.7119 Y-1.3824
G3 X9.7209 Y-1.3945 I0.5573 J0.4039
G1 X9.7229 Y-1.397
X9.7261 Y-1.4009
X9.7293 Y-1.4044
G3 X9.7417 Y-1.4167 I0.3263 J0.3154
G1 X9.7452 Y-1.4198
X9.7491 Y-1.423
X9.7512 Y-1.4247
G3 X9.7636 Y-1.4338 I0.2456 J0.32
G1 X9.7673 Y-1.4362
X9.7713 Y-1.4387
X9.7736 Y-1.44
X9.7832 Y-1.4453
X9.7847 Y-1.446
X9.7875 Y-1.4475
X9.7904 Y-1.4489
X9.7933 Y-1.4501
X9.7963 Y-1.4514
X9.804 Y-1.4543
X9.8044 Y-1.4544
X9.81 Y-1.4565
X9.8123 Y-1.4573
X9.8145 Y-1.458
X9.8186 Y-1.4591
X9.8263 Y-1.461
X9.8276 Y-1.4613
X9.8353 Y-1.463
X9.8378 Y-1.4634
X9.8417 Y-1.4641
X9.8455 Y-1.4646
X9.8494 Y-1.465
X9.8512 Y-1.4652
X9.8589 Y-1.4657
X9.8604 Y-1.4658
X9.8681 Y-1.4662
X9.8708
X10.5798 Y-1.466
X10.5822 Y-1.4659
X10.5899 Y-1.4656
X10.5916 Y-1.4655
X10.5993 Y-1.465
X10.6008 Y-1.4648
X10.6046 Y-1.4645
X10.6084 Y-1.464
X10.6123 Y-1.4633
X10.6151 Y-1.4628
G3 X10.6316 Y-1.459 I-0.0944 J0.4547
G1 X10.6354 Y-1.458
X10.6372 Y-1.4575
X10.6399 Y-1.4566
G3 X10.6541 Y-1.4513 I-0.2598 J0.7222
G1 X10.6568 Y-1.4502
X10.6596 Y-1.449
X10.6624 Y-1.4477
X10.6652 Y-1.4463
X10.6671 Y-1.4453
X10.6769 Y-1.4399
X10.6788 Y-1.4388
X10.6828 Y-1.4365
X10.6866 Y-1.434
X10.6903 Y-1.4314
X10.6916 Y-1.4304
X10.6993 Y-1.4246
X10.701 Y-1.4233
X10.7049 Y-1.4202
X10.7086 Y-1.4169
X10.7126 Y-1.4131
X10.7136 Y-1.4121
X10.7212 Y-1.4044
X10.7242 Y-1.4012
X10.7275 Y-1.3973
X10.7297 Y-1.3945
G3 X10.7386 Y-1.3825 I-0.6648 J0.5033
G1 X10.7408 Y-1.3794
X10.7426 Y-1.3765
X10.7444 Y-1.3735
G3 X10.7516 Y-1.3604 I-0.6719 J0.3772
G1 X10.7528 Y-1.3581
X10.7541 Y-1.3554
X10.7553 Y-1.3527
X10.7565 Y-1.35
X10.7574 Y-1.3477
G3 X10.7629 Y-1.3327 I-0.4078 J0.1583
G1 X10.7641 Y-1.329
X10.7651 Y-1.3252
X10.7659 Y-1.322
G3 X10.7694 Y-1.3057 I-0.5097 J0.1157
G1 X10.7699 Y-1.3027
X10.7702 Y-1.2997
X10.771 Y-1.292
X10.7711 Y-1.2906
X10.7716 Y-1.2829
X10.7718 Y-1.2798
X10.7719 Y-1.2721
Y-1.2718
Y-1.2714
Y-1.2711
X10.7713 Y0.5926
X10.7712 Y0.5957
X10.771 Y0.5996
X10.7706 Y0.6034
X10.7701 Y0.6073
X10.7695 Y0.6111
X10.7688 Y0.615
X10.7679 Y0.6189
X10.7669 Y0.6228
X10.7657 Y0.6267
X10.7644 Y0.6305
X10.763 Y0.6343
X10.7614 Y0.6381
X10.7596 Y0.6419
X10.7577 Y0.6458
X10.7555 Y0.6497
X10.7532 Y0.6535
X10.7505 Y0.6576
X10.7474 Y0.6618
X10.7443 Y0.6657
X10.7413 Y0.6691
X10.7387 Y0.6719
X10.7366 Y0.6741
X10.7339 Y0.6767
X10.7305 Y0.6796
X10.7271 Y0.6824
X10.7238 Y0.685
X10.7216 Y0.6866
X10.7206 Y0.6872
X10.7182 Y0.6888
X10.7143 Y0.6912
X10.7105 Y0.6934
X10.7066 Y0.6954
X10.703 Y0.6971
X10.6997 Y0.6985
X10.6964 Y0.6998
X10.6931 Y0.701
X10.6909 Y0.7018
X10.6898 Y0.7021
X10.6874 Y0.7029
X10.6835 Y0.7039
X10.6796 Y0.7048
X10.6758 Y0.7056
X10.6719 Y0.7062
X10.6681 Y0.7067
X10.6642 Y0.7071
X10.6604 Y0.7073
X10.6568 Y0.7074
X10.6105
X10.4143 Y0.7073
X10.4126 Y4.9241
