(LOWER SHAPING ROUNDOVER)
(T15 D=0.5 CR=0. - ZMIN=0.1846 - FLAT END MILL)
(T18 D=0.9843 CR=0. TAPER=45DEG - ZMIN=-0.635 - DOVETAIL MILL)
(T19 D=0.2362 CR=0. - ZMIN=-0.585 - FLAT END MILL)
(T20 D=0.0625 CR=0. - ZMIN=0.2346 - FLAT END MILL)
(T21 D=0.015 CR=0.0312 - ZMIN=0.3086 - RADIUS MILL)
G90 G94 G91.1 G40 G49 G17
G20
G53 G0 Z0.

(ROUGH TOP PASS 2)
T15 M6
S10000 M3
G17 G90 G94
G55
G0 X22.8244 Y1.9348
G43 Z1.2346 H15
G0 Z0.5298
G1 Z0.4079 F50.
Y1.9351 Z0.4025 F100.
Y1.936 Z0.3973
Y1.9374 Z0.3921
Y1.9393 Z0.3871
X22.8243 Y1.9418 Z0.3824
Y1.9448 Z0.3779
Y1.9482 Z0.3738
Y1.9521 Z0.3701
Y1.9563 Z0.3668
Y1.9609 Z0.364
X22.8242 Y1.9657 Z0.3617
Y1.9708 Z0.3599
Y1.976 Z0.3587
X22.8241 Y1.9813 Z0.358
X22.8122 Y4.3469 Z0.1926
G2 X22.8382 Y4.3731 Z0.1897 I0.026 J0.0001
G1 X22.848 Z0.189
G2 X22.874 Y4.347 Z0.1862 I0. J-0.026
G1 Y4.3256 Z0.1847
Y4.3221 Z0.1846
X22.8668 Y1.1895 F140.
G2 X22.8282 Y1.1894 I-0.0193 J0.
G1 X22.8122 Y4.3469
G2 X22.8382 Y4.3731 I0.026 J0.0001
G1 X22.848
G2 X22.874 Y4.347 I0. J-0.026
G1 Y4.3221
G3 X22.9636 Y4.1869 I0.1463 J-0.0003
G2 X23.0533 Y4.0517 I-0.0566 J-0.1349
G1 X23.0462 Y0.8962
G2 X23.0338 Y0.8588 I-0.0631 J0.0001
G3 X23.0209 Y0.8408 I0.5474 J-0.4051
X23.0089 Y0.8222 I0.282 J-0.1948
G2 X22.9471 I-0.0309 J0.0185
G3 X22.712 Y1.0118 I-0.3756 J-0.2251
G2 X22.6486 Y1.0998 I0.03 J0.0884
G1 X22.6315 Y4.4893
G2 X22.6949 Y4.5531 I0.0635 J0.0003
G1 X22.9906
G2 X23.0543 Y4.4893 I0. J-0.0637
G1 X23.0533 Y4.0517
G3 X23.1435 Y3.9158 I0.1471 J-0.0003
G2 X23.2337 Y3.7798 I-0.0569 J-0.1356
G1 X23.227 Y0.7991
X23.2252 Y0.7977
X23.2183 Y0.792
X23.2117 Y0.7863
X23.2054 Y0.7804
X23.1996 Y0.7747
X23.1944 Y0.7691
X23.1892 Y0.7634
X23.1842 Y0.7574
X23.1812 Y0.7537
X23.1784 Y0.7499
X23.1719 Y0.7409
X23.1679 Y0.7351
X23.1663 Y0.7326
X23.1638 Y0.7284
X23.1603 Y0.7227
X23.1571 Y0.7169
X23.1541 Y0.7111
X23.1508 Y0.7044
X23.1473 Y0.6967
X23.1449 Y0.6909
X23.1434 Y0.6871
X23.1416 Y0.6823
X23.1396 Y0.6766
X23.1377 Y0.6708
X23.136 Y0.665
X23.1344 Y0.6593
X23.1329 Y0.6535
X23.1316 Y0.6477
X23.1305 Y0.642
X23.1294 Y0.6362
X23.1285 Y0.6305
X23.1278 Y0.6247
X23.1271 Y0.6189
X23.1265 Y0.6103
X23.126 Y0.5988
X23.1258 Y0.5934
X23.1216 Y-1.2659
X22.8388
X22.8294 Y0.5938
X22.8293 Y0.5977
X22.8289 Y0.6092
X22.8283 Y0.6177
X22.8277 Y0.6234
X22.827 Y0.6292
X22.8262 Y0.635
X22.8252 Y0.6407
X22.8241 Y0.6465
X22.8229 Y0.6523
X22.8215 Y0.658
X22.82 Y0.6638
X22.8183 Y0.6695
X22.8165 Y0.6753
X22.8145 Y0.6811
X22.8123 Y0.687
X22.8099 Y0.6932
X22.8074 Y0.699
X22.805 Y0.7043
X22.8024 Y0.7099
X22.7994 Y0.7156
X22.7963 Y0.7214
X22.793 Y0.7272
X22.7899 Y0.7323
X22.787 Y0.7368
X22.7831 Y0.7425
X22.778 Y0.7496
X22.7752 Y0.7534
X22.7723 Y0.757
X22.7658 Y0.7648
X22.7607 Y0.7705
X22.7572 Y0.7743
X22.7515 Y0.78
X22.7435 Y0.7875
X22.737 Y0.7932
X22.7322 Y0.7972
X22.7264 Y0.8017
X22.7197 Y0.8066
X22.7137 Y0.8108
X22.7083 Y0.8143
X22.7029 Y0.8176
X22.6976 Y0.8207
X22.6945 Y0.8225
X22.6937 Y0.8229
X22.6904 Y0.8246
X22.6846 Y0.8276
X22.6789 Y0.8303
X22.6731 Y0.8329
X22.6673 Y0.8354
X22.6616 Y0.8376
X22.6558 Y0.8397
X22.65 Y0.8417
X22.6449 Y0.8433
X22.6404 Y0.8446
X22.6346 Y0.8462
X22.6276 Y0.8479
X22.6212 Y0.8493
X22.6154 Y0.8504
X22.6096 Y0.8514
X22.6039 Y0.8522
X22.5981 Y0.8529
X22.5923 Y0.8535
X22.5866 Y0.854
X22.5808 Y0.8543
X22.574 Y0.8545
X22.5625
X22.562
X22.5614
X22.4689 Y0.854
X22.4492 Y4.7341
X23.2359
X23.2337 Y3.7798
X23.2336 Y3.777
X23.2333 Y3.7742 Z0.1849
X23.2328 Y3.7715 Z0.1853
X23.2322 Y3.7688 Z0.1858
X23.2314 Y3.7662 Z0.1865
X23.2305 Y3.7637 Z0.1874
X23.2295 Y3.7613 Z0.1884
X23.2284 Y3.759 Z0.1895
X23.2272 Y3.7568 Z0.1908
X23.2259 Y3.7547 Z0.1922
X23.2246 Y3.7528 Z0.1938
X23.2233 Y3.751 Z0.1955
X23.2219 Y3.7493 Z0.1973
X23.2206 Y3.7478 Z0.1992
X23.2192 Y3.7464 Z0.2012
X23.2179 Y3.7452 Z0.2034
X23.2166 Y3.7441 Z0.2056
X23.2154 Y3.7431 Z0.208
X23.2143 Y3.7422 Z0.2104
X23.2133 Y3.7415 Z0.2129
X23.2123 Y3.7408 Z0.2154
X23.2115 Y3.7402 Z0.2181
X23.2108 Y3.7398 Z0.2207
X23.2102 Y3.7394 Z0.2234
X23.2097 Y3.7391 Z0.2262
X23.2094 Y3.7389 Z0.229
X23.2092 Y3.7388 Z0.2318
X23.2091 Z0.2346
G0 Z0.8346
X24.6505 Y1.9292
Z0.5298
G1 Z0.4079 F50.
Y1.9295 Z0.4025 F100.
Y1.9304 Z0.3973
Y1.9318 Z0.3921
Y1.9338 Z0.3871
Y1.9362 Z0.3824
Y1.9392 Z0.3779
Y1.9427 Z0.3738
Y1.9465 Z0.3701
X24.6506 Y1.9508 Z0.3668
Y1.9553 Z0.364
Y1.9602 Z0.3617
Y1.9652 Z0.3599
Y1.9704 Z0.3587
Y1.9757 Z0.358
X24.656 Y4.3471 Z0.1922
G2 X24.682 Y4.3731 Z0.1893 I0.026 J-0.0001
G1 X24.6881 Z0.1889
G2 X24.7141 Y4.347 Z0.1861 I0. J-0.026
G1 X24.714 Y4.3274 Z0.1847
Y4.3239 Z0.1846
X24.7004 Y1.0851 F140.
G2 X24.6935 Y1.0704 I-0.0193 J0.0001
G1 X24.6904 Y1.0678
G2 X24.6656 I-0.0124 J0.0147
G3 X24.6559 Y1.0757 I-0.3155 J-0.3762
G2 X24.6486 Y1.0908 I0.012 J0.0151
G1 X24.656 Y4.3471
G2 X24.682 Y4.3731 I0.026 J-0.0001
G1 X24.6881
G2 X24.7141 Y4.347 I0. J-0.026
G1 X24.714 Y4.3239
G3 X24.8034 Y4.1886 I0.1462 J-0.0006
G2 X24.8929 Y4.0532 I-0.0568 J-0.1348
G1 X24.8804 Y1.0686
G2 X24.8181 Y0.9397 I-0.1659 J0.0007
G3 X24.709 Y0.8127 I0.2817 J-0.3523
G2 X24.6487 I-0.0301 J0.0175
G3 X24.5961 Y0.885 I-0.3752 J-0.2178
X24.5301 Y0.9454 I-0.3444 J-0.3098
G2 X24.4686 Y1.0691 I0.0927 J0.1233
G1 X24.4763 Y4.4892
G2 X24.5404 Y4.5531 I0.064 J-0.0001
G1 X24.8311
G2 X24.8947 Y4.4893 I0. J-0.0635
G1 X24.8929 Y4.0532
G3 X24.9828 Y3.917 I0.1471 J-0.0006
G2 X25.0727 Y3.7809 I-0.0571 J-0.1355
G1 X25.0605 Y0.8522
X25.0599 Y0.8521
X25.0593 Y0.852
X25.0587
X25.0529 Y0.8512
X25.0472 Y0.8502
X25.0414 Y0.8491
X25.0355 Y0.8479
X25.0294 Y0.8465
X25.0236 Y0.845
X25.0182 Y0.8434
X25.0125 Y0.8417
X25.0068 Y0.8397
X25.001 Y0.8377
X24.9952 Y0.8354
X24.9895 Y0.833
X24.9837 Y0.8305
X24.9776 Y0.8276
X24.9712 Y0.8243
X24.9652 Y0.8211
X24.9598 Y0.818
X24.9544 Y0.8147
X24.9489 Y0.8112
X24.9428 Y0.807
X24.936 Y0.8021
X24.9303 Y0.7977
X24.9255 Y0.7938
X24.919 Y0.7881
X24.9108 Y0.7805
X24.9051 Y0.7748
X24.9017 Y0.7713
X24.8966 Y0.7656
X24.8899 Y0.7576
X24.8869 Y0.754
X24.8841 Y0.7503
X24.8793 Y0.7437
X24.8754 Y0.7379
X24.8722 Y0.7329
X24.8689 Y0.7276
X24.8655 Y0.7218
X24.8624 Y0.7161
X24.8594 Y0.7103
X24.8569 Y0.7052
X24.8549 Y0.7009
X24.8524 Y0.6951
X24.8495 Y0.688
X24.8471 Y0.6815
X24.8451 Y0.6757
X24.8433 Y0.67
X24.8416 Y0.6642
X24.8401 Y0.6584
X24.8387 Y0.6527
X24.8374 Y0.6469
X24.8363 Y0.6411
X24.8353 Y0.6354
X24.8344 Y0.6296
X24.8337 Y0.6239
X24.8331 Y0.6181
X24.8325 Y0.6095
X24.8321 Y0.598
X24.832 Y0.5937
X24.8242 Y-1.2659
X24.5231
X24.5273 Y0.5928
X24.5272 Y0.5979
X24.527 Y0.6036
X24.5267 Y0.6094
X24.5262 Y0.6152
X24.5257 Y0.6198
X24.5253 Y0.6234
X24.5245 Y0.6292
X24.5232 Y0.6371
X24.5219 Y0.644
X24.5206 Y0.6497
X24.5192 Y0.6555
X24.5177 Y0.6613
X24.516 Y0.667
X24.5142 Y0.6728
X24.5122 Y0.6786
X24.5101 Y0.6843
X24.5073 Y0.6912
X24.5038 Y0.6992
X24.5012 Y0.7049
X24.4994 Y0.7085
X24.497 Y0.7131
X24.4938 Y0.7189
X24.4905 Y0.7247
X24.4869 Y0.7304
X24.4836 Y0.7356
X24.4805 Y0.7401
X24.4763 Y0.7459
X24.471 Y0.7529
X24.4681 Y0.7564
X24.4652 Y0.7599
X24.459 Y0.7669
X24.4536 Y0.7726
X24.4491 Y0.7771
X24.4434 Y0.7826
X24.4364 Y0.7888
X24.4294 Y0.7945
X24.4225 Y0.7998
X24.4167 Y0.8041
X24.4121 Y0.8072
X24.4069 Y0.8106
X24.4011 Y0.8142
X24.3953 Y0.8176
X24.3896 Y0.8207
X24.3851 Y0.8231
X24.3818 Y0.8247
X24.3761 Y0.8274
X24.3678 Y0.831
X24.3607 Y0.8339
X24.355 Y0.8361
X24.3492 Y0.838
X24.3434 Y0.8399
X24.3377 Y0.8416
X24.3319 Y0.8431
X24.3261 Y0.8445
X24.3203 Y0.8458
X24.3144 Y0.847
X24.3081 Y0.848
X24.3024 Y0.8489
X24.2971 Y0.8496
X24.2915 Y0.8501
X24.2871 Y0.8505
X24.2959 Y4.7341
X25.0767
X25.0727 Y3.7809
X25.0726 Y3.7781
X25.0722 Y3.7753 Z0.1849
X25.0718 Y3.7726 Z0.1853
X25.0711 Y3.7699 Z0.1858
X25.0704 Y3.7673 Z0.1865
X25.0695 Y3.7648 Z0.1874
X25.0685 Y3.7624 Z0.1884
X25.0674 Y3.7601 Z0.1895
X25.0662 Y3.7579 Z0.1908
X25.0649 Y3.7558 Z0.1922
X25.0636 Y3.7539 Z0.1938
X25.0622 Y3.7521 Z0.1955
X25.0609 Y3.7505 Z0.1973
X25.0595 Y3.749 Z0.1992
X25.0581 Y3.7476 Z0.2012
X25.0568 Y3.7463 Z0.2034
X25.0556 Y3.7452 Z0.2056
X25.0544 Y3.7442 Z0.208
X25.0532 Y3.7434 Z0.2104
X25.0522 Y3.7426 Z0.2129
X25.0513 Y3.742 Z0.2154
X25.0504 Y3.7414 Z0.2181
X25.0497 Y3.7409 Z0.2207
X25.0491 Y3.7406 Z0.2234
X25.0486 Y3.7403 Z0.2262
X25.0483 Y3.7401 Z0.229
X25.0481 Y3.74 Z0.2318
X25.048 Z0.2346
G0 Z0.8346
X26.6739 Y3.4402
Z0.5298
G1 Z0.4079 F50.
Y3.4399 Z0.4025 F100.
Y3.439 Z0.3973
Y3.4376 Z0.3921
Y3.4357 Z0.3871
Y3.4332 Z0.3824
Y3.4302 Z0.3779
Y3.4268 Z0.3738
Y3.4229 Z0.3701
Y3.4187 Z0.3668
Y3.4141 Z0.364
X26.674 Y3.4093 Z0.3617
Y3.4042 Z0.3599
Y3.399 Z0.3587
Y3.3937 Z0.358
X26.6796 Y1.092 Z0.1971
G2 X26.618 Y1.0013 Z0.1889 I-0.0973 J-0.0002
G3 X26.5634 Y0.9752 Z0.1847 I0.1604 J-0.4071
G1 X26.5619 Y0.9744 Z0.1846
X26.5603 Y0.9735
G3 X26.4086 Y0.8281 I0.2181 J-0.3794 F140.
G2 X26.3463 I-0.0312 J0.0196
G3 X26.3338 Y0.8465 I-0.3083 J-0.1941
X26.3206 Y0.8643 I-0.5073 J-0.3643
G1 X26.3189 Y0.8663
X26.3173 Y0.8682
G2 X26.3037 Y0.9071 I0.0483 J0.0386
G1 X26.3187 Y4.4903
G2 X26.3817 Y4.5529 I0.0629 J-0.0003
G1 X26.6085
G2 X26.6713 Y4.4903 I0. J-0.0628
G1 X26.6795 Y1.1501
X26.6796 Y1.092
G2 X26.618 Y1.0013 I-0.0973 J-0.0002
G3 X26.5603 Y0.9735 I0.1604 J-0.4071
X26.4892 Y0.7878 I0.0785 J-0.1366
G2 X26.5208 Y0.5914 I-0.6028 J-0.1979
G1 X26.5253 Y-1.2659
X26.2268
X26.2345 Y0.5811
Y0.5815
Y0.5931
X26.2344 Y0.5987
X26.2342 Y0.6045
X26.2338 Y0.6103
X26.2333 Y0.616
X26.2328 Y0.6204
X26.2325 Y0.6235
X26.2316 Y0.6293
X26.2302 Y0.6377
X26.2288 Y0.6448
X26.2275 Y0.6506
X26.2261 Y0.6564
X26.2245 Y0.6621
X26.2227 Y0.6679
X26.2209 Y0.6737
X26.2189 Y0.6794
X26.2167 Y0.6852
X26.214 Y0.6917
X26.2108 Y0.6989
X26.2081 Y0.7047
X26.206 Y0.709
X26.2033 Y0.714
X26.2001 Y0.7198
X26.1967 Y0.7255
X26.1931 Y0.7313
X26.19 Y0.736
X26.1874 Y0.7397
X26.1832 Y0.7456
X26.1771 Y0.7534
X26.1743 Y0.7569
X26.1713 Y0.7603
X26.1658 Y0.7665
X26.1604 Y0.7723
X26.155 Y0.7776
X26.1492 Y0.783
X26.1431 Y0.7884
X26.1396 Y0.7913
X26.136 Y0.7942
X26.1279 Y0.8003
X26.1221 Y0.8045
X26.1386 Y4.7341
X26.8519
X26.8614 Y0.8514
X26.7837 Y0.8512
X26.7809
X26.7693 Y0.8509
G3 X26.7591 Y0.8503 I0.0031 J-0.13
G1 X26.7491 Y0.8492
X26.7433 Y0.8485
X26.7418 Y0.8483
X26.7381 Y0.8477
X26.7324 Y0.8466
X26.7266 Y0.8455
X26.7208 Y0.8442
X26.7151 Y0.8428
X26.7093 Y0.8412
X26.7035 Y0.8394
X26.6978 Y0.8376
X26.692 Y0.8356
X26.6862 Y0.8334
X26.6805 Y0.8311
X26.6747 Y0.8286
X26.6709 Y0.8268
X26.6691 Y0.826
X26.6633 Y0.8231
X26.6536 Y0.8179
X26.6463 Y0.8137
X26.6414 Y0.8107
X26.6366 Y0.8075
X26.6317 Y0.8042
X26.6284 Y0.8019
X26.6266 Y0.8005
X26.6228 Y0.7976
X26.617 Y0.7931
X26.6112 Y0.7883
X26.6055 Y0.7832
X26.6023 Y0.7803
X26.6018 Y0.7797
X26.5986 Y0.7766
X26.5929 Y0.7709
X26.5874 Y0.7649
X26.5821 Y0.7589
X26.5773 Y0.753
X26.573 Y0.7474
X26.5689 Y0.7418
X26.565 Y0.7362
X26.5614 Y0.7307
X26.5581 Y0.7253
X26.5547 Y0.7196
X26.5513 Y0.7134
X26.5483 Y0.7074
X26.5455 Y0.7017
X26.5428 Y0.6959
X26.5404 Y0.6902
X26.5377 Y0.6833
X26.5348 Y0.6752
X26.5329 Y0.6694
X26.5318 Y0.666
X26.5305 Y0.6613
X26.5289 Y0.6556
X26.5275 Y0.6498
X26.5262 Y0.6441
X26.5251 Y0.6383
X26.5241 Y0.6325
X26.5233 Y0.6268
X26.5225 Y0.621
X26.5219 Y0.6152
X26.5215 Y0.6095
X26.5211 Y0.6037
X26.5209 Y0.5979
X26.5208 Y0.5928
Y0.5914
X26.5207 Y0.5886
X26.5204 Y0.5858 Z0.1849
X26.5199 Y0.5831 Z0.1853
X26.5193 Y0.5804 Z0.1858
X26.5186 Y0.5778 Z0.1865
X26.5177 Y0.5752 Z0.1874
X26.5167 Y0.5728 Z0.1884
X26.5156 Y0.5705 Z0.1895
X26.5144 Y0.5683 Z0.1908
X26.5132 Y0.5662 Z0.1922
X26.5119 Y0.5643 Z0.1938
X26.5105 Y0.5625 Z0.1955
X26.5092 Y0.5608 Z0.1973
X26.5078 Y0.5593 Z0.1992
X26.5065 Y0.5579 Z0.2012
X26.5052 Y0.5567 Z0.2034
X26.5039 Y0.5556 Z0.2056
X26.5027 Y0.5546 Z0.208
X26.5016 Y0.5537 Z0.2104
X26.5006 Y0.5529 Z0.2129
X26.4996 Y0.5523 Z0.2154
X26.4988 Y0.5517 Z0.2181
X26.4981 Y0.5512 Z0.2207
X26.4975 Y0.5509 Z0.2234
X26.497 Y0.5506 Z0.2262
X26.4967 Y0.5504 Z0.229
X26.4965 Y0.5503 Z0.2318
X26.4964 Y0.5502 Z0.2346
G0 Z0.8346
X27.9136 Y2.7238
Z0.5298
G1 Z0.4079 F50.
Y2.7241 Z0.4025 F100.
Y2.7249 Z0.3973
Y2.7263 Z0.3921
Y2.7283 Z0.3871
Y2.7308 Z0.3824
Y2.7338 Z0.3779
Y2.7372 Z0.3738
Y2.7411 Z0.3701
Y2.7453 Z0.3668
Y2.7499 Z0.364
X27.9135 Y2.7547 Z0.3617
Y2.7597 Z0.3599
Y2.765 Z0.3587
Y2.7703 Z0.358
X27.9087 Y4.7341 Z0.2207
X28.241 Z0.1975
X28.2404 Y4.5514 Z0.1847
Y4.5479 Z0.1846
X28.2221 Y-1.2659 F140.
X27.9234
X27.9091 Y4.5682
X27.9087 Y4.7341
X28.241
X28.2404 Y4.5479
X28.2402 Y4.5451
X28.2399 Y4.5423 Z0.1849
X28.2394 Y4.5396 Z0.1853
X28.2388 Y4.5369 Z0.1858
X28.238 Y4.5343 Z0.1865
X28.2372 Y4.5318 Z0.1874
X28.2361 Y4.5294 Z0.1884
X28.235 Y4.5271 Z0.1895
X28.2338 Y4.5249 Z0.1908
X28.2326 Y4.5228 Z0.1922
X28.2313 Y4.5209 Z0.1938
X28.2299 Y4.5191 Z0.1955
X28.2286 Y4.5174 Z0.1973
X28.2272 Y4.5159 Z0.1992
X28.2258 Y4.5146 Z0.2012
X28.2245 Y4.5133 Z0.2034
X28.2233 Y4.5122 Z0.2056
X28.2221 Y4.5112 Z0.208
X28.2209 Y4.5103 Z0.2104
X28.2199 Y4.5096 Z0.2129
X28.219 Y4.5089 Z0.2154
X28.2181 Y4.5084 Z0.2181
X28.2174 Y4.5079 Z0.2207
X28.2168 Y4.5075 Z0.2234
X28.2163 Y4.5073 Z0.2262
X28.216 Y4.5071 Z0.229
X28.2158 Y4.5069 Z0.2318
X28.2157 Z0.2346
G0 Z0.8346
X29.7209 Y3.6034
Z0.5298
G1 Z0.4079 F50.
Y3.6031 Z0.4025 F100.
Y3.6022 Z0.3973
Y3.6008 Z0.3921
Y3.5988 Z0.3871
Y3.5964 Z0.3824
Y3.5934 Z0.3779
Y3.5899 Z0.3738
Y3.5861 Z0.3701
Y3.5818 Z0.3668
Y3.5773 Z0.364
Y3.5724 Z0.3617
X29.721 Y3.5674 Z0.3599
Y3.5622 Z0.3587
Y3.5569 Z0.358
X29.7231 Y1.1452 Z0.1894
G2 X29.6942 Y1.1285 Z0.1866 I-0.0193 J0.
G1 X29.6867 Y1.1327 Z0.186
X29.6821 Y1.1353 Z0.1856
G2 X29.6737 Y1.1447 Z0.1847 I0.0094 J0.0168
G1 X29.6731 Y1.1463 Z0.1846
X29.6726 Y1.148
X29.6723 Y1.1501 F140.
X29.6722 Y1.1522
X29.6822 Y4.3349
G2 X29.7203 I0.0191 J-0.0001
G1 X29.7231 Y1.1559
Y1.1452
G2 X29.6942 Y1.1285 I-0.0193 J0.
G1 X29.6867 Y1.1327
X29.6821 Y1.1353
G2 X29.6726 Y1.148 I0.0094 J0.0168
G3 X29.5763 Y1.262 I-0.1559 J-0.0341
G2 X29.4929 Y1.3858 I0.0496 J0.1234
G1 X29.5026 Y4.4903
G2 X29.5655 Y4.5529 I0.0628 J-0.0002
G1 X29.8375
G2 X29.9002 Y4.4903 I0. J-0.0627
G1 X29.9032 Y0.9821
G2 X29.8712 Y0.9042 I-0.1106 J-0.0001
G3 X29.814 Y0.834 I0.3348 J-0.3314
G2 X29.751 I-0.0315 J0.0208
G3 X29.6641 Y0.9306 I-0.3657 J-0.242
X29.553 Y0.9979 I-0.2886 J-0.3505
G2 X29.492 Y1.0904 I0.0391 J0.0922
G1 X29.4929 Y1.3858
G3 X29.4027 Y1.522 I-0.1472 J0.0005
G2 X29.3126 Y1.6582 I0.057 J0.1357
G1 X29.3222 Y4.7341
X30.0811
X30.0845 Y0.8326
X30.0842 Y0.8325
X30.0785 Y0.83
X30.0735 Y0.8278
X30.0694 Y0.8259
X30.0636 Y0.8229
X30.0562 Y0.819
X30.0496 Y0.8152
X30.0439 Y0.8116
X30.0381 Y0.8079
X30.0323 Y0.8039
X30.0265 Y0.7996
X30.0207 Y0.7952
X30.015 Y0.7904
X30.0092 Y0.7854
X30.0053 Y0.7819
X30.0031 Y0.7798
X29.9995 Y0.7763
X29.9946 Y0.7713
X29.9899 Y0.7662
X29.9855 Y0.7612
X29.9827 Y0.7579
X29.9815 Y0.7565
X29.9787 Y0.7529
X29.9742 Y0.7471
X29.9701 Y0.7413
X29.9661 Y0.7356
X29.9632 Y0.7311
X29.9612 Y0.7279
X29.9579 Y0.7222
X29.9532 Y0.7138
X29.9496 Y0.7068
X29.9468 Y0.701
X29.9442 Y0.6952
X29.9418 Y0.6895
X29.9398 Y0.6842
X29.938 Y0.6795
X29.9361 Y0.6738
X29.9339 Y0.6669
X29.9321 Y0.6606
X29.9306 Y0.6549
X29.9292 Y0.6491
X29.928 Y0.6434
X29.9269 Y0.6376
X29.9259 Y0.6318
X29.9251 Y0.6261
X29.9244 Y0.6203
X29.9238 Y0.6145
X29.9234 Y0.6088
X29.9231 Y0.603
X29.9229 Y0.5972
X29.9228 Y0.593
X29.9244 Y-1.2659
X29.6371
X29.6429 Y0.5812
Y0.5815
Y0.593
X29.6428 Y0.5983
X29.6426 Y0.604
X29.6422 Y0.6098
X29.6417 Y0.6156
X29.6411 Y0.6213
X29.6404 Y0.6271
X29.6395 Y0.6329
X29.6385 Y0.6386
X29.6373 Y0.6444
X29.636 Y0.6502
X29.6346 Y0.6559
X29.6331 Y0.6617
X29.6316 Y0.6666
X29.6304 Y0.6706
X29.6284 Y0.6764
X29.6257 Y0.6839
X29.623 Y0.6905
X29.6206 Y0.6963
X29.6179 Y0.702
X29.6151 Y0.7078
X29.612 Y0.7138
X29.6084 Y0.7202
X29.605 Y0.7259
X29.6018 Y0.7311
X29.5982 Y0.7365
X29.5943 Y0.7422
X29.5901 Y0.7479
X29.5855 Y0.7538
X29.5806 Y0.7597
X29.5756 Y0.7654
X29.5702 Y0.7712
X29.5644 Y0.777
X29.5613 Y0.78
X29.5608 Y0.7805
X29.5576 Y0.7834
X29.5519 Y0.7884
X29.5461 Y0.7932
X29.5403 Y0.7978
X29.5364 Y0.8007
X29.5345 Y0.8021
X29.5311 Y0.8045
X29.5263 Y0.8077
X29.5215 Y0.8108
X29.5168 Y0.8138
X29.5118 Y0.8166
X29.5068 Y0.8195
X29.5017 Y0.8221
X29.4966 Y0.8247
X29.4934 Y0.8262
X29.492 Y0.8269
X29.4884 Y0.8285
X29.4826 Y0.831
X29.4769 Y0.8333
X29.4711 Y0.8354
X29.4653 Y0.8374
X29.4596 Y0.8393
X29.4538 Y0.841
X29.448 Y0.8426
X29.4423 Y0.844
X29.4365 Y0.8453
X29.4307 Y0.8464
X29.425 Y0.8474
X29.4202 Y0.8482
X29.4164 Y0.8487
X29.4106 Y0.8494
X29.4029 Y0.8501
X29.3939 Y0.8506
X29.3824 Y0.8509
X29.3798
X29.31 Y0.8511
X29.3126 Y1.6582
X29.3127 Y1.661
X29.313 Y1.6637 Z0.1849
X29.3135 Y1.6665 Z0.1853
X29.3141 Y1.6692 Z0.1858
X29.3149 Y1.6718 Z0.1865
X29.3158 Y1.6743 Z0.1874
X29.3168 Y1.6767 Z0.1884
X29.3179 Y1.679 Z0.1895
X29.3191 Y1.6812 Z0.1908
X29.3204 Y1.6833 Z0.1922
X29.3217 Y1.6852 Z0.1938
X29.323 Y1.687 Z0.1955
X29.3244 Y1.6886 Z0.1973
X29.3257 Y1.6901 Z0.1992
X29.3271 Y1.6915 Z0.2012
X29.3284 Y1.6928 Z0.2034
X29.3297 Y1.6939 Z0.2056
X29.3309 Y1.6949 Z0.208
X29.332 Y1.6958 Z0.2104
X29.333 Y1.6965 Z0.2129
X29.334 Y1.6972 Z0.2154
X29.3348 Y1.6977 Z0.2181
X29.3355 Y1.6982 Z0.2207
X29.3361 Y1.6985 Z0.2234
X29.3366 Y1.6988 Z0.2262
X29.3369 Y1.699 Z0.229
X29.3371 Y1.6991 Z0.2318
X29.3372 Y1.6992 Z0.2346
G0 Z0.8346
X31.5224 Y1.9494
Z0.5298
G1 Z0.4079 F50.
Y1.9496 Z0.4025 F100.
Y1.9505 Z0.3973
Y1.9519 Z0.3921
Y1.9539 Z0.3871
X31.5223 Y1.9564 Z0.3824
Y1.9594 Z0.3779
Y1.9628 Z0.3738
Y1.9667 Z0.3701
Y1.9709 Z0.3668
Y1.9754 Z0.364
Y1.9803 Z0.3617
Y1.9853 Z0.3599
Y1.9906 Z0.3587
Y1.9959 Z0.358
X31.5203 Y4.338 Z0.1942
G2 X31.5553 Y4.3731 Z0.1904 I0.035 J0.
G1 X31.562 Z0.1899
G2 X31.597 Y4.3381 Z0.1861 I0. J-0.035
G1 X31.5971 Y4.3182 Z0.1847
Y4.3147 Z0.1846
X31.5998 Y1.1648 F140.
G2 X31.5817 Y1.1341 I-0.035 J0.
G1 X31.5796 Y1.1329
X31.5774 Y1.1317
G2 X31.523 Y1.1634 I-0.0179 J0.0317
G1 X31.5203 Y4.3349
Y4.338
G2 X31.5553 Y4.3731 I0.035 J0.
G1 X31.562
G2 X31.597 Y4.3381 I0. J-0.035
G1 X31.5971 Y4.3147
G3 X31.6872 Y4.1798 I0.1463 J0.0001
G2 X31.7773 Y4.0449 I-0.0561 J-0.135
G1 X31.7799 Y1.0936
G2 X31.7174 Y1.0001 I-0.1011 J-0.0001
G3 X31.5909 Y0.9212 I0.1738 J-0.4197
X31.498 Y0.8045 I0.2811 J-0.319
G2 X31.439 Y0.8041 I-0.0296 J0.016
G3 X31.4092 Y0.8512 I-0.43 J-0.2397
X31.3738 Y0.8942 I-0.3417 J-0.2449
G2 X31.3432 Y0.9714 I0.0823 J0.0773
G1 X31.3401 Y4.4892
G2 X31.4039 Y4.5531 I0.0638 J0.0001
G1 X31.713
G2 X31.7769 Y4.4892 I0. J-0.0639
G1 X31.7773 Y4.0449
G3 X31.8679 Y3.9092 I0.1471 J0.0001
G2 X31.9585 Y3.7736 I-0.0564 J-0.1358
G1 X31.9611 Y0.852
X31.8824 Y0.8519
X31.8779 Y0.8518
X31.8721 Y0.8516
X31.8663 Y0.8513
X31.8606 Y0.8508
X31.853 Y0.85
X31.8437 Y0.8487
X31.8379 Y0.8477
X31.8357 Y0.8473
X31.8317 Y0.8465
X31.8259 Y0.8452
X31.8202 Y0.8438
X31.8144 Y0.8423
X31.8086 Y0.8406
X31.8029 Y0.8388
X31.7971 Y0.8368
X31.7913 Y0.8347
X31.7835 Y0.8315
X31.7738 Y0.8271
X31.768 Y0.8244
X31.7663 Y0.8235
X31.7625 Y0.8215
X31.7567 Y0.8184
X31.7509 Y0.815
X31.7452 Y0.8115
X31.7395 Y0.8077
X31.7338 Y0.8038
X31.728 Y0.7996
X31.7221 Y0.795
X31.7153 Y0.7893
X31.7074 Y0.7823
X31.7017 Y0.7769
X31.698 Y0.7732
X31.6927 Y0.7675
X31.6858 Y0.7597
X31.6801 Y0.7527
X31.6754 Y0.7466
X31.6712 Y0.7408
X31.6676 Y0.7354
X31.664 Y0.7298
X31.6605 Y0.7241
X31.6572 Y0.7183
X31.6541 Y0.7125
X31.6519 Y0.7084
X31.6507 Y0.7058
X31.648 Y0.7001
X31.6441 Y0.6911
X31.6411 Y0.6837
X31.639 Y0.6779
X31.6371 Y0.6722
X31.6353 Y0.6664
X31.6336 Y0.6607
X31.6321 Y0.6549
X31.6308 Y0.6491
X31.6295 Y0.6434
X31.6284 Y0.6375
X31.6274 Y0.6315
X31.6266 Y0.6257
X31.6259 Y0.6202
X31.6254 Y0.6145
X31.6249 Y0.6088
X31.6246 Y0.603
X31.6244 Y0.5973
Y0.593
X31.626 Y-1.2659
X31.3137
X31.3121 Y0.5933
X31.312 Y0.5965
X31.3119 Y0.6023
X31.3116 Y0.608
X31.3112 Y0.6138
X31.3107 Y0.6195
X31.31 Y0.6253
X31.3092 Y0.6311
X31.3083 Y0.6368
X31.3073 Y0.6422
X31.3063 Y0.6471
X31.305 Y0.6529
X31.3033 Y0.6595
X31.3016 Y0.6656
X31.2998 Y0.6714
X31.2979 Y0.6772
X31.2959 Y0.6829
X31.2937 Y0.6887
X31.2913 Y0.6945
X31.2887 Y0.7002
X31.286 Y0.706
X31.2842 Y0.7098
X31.2832 Y0.7118
X31.28 Y0.7176
X31.2745 Y0.7272
G3 X31.2687 Y0.7363 I-0.1127 J-0.0649
G1 X31.2627 Y0.745
X31.2585 Y0.7507
X31.2563 Y0.7535
X31.253 Y0.7576
X31.2486 Y0.7628
X31.244 Y0.7681
X31.239 Y0.7733
X31.236 Y0.7764
X31.2349 Y0.7775
X31.2318 Y0.7805
X31.2266 Y0.7854
X31.2214 Y0.79
X31.2161 Y0.7943
X31.212 Y0.7976
X31.209 Y0.7999
X31.2033 Y0.8041
X31.1948 Y0.81
X31.1879 Y0.8143
X31.183 Y0.8173
X31.178 Y0.8201
X31.173 Y0.8228
X31.1697 Y0.8245
X31.1681 Y0.8253
X31.1645 Y0.8271
X31.1623 Y0.8281
X31.1589 Y4.7341
X31.9577
X31.9585 Y3.7736
X31.9584 Y3.7708
X31.9581 Y3.768 Z0.1849
X31.9576 Y3.7652 Z0.1853
X31.957 Y3.7626 Z0.1858
X31.9562 Y3.76 Z0.1865
X31.9554 Y3.7574 Z0.1874
X31.9544 Y3.755 Z0.1884
X31.9533 Y3.7527 Z0.1895
X31.9521 Y3.7505 Z0.1908
X31.9508 Y3.7484 Z0.1922
X31.9495 Y3.7465 Z0.1938
X31.9482 Y3.7447 Z0.1955
X31.9468 Y3.7431 Z0.1973
X31.9455 Y3.7415 Z0.1992
X31.9441 Y3.7401 Z0.2012
X31.9428 Y3.7389 Z0.2034
X31.9416 Y3.7378 Z0.2056
X31.9404 Y3.7368 Z0.208
X31.9392 Y3.7359 Z0.2104
X31.9382 Y3.7351 Z0.2129
X31.9373 Y3.7345 Z0.2154
X31.9364 Y3.7339 Z0.2181
X31.9357 Y3.7335 Z0.2207
X31.9351 Y3.7331 Z0.2234
X31.9347 Y3.7328 Z0.2262
X31.9343 Y3.7326 Z0.229
X31.9341 Y3.7325 Z0.2318
X31.934 Z0.2346
G0 Z0.8346
X33.3206 Y1.0922
Z0.5298
G1 Z0.4079 F50.
Y1.0919 Z0.4025 F100.
Y1.0911 Z0.3973
Y1.0897 Z0.3921
X33.3207 Y1.0877 Z0.3871
Y1.0852 Z0.3824
Y1.0822 Z0.3779
Y1.0788 Z0.3738
Y1.0749 Z0.3701
Y1.0707 Z0.3668
X33.3208 Y1.0661 Z0.364
Y1.0613 Z0.3617
Y1.0563 Z0.3599
Y1.051 Z0.3587
X33.3209 Y1.0457 Z0.358
X33.3318 Y-1.2659 Z0.1964
X33.1646 Z0.1847
X33.1611 Z0.1846
X33.0313 F140.
X33.0261 Y4.7341
X33.3035
X33.331 Y-1.1152
X33.3318 Y-1.2659
X33.1611
X33.1583 Y-1.2657
X33.1556 Y-1.2654 Z0.1849
X33.1528 Y-1.265 Z0.1853
X33.1501 Y-1.2644 Z0.1858
X33.1475 Y-1.2636 Z0.1865
X33.145 Y-1.2627 Z0.1874
X33.1426 Y-1.2617 Z0.1884
X33.1403 Y-1.2606 Z0.1895
X33.1381 Y-1.2594 Z0.1908
X33.136 Y-1.2582 Z0.1922
X33.1341 Y-1.2569 Z0.1938
X33.1323 Y-1.2555 Z0.1955
X33.1306 Y-1.2542 Z0.1973
X33.1291 Y-1.2528 Z0.1992
X33.1277 Y-1.2515 Z0.2012
X33.1265 Y-1.2502 Z0.2034
X33.1254 Y-1.2489 Z0.2056
X33.1244 Y-1.2477 Z0.208
X33.1235 Y-1.2466 Z0.2104
X33.1227 Y-1.2455 Z0.2129
X33.1221 Y-1.2446 Z0.2154
X33.1215 Y-1.2438 Z0.2181
X33.1211 Y-1.2431 Z0.2207
X33.1207 Y-1.2425 Z0.2234
X33.1204 Y-1.242 Z0.2262
X33.1202 Y-1.2416 Z0.229
X33.1201 Y-1.2414 Z0.2318
Z0.2346
G0 Z0.8346
X34.7376 Y1.9603
Z0.5298
G1 Z0.4079 F50.
Y1.9606 Z0.4025 F100.
Y1.9614 Z0.3973
Y1.9628 Z0.3921
X34.7375 Y1.9648 Z0.3871
Y1.9673 Z0.3824
Y1.9703 Z0.3779
Y1.9737 Z0.3738
Y1.9776 Z0.3701
Y1.9818 Z0.3668
X34.7374 Y1.9864 Z0.364
Y1.9912 Z0.3617
Y1.9963 Z0.3599
Y2.0015 Z0.3587
X34.7373 Y2.0068 Z0.358
X34.7264 Y4.3379 Z0.195
G2 X34.7614 Y4.3731 Z0.1912 I0.035 J0.0002
G1 X34.7754 Z0.1902
G2 X34.8104 Y4.3381 Z0.1863 I0. J-0.035
G1 Y4.3146 Z0.1847
Y4.3111 Z0.1846
X34.8137 Y1.1702 F140.
G2 X34.7619 Y1.1394 I-0.035 J0.
G1 X34.7597 Y1.1406
G2 X34.7413 Y1.1713 I0.0166 J0.0308
G1 X34.7264 Y4.3379
G2 X34.7614 Y4.3731 I0.035 J0.0002
G1 X34.7754
G2 X34.8104 Y4.3381 I0. J-0.035
G1 Y4.3111
G3 X34.9006 Y4.1762 I0.1463 J0.0002
G2 X34.9907 Y4.0413 I-0.0561 J-0.1351
G1 X34.994 Y0.9631
G2 X34.9653 Y0.8878 I-0.1129 J-0.0001
G3 X34.9351 Y0.8504 I0.3682 J-0.3286
X34.9091 Y0.81 I0.3259 J-0.2382
G2 X34.8491 Y0.8099 I-0.03 J0.0169
G3 X34.754 Y0.9268 I-0.3938 J-0.2232
X34.6251 Y1.005 I-0.2853 J-0.325
G2 X34.5616 Y1.0973 I0.036 J0.0927
G1 X34.5456 Y4.4893
G2 X34.6092 Y4.5531 I0.0635 J0.0003
G1 X34.9263
G2 X34.9903 Y4.4892 I0. J-0.064
G1 X34.9907 Y4.0413
G3 X35.0814 Y3.9057 I0.1471 J0.0002
G2 X35.172 Y3.77 I-0.0564 J-0.1358
G1 X35.1751 Y0.8239
X35.1746 Y0.8237
X35.1741 Y0.8234
X35.1736 Y0.8232
X35.1668 Y0.8195
X35.1604 Y0.8159
X35.1547 Y0.8124
X35.1489 Y0.8087
X35.1431 Y0.8048
X35.14 Y0.8026
X35.1393 Y0.8021
X35.1363 Y0.7998
X35.1308 Y0.7956
X35.1253 Y0.7912
X35.1199 Y0.7865
X35.1158 Y0.7828
X35.113 Y0.7802
X35.1093 Y0.7766
X35.1047 Y0.7719
X35.1003 Y0.7673
X35.0962 Y0.7626
X35.0932 Y0.7591
X35.0914 Y0.7569
X35.0882 Y0.753
X35.0838 Y0.7472
X35.0796 Y0.7414
X35.0756 Y0.7357
X35.073 Y0.7317
X35.0717 Y0.7296
X35.0683 Y0.7239
X35.063 Y0.7145
X35.059 Y0.7068
X35.0563 Y0.7011
X35.0537 Y0.6953
X35.0513 Y0.6895
X35.0496 Y0.6853
X35.0485 Y0.6825
X35.0465 Y0.6767
X35.0436 Y0.668
X35.0415 Y0.6607
X35.04 Y0.655
X35.0386 Y0.6492
X35.0374 Y0.6434
X35.0363 Y0.6377
X35.0353 Y0.6319
X35.0345 Y0.6262
X35.0338 Y0.6204
X35.0332 Y0.6146
X35.0328 Y0.6089
X35.0325 Y0.6031
X35.0323 Y0.5973
X35.0322 Y0.593
X35.0341 Y-1.2659
X34.7331
X34.7244 Y0.5938
X34.7243 Y0.5978
X34.7239 Y0.6094
X34.7233 Y0.6181
X34.7226 Y0.6243
X34.7219 Y0.63
X34.7211 Y0.6354
X34.7202 Y0.6409
X34.719 Y0.6467
X34.7178 Y0.6524
X34.7164 Y0.6582
X34.7149 Y0.664
X34.7132 Y0.6697
X34.7114 Y0.6755
X34.7094 Y0.6813
X34.7074 Y0.6869
X34.7052 Y0.6923
X34.7028 Y0.6981
X34.7 Y0.7042
X34.6972 Y0.7101
X34.6942 Y0.7158
X34.6911 Y0.7216
X34.6878 Y0.7274
X34.6836 Y0.734
X34.6787 Y0.7415
X34.6747 Y0.7472
X34.6717 Y0.7513
X34.6682 Y0.7558
X34.6641 Y0.7608
X34.6598 Y0.7658
X34.6554 Y0.7708
X34.6523 Y0.774
X34.6508 Y0.7756
X34.6476 Y0.7788
X34.6426 Y0.7836
X34.6376 Y0.7883
X34.6325 Y0.7926
X34.6286 Y0.7959
X34.6257 Y0.7982
X34.62 Y0.8026
X34.6113 Y0.8088
G3 X34.6026 Y0.8145 I-0.0757 J-0.1057
G1 X34.5937 Y0.8199
X34.5879 Y0.8231
X34.5852 Y0.8246
X34.581 Y0.8267
X34.5752 Y0.8295
X34.5695 Y0.8322
X34.5637 Y0.8346
X34.5579 Y0.8369
X34.5522 Y0.8391
X34.5464 Y0.8411
X34.5406 Y0.8429
X34.5362 Y0.8442
X34.5332 Y0.8451
X34.5275 Y0.8465
X34.5189 Y0.8485
X34.5118 Y0.85
X34.506 Y0.851
X34.5002 Y0.8518
X34.4945 Y0.8526
X34.4887 Y0.8532
X34.4829 Y0.8537
X34.4772 Y0.854
X34.4714 Y0.8542
X34.4659 Y0.8543
X34.4312 Y0.8542
X34.3818 Y0.854
X34.3635 Y4.7341
X35.171
X35.172 Y3.77
X35.1719 Y3.7672
X35.1716 Y3.7644 Z0.1849
X35.1711 Y3.7617 Z0.1853
X35.1705 Y3.759 Z0.1858
X35.1697 Y3.7564 Z0.1865
X35.1688 Y3.7539 Z0.1874
X35.1678 Y3.7515 Z0.1884
X35.1668 Y3.7491 Z0.1895
X35.1656 Y3.7469 Z0.1908
X35.1643 Y3.7449 Z0.1922
X35.163 Y3.743 Z0.1938
X35.1617 Y3.7412 Z0.1955
X35.1603 Y3.7395 Z0.1973
X35.159 Y3.738 Z0.1992
X35.1576 Y3.7366 Z0.2012
X35.1563 Y3.7353 Z0.2034
X35.155 Y3.7342 Z0.2056
X35.1539 Y3.7332 Z0.208
X35.1527 Y3.7323 Z0.2104
X35.1517 Y3.7316 Z0.2129
X35.1508 Y3.7309 Z0.2154
X35.1499 Y3.7304 Z0.2181
X35.1492 Y3.7299 Z0.2207
X35.1486 Y3.7295 Z0.2234
X35.1481 Y3.7293 Z0.2262
X35.1478 Y3.7291 Z0.229
X35.1476 Y3.7289 Z0.2318
X35.1475 Z0.2346
G0 Z0.8346
X36.5695 Y1.9445
Z0.5298
G1 Z0.4079 F50.
Y1.9448 Z0.4025 F100.
Y1.9456 Z0.3973
Y1.9471 Z0.3921
Y1.949 Z0.3871
Y1.9515 Z0.3824
X36.5694 Y1.9545 Z0.3779
Y1.9579 Z0.3738
Y1.9618 Z0.3701
Y1.966 Z0.3668
Y1.9706 Z0.364
Y1.9754 Z0.3617
Y1.9805 Z0.3599
Y1.9857 Z0.3587
Y1.991 Z0.358
X36.567 Y4.338 Z0.1939
G2 X36.602 Y4.3731 Z0.1901 I0.035 J0.
G1 X36.6052 Z0.1898
G2 X36.6403 Y4.3378 Z0.186 I0. J-0.035
G1 X36.6401 Y4.3196 Z0.1847
Y4.3162 Z0.1846
X36.6148 Y1.0925 F140.
G2 X36.6077 Y1.0777 I-0.0193 J0.0002
G1 X36.602 Y1.073
G2 X36.5704 Y1.0877 I-0.0124 J0.0148
G1 X36.567 Y4.338
G2 X36.602 Y4.3731 I0.035 J0.
G1 X36.6052
G2 X36.6403 Y4.3378 I0. J-0.035
G1 X36.6401 Y4.3162
G3 X36.729 Y4.1805 I0.1462 J-0.0011
G2 X36.818 Y4.0448 I-0.0573 J-0.1346
G1 X36.7946 Y1.0728
G2 X36.731 Y0.9456 I-0.1614 J0.0013
G3 X36.6207 Y0.822 I0.2628 J-0.3453
G2 X36.559 I-0.0309 J0.0185
G3 X36.511 Y0.8867 I-0.3508 J-0.2099
X36.4521 Y0.9415 I-0.3536 J-0.3206
G2 X36.3904 Y1.0683 I0.0997 J0.127
G1 X36.3868 Y4.4892
G2 X36.4506 Y4.5531 I0.0638 J0.0001
G1 X36.7582
G2 X36.8215 Y4.4893 I0. J-0.0633
G1 X36.818 Y4.0448
G3 X36.9074 Y3.9083 I0.1471 J-0.0012
G2 X36.9968 Y3.7718 I-0.0576 J-0.1353
G1 X36.9739 Y0.8544
X36.9717 Y0.8542
X36.9659 Y0.8535
X36.9601 Y0.8527
X36.9544 Y0.8518
X36.9486 Y0.8507
X36.9428 Y0.8495
X36.9356 Y0.8477
X36.927 Y0.8454
X36.9212 Y0.8437
X36.9183 Y0.8428
X36.914 Y0.8413
X36.9082 Y0.8392
X36.9024 Y0.837
X36.8967 Y0.8346
X36.8909 Y0.832
X36.8851 Y0.8293
X36.8791 Y0.8262
X36.8728 Y0.8228
X36.8669 Y0.8195
X36.8614 Y0.8161
X36.8559 Y0.8126
X36.8504 Y0.8088
X36.8447 Y0.8047
X36.8389 Y0.8003
X36.8331 Y0.7956
X36.8274 Y0.7908
X36.8211 Y0.785
X36.8143 Y0.7784
X36.8086 Y0.7724
X36.8038 Y0.7672
X36.7989 Y0.7614
X36.7939 Y0.7551
X36.7897 Y0.7496
X36.7863 Y0.7449
X36.7831 Y0.7401
X36.78 Y0.7354
X36.7778 Y0.732
X36.7766 Y0.7299
X36.7743 Y0.726
X36.7711 Y0.7203
X36.768 Y0.7145
X36.7651 Y0.7087
X36.7615 Y0.7009
X36.7574 Y0.6909
X36.7551 Y0.6851
X36.7545 Y0.6836
X36.7533 Y0.6799
X36.7514 Y0.6742
X36.7496 Y0.6684
X36.748 Y0.6626
X36.7466 Y0.6569
X36.7452 Y0.6511
X36.744 Y0.6453
X36.743 Y0.6396
X36.7421 Y0.6338
X36.7413 Y0.6281
X36.7406 Y0.6223
X36.7401 Y0.6165
X36.7396 Y0.6084
X36.7393 Y0.5969
X36.7392 Y0.5942
X36.7246 Y-1.2613
Y-1.2618
Y-1.2659
X36.4442
X36.4423 Y0.5933
X36.4422 Y0.5968
X36.442 Y0.6034
X36.4417 Y0.6092
X36.4414 Y0.6141
X36.4409 Y0.6195
X36.4402 Y0.6252
X36.4394 Y0.631
X36.4385 Y0.6367
X36.4375 Y0.6425
X36.4363 Y0.6483
X36.4349 Y0.654
X36.4335 Y0.6598
X36.4319 Y0.6656
X36.4301 Y0.6713
X36.4282 Y0.6771
X36.4261 Y0.6829
X36.4236 Y0.6895
X36.4204 Y0.6969
X36.4179 Y0.7027
X36.4159 Y0.7067
X36.4135 Y0.7117
X36.4104 Y0.7174
X36.4072 Y0.7232
X36.4037 Y0.729
X36.4004 Y0.7342
X36.3973 Y0.7388
X36.3933 Y0.7446
X36.3882 Y0.7515
X36.3853 Y0.7551
X36.3824 Y0.7587
X36.376 Y0.7661
X36.3707 Y0.7718
X36.3668 Y0.7759
X36.3611 Y0.7815
X36.3535 Y0.7884
X36.3467 Y0.7941
X36.3409 Y0.7987
X36.3352 Y0.803
X36.3294 Y0.8071
X36.3237 Y0.8109
X36.3179 Y0.8145
X36.3121 Y0.818
X36.3064 Y0.8212
X36.3029 Y0.8231
X36.3017 Y0.8237
X36.2985 Y0.8253
X36.2933 Y0.8278
X36.2882 Y0.8302
X36.283 Y0.8324
X36.2775 Y0.8347
X36.2718 Y0.8369
X36.266 Y0.8389
X36.2602 Y0.8408
X36.2521 Y0.8431
X36.2416 Y0.8458
X36.2358 Y0.8472
X36.2348 Y0.8474
X36.2314 Y0.8481
X36.2256 Y0.8491
X36.2198 Y0.85
X36.2141 Y0.8508
X36.2096 Y0.8513
X36.2055 Y4.7341
X37.0044
X36.9968 Y3.7718
X36.9967 Y3.769
X36.9963 Y3.7663 Z0.1849
X36.9958 Y3.7635 Z0.1853
X36.9952 Y3.7609 Z0.1858
X36.9944 Y3.7583 Z0.1865
X36.9935 Y3.7557 Z0.1874
X36.9925 Y3.7533 Z0.1884
X36.9914 Y3.751 Z0.1895
X36.9902 Y3.7488 Z0.1908
X36.9889 Y3.7468 Z0.1922
X36.9876 Y3.7449 Z0.1938
X36.9862 Y3.7431 Z0.1955
X36.9849 Y3.7414 Z0.1973
X36.9835 Y3.7399 Z0.1992
X36.9821 Y3.7386 Z0.2012
X36.9808 Y3.7373 Z0.2034
X36.9796 Y3.7362 Z0.2056
X36.9783 Y3.7352 Z0.208
X36.9772 Y3.7344 Z0.2104
X36.9762 Y3.7336 Z0.2129
X36.9752 Y3.733 Z0.2154
X36.9744 Y3.7324 Z0.2181
X36.9737 Y3.732 Z0.2207
X36.9731 Y3.7316 Z0.2234
X36.9726 Y3.7313 Z0.2262
X36.9723 Y3.7311 Z0.229
X36.9721 Y3.731 Z0.2318
X36.972 Z0.2346
G0 Z0.8346
X38.4397 Y3.6519
Z0.5298
G1 Z0.4079 F50.
Y3.6516 Z0.4025 F100.
Y3.6507 Z0.3973
Y3.6493 Z0.3921
Y3.6473 Z0.3871
Y3.6448 Z0.3824
Y3.6419 Z0.3779
X38.4396 Y3.6384 Z0.3738
Y3.6346 Z0.3701
Y3.6303 Z0.3668
Y3.6258 Z0.364
X38.4395 Y3.6209 Z0.3617
Y3.6159 Z0.3599
Y3.6107 Z0.3587
X38.4394 Y3.6054 Z0.358
X38.422 Y1.1671 Z0.1875
G2 X38.4113 Y1.15 Z0.186 I-0.0193 J0.0001
G3 X38.4024 Y1.1454 Z0.1853 I0.2194 J-0.4395
G1 X38.3996 Y1.1442 Z0.1851
X38.3966 Y1.1434 Z0.1849
X38.3935 Y1.1432 Z0.1847
X38.3918 Z0.1846
X38.3901 Y1.1435
G2 X38.3741 Y1.1626 I0.0033 J0.019 F140.
G1 X38.399 Y4.3318
G2 X38.4446 Y4.3315 I0.0228 J-0.0002
G1 X38.422 Y1.1701
Y1.1671
G2 X38.4113 Y1.15 I-0.0193 J0.0001
G3 X38.4024 Y1.1454 I0.2194 J-0.4395
G2 X38.3901 Y1.1435 I-0.009 J0.0171
X38.268 Y1.1747 I0.1436 J0.8147
X38.195 Y1.2774 I0.0345 J0.1018
G1 X38.2203 Y4.4902
G2 X38.2835 Y4.5529 I0.0632 J-0.0005
G1 X38.5637
G2 X38.6258 Y4.4904 I0. J-0.062
G1 X38.6015 Y1.0981
G2 X38.5396 Y1.0097 I-0.095 J0.0007
G3 X38.4099 Y0.9351 I0.1573 J-0.4235
X38.3124 Y0.8216 I0.2771 J-0.3368
G2 X38.2517 Y0.821 I-0.0305 J0.0182
G3 X38.2162 Y0.8706 I-0.4216 J-0.2639
G1 X38.2141 Y0.873
X38.212 Y0.8754
G2 X38.1923 Y0.9297 I0.063 J0.0536
G1 X38.195 Y1.2774
G3 X38.1055 Y1.414 I-0.1472 J0.0012
G2 X38.016 Y1.5506 I0.0577 J0.1354
G1 X38.041 Y4.7341
X38.8087
X38.7809 Y0.8547
X38.7008 Y0.8553
X38.7002
X38.6887 Y0.8554
X38.6827 Y0.8552
X38.6769 Y0.855
X38.6711 Y0.8546
X38.6653 Y0.8541
X38.6596 Y0.8534
X38.6538 Y0.8527
X38.648 Y0.8518
X38.6423 Y0.8507
X38.6365 Y0.8496
X38.6308 Y0.8483
X38.625 Y0.8468
X38.6192 Y0.8452
X38.6134 Y0.8435
X38.6077 Y0.8416
X38.6019 Y0.8396
X38.5961 Y0.8374
X38.5904 Y0.835
X38.5846 Y0.8325
X38.5788 Y0.8298
X38.5731 Y0.827
X38.5683 Y0.8245
X38.5645 Y0.8224
X38.5587 Y0.8191
X38.5509 Y0.8143
X38.5448 Y0.8103
X38.5402 Y0.807
X38.5355 Y0.8037
X38.5309 Y0.8001
X38.5275 Y0.7974
X38.5252 Y0.7955
X38.5214 Y0.7923
X38.5163 Y0.7878
X38.5111 Y0.783
X38.506 Y0.7779
X38.5028 Y0.7746
X38.5016 Y0.7733
X38.4987 Y0.7702
X38.4942 Y0.7651
X38.4899 Y0.7599
X38.4858 Y0.7548
X38.4823 Y0.7502
X38.4794 Y0.7462
X38.4754 Y0.7405
X38.4706 Y0.733
X38.4665 Y0.7263
X38.4633 Y0.7206
X38.4602 Y0.7148
X38.4573 Y0.709
X38.4556 Y0.7056
X38.4551 Y0.7044
X38.4526 Y0.6987
X38.4484 Y0.6883
X38.4454 Y0.6802
X38.4435 Y0.6745
X38.4417 Y0.6687
X38.4401 Y0.6629
X38.4386 Y0.6572
X38.4373 Y0.6514
X38.4361 Y0.6456
X38.435 Y0.6399
X38.4341 Y0.6341
X38.4333 Y0.6284
X38.4326 Y0.6225
X38.432 Y0.6164
X38.4315 Y0.6082
X38.4312 Y0.597
X38.4311 Y0.5941
X38.4178 Y-1.2614
Y-1.2618
Y-1.2659
X38.1221
X38.1366 Y0.5806
Y0.5812
Y0.5818
X38.1365 Y0.5934
X38.1363 Y0.6004
X38.136 Y0.6061
X38.1356 Y0.6119
X38.135 Y0.6177
X38.1343 Y0.6234
X38.1334 Y0.6292
X38.1325 Y0.635
X38.1314 Y0.6407
X38.1301 Y0.6465
X38.1287 Y0.6522
X38.1272 Y0.658
X38.1256 Y0.6638
X38.1237 Y0.6695
X38.1218 Y0.6753
X38.1196 Y0.6813
X38.1171 Y0.6876
X38.1146 Y0.6934
X38.1121 Y0.699
X38.1094 Y0.7045
X38.1066 Y0.71
X38.1037 Y0.7153
X38.1008 Y0.7205
X38.0977 Y0.7256
X38.0944 Y0.7307
X38.0923 Y0.7339
X38.0915 Y0.7352
X38.089 Y0.7387
X38.0848 Y0.7445
X38.0804 Y0.7502
X38.0757 Y0.756
X38.0724 Y0.7599
X38.0706 Y0.7619
X38.0674 Y0.7655
X38.0626 Y0.7704
X38.0579 Y0.7752
X38.0531 Y0.7797
X38.0497 Y0.7828
X38.0477 Y0.7846
X38.0438 Y0.7879
X38.038 Y0.7926
X38.0322 Y0.7971
X38.0265 Y0.8012
X38.0229 Y0.8037
X38.0217 Y0.8045
X38.0186 Y0.8066
X38.0134 Y0.8099
X38.0102 Y0.8119
X38.016 Y1.5506
X38.0162 Y1.5534
X38.0165 Y1.5562 Z0.1849
X38.017 Y1.5589 Z0.1853
X38.0176 Y1.5616 Z0.1858
X38.0184 Y1.5642 Z0.1865
X38.0193 Y1.5667 Z0.1874
X38.0203 Y1.5691 Z0.1884
X38.0214 Y1.5714 Z0.1895
X38.0226 Y1.5736 Z0.1908
X38.0239 Y1.5757 Z0.1922
X38.0252 Y1.5776 Z0.1938
X38.0266 Y1.5794 Z0.1955
X38.028 Y1.581 Z0.1973
X38.0293 Y1.5825 Z0.1992
X38.0307 Y1.5839 Z0.2012
X38.032 Y1.5851 Z0.2034
X38.0333 Y1.5862 Z0.2056
X38.0345 Y1.5872 Z0.208
X38.0356 Y1.5881 Z0.2104
X38.0366 Y1.5888 Z0.2129
X38.0376 Y1.5895 Z0.2154
X38.0384 Y1.59 Z0.2181
X38.0391 Y1.5905 Z0.2207
X38.0397 Y1.5909 Z0.2234
X38.0402 Y1.5911 Z0.2262
X38.0406 Y1.5913 Z0.229
X38.0408 Y1.5914 Z0.2318
Y1.5915 Z0.2346
G0 Z0.8346
X40.129 Y1.0887
Z0.5298
G1 Z0.4079 F50.
Y1.0884 Z0.4025 F100.
Y1.0875 Z0.3973
Y1.0861 Z0.3921
Y1.0841 Z0.3871
Y1.0816 Z0.3824
Y1.0787 Z0.3779
Y1.0752 Z0.3738
Y1.0714 Z0.3701
Y1.0671 Z0.3668
Y1.0626 Z0.364
Y1.0577 Z0.3617
Y1.0527 Z0.3599
Y1.0475 Z0.3587
Y1.0421 Z0.358
X40.1249 Y-1.2659 Z0.1966
X39.9542 Z0.1847
X39.9507 Z0.1846
X39.8151 F140.
X39.8581 Y4.7341
X40.1354
X40.1252 Y-1.1114
X40.1249 Y-1.2659
X39.9507
X39.9479 Y-1.2657
X39.9451 Y-1.2654 Z0.1849
X39.9424 Y-1.265 Z0.1853
X39.9397 Y-1.2644 Z0.1858
X39.9371 Y-1.2636 Z0.1865
X39.9346 Y-1.2627 Z0.1874
X39.9322 Y-1.2617 Z0.1884
X39.9299 Y-1.2606 Z0.1895
X39.9277 Y-1.2594 Z0.1908
X39.9256 Y-1.2582 Z0.1922
X39.9237 Y-1.2569 Z0.1938
X39.9219 Y-1.2555 Z0.1955
X39.9202 Y-1.2542 Z0.1973
X39.9187 Y-1.2528 Z0.1992
X39.9173 Y-1.2515 Z0.2012
X39.9161 Y-1.2502 Z0.2034
X39.915 Y-1.2489 Z0.2056
X39.914 Y-1.2477 Z0.208
X39.9131 Y-1.2466 Z0.2104
X39.9123 Y-1.2455 Z0.2129
X39.9117 Y-1.2446 Z0.2154
X39.9111 Y-1.2438 Z0.2181
X39.9107 Y-1.2431 Z0.2207
X39.9103 Y-1.2425 Z0.2234
X39.91 Y-1.242 Z0.2262
X39.9098 Y-1.2416 Z0.229
X39.9097 Y-1.2414 Z0.2318
X39.9096 Z0.2346
G0 Z0.8346
X41.5492 Y1.9734
Z0.5298
G1 Z0.4079 F50.
Y1.9737 Z0.4025 F100.
Y1.9746 Z0.3973
Y1.976 Z0.3921
Y1.978 Z0.3871
Y1.9805 Z0.3824
Y1.9834 Z0.3779
Y1.9869 Z0.3738
Y1.9907 Z0.3701
Y1.995 Z0.3668
Y1.9995 Z0.364
Y2.0044 Z0.3617
Y2.0094 Z0.3599
Y2.0146 Z0.3587
X41.5493 Y2.02 Z0.358
X41.5533 Y4.3261 Z0.1968
G2 X41.6003 Y4.3731 Z0.1916 I0.0471 J-0.0001
G1 X41.6056 Z0.1912
G2 X41.6526 Y4.3255 Z0.186 I0. J-0.0471
G1 X41.6524 Y4.3064 Z0.1847
Y4.3029 Z0.1846
X41.6195 Y1.1665 F140.
G2 X41.5675 Y1.1362 I-0.035 J0.0004
G1 X41.566 Y1.1371
G2 X41.5478 Y1.1678 I0.0168 J0.0307
G1 X41.5533 Y4.3261
G2 X41.6003 Y4.3731 I0.0471 J-0.0001
G1 X41.6056
G2 X41.6526 Y4.3255 I0. J-0.0471
G1 X41.6524 Y4.3029
G3 X41.741 Y4.167 I0.1462 J-0.0015
G2 X41.8295 Y4.031 I-0.0577 J-0.1344
G1 X41.7975 Y0.9695
G2 X41.7681 Y0.8947 I-0.1129 J0.0012
G3 X41.7369 Y0.8565 I0.3466 J-0.3154
X41.7102 Y0.8152 I0.3331 J-0.2445
G2 X41.6497 Y0.8146 I-0.0304 J0.0172
G3 X41.556 Y0.9267 I-0.3876 J-0.2288
X41.4307 Y1.0019 I-0.2804 J-0.3252
G2 X41.3676 Y1.0941 I0.0357 J0.0921
G1 X41.3736 Y4.4892
G2 X41.4376 Y4.5531 I0.064 J-0.0001
G1 X41.7713
G2 X41.8343 Y4.4894 I0. J-0.0631
G1 X41.8295 Y4.031
G3 X41.9186 Y3.8944 I0.1471 J-0.0015
G2 X42.0077 Y3.7577 I-0.058 J-0.1352
G1 X41.977 Y0.8293
X41.9766 Y0.8292
X41.9703 Y0.8258
X41.9633 Y0.8219
X41.9575 Y0.8185
X41.953 Y0.8157
X41.9478 Y0.8123
X41.942 Y0.8082
X41.9362 Y0.8039
X41.9302 Y0.7993
X41.9244 Y0.7944
X41.9187 Y0.7894
X41.913 Y0.7841
X41.9074 Y0.7785
X41.9041 Y0.7752
X41.9033 Y0.7743
X41.9003 Y0.771
X41.8953 Y0.7652
X41.8905 Y0.7595
X41.886 Y0.7537
X41.8832 Y0.75
X41.8821 Y0.7484
X41.8798 Y0.7451
X41.8764 Y0.7402
X41.8732 Y0.7352
X41.8702 Y0.7302
X41.866 Y0.7229
X41.8609 Y0.7132
X41.858 Y0.7074
X41.8572 Y0.7056
X41.8555 Y0.7018
X41.853 Y0.6961
X41.8507 Y0.6903
X41.8486 Y0.6845
X41.8466 Y0.6788
X41.8448 Y0.673
X41.8431 Y0.6672
X41.8415 Y0.6615
X41.8401 Y0.6557
X41.8388 Y0.65
X41.8377 Y0.6442
X41.8367 Y0.6384
X41.836 Y0.634
X41.8356 Y0.6308
X41.8349 Y0.625
X41.8341 Y0.6167
X41.8336 Y0.6078
G3 X41.8333 Y0.5945 I0.9932 J-0.0299
G1 X41.8139 Y-1.261
Y-1.2615
X41.8138 Y-1.262
Y-1.2659
X41.5261
X41.5293 Y0.5929
X41.5292 Y0.5973
X41.529 Y0.6025
X41.5287 Y0.6083
X41.5282 Y0.6146
X41.5276 Y0.6207
X41.5269 Y0.6265
X41.5261 Y0.6322
X41.5251 Y0.638
X41.524 Y0.6437
X41.5227 Y0.6495
X41.5213 Y0.6553
X41.5198 Y0.661
X41.5181 Y0.6668
X41.5163 Y0.6726
X41.5144 Y0.6783
X41.5122 Y0.6841
X41.5099 Y0.6901
X41.5072 Y0.6963
X41.5046 Y0.702
X41.502 Y0.7074
X41.4992 Y0.7129
X41.4961 Y0.7187
X41.4927 Y0.7244
X41.4892 Y0.7302
X41.4863 Y0.7348
X41.484 Y0.7382
X41.4798 Y0.744
X41.4737 Y0.7521
X41.4709 Y0.7557
X41.4679 Y0.7593
X41.4625 Y0.7655
X41.4571 Y0.7712
X41.4519 Y0.7765
X41.4462 Y0.782
X41.4399 Y0.7877
X41.433 Y0.7935
X41.4254 Y0.7993
X41.4196 Y0.8036
X41.4156 Y0.8064
X41.4107 Y0.8097
X41.405 Y0.8133
X41.3992 Y0.8167
X41.3934 Y0.82
X41.3887 Y0.8225
X41.385 Y0.8243
X41.3793 Y0.8271
X41.3714 Y0.8306
X41.3646 Y0.8334
X41.3588 Y0.8356
X41.353 Y0.8376
X41.3473 Y0.8395
X41.3415 Y0.8413
X41.3357 Y0.8429
X41.33 Y0.8443
X41.3242 Y0.8456
X41.3185 Y0.8468
X41.3129 Y0.8478
X41.3071 Y0.8487
X41.3012 Y0.8495
X41.2953 Y0.8502
X41.2896 Y0.8507
X41.2838 Y0.8511
X41.278 Y0.8514
X41.2726 Y0.8515
X41.238 Y0.8516
X41.2378
X41.1862 Y0.8517
X41.193 Y4.7341
X42.0179
X42.0077 Y3.7577
X42.0075 Y3.7549
X42.0072 Y3.7521 Z0.1849
X42.0067 Y3.7494 Z0.1853
X42.006 Y3.7467 Z0.1858
X42.0052 Y3.7441 Z0.1865
X42.0043 Y3.7416 Z0.1874
X42.0033 Y3.7392 Z0.1884
X42.0022 Y3.7369 Z0.1895
X42.001 Y3.7347 Z0.1908
X41.9997 Y3.7326 Z0.1922
X41.9984 Y3.7307 Z0.1938
X41.997 Y3.7289 Z0.1955
X41.9956 Y3.7273 Z0.1973
X41.9943 Y3.7258 Z0.1992
X41.9929 Y3.7244 Z0.2012
X41.9916 Y3.7232 Z0.2034
X41.9903 Y3.7221 Z0.2056
X41.9891 Y3.7211 Z0.208
X41.988 Y3.7202 Z0.2104
X41.9869 Y3.7195 Z0.2129
X41.986 Y3.7188 Z0.2154
X41.9851 Y3.7183 Z0.2181
X41.9844 Y3.7178 Z0.2207
X41.9838 Y3.7175 Z0.2234
X41.9833 Y3.7172 Z0.2262
X41.983 Y3.717 Z0.229
X41.9828 Y3.7169 Z0.2318
X41.9827 Z0.2346
G0 Z0.8346
X43.4491 Y1.3396
Z0.5298
G1 Z0.4079 F50.
Y1.3399 Z0.4025 F100.
X43.4492 Y1.3408 Z0.3973
Y1.3422 Z0.3921
Y1.3441 Z0.3871
Y1.3466 Z0.3824
Y1.3496 Z0.3779
X43.4493 Y1.353 Z0.3738
Y1.3569 Z0.3701
X43.4494 Y1.3611 Z0.3668
Y1.3657 Z0.364
X43.4495 Y1.3705 Z0.3617
Y1.3756 Z0.3599
X43.4496 Y1.3808 Z0.3587
Y1.3861 Z0.358
X43.461 Y2.4731 Z0.282
G2 X43.4793 Y2.491 Z0.28 I0.0181 J-0.0002
X43.4972 Y2.4728 Z0.2781 I-0.0002 J-0.0181
G1 X43.4956 Y1.1513 Z0.1856
G2 X43.4909 Y1.1388 Z0.1847 I-0.0193 J0.
G1 X43.4897 Y1.1376 Z0.1846
X43.4884 Y1.1364
X43.4857 Y1.1345 F140.
G3 X43.4761 Y1.1291 I0.3351 J-0.6009
G2 X43.4471 Y1.1459 I-0.0097 J0.0167
G1 X43.461 Y2.4731
G2 X43.4972 Y2.4728 I0.0181 J-0.0002
G1 X43.4956 Y1.1544
Y1.1513
G2 X43.4884 Y1.1364 I-0.0193 J0.
G3 X43.4438 Y0.9761 I0.0904 J-0.1115
G2 X43.3017 Y0.8897 I-0.0798 J-0.0288
G1 X43.2977 Y0.894
X43.2969 Y0.8948
X43.2961 Y0.8955
G2 X43.2653 Y0.9734 I0.0798 J0.0767
G1 X43.3021 Y4.4902
G2 X43.3655 Y4.5529 I0.0634 J-0.0007
G1 X43.6172
G2 X43.6797 Y4.4903 I0. J-0.0625
G1 X43.6755 Y1.0917
G2 X43.6134 Y0.9972 I-0.103 J0.0001
G3 X43.4143 Y0.8247 I0.1733 J-0.401
G2 X43.3527 Y0.8241 I-0.031 J0.019
G3 X43.3269 Y0.8603 I-0.3718 J-0.2376
X43.3017 Y0.8897 I-0.3939 J-0.3118
X43.1831 Y0.9204 I-0.0832 J-0.0769
G2 X43.0843 Y0.9927 I-0.0236 J0.0715
G1 X43.1235 Y4.7341
X43.8611
X43.8564 Y0.8527
X43.7986 Y0.8528
X43.7982
X43.7867
X43.7813 Y0.8527
X43.7755 Y0.8524
X43.7697 Y0.8521
X43.764 Y0.8515
X43.7582 Y0.8509
X43.7524 Y0.8501
X43.7467 Y0.8492
X43.7409 Y0.8482
X43.7372 Y0.8475
X43.7357 Y0.8472
X43.7299 Y0.8458
X43.7199 Y0.8432
X43.7121 Y0.841
X43.7063 Y0.8391
X43.7005 Y0.8371
X43.6948 Y0.8349
X43.6892 Y0.8326
X43.6839 Y0.8303
X43.6785 Y0.8279
X43.6732 Y0.8253
X43.6701 Y0.8237
X43.6692 Y0.8233
X43.6659 Y0.8215
X43.6601 Y0.8183
X43.6544 Y0.8148
X43.6486 Y0.8112
X43.6427 Y0.8073
X43.6367 Y0.8031
X43.6309 Y0.7987
X43.6254 Y0.7944
X43.6187 Y0.7886
X43.6108 Y0.7815
X43.6051 Y0.776
X43.6014 Y0.7722
X43.5962 Y0.7665
X43.5895 Y0.7587
X43.5866 Y0.7552
X43.5838 Y0.7516
X43.5789 Y0.7451
X43.5748 Y0.7393
X43.5715 Y0.7343
X43.5681 Y0.7289
X43.5647 Y0.7231
X43.5614 Y0.7174
X43.5584 Y0.7116
X43.556 Y0.7069
X43.5543 Y0.7033
X43.5517 Y0.6976
X43.5484 Y0.6896
X43.5457 Y0.6828
X43.5437 Y0.677
X43.5418 Y0.6713
X43.54 Y0.6655
X43.5384 Y0.6597
X43.537 Y0.654
X43.5356 Y0.6482
X43.5344 Y0.6424
X43.5334 Y0.6367
X43.5325 Y0.6309
X43.5317 Y0.6251
X43.531 Y0.6194
X43.5306 Y0.6155
X43.5305 Y0.6134
X43.5301 Y0.6077
X43.5297 Y0.5982
X43.5296 Y0.5933
X43.5274 Y-1.2659
X43.2209
X43.2402 Y0.5803
Y0.5824
Y0.5939
X43.2399 Y0.6016
X43.2395 Y0.6074
X43.239 Y0.6131
X43.2384 Y0.6189
X43.2376 Y0.6247
X43.2367 Y0.6304
X43.2357 Y0.6362
X43.2345 Y0.642
X43.2335 Y0.6464
X43.2328 Y0.6496
X43.2312 Y0.6554
X43.2288 Y0.6637
X43.2266 Y0.6708
X43.2246 Y0.6765
X43.2224 Y0.6823
X43.2201 Y0.6881
X43.2166 Y0.6959
X43.2118 Y0.7058
X43.2088 Y0.7115
X43.2079 Y0.7132
X43.2058 Y0.7169
X43.2024 Y0.7226
X43.1988 Y0.7284
X43.195 Y0.7342
X43.1913 Y0.7394
X43.1879 Y0.744
X43.1834 Y0.7498
X43.1777 Y0.7567
X43.1719 Y0.7632
X43.1661 Y0.7693
X43.1603 Y0.7751
X43.1545 Y0.7805
X43.1488 Y0.7856
X43.143 Y0.7903
X43.1377 Y0.7944
X43.1329 Y0.798
X43.1282 Y0.8014
X43.1234 Y0.8046
X43.12 Y0.8068
X43.118 Y0.8081
X43.1141 Y0.8104
X43.1084 Y0.8138
X43.1026 Y0.817
X43.0968 Y0.8199
X43.0895 Y0.8234
X43.0825 Y0.8265
X43.0843 Y0.9927
X43.0845 Y0.9955
X43.0848 Y0.9983 Z0.1849
X43.0853 Y1.001 Z0.1853
X43.0859 Y1.0037 Z0.1858
X43.0867 Y1.0063 Z0.1865
X43.0876 Y1.0088 Z0.1874
X43.0887 Y1.0112 Z0.1884
X43.0898 Y1.0135 Z0.1895
X43.091 Y1.0157 Z0.1908
X43.0923 Y1.0177 Z0.1922
X43.0936 Y1.0196 Z0.1938
X43.095 Y1.0214 Z0.1955
X43.0963 Y1.0231 Z0.1973
X43.0977 Y1.0246 Z0.1992
X43.0991 Y1.0259 Z0.2012
X43.1004 Y1.0272 Z0.2034
X43.1017 Y1.0283 Z0.2056
X43.1029 Y1.0293 Z0.208
X43.104 Y1.0301 Z0.2104
X43.1051 Y1.0309 Z0.2129
X43.106 Y1.0315 Z0.2154
X43.1068 Y1.0321 Z0.2181
X43.1076 Y1.0325 Z0.2207
X43.1082 Y1.0329 Z0.2234
X43.1086 Y1.0332 Z0.2262
X43.109 Y1.0333 Z0.229
X43.1092 Y1.0335 Z0.2318
Z0.2346
G0 Z0.8346
X45.5927 Y-0.9049
Z0.2346
G1 X45.5924 Z0.229 F140.
X45.5915 Z0.2234
X45.5899 Z0.2181
X45.5878 Z0.2129
X45.585 Z0.208
X45.5818 Z0.2034
X45.5781 Z0.1992
X45.5739 Z0.1955
X45.5693 Z0.1922
X45.5644 Z0.1895
X45.5592 Z0.1874
X45.5538 Z0.1858
X45.5483 Z0.1849
X45.5427 Z0.1846
X45.3941
X45.3561
G2 X45.2923 Y-0.841 I0. J0.0638
G1 X45.2986 Y4.3092
G2 X45.3626 Y4.3731 I0.064 J-0.0001
G1 X45.3942
X45.5908
X45.5964 Z0.1849
X45.6019 Z0.1858
X45.6073 Z0.1874
X45.6125 Z0.1895
X45.6174 Z0.1922
X45.6219 Z0.1955
X45.6261 Z0.1992
X45.6299 Z0.2034
X45.6331 Z0.208
X45.6358 Z0.2129
X45.638 Z0.2181
X45.6395 Z0.2234
X45.6405 Z0.229
X45.6408 Z0.2346
G0 Z0.8346
X45.5927 Y-1.0849
Z0.2346
G1 X45.5924 Z0.229 F140.
X45.5915 Z0.2234
X45.5899 Z0.2181
X45.5878 Z0.2129
X45.585 Z0.208
X45.5818 Z0.2034
X45.5781 Z0.1992
X45.5739 Z0.1955
X45.5693 Z0.1922
X45.5644 Z0.1895
X45.5592 Z0.1874
X45.5538 Z0.1858
X45.5483 Z0.1849
X45.5427 Z0.1846
X45.3941
X45.1759
G2 X45.1121 Y-1.021 I0. J0.0638
G1 X45.1189 Y4.4892
G2 X45.1828 Y4.5531 I0.064 J-0.0001
G1 X45.3941
X45.5908
X45.5964 Z0.1849
X45.6019 Z0.1858
X45.6073 Z0.1874
X45.6125 Z0.1895
X45.6174 Z0.1922
X45.6219 Z0.1955
X45.6261 Z0.1992
X45.6298 Z0.2034
X45.6331 Z0.208
X45.6358 Z0.2129
X45.638 Z0.2181
X45.6395 Z0.2234
X45.6404 Z0.229
X45.6408 Z0.2346
G0 Z0.8346
X45.5927 Y-1.2351
Z0.2296
G1 X45.5924 Z0.2245 F140.
X45.5916 Y-1.2353 Z0.2196
X45.5902 Y-1.2355 Z0.2147
X45.5883 Y-1.2358 Z0.21
X45.5859 Y-1.2362 Z0.2056
X45.583 Y-1.2366 Z0.2015
X45.5797 Y-1.2371 Z0.1977
X45.576 Y-1.2377 Z0.1944
X45.5719 Y-1.2384 Z0.1915
X45.5675 Y-1.2391 Z0.189
X45.5629 Y-1.2398 Z0.1871
X45.5581 Y-1.2406 Z0.1857
X45.5532 Y-1.2413 Z0.1848
X45.5483 Y-1.2421 Z0.1846
X45.402 Y-1.2653
X45.3981 Y-1.2657
X45.3942 Y-1.2659
X44.9308
X44.9382 Y4.7341
X45.3942
X45.3981 Y4.7339
X45.402 Y4.7335
X45.5962 Y4.7027
X45.6017 Y4.7018 Z0.1849
X45.6072 Y4.701 Z0.1858
X45.6125 Y4.7001 Z0.1874
X45.6176 Y4.6993 Z0.1895
X45.6224 Y4.6986 Z0.1922
X45.627 Y4.6978 Z0.1955
X45.6311 Y4.6972 Z0.1992
X45.6348 Y4.6966 Z0.2034
X45.638 Y4.6961 Z0.208
X45.6407 Y4.6957 Z0.2129
X45.6428 Y4.6953 Z0.2181
X45.6443 Y4.6951 Z0.2234
X45.6452 Y4.6949 Z0.229
X45.6456 Z0.2346
G0 Z0.8346
X21.4094 Y1.0895
Z0.5298
G1 Z0.4079 F50.
Y1.0892 Z0.4025 F100.
Y1.0883 Z0.3973
Y1.0869 Z0.3921
Y1.0849 Z0.3871
Y1.0824 Z0.3824
Y1.0795 Z0.3779
X21.4095 Y1.076 Z0.3738
Y1.0722 Z0.3701
Y1.0679 Z0.3668
Y1.0634 Z0.364
Y1.0585 Z0.3617
X21.4096 Y1.0535 Z0.3599
Y1.0483 Z0.3587
Y1.0429 Z0.358
X21.4213 Y-1.2659 Z0.1966
X21.2514 Z0.1847
X21.2479 Z0.1846
X21.1144 F140.
X21.149 Y4.7341
X21.3909
X21.4205 Y-1.1127
X21.4213 Y-1.2659
X21.2479
X21.2451 Y-1.2657
X21.2423 Y-1.2654 Z0.1849
X21.2396 Y-1.265 Z0.1853
X21.2369 Y-1.2644 Z0.1858
X21.2343 Y-1.2636 Z0.1865
X21.2318 Y-1.2627 Z0.1874
X21.2294 Y-1.2617 Z0.1884
X21.2271 Y-1.2606 Z0.1895
X21.2249 Y-1.2594 Z0.1908
X21.2228 Y-1.2582 Z0.1922
X21.2209 Y-1.2569 Z0.1938
X21.2191 Y-1.2555 Z0.1955
X21.2174 Y-1.2542 Z0.1973
X21.2159 Y-1.2528 Z0.1992
X21.2145 Y-1.2515 Z0.2012
X21.2133 Y-1.2502 Z0.2034
X21.2122 Y-1.2489 Z0.2056
X21.2112 Y-1.2477 Z0.208
X21.2103 Y-1.2466 Z0.2104
X21.2095 Y-1.2455 Z0.2129
X21.2089 Y-1.2446 Z0.2154
X21.2083 Y-1.2438 Z0.2181
X21.2079 Y-1.2431 Z0.2207
X21.2075 Y-1.2425 Z0.2234
X21.2072 Y-1.242 Z0.2262
X21.207 Y-1.2416 Z0.229
X21.2069 Y-1.2414 Z0.2318
Z0.2346
G0 Z0.8346
X19.6546 Y1.9276
Z0.5298
G1 Z0.4079 F50.
Y1.9279 Z0.4025 F100.
Y1.9288 Z0.3973
Y1.9302 Z0.3921
Y1.9321 Z0.3871
Y1.9346 Z0.3824
Y1.9376 Z0.3779
Y1.941 Z0.3738
Y1.9449 Z0.3701
Y1.9491 Z0.3668
Y1.9537 Z0.364
Y1.9585 Z0.3617
Y1.9636 Z0.3599
X19.6545 Y1.9688 Z0.3587
Y1.9741 Z0.358
X19.6525 Y4.347 Z0.1921
G2 X19.6785 Y4.3731 Z0.1892 I0.026 J0.
G1 X19.6834 Z0.1889
G2 X19.7095 Y4.3469 Z0.186 I0. J-0.026
G1 X19.7094 Y4.3279 Z0.1847
X19.7093 Y4.3244 Z0.1846
X19.6913 Y1.2009 F140.
G2 X19.6552 Y1.201 I-0.0181 J0.0001
G1 X19.6525 Y4.347
G2 X19.6785 Y4.3731 I0.026 J0.
G1 X19.6834
G2 X19.7095 Y4.3469 I0. J-0.026
G1 X19.7093 Y4.3244
G3 X19.7986 Y4.1889 I0.1462 J-0.0008
G2 X19.8878 Y4.0534 I-0.057 J-0.1347
G1 X19.8707 Y1.0942
G2 X19.8077 Y0.9964 I-0.1083 J0.0006
G3 X19.6962 Y0.9237 I0.1911 J-0.4149
X19.6114 Y0.8212 I0.2852 J-0.3225
G2 X19.5495 I-0.0309 J0.0184
G3 X19.5293 Y0.852 I-0.3537 J-0.2102
X19.5066 Y0.8809 I-0.3859 J-0.2789
G1 X19.5023 Y0.8857
X19.4978 Y0.8903
G2 X19.4754 Y0.9475 I0.0621 J0.0572
G1 X19.4723 Y4.4892
G2 X19.5361 Y4.5531 I0.0638 J0.0001
G1 X19.8269
G2 X19.8903 Y4.4893 I0. J-0.0634
G1 X19.8878 Y4.0534
G3 X19.9775 Y3.9171 I0.1471 J-0.0008
G2 X20.0672 Y3.7809 I-0.0573 J-0.1354
G1 X20.0504 Y0.8544
X19.9905 Y0.8548
X19.9868 Y0.8547
X19.981 Y0.8546
X19.9753 Y0.8544
X19.9695 Y0.854
X19.9637 Y0.8535
X19.958 Y0.8528
X19.9522 Y0.852
X19.9464 Y0.8511
X19.9407 Y0.8501
X19.9349 Y0.8489
X19.9288 Y0.8475
X19.9225 Y0.8459
X19.9166 Y0.8442
X19.9111 Y0.8426
X19.9056 Y0.8408
X19.9001 Y0.8388
X19.8945 Y0.8367
X19.8888 Y0.8343
X19.883 Y0.8318
X19.8772 Y0.8291
X19.8716 Y0.8263
X19.8661 Y0.8235
X19.8604 Y0.8202
X19.8543 Y0.8166
X19.8484 Y0.813
X19.8428 Y0.8092
X19.8371 Y0.8052
X19.8311 Y0.8007
X19.8253 Y0.7961
X19.8195 Y0.7912
X19.8137 Y0.7861
X19.808 Y0.7806
X19.8047 Y0.7773
X19.8037 Y0.7764
X19.8006 Y0.7731
X19.7953 Y0.7673
X19.7903 Y0.7615
X19.7857 Y0.7558
X19.783 Y0.7524
X19.7824 Y0.7516
X19.7801 Y0.7485
X19.7763 Y0.7432
X19.7727 Y0.7378
X19.7693 Y0.7325
X19.7654 Y0.726
X19.7611 Y0.7184
X19.758 Y0.7126
X19.7561 Y0.7087
X19.7538 Y0.7039
X19.7512 Y0.6981
X19.7488 Y0.6924
X19.7466 Y0.6866
X19.7445 Y0.6808
X19.7425 Y0.6751
X19.7407 Y0.6693
X19.7391 Y0.6635
X19.7377 Y0.6582
X19.7365 Y0.6533
X19.7352 Y0.6476
X19.734 Y0.6409
X19.7329 Y0.6347
X19.7321 Y0.629
X19.7314 Y0.6232
X19.7308 Y0.6174
X19.7302 Y0.609
X19.7299 Y0.5975
X19.7298 Y0.5939
X19.7191 Y-1.2659
X19.434
X19.4324 Y0.5933
X19.4323 Y0.5965
X19.4322 Y0.6022
X19.4319 Y0.608
X19.4315 Y0.6138
X19.431 Y0.6195
X19.4303 Y0.6253
X19.4295 Y0.6311
X19.4286 Y0.6368
X19.4275 Y0.6425
X19.4264 Y0.6482
X19.425 Y0.654
X19.4236 Y0.6598
X19.4219 Y0.6656
X19.4202 Y0.6714
X19.4183 Y0.6772
X19.4162 Y0.6829
X19.414 Y0.6887
X19.4116 Y0.6945
X19.4091 Y0.7002
X19.4064 Y0.706
X19.4037 Y0.7113
X19.4011 Y0.7162
X19.3979 Y0.722
X19.394 Y0.7286
X19.3902 Y0.7346
X19.3866 Y0.74
X19.3828 Y0.7454
X19.3788 Y0.7508
X19.3764 Y0.7538
X19.3758 Y0.7546
X19.3731 Y0.7579
X19.3683 Y0.7636
X19.3631 Y0.7694
X19.3576 Y0.7752
X19.3545 Y0.7783
X19.3539 Y0.7788
X19.3508 Y0.7817
X19.3451 Y0.787
X19.3393 Y0.792
X19.3335 Y0.7967
X19.3299 Y0.7995
X19.3286 Y0.8005
X19.3254 Y0.8029
X19.3203 Y0.8065
X19.3152 Y0.8099
X19.3101 Y0.8132
X19.3034 Y0.8172
X19.2951 Y0.8218
X19.2945 Y0.8222
X19.2911 Y4.7341
X20.0727
X20.0672 Y3.7809
X20.067 Y3.7781
X20.0667 Y3.7753 Z0.1849
X20.0662 Y3.7726 Z0.1853
X20.0656 Y3.7699 Z0.1858
X20.0648 Y3.7673 Z0.1865
X20.0639 Y3.7648 Z0.1874
X20.0629 Y3.7624 Z0.1884
X20.0618 Y3.76 Z0.1895
X20.0606 Y3.7579 Z0.1908
X20.0593 Y3.7558 Z0.1922
X20.058 Y3.7539 Z0.1938
X20.0567 Y3.7521 Z0.1955
X20.0553 Y3.7504 Z0.1973
X20.0539 Y3.7489 Z0.1992
X20.0526 Y3.7476 Z0.2012
X20.0513 Y3.7463 Z0.2034
X20.05 Y3.7452 Z0.2056
X20.0488 Y3.7442 Z0.208
X20.0477 Y3.7433 Z0.2104
X20.0466 Y3.7426 Z0.2129
X20.0457 Y3.7419 Z0.2154
X20.0448 Y3.7414 Z0.2181
X20.0441 Y3.7409 Z0.2207
X20.0435 Y3.7406 Z0.2234
X20.0431 Y3.7403 Z0.2262
X20.0427 Y3.7401 Z0.229
X20.0425 Y3.74 Z0.2318
X20.0424 Y3.7399 Z0.2346
G0 Z0.8346
X17.7589 Y1.9639
Z0.5298
G1 Z0.4079 F50.
Y1.9642 Z0.4025 F100.
Y1.9651 Z0.3973
Y1.9665 Z0.3921
Y1.9685 Z0.3871
Y1.971 Z0.3824
Y1.9739 Z0.3779
Y1.9774 Z0.3738
Y1.9812 Z0.3701
Y1.9855 Z0.3668
Y1.99 Z0.364
X17.7588 Y1.9949 Z0.3617
Y1.9999 Z0.3599
Y2.0051 Z0.3587
Y2.0104 Z0.358
X17.7548 Y4.338 Z0.1953
G2 X17.7898 Y4.3731 Z0.1914 I0.035 J0.0001
G1 X17.8062 Z0.1903
G2 X17.8413 Y4.3381 Z0.1864 I0. J-0.035
G1 Y4.3134 Z0.1847
Y4.3099 Z0.1846
X17.844 Y1.1499 F140.
G2 X17.7905 Y1.12 I-0.0351 J0.
G1 X17.7861 Y1.1227
G3 X17.7775 Y1.1279 I-0.2906 J-0.4712
G2 X17.7603 Y1.158 I0.0179 J0.0302
G1 X17.7548 Y4.3294
Y4.338
G2 X17.7898 Y4.3731 I0.035 J0.0001
G1 X17.8062
G2 X17.8413 Y4.3381 I0. J-0.035
G1 Y4.3099
G3 X17.9314 Y4.175 I0.1463 J0.0001
G2 X18.0215 Y4.04 I-0.0561 J-0.135
G1 X18.0241 Y1.0199
G2 X17.9773 Y0.9105 I-0.1509 J-0.0001
G3 X17.937 Y0.8662 I0.2932 J-0.3078
X17.903 Y0.8169 I0.3625 J-0.2863
G2 X17.8419 Y0.817 I-0.0305 J0.0182
G3 X17.6434 Y0.995 I-0.3832 J-0.2276
G2 X17.5804 Y1.0924 I0.0441 J0.0976
G1 X17.5745 Y4.4892
G2 X17.6382 Y4.5531 I0.0637 J0.0001
G1 X17.9572
G2 X18.0211 Y4.4892 I0. J-0.0639
G1 X18.0215 Y4.04
G3 X18.1121 Y3.9044 I0.1471 J0.0001
G2 X18.2027 Y3.7687 I-0.0564 J-0.1358
G1 X18.2053 Y0.8402
X18.2049 Y0.8401
X18.1992 Y0.8382
X18.1934 Y0.8362
X18.1876 Y0.8341
X18.1819 Y0.8317
X18.1759 Y0.8291
X18.1699 Y0.8263
X18.164 Y0.8234
X18.1584 Y0.8205
X18.1528 Y0.8173
X18.1472 Y0.814
X18.1405 Y0.8098
X18.1327 Y0.8045
X18.127 Y0.8004
X18.1232 Y0.7976
X18.1188 Y0.7941
X18.1139 Y0.79
X18.1089 Y0.7856
X18.1039 Y0.7811
X18.1007 Y0.778
X18.0991 Y0.7764
X18.0959 Y0.7731
X18.0912 Y0.7682
X18.0867 Y0.7632
X18.0825 Y0.7582
X18.0791 Y0.7541
X18.0765 Y0.7508
X18.0722 Y0.7451
X18.0665 Y0.7368
X18.0621 Y0.7302
X18.0591 Y0.7253
X18.0562 Y0.7203
X18.0535 Y0.7154
X18.0517 Y0.7121
X18.0509 Y0.7104
X18.049 Y0.7068
X18.0463 Y0.701
X18.0437 Y0.6952
X18.0413 Y0.6895
X18.039 Y0.6837
X18.0369 Y0.6779
X18.035 Y0.6722
X18.0332 Y0.6664
X18.0315 Y0.6604
X18.0298 Y0.6541
X18.0285 Y0.6483
X18.0274 Y0.6431
X18.0263 Y0.6376
X18.0254 Y0.6318
X18.0245 Y0.6261
X18.0238 Y0.6203
X18.0233 Y0.6145
X18.0228 Y0.6088
X18.0225 Y0.603
X18.0223 Y0.5973
Y0.593
X18.0239 Y-1.2659
X17.7253
X17.722 Y0.5934
Y0.5961
X17.7219 Y0.6019
X17.7216 Y0.6076
X17.7212 Y0.6134
X17.7205 Y0.6206
X17.7194 Y0.6293
X17.7186 Y0.635
X17.7181 Y0.6379
X17.7173 Y0.6422
X17.7161 Y0.648
X17.7148 Y0.6537
X17.7134 Y0.6595
X17.7118 Y0.6653
X17.71 Y0.671
X17.7081 Y0.6768
X17.7061 Y0.6826
X17.704 Y0.6881
X17.7018 Y0.6935
X17.6993 Y0.6993
X17.6965 Y0.7054
X17.6935 Y0.7114
X17.6905 Y0.7171
X17.6872 Y0.7229
X17.6838 Y0.7287
X17.6798 Y0.735
X17.6751 Y0.742
X17.671 Y0.7477
X17.6675 Y0.7523
X17.6639 Y0.7569
X17.66 Y0.7615
X17.656 Y0.7662
X17.6518 Y0.7708
X17.6485 Y0.7742
X17.6463 Y0.7765
X17.6428 Y0.7798
X17.6382 Y0.7842
X17.6335 Y0.7884
X17.6289 Y0.7924
X17.6246 Y0.796
X17.6205 Y0.7991
X17.6148 Y0.8034
X17.6073 Y0.8086
X17.6008 Y0.8129
X17.5954 Y0.8162
X17.5901 Y0.8193
X17.5847 Y0.8223
X17.5816 Y0.8239
X17.5808 Y0.8243
X17.5775 Y0.826
X17.5718 Y0.8287
X17.566 Y0.8313
X17.5602 Y0.8338
X17.5545 Y0.836
X17.5487 Y0.8382
X17.5429 Y0.8401
X17.5372 Y0.8419
X17.5304 Y0.8439
X17.5227 Y0.8458
X17.5169 Y0.8472
X17.5131 Y0.848
X17.5083 Y0.8489
X17.5026 Y0.8499
X17.4968 Y0.8507
X17.491 Y0.8514
X17.4852 Y0.852
X17.4795 Y0.8524
X17.4737 Y0.8528
X17.4679 Y0.853
X17.4633
X17.3998 Y0.8529
X17.3931 Y4.7341
X18.2019
X18.2027 Y3.7687
X18.2026 Y3.7659
X18.2023 Y3.7631 Z0.1849
X18.2018 Y3.7604 Z0.1853
X18.2012 Y3.7577 Z0.1858
X18.2005 Y3.7551 Z0.1865
X18.1996 Y3.7526 Z0.1874
X18.1986 Y3.7502 Z0.1884
X18.1975 Y3.7478 Z0.1895
X18.1963 Y3.7456 Z0.1908
X18.195 Y3.7436 Z0.1922
X18.1937 Y3.7417 Z0.1938
X18.1924 Y3.7399 Z0.1955
X18.191 Y3.7382 Z0.1973
X18.1897 Y3.7367 Z0.1992
X18.1883 Y3.7353 Z0.2012
X18.187 Y3.734 Z0.2034
X18.1858 Y3.7329 Z0.2056
X18.1846 Y3.7319 Z0.208
X18.1835 Y3.731 Z0.2104
X18.1824 Y3.7303 Z0.2129
X18.1815 Y3.7296 Z0.2154
X18.1807 Y3.7291 Z0.2181
X18.1799 Y3.7286 Z0.2207
X18.1793 Y3.7282 Z0.2234
X18.1789 Y3.728 Z0.2262
X18.1785 Y3.7278 Z0.229
X18.1783 Y3.7276 Z0.2318
Z0.2346
G0 Z0.8346
X16.3257 Y1.0826
Z0.5298
G1 Z0.4079 F50.
Y1.0823 Z0.4025 F100.
Y1.0814 Z0.3973
Y1.08 Z0.3921
Y1.078 Z0.3871
Y1.0756 Z0.3824
Y1.0726 Z0.3779
Y1.0691 Z0.3738
Y1.0653 Z0.3701
Y1.061 Z0.3668
X16.3258 Y1.0565 Z0.364
Y1.0516 Z0.3617
Y1.0466 Z0.3599
Y1.0414 Z0.3587
Y1.0361 Z0.358
X16.3298 Y-1.2659 Z0.1971
X16.153 Z0.1847
X16.1495 Z0.1846
X16.009 F140.
X16.0258 Y4.7341
X16.3193
X16.3295 Y-1.1057
X16.3298 Y-1.2659
X16.1495
X16.1467 Y-1.2657
X16.1439 Y-1.2654 Z0.1849
X16.1412 Y-1.265 Z0.1853
X16.1385 Y-1.2644 Z0.1858
X16.1359 Y-1.2636 Z0.1865
X16.1334 Y-1.2627 Z0.1874
X16.131 Y-1.2617 Z0.1884
X16.1287 Y-1.2606 Z0.1895
X16.1265 Y-1.2594 Z0.1908
X16.1244 Y-1.2582 Z0.1922
X16.1225 Y-1.2569 Z0.1938
X16.1207 Y-1.2555 Z0.1955
X16.119 Y-1.2542 Z0.1973
X16.1175 Y-1.2528 Z0.1992
X16.1161 Y-1.2515 Z0.2012
X16.1149 Y-1.2502 Z0.2034
X16.1137 Y-1.2489 Z0.2056
X16.1127 Y-1.2477 Z0.208
X16.1119 Y-1.2466 Z0.2104
X16.1111 Y-1.2455 Z0.2129
X16.1105 Y-1.2446 Z0.2154
X16.1099 Y-1.2438 Z0.2181
X16.1094 Y-1.2431 Z0.2207
X16.1091 Y-1.2425 Z0.2234
X16.1088 Y-1.242 Z0.2262
X16.1086 Y-1.2416 Z0.229
X16.1085 Y-1.2414 Z0.2318
X16.1084 Z0.2346
G0 Z0.8346
X14.5744 Y1.9422
Z0.5298
G1 Z0.4079 F50.
Y1.9425 Z0.4025 F100.
Y1.9433 Z0.3973
Y1.9448 Z0.3921
Y1.9467 Z0.3871
Y1.9492 Z0.3824
Y1.9522 Z0.3779
Y1.9556 Z0.3738
Y1.9595 Z0.3701
Y1.9637 Z0.3668
Y1.9683 Z0.364
Y1.9731 Z0.3617
Y1.9782 Z0.3599
X14.5745 Y1.9834 Z0.3587
Y1.9887 Z0.358
X14.5802 Y4.3471 Z0.1931
G2 X14.6063 Y4.3731 Z0.1902 I0.026 J-0.0001
G1 X14.621 Z0.1892
G2 X14.647 Y4.347 Z0.1864 I0. J-0.026
G1 X14.6469 Y4.3231 Z0.1847
Y4.3196 Z0.1846
X14.6381 Y1.1753 F140.
G2 X14.6236 Y1.152 I-0.026 J0.0001
G3 X14.6103 Y1.1454 I0.3491 J-0.7124
G2 X14.5725 Y1.1686 I-0.0118 J0.0232
G1 X14.5802 Y4.3471
G2 X14.6063 Y4.3731 I0.026 J-0.0001
G1 X14.621
G2 X14.647 Y4.347 I0. J-0.026
G1 X14.6469 Y4.3196
G3 X14.7365 Y4.1844 I0.1462 J-0.0004
G2 X14.8262 Y4.0491 I-0.0566 J-0.1348
G1 X14.8179 Y1.0989
G2 X14.755 Y1.0116 I-0.0923 J0.0003
G3 X14.5119 Y0.8119 I0.1403 J-0.4185
G2 X14.4517 I-0.0301 J0.0174
G3 X14.411 Y0.8707 I-0.3774 J-0.2176
G2 X14.3919 Y0.9244 I0.0653 J0.0535
G1 X14.4006 Y4.4892
G2 X14.4646 Y4.5531 I0.0641 J-0.0002
G1 X14.7637
G2 X14.8274 Y4.4893 I0. J-0.0637
G1 X14.8262 Y4.0491
G3 X14.9163 Y3.9131 I0.1471 J-0.0004
G2 X15.0064 Y3.7771 I-0.0569 J-0.1356
G1 X14.9982 Y0.8532
X14.9031 Y0.8535
X14.9027
X14.9023
X14.8908 Y0.8534
X14.8845 Y0.8533
X14.8787 Y0.853
X14.8729 Y0.8525
X14.8672 Y0.852
X14.8614 Y0.8513
X14.8556 Y0.8505
X14.8499 Y0.8495
X14.8441 Y0.8484
X14.8395 Y0.8475
X14.8362 Y0.8467
X14.8304 Y0.8453
X14.8222 Y0.8431
X14.8153 Y0.8409
X14.8095 Y0.839
X14.8037 Y0.8369
X14.798 Y0.8347
X14.7924 Y0.8323
X14.7869 Y0.8299
X14.7812 Y0.8272
X14.775 Y0.8241
X14.7691 Y0.8209
X14.7633 Y0.8177
X14.7576 Y0.8142
X14.7518 Y0.8105
X14.746 Y0.8065
X14.7402 Y0.8024
X14.7345 Y0.798
X14.7287 Y0.7933
X14.7221 Y0.7876
X14.7147 Y0.7807
X14.7089 Y0.7751
X14.7048 Y0.7708
X14.6997 Y0.765
X14.6936 Y0.7578
X14.6906 Y0.7542
X14.6878 Y0.7505
X14.6824 Y0.743
X14.6784 Y0.7373
X14.6757 Y0.7332
X14.6727 Y0.7282
X14.6693 Y0.7225
X14.6661 Y0.7167
X14.6631 Y0.7109
X14.6603 Y0.7054
X14.6579 Y0.7001
X14.6554 Y0.6943
X14.6529 Y0.6881
X14.6506 Y0.6821
X14.6486 Y0.6764
X14.6467 Y0.6706
X14.645 Y0.6648
X14.6434 Y0.6591
X14.642 Y0.6533
X14.6407 Y0.6475
X14.6395 Y0.6418
X14.6385 Y0.636
X14.6376 Y0.6303
X14.6369 Y0.6245
X14.6362 Y0.6187
X14.6356 Y0.6101
X14.6351 Y0.5986
X14.635 Y0.5935
X14.6298 Y-1.2659
X14.3253
X14.3298 Y0.5928
X14.3297 Y0.5979
X14.3295 Y0.6037
X14.3292 Y0.6099
X14.3286 Y0.6164
X14.3276 Y0.6251
X14.3259 Y0.6358
X14.3244 Y0.6441
X14.3231 Y0.6498
X14.3217 Y0.6556
X14.3202 Y0.6613
X14.3185 Y0.6671
X14.3167 Y0.6729
X14.3147 Y0.6786
X14.3126 Y0.6844
X14.31 Y0.6909
X14.3068 Y0.6981
X14.3042 Y0.7038
X14.3021 Y0.7082
X14.2994 Y0.7132
X14.2963 Y0.719
X14.2929 Y0.7247
X14.2894 Y0.7305
X14.2862 Y0.7354
X14.2835 Y0.7393
X14.2793 Y0.7451
X14.2736 Y0.7527
X14.2707 Y0.7563
X14.2678 Y0.7597
X14.262 Y0.7663
X14.2566 Y0.772
X14.2517 Y0.777
X14.2459 Y0.7825
X14.2394 Y0.7883
X14.2324 Y0.7941
X14.2251 Y0.7997
X14.2193 Y0.804
X14.2151 Y0.8069
X14.2106 Y0.8098
X14.2202 Y4.7341
X15.0091
X15.0064 Y3.7771
X15.0062 Y3.7743
X15.0059 Y3.7715 Z0.1849
X15.0054 Y3.7688 Z0.1853
X15.0048 Y3.7661 Z0.1858
X15.0041 Y3.7635 Z0.1865
X15.0032 Y3.761 Z0.1874
X15.0022 Y3.7586 Z0.1884
X15.0011 Y3.7563 Z0.1895
X14.9999 Y3.7541 Z0.1908
X14.9986 Y3.752 Z0.1922
X14.9973 Y3.7501 Z0.1938
X14.9959 Y3.7483 Z0.1955
X14.9946 Y3.7467 Z0.1973
X14.9932 Y3.7451 Z0.1992
X14.9919 Y3.7438 Z0.2012
X14.9906 Y3.7425 Z0.2034
X14.9893 Y3.7414 Z0.2056
X14.9881 Y3.7404 Z0.208
X14.987 Y3.7395 Z0.2104
X14.9859 Y3.7388 Z0.2129
X14.985 Y3.7381 Z0.2154
X14.9842 Y3.7376 Z0.2181
X14.9834 Y3.7371 Z0.2207
X14.9828 Y3.7368 Z0.2234
X14.9824 Y3.7365 Z0.2262
X14.982 Y3.7363 Z0.229
X14.9818 Y3.7362 Z0.2318
Y3.7361 Z0.2346
G0 Z0.8346
X12.771 Y1.9097
Z0.5298
G1 Z0.4079 F50.
Y1.91 Z0.4025 F100.
Y1.9108 Z0.3973
Y1.9123 Z0.3921
Y1.9142 Z0.3871
Y1.9167 Z0.3824
Y1.9197 Z0.3779
Y1.9231 Z0.3738
Y1.927 Z0.3701
Y1.9312 Z0.3668
Y1.9358 Z0.364
Y1.9406 Z0.3617
Y1.9457 Z0.3599
Y1.9509 Z0.3587
Y1.9562 Z0.358
X12.7735 Y4.3546 Z0.1903
G2 X12.7921 Y4.3731 Z0.1883 I0.0185 J0.
G1 X12.7958 Z0.188
G2 X12.8144 Y4.3546 Z0.186 I0. J-0.0185
G1 X12.8143 Y4.3362 Z0.1847
Y4.3327 Z0.1846
X12.8064 Y1.107 F140.
G2 X12.7701 Y1.1071 I-0.0181 J0.
G1 X12.7735 Y4.3524
Y4.3546
G2 X12.7921 Y4.3731 I0.0185 J0.
G1 X12.7958
G2 X12.8144 Y4.3546 I0. J-0.0185
G1 X12.8143 Y4.3327
G3 X12.904 Y4.1975 I0.1462 J-0.0004
G2 X12.9936 Y4.0623 I-0.0566 J-0.1348
G1 X12.9863 Y1.0702
G2 X12.9237 Y0.9442 I-0.1589 J0.0004
G3 X12.8131 Y0.8209 I0.2677 J-0.3514
G2 X12.7513 Y0.8207 I-0.031 J0.0185
G3 X12.7068 Y0.8816 I-0.3862 J-0.2351
X12.6525 Y0.934 I-0.3206 J-0.2777
G2 X12.5901 Y1.0646 I0.1052 J0.1304
G1 X12.5937 Y4.4892
G2 X12.6577 Y4.5531 I0.064 J-0.0001
G1 X12.931
G2 X12.9946 Y4.4893 I0. J-0.0637
G1 X12.9936 Y4.0623
G3 X13.0838 Y3.9263 I0.1471 J-0.0004
G2 X13.1739 Y3.7904 I-0.0569 J-0.1356
G1 X13.1668 Y0.8522
X13.1627 Y0.8518
X13.1569 Y0.8511
X13.1512 Y0.8503
X13.1455 Y0.8494
X13.1398 Y0.8483
X13.1339 Y0.847
X13.1281 Y0.8456
X13.1223 Y0.8441
X13.1165 Y0.8425
X13.1108 Y0.8407
X13.105 Y0.8388
X13.0992 Y0.8367
X13.0934 Y0.8344
X13.0877 Y0.832
X13.081 Y0.829
X13.0735 Y0.8253
X13.0677 Y0.8223
X13.0637 Y0.8201
X13.0588 Y0.8173
X13.0531 Y0.8138
X13.0473 Y0.8101
X13.0415 Y0.8062
X13.0374 Y0.8032
X13.0348 Y0.8013
X13.0313 Y0.7986
X13.0268 Y0.795
X13.0223 Y0.7913
X13.0178 Y0.7874
X13.0135 Y0.7834
X13.0092 Y0.7794
X13.0034 Y0.7734
X12.9961 Y0.7655
X12.991 Y0.7597
X12.9881 Y0.7561
X12.9844 Y0.7514
X12.9802 Y0.7457
X12.9761 Y0.7399
X12.9723 Y0.7341
X12.9702 Y0.7308
X12.9697 Y0.7301
X12.9679 Y0.727
X12.9647 Y0.7216
X12.9618 Y0.7163
X12.9589 Y0.7109
X12.9562 Y0.7053
X12.9535 Y0.6995
X12.951 Y0.6938
X12.9487 Y0.688
X12.9473 Y0.6843
X12.9467 Y0.6827
X12.9447 Y0.677
X12.9416 Y0.6671
X12.9393 Y0.6592
X12.9379 Y0.6534
X12.9366 Y0.6477
X12.9354 Y0.6419
X12.9344 Y0.6361
X12.9335 Y0.6304
X12.9328 Y0.6246
X12.9321 Y0.6189
X12.9315 Y0.6102
X12.931 Y0.5987
X12.9309 Y0.5935
X12.9263 Y-1.2659
X12.6324
X12.6343 Y0.593
Y0.5973
X12.6341 Y0.6031
X12.6338 Y0.6089
X12.6333 Y0.6146
X12.6329 Y0.6189
X12.6326 Y0.6216
X12.6319 Y0.6274
X12.6305 Y0.6362
X12.6291 Y0.6434
X12.6279 Y0.6492
X12.6265 Y0.655
X12.625 Y0.6607
X12.6234 Y0.6665
X12.6216 Y0.6723
X12.6196 Y0.678
X12.6175 Y0.6838
X12.6147 Y0.6908
X12.6112 Y0.6989
X12.6086 Y0.7046
X12.6069 Y0.708
X12.6046 Y0.7126
X12.6014 Y0.7184
X12.5981 Y0.7241
X12.5946 Y0.7299
X12.5912 Y0.7352
X12.588 Y0.74
X12.5838 Y0.7458
X12.5787 Y0.7525
X12.5759 Y0.7561
X12.573 Y0.7595
X12.5665 Y0.7669
X12.5612 Y0.7726
X12.557 Y0.7768
X12.5513 Y0.7822
X12.5439 Y0.7888
X12.5371 Y0.7946
X12.5307 Y0.7995
X12.5249 Y0.8037
X12.5197 Y0.8073
X12.5142 Y0.8109
X12.5085 Y0.8145
X12.5027 Y0.8179
X12.4969 Y0.8211
X12.4929 Y0.8232
X12.4906 Y0.8244
X12.4849 Y0.8271
X12.4756 Y0.8312
X12.4681 Y0.8343
X12.4623 Y0.8365
X12.4566 Y0.8385
X12.4508 Y0.8403
X12.445 Y0.842
X12.4393 Y0.8436
X12.4335 Y0.845
X12.4277 Y0.8463
X12.4233 Y0.8472
X12.4203 Y0.8477
X12.4145 Y0.8487
X12.4089 Y0.8494
X12.413 Y4.7341
X13.1762
X13.1739 Y3.7904
X13.1738 Y3.7876
X13.1735 Y3.7848 Z0.1849
X13.173 Y3.782 Z0.1853
X13.1724 Y3.7794 Z0.1858
X13.1716 Y3.7768 Z0.1865
X13.1707 Y3.7742 Z0.1874
X13.1697 Y3.7718 Z0.1884
X13.1686 Y3.7695 Z0.1895
X13.1674 Y3.7673 Z0.1908
X13.1662 Y3.7653 Z0.1922
X13.1648 Y3.7633 Z0.1938
X13.1635 Y3.7615 Z0.1955
X13.1621 Y3.7599 Z0.1973
X13.1608 Y3.7584 Z0.1992
X13.1594 Y3.757 Z0.2012
X13.1581 Y3.7558 Z0.2034
X13.1568 Y3.7546 Z0.2056
X13.1556 Y3.7536 Z0.208
X13.1545 Y3.7528 Z0.2104
X13.1535 Y3.752 Z0.2129
X13.1525 Y3.7514 Z0.2154
X13.1517 Y3.7508 Z0.2181
X13.151 Y3.7503 Z0.2207
X13.1504 Y3.75 Z0.2234
X13.1499 Y3.7497 Z0.2262
X13.1496 Y3.7495 Z0.229
X13.1494 Y3.7494 Z0.2318
X13.1493 Y3.7493 Z0.2346
G0 Z0.8346
X10.9127 Y1.9246
Z0.5298
G1 Z0.4079 F50.
Y1.9249 Z0.4025 F100.
Y1.9258 Z0.3973
Y1.9272 Z0.3921
Y1.9292 Z0.3871
Y1.9317 Z0.3824
Y1.9346 Z0.3779
Y1.9381 Z0.3738
Y1.9419 Z0.3701
Y1.9462 Z0.3668
Y1.9507 Z0.364
Y1.9556 Z0.3617
Y1.9606 Z0.3599
Y1.9658 Z0.3587
Y1.9712 Z0.358
X10.9085 Y4.347 Z0.1919
G2 X10.9346 Y4.3731 Z0.189 I0.026 J0.
G1 X10.9376 Z0.1888
G2 X10.9636 Y4.347 Z0.1859 I0. J-0.026
G1 Y4.329 Z0.1847
Y4.3255 Z0.1846
X10.9603 Y1.1638 F140.
G2 X10.9323 Y1.1466 I-0.0193 J0.
G1 X10.9249 Y1.1503
G2 X10.9141 Y1.1676 I0.0084 J0.0173
G1 X10.9085 Y4.3451
Y4.347
G2 X10.9346 Y4.3731 I0.026 J0.
G1 X10.9376
G2 X10.9636 Y4.347 I0. J-0.026
G1 Y4.3255
G3 X11.0535 Y4.1904 I0.1463 J-0.0002
G2 X11.1433 Y4.0553 I-0.0564 J-0.1349
G1 X11.14 Y0.8877
G2 X11.128 Y0.8507 I-0.0631 J0.0001
G3 X11.0978 Y0.8025 I0.3371 J-0.2446
G2 X11.039 I-0.0294 J0.0157
G3 X10.9378 Y0.9279 I-0.3787 J-0.2021
X10.7983 Y1.0087 I-0.2949 J-0.3482
G1 X10.7975 Y1.009
X10.7967 Y1.0092
G2 X10.7342 Y1.0977 I0.0316 J0.0886
G1 X10.7283 Y4.4892
G2 X10.792 Y4.5531 I0.0637 J0.0001
G1 X11.08
G2 X11.1438 Y4.4892 I0. J-0.0638
G1 X11.1433 Y4.0553
G3 X11.2337 Y3.9195 I0.1471 J-0.0002
G2 X11.324 Y3.7836 I-0.0567 J-0.1357
G1 X11.3209 Y0.7938
X11.3207 Y0.7937
X11.315 Y0.7888
X11.3092 Y0.7837
X11.3056 Y0.7803
X11.3039 Y0.7787
X11.3005 Y0.7752
X11.2952 Y0.7697
X11.29 Y0.764
X11.2849 Y0.7579
X11.2802 Y0.752
X11.2758 Y0.7463
X11.2717 Y0.7405
X11.2679 Y0.7347
X11.2645 Y0.7294
X11.2616 Y0.7247
X11.2584 Y0.7189
X11.2547 Y0.7122
X11.2516 Y0.7059
X11.2489 Y0.7001
X11.2464 Y0.6944
X11.244 Y0.6886
X11.2414 Y0.6816
X11.2385 Y0.6733
X11.2367 Y0.6675
X11.2357 Y0.6643
X11.2345 Y0.6598
X11.233 Y0.654
X11.2317 Y0.6483
X11.2305 Y0.6425
X11.2294 Y0.6367
X11.2285 Y0.631
X11.2277 Y0.6252
X11.2271 Y0.6195
X11.2265 Y0.6137
X11.2261 Y0.6079
X11.2259 Y0.6022
X11.2257 Y0.5964
Y0.5933
X11.2237 Y-1.2659
X10.9142
X10.911 Y0.5934
X10.9109 Y0.5961
X10.9108 Y0.6019
X10.9105 Y0.6076
X10.9102 Y0.6134
X10.9096 Y0.6192
X10.909 Y0.6249
X10.9082 Y0.6307
X10.9073 Y0.6365
X10.9063 Y0.6422
X10.9051 Y0.648
X10.9038 Y0.6538
X10.9023 Y0.6595
X10.9001 Y0.6673
X10.8969 Y0.6772
X10.8949 Y0.6829
X10.8943 Y0.6846
X10.8929 Y0.6883
X10.8905 Y0.6941
X10.888 Y0.6999
X10.8853 Y0.7056
X10.8826 Y0.7112
X10.8798 Y0.7164
X10.8769 Y0.7217
X10.8738 Y0.727
X10.8719 Y0.7301
X10.8713 Y0.7311
X10.8691 Y0.7344
X10.8653 Y0.7402
X10.8612 Y0.746
X10.8569 Y0.7517
X10.8533 Y0.7563
X10.8505 Y0.7597
X10.8454 Y0.7655
X10.8379 Y0.7737
X10.8321 Y0.7796
X10.8281 Y0.7834
X10.8237 Y0.7873
X10.8191 Y0.7913
X10.8144 Y0.7952
X10.8098 Y0.7989
X10.8063 Y0.8015
X10.8041 Y0.8032
X10.8001 Y0.806
X10.7943 Y0.8099
X10.7886 Y0.8136
X10.7828 Y0.8171
X10.7777 Y0.8201
X10.7732 Y0.8225
X10.7674 Y0.8255
X10.7604 Y0.8289
X10.754 Y0.8318
X10.7482 Y0.8342
X10.7424 Y0.8364
X10.7367 Y0.8385
X10.7309 Y0.8404
X10.7251 Y0.8422
X10.7193 Y0.8439
X10.7136 Y0.8454
X10.7099 Y0.8463
X10.7084 Y0.8466
X10.7027 Y0.8478
X10.6926 Y0.8496
X10.6847 Y0.8508
X10.679 Y0.8515
X10.6732 Y0.8521
X10.6674 Y0.8525
X10.6597 Y0.8528
X10.6481 Y0.853
X10.646
X10.5536 Y0.8529
X10.5468 Y4.7341
X11.325
X11.324 Y3.7836
X11.3239 Y3.7808
X11.3236 Y3.7781 Z0.1849
X11.3231 Y3.7753 Z0.1853
X11.3225 Y3.7726 Z0.1858
X11.3217 Y3.77 Z0.1865
X11.3208 Y3.7675 Z0.1874
X11.3198 Y3.7651 Z0.1884
X11.3187 Y3.7628 Z0.1895
X11.3175 Y3.7606 Z0.1908
X11.3163 Y3.7585 Z0.1922
X11.315 Y3.7566 Z0.1938
X11.3136 Y3.7548 Z0.1955
X11.3123 Y3.7532 Z0.1973
X11.3109 Y3.7516 Z0.1992
X11.3096 Y3.7503 Z0.2012
X11.3083 Y3.749 Z0.2034
X11.307 Y3.7479 Z0.2056
X11.3058 Y3.7469 Z0.208
X11.3047 Y3.746 Z0.2104
X11.3036 Y3.7453 Z0.2129
X11.3027 Y3.7446 Z0.2154
X11.3019 Y3.7441 Z0.2181
X11.3011 Y3.7436 Z0.2207
X11.3005 Y3.7432 Z0.2234
X11.3001 Y3.7429 Z0.2262
X11.2997 Y3.7427 Z0.229
X11.2995 Y3.7426 Z0.2318
Z0.2346
G0 Z0.8346
X9.5292 Y1.0946
Z0.5298
G1 Z0.4079 F50.
Y1.0943 Z0.4025 F100.
Y1.0934 Z0.3973
Y1.092 Z0.3921
Y1.09 Z0.3871
X9.5293 Y1.0875 Z0.3824
Y1.0846 Z0.3779
Y1.0811 Z0.3738
Y1.0773 Z0.3701
Y1.073 Z0.3668
Y1.0685 Z0.364
Y1.0636 Z0.3617
Y1.0586 Z0.3599
Y1.0534 Z0.3587
Y1.048 Z0.358
X9.5334 Y-1.2659 Z0.1962
X9.3685 Z0.1847
X9.365 Z0.1846
X9.2366 F140.
X9.2523 Y4.7341
X9.5229
X9.5331 Y-1.1177
X9.5334 Y-1.2659
X9.365
X9.3622 Y-1.2657
X9.3595 Y-1.2654 Z0.1849
X9.3567 Y-1.265 Z0.1853
X9.354 Y-1.2644 Z0.1858
X9.3514 Y-1.2636 Z0.1865
X9.3489 Y-1.2627 Z0.1874
X9.3465 Y-1.2617 Z0.1884
X9.3442 Y-1.2606 Z0.1895
X9.342 Y-1.2594 Z0.1908
X9.3399 Y-1.2582 Z0.1922
X9.338 Y-1.2569 Z0.1938
X9.3362 Y-1.2555 Z0.1955
X9.3345 Y-1.2542 Z0.1973
X9.333 Y-1.2528 Z0.1992
X9.3316 Y-1.2515 Z0.2012
X9.3304 Y-1.2502 Z0.2034
X9.3293 Y-1.2489 Z0.2056
X9.3283 Y-1.2477 Z0.208
X9.3274 Y-1.2466 Z0.2104
X9.3266 Y-1.2455 Z0.2129
X9.326 Y-1.2446 Z0.2154
X9.3254 Y-1.2438 Z0.2181
X9.325 Y-1.2431 Z0.2207
X9.3246 Y-1.2425 Z0.2234
X9.3243 Y-1.242 Z0.2262
X9.3241 Y-1.2416 Z0.229
X9.324 Y-1.2414 Z0.2318
Z0.2346
G0 Z0.8346
X7.7413 Y1.9233
Z0.5298
G1 Z0.4079 F50.
Y1.9236 Z0.4025 F100.
Y1.9244 Z0.3973
Y1.9259 Z0.3921
Y1.9278 Z0.3871
Y1.9303 Z0.3824
Y1.9333 Z0.3779
X7.7414 Y1.9367 Z0.3738
Y1.9406 Z0.3701
Y1.9448 Z0.3668
Y1.9494 Z0.364
Y1.9542 Z0.3617
Y1.9593 Z0.3599
Y1.9645 Z0.3587
Y1.9698 Z0.358
X7.7456 Y4.3471 Z0.1918
G2 X7.7716 Y4.3731 Z0.1889 I0.026 J0.
G1 X7.7737 Z0.1888
G2 X7.7997 Y4.347 Z0.1859 I0. J-0.026
G1 Y4.3294 Z0.1847
Y4.3259 Z0.1846
X7.7914 Y1.1517 F140.
G2 X7.7816 Y1.135 I-0.0193 J0.0001
G1 X7.7689 Y1.1277
G2 X7.74 Y1.1444 I-0.0097 J0.0167
G1 X7.7456 Y4.3471
G2 X7.7716 Y4.3731 I0.026 J0.
G1 X7.7737
G2 X7.7997 Y4.347 I0. J-0.026
G1 Y4.3259
G3 X7.8893 Y4.1907 I0.1462 J-0.0004
G2 X7.979 Y4.0555 I-0.0566 J-0.1349
G1 X7.9712 Y1.0936
G2 X7.9082 Y0.9973 I-0.1055 J0.0003
G3 X7.7152 Y0.833 I0.1783 J-0.405
G2 X7.6514 I-0.0319 J0.0209
G3 X7.6239 Y0.8704 I-0.3635 J-0.2386
X7.5926 Y0.9049 I-0.3749 J-0.3081
G2 X7.5597 Y0.9848 I0.08 J0.0797
G1 X7.5658 Y4.4892
G2 X7.6298 Y4.5531 I0.064 J-0.0001
G1 X7.9164
G2 X7.9801 Y4.4893 I0. J-0.0637
G1 X7.979 Y4.0555
G3 X8.0691 Y3.9195 I0.1471 J-0.0004
G2 X8.1593 Y3.7835 I-0.0569 J-0.1356
G1 X8.1516 Y0.8533
X8.0857 Y0.8535
X8.0825 Y0.8534
X8.0768 Y0.8533
X8.071 Y0.853
X8.0652 Y0.8527
X8.0594 Y0.8521
X8.0537 Y0.8515
X8.0479 Y0.8507
X8.0421 Y0.8498
X8.0357 Y0.8486
X8.0286 Y0.8472
X8.0229 Y0.8458
X8.0184 Y0.8447
X8.0133 Y0.8432
X8.0075 Y0.8415
X8.0018 Y0.8396
X7.996 Y0.8376
X7.9902 Y0.8354
X7.9845 Y0.833
X7.9787 Y0.8305
X7.9729 Y0.8278
X7.9685 Y0.8257
X7.9654 Y0.8241
X7.9596 Y0.821
X7.9512 Y0.8161
X7.9446 Y0.812
X7.9398 Y0.8088
X7.935 Y0.8055
X7.9302 Y0.802
X7.9268 Y0.7995
X7.9249 Y0.798
X7.9211 Y0.7949
X7.9155 Y0.7902
X7.9097 Y0.785
X7.9038 Y0.7794
X7.8982 Y0.7738
X7.8929 Y0.7682
X7.888 Y0.7626
X7.8833 Y0.757
X7.8802 Y0.7531
X7.8786 Y0.751
X7.8761 Y0.7476
X7.8727 Y0.7429
X7.8694 Y0.7382
X7.8664 Y0.7335
X7.8622 Y0.7267
X7.8571 Y0.7178
X7.854 Y0.712
X7.8527 Y0.7094
X7.8507 Y0.7052
X7.848 Y0.6994
X7.8455 Y0.6937
X7.8432 Y0.6879
X7.841 Y0.6822
X7.839 Y0.6764
X7.8371 Y0.6706
X7.8354 Y0.6649
X7.8338 Y0.659
X7.8323 Y0.653
X7.831 Y0.6472
X7.8299 Y0.6417
X7.8289 Y0.636
X7.828 Y0.6303
X7.8273 Y0.6245
X7.8267 Y0.6188
X7.826 Y0.6101
X7.8255 Y0.5986
X7.8254 Y0.5935
X7.8205 Y-1.2659
X7.5392
X7.5424 Y0.5929
X7.5423 Y0.5977
X7.5421 Y0.6034
X7.5418 Y0.6092
X7.5413 Y0.6149
X7.5408 Y0.6207
X7.54 Y0.6265
X7.5392 Y0.6322
X7.5382 Y0.638
X7.5371 Y0.6438
X7.5358 Y0.6495
X7.5345 Y0.6553
X7.5329 Y0.661
X7.531 Y0.6677
X7.5285 Y0.6753
X7.5265 Y0.681
X7.525 Y0.685
X7.5231 Y0.6899
X7.5206 Y0.6956
X7.518 Y0.7014
X7.5153 Y0.7072
X7.5115 Y0.7144
X7.5067 Y0.723
X7.5033 Y0.7287
X7.5014 Y0.7316
X7.4986 Y0.736
X7.4946 Y0.7417
X7.4904 Y0.7475
X7.4859 Y0.7533
X7.483 Y0.7569
X7.4817 Y0.7584
X7.4789 Y0.7617
X7.4745 Y0.7667
X7.4698 Y0.7717
X7.4649 Y0.7767
X7.4613 Y0.7802
X7.4591 Y0.7822
X7.4552 Y0.7858
X7.4494 Y0.7908
X7.4436 Y0.7955
X7.4377 Y0.8
X7.4319 Y0.8042
X7.4262 Y0.8081
X7.4205 Y0.8118
X7.4148 Y0.8153
X7.408 Y0.8191
X7.4002 Y0.8233
X7.3944 Y0.8262
X7.3907 Y0.8279
X7.3859 Y0.83
X7.3802 Y0.8324
X7.3796 Y0.8327
X7.379 Y0.8329
X7.3784 Y0.8331
X7.3852 Y4.7341
X8.1617
X8.1593 Y3.7835
X8.1591 Y3.7807
X8.1588 Y3.7779 Z0.1849
X8.1583 Y3.7752 Z0.1853
X8.1577 Y3.7725 Z0.1858
X8.1569 Y3.7699 Z0.1865
X8.156 Y3.7674 Z0.1874
X8.155 Y3.765 Z0.1884
X8.1539 Y3.7627 Z0.1895
X8.1527 Y3.7605 Z0.1908
X8.1515 Y3.7584 Z0.1922
X8.1502 Y3.7565 Z0.1938
X8.1488 Y3.7547 Z0.1955
X8.1474 Y3.753 Z0.1973
X8.1461 Y3.7515 Z0.1992
X8.1447 Y3.7501 Z0.2012
X8.1434 Y3.7489 Z0.2034
X8.1422 Y3.7478 Z0.2056
X8.141 Y3.7468 Z0.208
X8.1398 Y3.7459 Z0.2104
X8.1388 Y3.7451 Z0.2129
X8.1379 Y3.7445 Z0.2154
X8.137 Y3.7439 Z0.2181
X8.1363 Y3.7435 Z0.2207
X8.1357 Y3.7431 Z0.2234
X8.1352 Y3.7428 Z0.2262
X8.1349 Y3.7426 Z0.229
X8.1347 Y3.7425 Z0.2318
X8.1346 Z0.2346
G0 Z0.8346
X5.8527 Y1.9453
Z0.5298
G1 Z0.4079 F50.
Y1.9456 Z0.4025 F100.
Y1.9464 Z0.3973
Y1.9479 Z0.3921
Y1.9498 Z0.3871
Y1.9523 Z0.3824
Y1.9553 Z0.3779
Y1.9587 Z0.3738
Y1.9626 Z0.3701
Y1.9668 Z0.3668
Y1.9714 Z0.364
Y1.9762 Z0.3617
Y1.9813 Z0.3599
Y1.9865 Z0.3587
Y1.9918 Z0.358
X5.8552 Y4.3381 Z0.194
G2 X5.8902 Y4.3731 Z0.1901 I0.035 J0.
G1 X5.8941 Z0.1898
G2 X5.9292 Y4.338 Z0.186 I0. J-0.035
G1 X5.9291 Y4.3195 Z0.1847
Y4.316 Z0.1846
X5.9236 Y1.1662 F140.
G2 X5.8717 Y1.1356 I-0.035 J0.0001
G1 X5.8701 Y1.1364
G2 X5.8518 Y1.1672 I0.0168 J0.0307
G1 X5.8552 Y4.3358
Y4.3381
G2 X5.8902 Y4.3731 I0.035 J0.
G1 X5.8941
G2 X5.9292 Y4.338 I0. J-0.035
G1 X5.9291 Y4.316
G3 X6.0189 Y4.1809 I0.1463 J-0.0003
G2 X6.1087 Y4.0457 I-0.0565 J-0.1349
G1 X6.1033 Y0.9794
G2 X6.0717 Y0.9012 I-0.1129 J0.0002
G3 X6.0387 Y0.8633 I0.3537 J-0.3411
X6.0101 Y0.8219 I0.3208 J-0.2515
G2 X5.9478 I-0.0311 J0.0187
G3 X5.856 Y0.9293 I-0.3617 J-0.2164
X5.7345 Y1.0016 I-0.2875 J-0.3449
G2 X5.6718 Y1.0942 I0.0368 J0.0925
G1 X5.6753 Y4.4892
G2 X5.7393 Y4.5531 I0.064 J-0.0001
G1 X6.0457
G2 X6.1094 Y4.4892 I0. J-0.0637
G1 X6.1087 Y4.0457
G3 X6.1989 Y3.9098 I0.1471 J-0.0003
G2 X6.2892 Y3.7739 I-0.0568 J-0.1357
G1 X6.284 Y0.8317
X6.2799 Y0.8299
X6.2745 Y0.8274
X6.2695 Y0.825
X6.2638 Y0.8219
X6.2572 Y0.8183
X6.251 Y0.8146
X6.2453 Y0.8109
X6.2394 Y0.807
X6.2335 Y0.8028
X6.2277 Y0.7984
X6.222 Y0.7939
X6.2163 Y0.789
X6.2106 Y0.7839
X6.2068 Y0.7804
X6.2049 Y0.7785
X6.2014 Y0.775
X6.1963 Y0.7696
X6.1915 Y0.7643
X6.187 Y0.759
X6.1844 Y0.7558
X6.1837 Y0.755
X6.1811 Y0.7517
X6.1768 Y0.7459
X6.1728 Y0.7402
X6.1689 Y0.7344
X6.1657 Y0.7293
X6.163 Y0.7248
X6.1597 Y0.7191
X6.1559 Y0.712
X6.1527 Y0.7056
X6.1501 Y0.6998
X6.1475 Y0.6941
X6.1452 Y0.6883
X6.1426 Y0.6814
X6.1399 Y0.6734
X6.138 Y0.6677
X6.137 Y0.6641
X6.1358 Y0.6595
X6.1343 Y0.6537
X6.133 Y0.648
X6.1318 Y0.6422
X6.1308 Y0.6364
X6.1299 Y0.6307
X6.1291 Y0.6249
X6.1284 Y0.6191
X6.1279 Y0.6134
X6.1275 Y0.6076
X6.1273 Y0.6019
X6.1271 Y0.5961
Y0.5934
X6.1239 Y-1.2659
X5.8298
X5.8317 Y0.593
X5.8316 Y0.5973
X5.8314 Y0.6031
X5.8311 Y0.6089
X5.8307 Y0.6146
X5.8301 Y0.6204
X5.8294 Y0.6262
X5.8286 Y0.6319
X5.8276 Y0.6377
X5.8263 Y0.6445
X5.8245 Y0.6525
X5.8231 Y0.6583
X5.8221 Y0.6618
X5.8207 Y0.6665
X5.8189 Y0.6723
X5.817 Y0.678
X5.8149 Y0.6838
X5.8126 Y0.6896
X5.8102 Y0.6953
X5.8076 Y0.7011
X5.8048 Y0.7068
X5.8027 Y0.7111
X5.8012 Y0.714
X5.798 Y0.7198
X5.7928 Y0.7285
G3 X5.7871 Y0.7373 I-0.1119 J-0.0662
G1 X5.7807 Y0.7464
X5.7764 Y0.7521
X5.7745 Y0.7546
X5.7712 Y0.7585
X5.7667 Y0.7637
X5.7619 Y0.769
X5.7569 Y0.7743
X5.7538 Y0.7774
X5.7528 Y0.7784
X5.7497 Y0.7813
X5.7444 Y0.7861
X5.7392 Y0.7907
X5.7339 Y0.795
X5.7297 Y0.7983
X5.7265 Y0.8007
X5.7208 Y0.8048
X5.7124 Y0.8104
X5.7055 Y0.8147
X5.7002 Y0.8178
X5.6948 Y0.8208
X5.6895 Y0.8236
X5.6864 Y0.8252
X5.6855 Y0.8256
X5.6822 Y0.8271
X5.6765 Y0.8298
X5.6707 Y0.8322
X5.6649 Y0.8345
X5.6592 Y0.8366
X5.6534 Y0.8386
X5.6476 Y0.8405
X5.6419 Y0.8422
X5.6361 Y0.8437
X5.6304 Y0.8451
X5.6246 Y0.8464
X5.6188 Y0.8475
X5.613 Y0.8485
X5.6073 Y0.8494
X5.6015 Y0.8501
X5.5957 Y0.8507
X5.5871 Y0.8513
X5.5756 Y0.8517
X5.5709 Y0.8518
X5.4905 Y0.8519
X5.4946 Y4.7341
X6.2909
X6.2892 Y3.7739
X6.289 Y3.7711
X6.2887 Y3.7683 Z0.1849
X6.2882 Y3.7656 Z0.1853
X6.2876 Y3.7629 Z0.1858
X6.2869 Y3.7603 Z0.1865
X6.286 Y3.7578 Z0.1874
X6.285 Y3.7554 Z0.1884
X6.2839 Y3.7531 Z0.1895
X6.2827 Y3.7509 Z0.1908
X6.2814 Y3.7488 Z0.1922
X6.2801 Y3.7469 Z0.1938
X6.2788 Y3.7451 Z0.1955
X6.2774 Y3.7434 Z0.1973
X6.276 Y3.7419 Z0.1992
X6.2747 Y3.7405 Z0.2012
X6.2734 Y3.7393 Z0.2034
X6.2721 Y3.7382 Z0.2056
X6.2709 Y3.7372 Z0.208
X6.2698 Y3.7363 Z0.2104
X6.2688 Y3.7355 Z0.2129
X6.2678 Y3.7349 Z0.2154
X6.267 Y3.7343 Z0.2181
X6.2663 Y3.7339 Z0.2207
X6.2657 Y3.7335 Z0.2234
X6.2652 Y3.7332 Z0.2262
X6.2649 Y3.733 Z0.229
X6.2647 Y3.7329 Z0.2318
X6.2646 Z0.2346
G0 Z0.8346
X4.0991 Y2.7114
Z0.5298
G1 Z0.4079 F50.
Y2.7117 Z0.4025 F100.
Y2.7126 Z0.3973
Y2.714 Z0.3921
Y2.7159 Z0.3871
Y2.7184 Z0.3824
X4.099 Y2.7214 Z0.3779
Y2.7248 Z0.3738
Y2.7287 Z0.3701
Y2.7329 Z0.3668
Y2.7375 Z0.364
Y2.7423 Z0.3617
Y2.7474 Z0.3599
Y2.7526 Z0.3587
X4.0989 Y2.7579 Z0.358
X4.0934 Y4.7341 Z0.2198
X4.4176 Z0.1972
X4.4174 Y4.5556 Z0.1847
Y4.5522 Z0.1846
X4.4113 Y-1.2659 F140.
X4.1102
X4.0939 Y4.5715
X4.0934 Y4.7341
X4.4176
X4.4174 Y4.5522
X4.4172 Y4.5494
X4.4169 Y4.5466 Z0.1849
X4.4165 Y4.5438 Z0.1853
X4.4158 Y4.5412 Z0.1858
X4.4151 Y4.5386 Z0.1865
X4.4142 Y4.536 Z0.1874
X4.4132 Y4.5336 Z0.1884
X4.4121 Y4.5313 Z0.1895
X4.4109 Y4.5291 Z0.1908
X4.4096 Y4.5271 Z0.1922
X4.4083 Y4.5251 Z0.1938
X4.407 Y4.5233 Z0.1955
X4.4056 Y4.5217 Z0.1973
X4.4043 Y4.5202 Z0.1992
X4.4029 Y4.5188 Z0.2012
X4.4016 Y4.5175 Z0.2034
X4.4004 Y4.5164 Z0.2056
X4.3992 Y4.5154 Z0.208
X4.398 Y4.5145 Z0.2104
X4.397 Y4.5138 Z0.2129
X4.3961 Y4.5131 Z0.2154
X4.3952 Y4.5126 Z0.2181
X4.3945 Y4.5121 Z0.2207
X4.3939 Y4.5117 Z0.2234
X4.3934 Y4.5115 Z0.2262
X4.3931 Y4.5113 Z0.229
X4.3929 Y4.5111 Z0.2318
X4.3928 Z0.2346
G0 Z0.8346
X2.8766 Y3.6639
Z0.5298
G1 Z0.4079 F50.
Y3.6636 Z0.4025 F100.
Y3.6628 Z0.3973
Y3.6614 Z0.3921
Y3.6594 Z0.3871
Y3.6569 Z0.3824
Y3.6539 Z0.3779
Y3.6505 Z0.3738
Y3.6466 Z0.3701
Y3.6424 Z0.3668
X2.8767 Y3.6378 Z0.364
Y3.633 Z0.3617
Y3.6279 Z0.3599
Y3.6227 Z0.3587
Y3.6174 Z0.358
X2.8836 Y1.1386 Z0.1847
X2.8837 Y1.1351 Z0.1846
X2.8838 Y1.0929 F140.
G2 X2.8226 Y1.0038 I-0.0951 J-0.0003
G3 X2.699 Y0.9325 I0.1619 J-0.4238
X2.6047 Y0.8254 I0.2682 J-0.3312
G2 X2.5425 Y0.8255 I-0.0311 J0.0192
G3 X2.5293 Y0.8454 I-0.3061 J-0.1885
X2.5149 Y0.8645 I-0.3556 J-0.2531
G2 X2.5014 Y0.9033 I0.0483 J0.0385
G1 X2.5183 Y4.4903
G2 X2.5813 Y4.5529 I0.063 J-0.0003
G1 X2.8115
G2 X2.8743 Y4.4903 I0. J-0.0628
G1 X2.8836 Y1.155
X2.8837 Y1.1351
G3 X2.9746 Y0.9995 I0.1472 J0.0004
G2 X3.0656 Y0.8639 I-0.0562 J-0.136
G1 Y0.8513
X2.9865 Y0.8511
X2.9861
X2.9746 Y0.851
X2.9693 Y0.8509
X2.9635 Y0.8506
X2.9578 Y0.8502
X2.952 Y0.8497
X2.9478 Y0.8493
X2.9451 Y0.8489
X2.9393 Y0.8481
X2.9305 Y0.8466
X2.9232 Y0.8451
X2.9174 Y0.8438
X2.9116 Y0.8423
X2.9059 Y0.8407
X2.9001 Y0.839
X2.8943 Y0.8371
X2.8886 Y0.835
X2.8828 Y0.8328
X2.8765 Y0.8302
X2.8697 Y0.8272
X2.864 Y0.8245
X2.8592 Y0.8221
X2.8539 Y0.8193
X2.8482 Y0.8161
X2.8424 Y0.8126
X2.8366 Y0.809
X2.8321 Y0.806
X2.8289 Y0.8038
X2.8231 Y0.7995
X2.8148 Y0.7931
X2.8113 Y0.7902
X2.8078 Y0.7873
X2.8022 Y0.7822
X2.7964 Y0.7767
X2.7905 Y0.7707
X2.7852 Y0.765
X2.7803 Y0.7594
X2.7773 Y0.7559
X2.7745 Y0.7522
X2.7678 Y0.7434
X2.7636 Y0.7376
X2.7618 Y0.7349
X2.7591 Y0.7306
X2.7555 Y0.7249
X2.7522 Y0.7191
X2.749 Y0.7134
X2.7459 Y0.7074
X2.7429 Y0.7013
X2.7403 Y0.6955
X2.738 Y0.6901
X2.7358 Y0.6845
X2.7337 Y0.6788
X2.7317 Y0.673
X2.7298 Y0.6672
X2.7281 Y0.6615
X2.7266 Y0.6557
X2.7252 Y0.65
X2.7239 Y0.6442
X2.7228 Y0.6384
X2.7218 Y0.6327
X2.7209 Y0.6269
X2.7202 Y0.6211
X2.7196 Y0.6154
X2.7191 Y0.6096
X2.7187 Y0.6038
X2.7185 Y0.5981
X2.7184 Y0.5929
X2.7185 Y0.5699
Y0.5697
X2.7236 Y-1.2659
X2.4206
X2.4293 Y0.581
Y0.5816
X2.4294 Y0.5931
X2.4292 Y0.599
X2.429 Y0.6047
X2.4286 Y0.6105
X2.4281 Y0.6163
X2.4274 Y0.622
X2.4266 Y0.6278
X2.4257 Y0.6336
X2.4247 Y0.6393
X2.4232 Y0.6465
X2.4212 Y0.6549
X2.4196 Y0.6607
X2.4188 Y0.6637
X2.4174 Y0.6681
X2.4155 Y0.6739
X2.4135 Y0.6797
X2.4113 Y0.6854
X2.4089 Y0.6912
X2.4064 Y0.6969
X2.4038 Y0.7027
X2.4009 Y0.7085
X2.3988 Y0.7125
X2.3976 Y0.7147
X2.3943 Y0.7206
X2.3886 Y0.7298
G3 X2.3829 Y0.7385 I-0.1111 J-0.0675
G1 X2.377 Y0.7467
X2.3726 Y0.7524
X2.3698 Y0.7558
X2.3664 Y0.7598
X2.3622 Y0.7646
X2.3578 Y0.7693
X2.3532 Y0.774
X2.3498 Y0.7774
X2.3476 Y0.7795
X2.3442 Y0.7826
X2.3395 Y0.7868
X2.3348 Y0.7907
X2.3302 Y0.7945
X2.3254 Y0.7982
X2.3205 Y0.8018
X2.3201 Y0.802
X2.3198 Y0.8023
X2.3383 Y4.7341
X3.0548
X3.0656 Y0.8639
Y0.8632
X3.0655 Y0.8625
X3.0654 Y0.8618 Z0.1847
X3.0653 Y0.8611 Z0.1849
X3.0651 Y0.8605 Z0.1851
X3.0649 Y0.8598 Z0.1853
X3.0647 Y0.8592 Z0.1855
X3.0644 Y0.8586 Z0.1858
X3.0642 Y0.8581 Z0.1861
X3.0639 Y0.8576 Z0.1865
X3.0636 Y0.8571 Z0.1869
X3.0633 Y0.8566 Z0.1873
X3.0629 Y0.8562 Z0.1877
X3.0626 Y0.8558 Z0.1882
X3.0623 Y0.8554 Z0.1887
X3.062 Y0.8551 Z0.1893
X3.0617 Y0.8548 Z0.1898
X3.0614 Y0.8545 Z0.1904
X3.0611 Y0.8543 Z0.191
X3.0609 Y0.8541 Z0.1916
X3.0607 Y0.8539 Z0.1923
X3.0605 Y0.8538 Z0.1929
X3.0603 Y0.8537 Z0.1936
X3.0602 Y0.8536 Z0.1943
X3.06 Y0.8535 Z0.1949
Y0.8534 Z0.1956
X3.0599 Z0.1963
Z0.197
G0 Z0.8346
X0.3273 Y4.3731
Z0.2346
G1 X0.3276 Z0.229 F140.
X0.3285 Z0.2234
X0.3301 Z0.2181
X0.3322 Z0.2129
X0.335 Z0.208
X0.3382 Z0.2034
X0.3419 Z0.1992
X0.3461 Z0.1955
X0.3507 Z0.1922
X0.3556 Z0.1895
X0.3608 Z0.1874
X0.3662 Z0.1858
X0.3717 Z0.1849
X0.3773 Z0.1846
X0.5258
X0.6184
G2 X0.6819 Y4.3093 I0. J-0.0635
G1 X0.6577 Y-0.841
G2 X0.5934 Y-0.9049 I-0.0642 J0.0003
G1 X0.5259
X0.3292
X0.3236 Z0.1849
X0.3181 Z0.1858
X0.3127 Z0.1874
X0.3075 Z0.1895
X0.3026 Z0.1922
X0.2981 Z0.1955
X0.2939 Z0.1992
X0.2902 Z0.2034
X0.2869 Z0.208
X0.2842 Z0.2129
X0.282 Z0.2181
X0.2805 Z0.2234
X0.2796 Z0.229
X0.2792 Z0.2346
G0 Z0.8346
X0.3273 Y4.5531
Z0.2346
G1 X0.3276 Z0.229 F140.
X0.3285 Z0.2234
X0.3301 Z0.2181
X0.3322 Z0.2129
X0.335 Z0.208
X0.3382 Z0.2034
X0.3419 Z0.1992
X0.3461 Z0.1955
X0.3507 Z0.1922
X0.3556 Z0.1895
X0.3608 Z0.1874
X0.3662 Z0.1858
X0.3717 Z0.1849
X0.3773 Z0.1846
X0.5259
X0.7993
G2 X0.8628 Y4.4893 I0. J-0.0635
G1 X0.8368 Y-1.021
G2 X0.7726 Y-1.0849 I-0.0642 J0.0003
G1 X0.5259
X0.3293
X0.3237 Z0.1849
X0.3181 Z0.1858
X0.3127 Z0.1874
X0.3076 Z0.1895
X0.3027 Z0.1922
X0.2981 Z0.1955
X0.2939 Z0.1992
X0.2902 Z0.2034
X0.2869 Z0.208
X0.2842 Z0.2129
X0.2821 Z0.2181
X0.2805 Z0.2234
X0.2796 Z0.229
X0.2793 Z0.2346
G0 Z0.8346
X0.3273 Y4.7033
Z0.2296
G1 X0.3276 Z0.2245 F140.
X0.3284 Y4.7034 Z0.2196
X0.3298 Y4.7037 Z0.2147
X0.3317 Y4.704 Z0.21
X0.3341 Y4.7043 Z0.2056
X0.337 Y4.7048 Z0.2015
X0.3403 Y4.7053 Z0.1977
X0.344 Y4.7059 Z0.1944
X0.3481 Y4.7066 Z0.1915
X0.3525 Y4.7073 Z0.189
X0.3571 Y4.708 Z0.1871
X0.3619 Y4.7087 Z0.1857
X0.3668 Y4.7095 Z0.1848
X0.3717 Y4.7103 Z0.1846
X0.518 Y4.7335
X0.5219 Y4.7339
X0.5259 Y4.7341
X1.0449
X1.0167 Y-1.2659
X0.5259
X0.5219 Y-1.2657
X0.518 Y-1.2653
X0.3238 Y-1.2345
X0.3183 Y-1.2337 Z0.1849
X0.3129 Y-1.2328 Z0.1858
X0.3075 Y-1.2319 Z0.1874
X0.3024 Y-1.2311 Z0.1895
X0.2976 Y-1.2304 Z0.1922
X0.2931 Y-1.2297 Z0.1955
X0.2889 Y-1.229 Z0.1992
X0.2852 Y-1.2284 Z0.2034
X0.282 Y-1.2279 Z0.208
X0.2794 Y-1.2275 Z0.2129
X0.2772 Y-1.2271 Z0.2181
X0.2757 Y-1.2269 Z0.2234
X0.2748 Y-1.2268 Z0.229
X0.2745 Y-1.2267 Z0.2346
G0 Z1.2346
M5
G53 G0 Z0.

(FINISH TOP PASS 2)
M1
T19 M6
S16000 M3
G17 G90 G94
G55
M8
G0 X0.463 Y4.8911
G43 Z1.2346 H19
G0 Z0.2058
G1 X0.4633 Z0.2025 F80.
X0.464 Y4.8913 Z0.1993
X0.4653 Y4.8915 Z0.1962
X0.467 Y4.8917 Z0.1933
X0.4692 Y4.8921 Z0.1908
X0.4717 Y4.8925 Z0.1886
X0.4745 Y4.8929 Z0.1869
X0.4775 Y4.8934 Z0.1856
X0.4807 Y4.8939 Z0.1848
X0.484 Y4.8944 Z0.1846
X0.6695 Y4.9238
X0.6732 Y4.9241
X1.1897
X1.1605 Y-1.2708
X1.1606 Y-1.273
X1.1608 Y-1.2807
X1.1609 Y-1.2827
G3 X1.1618 Y-1.2953 I0.3681 J0.0207
G1 X1.1623 Y-1.299
X1.1629 Y-1.3029
X1.1634 Y-1.3061
G3 X1.167 Y-1.3225 I0.5232 J0.1058
G1 X1.168 Y-1.3261
X1.1685 Y-1.3279
X1.1695 Y-1.3309
G3 X1.1746 Y-1.3451 I0.6266 J0.2192
G1 X1.1755 Y-1.3474
X1.1768 Y-1.3505
X1.1782 Y-1.3536
X1.1797 Y-1.3566
X1.1808 Y-1.3587
X1.1858 Y-1.368
X1.1867 Y-1.3697
X1.1894 Y-1.3743
X1.1919 Y-1.3781
X1.194 Y-1.3812
X1.1951 Y-1.3827
X1.2008 Y-1.3904
X1.2017 Y-1.3915
X1.2047 Y-1.3954
X1.2078 Y-1.3991
X1.2114 Y-1.403
X1.2128 Y-1.4044
X1.2204 Y-1.4121
X1.2216 Y-1.4132
X1.2226 Y-1.4142
X1.225 Y-1.4164
X1.2289 Y-1.4197
X1.2315 Y-1.4218
G3 X1.2435 Y-1.4308 I0.5055 J0.6624
G1 X1.2474 Y-1.4334
X1.2513 Y-1.4359
X1.254 Y-1.4375
X1.2655 Y-1.4438
X1.2683 Y-1.4452
X1.2712 Y-1.4466
X1.2747 Y-1.4482
G3 X1.2884 Y-1.4535 I0.1469 J0.359
G1 X1.2897 Y-1.4539
X1.2935 Y-1.4553
X1.2973 Y-1.4565
X1.3012 Y-1.4576
X1.304 Y-1.4583
G3 X1.3205 Y-1.4618 I0.1026 J0.4407
G1 X1.3235 Y-1.4623
X1.3265 Y-1.4627
G3 X1.3431 Y-1.4641 I0.0464 J0.4436
G1 X1.3464 Y-1.4642
X1.3541 Y-1.4644
X1.3545
X1.3549
X2.0793 Y-1.4678
X2.0796
X2.0874
X2.0909 Y-1.4677
G3 X2.1071 Y-1.4666 I-0.0362 J0.6354
G1 X2.1114 Y-1.4661
X2.1153 Y-1.4655
X2.1185 Y-1.4649
X2.1301 Y-1.4625
X2.1318 Y-1.4621
X2.1356 Y-1.4611
X2.1395 Y-1.4601
X2.1433 Y-1.4588
X2.1459 Y-1.458
X2.1574 Y-1.4537
X2.1603 Y-1.4526
X2.1641 Y-1.4509
X2.1683 Y-1.4489
X2.176 Y-1.4449
X2.1772 Y-1.4442
X2.1849 Y-1.4399
X2.1894 Y-1.4372
X2.1932 Y-1.4346
X2.1952 Y-1.4331
X2.2055 Y-1.4254
X2.2078 Y-1.4237
X2.209 Y-1.4226
X2.2123 Y-1.4197
G3 X2.2241 Y-1.4082 I-0.3718 J0.3951
G1 X2.2261 Y-1.4062
X2.2293 Y-1.4027
X2.2314 Y-1.4003
X2.2324 Y-1.399
X2.2337 Y-1.3973
X2.2414 Y-1.3872
X2.2432 Y-1.3846
X2.2459 Y-1.3807
X2.2485 Y-1.3765
X2.2535 Y-1.3676
X2.2542 Y-1.3663
X2.2576 Y-1.3598
X2.259 Y-1.3571
X2.2602 Y-1.3543
G3 X2.2666 Y-1.3377 I-0.4021 J0.1655
G1 X2.2677 Y-1.3345
X2.2689 Y-1.3306
X2.2699 Y-1.327
G3 X2.2737 Y-1.31 I-0.4474 J0.1089
G1 X2.2744 Y-1.3064
X2.2749 Y-1.3026
X2.2753 Y-1.2988
G3 X2.2766 Y-1.2825 I-0.5444 J0.0486
G1 X2.2767 Y-1.2791
X2.2855 Y0.5846
Y0.5848
Y0.585
X2.2854 Y0.5927
X2.2853 Y0.5969
X2.285 Y0.6007
X2.2846 Y0.6046
X2.284 Y0.6084
X2.2835 Y0.6117
X2.2829 Y0.6145
X2.2823 Y0.6172
X2.2817 Y0.6196
X2.281 Y0.6221
X2.2803 Y0.6245
X2.2793 Y0.6277
X2.2779 Y0.6315
X2.2763 Y0.6354
X2.2746 Y0.6392
X2.273 Y0.6426
X2.2715 Y0.6455
X2.2698 Y0.6484
X2.2681 Y0.6513
X2.2666 Y0.6537
X2.2653 Y0.6556
X2.2633 Y0.6585
X2.2603 Y0.6623
X2.258 Y0.6652
X2.2563 Y0.6671
X2.2546 Y0.6691
X2.2527 Y0.671
X2.2508 Y0.6729
X2.2489 Y0.6748
X2.247 Y0.6766
X2.245 Y0.6783
X2.2422 Y0.6806
X2.2383 Y0.6836
X2.2355 Y0.6856
X2.2338 Y0.6868
X2.2315 Y0.6883
X2.2285 Y0.6901
X2.2255 Y0.6918
X2.2225 Y0.6934
X2.219 Y0.6951
X2.2152 Y0.6969
X2.2113 Y0.6984
X2.2075 Y0.6999
X2.2036 Y0.7011
X2.1998 Y0.7022
X2.196 Y0.7032
X2.1921 Y0.704
X2.1882 Y0.7047
X2.1844 Y0.7053
X2.1805 Y0.7057
X2.1766 Y0.7061
X2.1762
X2.1758
X2.1754
X2.1953 Y4.9241
X3.1981
X3.2099 Y0.7078
X2.9811 Y0.7072
X2.9796
X2.9719 Y0.707
X2.9667 Y0.7066
X2.9628 Y0.7061
X2.959 Y0.7055
X2.9551 Y0.7048
X2.9508 Y0.7038
X2.946 Y0.7025
X2.9422 Y0.7014
X2.9392 Y0.7004
X2.9359 Y0.6991
X2.932 Y0.6975
X2.9281 Y0.6957
X2.9243 Y0.6938
X2.9211 Y0.692
X2.9186 Y0.6906
X2.916 Y0.689
X2.9135 Y0.6873
X2.9109 Y0.6855
X2.9083 Y0.6836
X2.9054 Y0.6813
X2.9022 Y0.6786
X2.899 Y0.6757
X2.8958 Y0.6726
X2.8936 Y0.6703
X2.8922 Y0.6689
X2.8902 Y0.6666
X2.8877 Y0.6635
X2.8853 Y0.6603
X2.883 Y0.6572
X2.8811 Y0.6545
X2.8796 Y0.6521
X2.8782 Y0.6497
X2.8768 Y0.6473
X2.8754 Y0.6446
X2.8739 Y0.6417
X2.8724 Y0.6383
X2.8707 Y0.6345
X2.8693 Y0.6306
X2.868 Y0.6268
X2.8668 Y0.6229
X2.8658 Y0.6191
X2.8649 Y0.6152
X2.8641 Y0.6114
X2.8635 Y0.6075
X2.863 Y0.6037
X2.8627 Y0.5998
X2.8624 Y0.596
X2.8623 Y0.5924
X2.8625 Y0.5385
X2.8675 Y-1.2713
Y-1.2716
X2.8676 Y-1.2793
X2.8677 Y-1.2829
G3 X2.869 Y-1.2991 I0.6228 J0.0403
G1 X2.8694 Y-1.303
X2.8699 Y-1.3059
X2.8705 Y-1.3091
G3 X2.8733 Y-1.3221 I0.7167 J0.1486
G1 X2.8737 Y-1.3238
X2.8747 Y-1.3277
X2.8758 Y-1.3315
X2.877 Y-1.3354
X2.8779 Y-1.3378
X2.8823 Y-1.3493
X2.8835 Y-1.3523
X2.8852 Y-1.3562
X2.8872 Y-1.3603
X2.8916 Y-1.3685
X2.8923 Y-1.3697
X2.8964 Y-1.3769
X2.8995 Y-1.3818
X2.9031 Y-1.3868
X2.904 Y-1.3881
G3 X2.9122 Y-1.3987 I0.4217 J0.3155
G1 X2.9143 Y-1.4013
X2.9165 Y-1.4037
G3 X2.9289 Y-1.4162 I0.3655 J0.3485
G1 X2.9316 Y-1.4188
X2.9354 Y-1.4221
X2.9378 Y-1.424
X2.9386 Y-1.4247
X2.9398 Y-1.4255
X2.9501 Y-1.4332
X2.9533 Y-1.4354
X2.9575 Y-1.4381
X2.9611 Y-1.4403
X2.9703 Y-1.4453
X2.9719 Y-1.4461
X2.9782 Y-1.4493
X2.9835 Y-1.4517
G3 X3.0003 Y-1.4579 I0.1878 J0.4771
G1 X3.0037 Y-1.459
X3.0076 Y-1.4601
X3.011 Y-1.461
G3 X3.028 Y-1.4646 I0.1131 J0.4916
G1 X3.0318 Y-1.4652
X3.0357 Y-1.4657
X3.0388 Y-1.466
G3 X3.0551 Y-1.467 I0.0437 J0.5626
G1 X3.0584 Y-1.4671
X3.7751 Y-1.4651
X3.7779 Y-1.465
X3.7856 Y-1.4647
X3.787 Y-1.4646
X3.7947 Y-1.464
X3.7966 Y-1.4638
X3.8005 Y-1.4634
X3.8043 Y-1.4629
X3.8082 Y-1.4622
X3.8106 Y-1.4617
G3 X3.8244 Y-1.4586 I-0.1649 J0.7675
G1 X3.8274 Y-1.4578
X3.8295 Y-1.4572
X3.8332 Y-1.456
G3 X3.8496 Y-1.4499 I-0.1636 J0.4663
G1 X3.8529 Y-1.4486
X3.8559 Y-1.4472
X3.8593 Y-1.4456
G3 X3.8723 Y-1.4385 I-0.2699 J0.5122
G1 X3.8736 Y-1.4377
X3.8753 Y-1.4367
X3.8777 Y-1.4353
X3.8807 Y-1.4333
X3.8834 Y-1.4314
G3 X3.8947 Y-1.423 I-0.3755 J0.5138
G1 X3.8966 Y-1.4215
X3.8997 Y-1.419
X3.9027 Y-1.4163
X3.9058 Y-1.4134
X3.9071 Y-1.4121
X3.9147 Y-1.4044
X3.9159 Y-1.4032
X3.9175 Y-1.4015
X3.9196 Y-1.3992
X3.9221 Y-1.3962
X3.9242 Y-1.3935
X3.9322 Y-1.3828
X3.9342 Y-1.3799
X3.9367 Y-1.3761
X3.9389 Y-1.3725
G3 X3.9455 Y-1.3604 I-0.5611 J0.3154
G1 X3.9465 Y-1.3585
X3.9484 Y-1.3547
X3.9502 Y-1.3508
X3.9517 Y-1.347
X3.9525 Y-1.345
X3.9567 Y-1.3335
X3.9579 Y-1.3301
X3.959 Y-1.3262
X3.9601 Y-1.322
G3 X3.9629 Y-1.3091 I-0.6201 J0.1423
G1 X3.9636 Y-1.3055
X3.9642 Y-1.302
X3.9648 Y-1.2982
X3.9651 Y-1.2948
G3 X3.966 Y-1.2828 I-0.773 J0.0614
G1 X3.9661 Y-1.2803
X3.9663 Y-1.2726
Y-1.2709
X3.949 Y4.9241
X4.5617
X4.5552 Y-1.271
Y-1.2714
Y-1.2718
Y-1.2723
X4.5554 Y-1.28
X4.5555 Y-1.2829
X4.556 Y-1.2906
X4.5562 Y-1.2922
X4.5569 Y-1.2999
X4.5575 Y-1.304
X4.5578 Y-1.3057
X4.5582 Y-1.3079
X4.5595 Y-1.314
X4.5596 Y-1.3144
X4.5613 Y-1.3221
X4.5621 Y-1.3255
X4.5632 Y-1.3293
X4.5644 Y-1.3329
G3 X4.5708 Y-1.3502 I0.4074 J0.1423
G1 X4.5725 Y-1.354
X4.5743 Y-1.3578
X4.5757 Y-1.3605
X4.582 Y-1.3721
X4.584 Y-1.3754
X4.5864 Y-1.3792
X4.5886 Y-1.3824
G3 X4.6001 Y-1.3976 I0.3347 J0.2417
G1 X4.6028 Y-1.4008
X4.6043 Y-1.4025
X4.6062 Y-1.4044
G3 X4.6177 Y-1.4159 I0.3374 J0.3275
G1 X4.6206 Y-1.4186
X4.6237 Y-1.4212
X4.6263 Y-1.4232
X4.634 Y-1.429
X4.6352 Y-1.4299
X4.6408 Y-1.4339
X4.6443 Y-1.4362
X4.6465 Y-1.4375
X4.6487 Y-1.4388
X4.6604 Y-1.4452
X4.6634 Y-1.4468
X4.6671 Y-1.4485
X4.6712 Y-1.4503
G3 X4.6876 Y-1.4564 I0.1924 J0.489
G1 X4.6933 Y-1.4582
X4.701 Y-1.4601
X4.7028 Y-1.4605
X4.7105 Y-1.4622
X4.7121 Y-1.4625
X4.716 Y-1.4633
X4.7198 Y-1.4639
X4.7237 Y-1.4643
X4.7263 Y-1.4646
G3 X4.7428 Y-1.4656 I0.0385 J0.4712
G1 X4.7459 Y-1.4657
X5.4934 Y-1.4665
X5.4959
X5.5036 Y-1.4661
X5.5053 Y-1.466
X5.513 Y-1.4655
X5.5145 Y-1.4654
X5.5183 Y-1.465
X5.5221 Y-1.4645
X5.526 Y-1.4639
X5.5288 Y-1.4633
G3 X5.5454 Y-1.4596 I-0.0932 J0.4518
G1 X5.55 Y-1.4583
X5.5534 Y-1.4572
X5.5557 Y-1.4564
X5.5678 Y-1.4519
X5.5708 Y-1.4507
X5.5741 Y-1.4492
X5.5777 Y-1.4475
G3 X5.5942 Y-1.4385 I-0.1959 J0.3805
G1 X5.5966 Y-1.4371
X5.5991 Y-1.4355
X5.6016 Y-1.4337
G3 X5.613 Y-1.4253 I-0.242 J0.3393
G1 X5.6147 Y-1.424
X5.6186 Y-1.4209
X5.6222 Y-1.4177
X5.6261 Y-1.414
X5.6271 Y-1.413
X5.6348 Y-1.4053
X5.6364 Y-1.4036
X5.6371 Y-1.4028
X5.6391 Y-1.4006
X5.6423 Y-1.3967
X5.6441 Y-1.3945
G3 X5.653 Y-1.3824 I-0.5157 J0.3909
G1 X5.656 Y-1.3778
X5.659 Y-1.3729
X5.6601 Y-1.3709
X5.6658 Y-1.3604
X5.6677 Y-1.3566
X5.6697 Y-1.3521
X5.6712 Y-1.3486
X5.6753 Y-1.3377
X5.6759 Y-1.3361
X5.6772 Y-1.3322
X5.6783 Y-1.3284
X5.6794 Y-1.3245
X5.68 Y-1.322
G3 X5.6834 Y-1.3054 I-0.404 J0.0925
G1 X5.6839 Y-1.3024
X5.6843 Y-1.2994
G3 X5.6856 Y-1.283 I-0.4946 J0.0482
G1 X5.6858 Y-1.2796
X5.6859 Y-1.2718
Y-1.2715
Y-1.2712
X5.6878 Y0.5925
X5.6877 Y0.5952
X5.6876 Y0.5991
X5.6873 Y0.6029
X5.6868 Y0.6068
X5.6863 Y0.6106
X5.6856 Y0.6145
X5.6847 Y0.6183
X5.6838 Y0.6222
X5.6826 Y0.626
X5.6814 Y0.6299
X5.6799 Y0.6339
X5.6782 Y0.638
X5.6764 Y0.6419
X5.6746 Y0.6456
X5.6725 Y0.6493
X5.6703 Y0.6531
X5.6683 Y0.6562
X5.6666 Y0.6587
X5.6648 Y0.6612
X5.6629 Y0.6637
X5.6608 Y0.6663
X5.6585 Y0.669
X5.6559 Y0.6717
X5.6533 Y0.6744
X5.6506 Y0.677
X5.6479 Y0.6794
X5.6449 Y0.6819
X5.6417 Y0.6845
X5.6389 Y0.6865
X5.6367 Y0.688
X5.6345 Y0.6895
X5.6322 Y0.6909
X5.6292 Y0.6927
X5.6253 Y0.6948
X5.6215 Y0.6967
X5.6176 Y0.6984
X5.6145 Y0.6997
X5.6121 Y0.7007
X5.6096 Y0.7016
X5.6069 Y0.7024
X5.6043 Y0.7033
X5.6016 Y0.704
X5.5984 Y0.7048
X5.5945 Y0.7057
X5.5906 Y0.7064
X5.5868 Y0.7069
X5.5829 Y0.7074
X5.5791 Y0.7077
X5.5754 Y0.7079
X5.5716
X5.5713
X5.5709
X5.5706
X5.3465 Y0.7082
X5.3509 Y4.9241
X6.4351
X6.4277 Y0.7091
X6.3876 Y0.7092
X6.3859
X6.382 Y0.7091
X6.3782 Y0.7088
X6.3743 Y0.7085
X6.3705 Y0.708
X6.3666 Y0.7073
X6.3627 Y0.7066
X6.3589 Y0.7057
X6.355 Y0.7046
X6.3512 Y0.7035
X6.3473 Y0.7021
X6.3435 Y0.7006
X6.3396 Y0.699
X6.3357 Y0.6972
X6.3319 Y0.6952
X6.328 Y0.693
X6.3248 Y0.691
X6.3221 Y0.6893
X6.3195 Y0.6874
X6.3168 Y0.6855
X6.3143 Y0.6835
X6.3119 Y0.6815
X6.3092 Y0.6791
X6.3061 Y0.6763
X6.3033 Y0.6734
X6.3006 Y0.6705
X6.2983 Y0.6679
X6.2963 Y0.6654
X6.2943 Y0.6629
X6.2924 Y0.6602
X6.2906 Y0.6576
X6.2889 Y0.655
X6.2869 Y0.6517
X6.2848 Y0.6479
X6.2827 Y0.6439
X6.2808 Y0.6398
X6.2792 Y0.6358
X6.2778 Y0.6321
X6.2765 Y0.6284
X6.2754 Y0.6247
X6.2744 Y0.6209
X6.2735 Y0.6171
X6.2728 Y0.6132
X6.2722 Y0.6094
X6.2717 Y0.6055
X6.2713 Y0.6017
X6.2711 Y0.5979
X6.271 Y0.594
Y0.5927
X6.2677 Y-1.275
X6.2678 Y-1.2778
X6.268 Y-1.2815
X6.2681 Y-1.2829
X6.2689 Y-1.2945
X6.2692 Y-1.2977
X6.2697 Y-1.3016
X6.2704 Y-1.3059
G3 X6.2739 Y-1.3221 I0.5887 J0.117
G1 X6.2748 Y-1.3258
X6.2759 Y-1.3296
X6.2771 Y-1.3332
G3 X6.2815 Y-1.3452 I0.7853 J0.2813
G1 X6.282 Y-1.3466
X6.2836 Y-1.3504
X6.2853 Y-1.3543
X6.2871 Y-1.3581
X6.2883 Y-1.3604
G3 X6.2949 Y-1.3724 I0.7775 J0.4177
G1 X6.2968 Y-1.3757
X6.2993 Y-1.3795
X6.301 Y-1.382
X6.3018 Y-1.383
G3 X6.3102 Y-1.3943 I0.503 J0.3673
G1 X6.312 Y-1.3966
X6.3137 Y-1.3986
X6.3154 Y-1.4006
X6.3173 Y-1.4027
X6.319 Y-1.4044
X6.3266 Y-1.4121
X6.3281 Y-1.4136
X6.3323 Y-1.4175
X6.3364 Y-1.421
G3 X6.3449 Y-1.4275 I0.2082 J0.2623
G1 X6.3459 Y-1.4283
X6.3536 Y-1.4338
X6.3563 Y-1.4356
X6.359 Y-1.4372
G3 X6.3737 Y-1.4453 I0.2904 J0.5075
G1 X6.3759 Y-1.4465
X6.3774 Y-1.4472
X6.3812 Y-1.4489
X6.389 Y-1.452
X6.3903 Y-1.4525
X6.398 Y-1.4554
X6.4005 Y-1.4563
X6.4036 Y-1.4573
X6.4074 Y-1.4584
X6.412 Y-1.4595
X6.4135 Y-1.4599
G3 X6.4256 Y-1.4625 I0.1646 J0.732
G1 X6.429 Y-1.4631
X6.4328 Y-1.4637
X6.4368 Y-1.4641
G3 X6.4529 Y-1.4653 I0.0569 J0.6641
G1 X6.4566 Y-1.4654
X6.4798 Y-1.4655
X7.2042 Y-1.4668
X7.2075 Y-1.4667
G3 X7.2238 Y-1.4657 I-0.0238 J0.5126
G1 X7.2267 Y-1.4654
X7.2306 Y-1.4649
X7.2344 Y-1.4643
X7.2382 Y-1.4636
X7.2398 Y-1.4633
X7.2514 Y-1.4608
X7.2548 Y-1.4599
X7.2586 Y-1.4588
X7.2619 Y-1.4578
G3 X7.279 Y-1.4514 I-0.1451 J0.4159
G1 X7.2828 Y-1.4498
X7.2857 Y-1.4485
X7.2886 Y-1.447
G3 X7.3015 Y-1.44 I-0.4164 J0.7829
G1 X7.3047 Y-1.4381
X7.3086 Y-1.4357
X7.3119 Y-1.4334
G3 X7.3239 Y-1.4245 I-0.4365 J0.5997
G1 X7.3269 Y-1.4221
X7.3306 Y-1.4189
X7.3336 Y-1.4162
G3 X7.3455 Y-1.4042 I-0.4067 J0.4165
G1 X7.3477 Y-1.4018
X7.3498 Y-1.3993
G3 X7.3629 Y-1.382 I-0.2632 J0.213
G1 X7.3661 Y-1.377
X7.3705 Y-1.3693
X7.3712 Y-1.368
X7.3754 Y-1.3603
X7.3773 Y-1.3566
X7.379 Y-1.3527
X7.3804 Y-1.3493
X7.3848 Y-1.3378
X7.3855 Y-1.3358
X7.3868 Y-1.3319
X7.3879 Y-1.3281
X7.3889 Y-1.3242
X7.3895 Y-1.322
X7.3921 Y-1.31
X7.3926 Y-1.3071
X7.3932 Y-1.3037
X7.3937 Y-1.2992
G3 X7.395 Y-1.2829 I-0.5501 J0.0519
G1 X7.3952 Y-1.2794
X7.3953 Y-1.2717
Y-1.2715
Y-1.2712
X7.3985 Y0.5925
X7.3984 Y0.5955
X7.3982 Y0.5994
X7.3979 Y0.6032
X7.3975 Y0.6071
X7.3969 Y0.6109
X7.3962 Y0.6148
X7.3953 Y0.6186
X7.3943 Y0.6225
X7.3932 Y0.6263
X7.3919 Y0.63
X7.3905 Y0.6338
X7.3889 Y0.6378
X7.3871 Y0.6418
X7.3851 Y0.6456
X7.383 Y0.6495
X7.3807 Y0.6533
X7.3787 Y0.6564
X7.3771 Y0.6586
X7.3755 Y0.6609
X7.3737 Y0.6632
X7.3715 Y0.6659
X7.3688 Y0.6691
X7.3662 Y0.6719
X7.3637 Y0.6744
X7.3612 Y0.6768
X7.3587 Y0.679
X7.3556 Y0.6816
X7.3518 Y0.6846
X7.3479 Y0.6873
X7.344 Y0.6899
X7.3401 Y0.6922
X7.3363 Y0.6944
X7.3324 Y0.6963
X7.3286 Y0.698
X7.3249 Y0.6995
X7.3215 Y0.7008
X7.3177 Y0.7021
X7.3134 Y0.7034
X7.3093 Y0.7045
X7.3054 Y0.7053
X7.3016 Y0.706
X7.2977 Y0.7066
X7.2939 Y0.707
X7.29 Y0.7074
X7.2863 Y0.7075
X7.2825 Y0.7076
X7.2821
X7.2818
X7.2815
X7.2349 Y0.7077
X7.2417 Y4.9235
X8.3061 Y4.9241
X8.2951 Y0.7097
X8.0905 Y0.7096
X8.0902
X8.0825 Y0.7095
X8.0784 Y0.7093
X8.0745 Y0.709
X8.0707 Y0.7086
X8.0668 Y0.7081
X8.063 Y0.7074
X8.0591 Y0.7065
X8.0553 Y0.7056
X8.0514 Y0.7045
X8.0481 Y0.7034
X8.0452 Y0.7024
X8.0423 Y0.7013
X8.0395 Y0.7001
X8.0371 Y0.699
X8.0351 Y0.6981
X8.0321 Y0.6966
X8.0283 Y0.6945
X8.0244 Y0.6922
X8.0206 Y0.6897
X8.0172 Y0.6874
X8.0143 Y0.6852
X8.0116 Y0.6831
X8.0092 Y0.6811
X8.0068 Y0.6789
X8.0044 Y0.6767
X8.0016 Y0.6738
X7.9985 Y0.6704
X7.9957 Y0.6672
X7.9933 Y0.6641
X7.991 Y0.661
X7.9889 Y0.6579
X7.9873 Y0.6556
X7.9864 Y0.6541
X7.9848 Y0.6514
X7.9827 Y0.6475
X7.9807 Y0.6437
X7.979 Y0.6398
X7.9774 Y0.636
X7.9759 Y0.6321
X7.9747 Y0.6282
X7.9735 Y0.6244
X7.9728 Y0.6219
X7.9726 Y0.6208
X7.9721 Y0.6186
X7.9714 Y0.6153
X7.9708 Y0.612
X7.9703 Y0.6087
X7.9699 Y0.6051
X7.9696 Y0.6013
X7.9694 Y0.5976
X7.9693 Y0.5937
Y0.5934
Y0.593
Y0.5927
X7.9644 Y-1.2709
Y-1.2726
X7.9646 Y-1.2803
X7.9648 Y-1.2829
X7.9656 Y-1.2945
X7.966 Y-1.2981
X7.9665 Y-1.302
X7.9672 Y-1.306
G3 X7.9706 Y-1.3222 I0.6061 J0.1217
G1 X7.9715 Y-1.3255
X7.9722 Y-1.3281
X7.973 Y-1.3307
X7.9739 Y-1.3332
X7.9745 Y-1.3349
X7.9783 Y-1.3451
X7.979 Y-1.3469
X7.9805 Y-1.3508
X7.9823 Y-1.3546
X7.9842 Y-1.3585
X7.9852 Y-1.3604
G3 X7.9914 Y-1.3718 I0.742 J0.3976
G1 X7.9931 Y-1.3748
X7.9953 Y-1.3781
X7.9967 Y-1.3803
X7.9974 Y-1.3813
X7.9984 Y-1.3827
X8.0054 Y-1.3921
X8.0065 Y-1.3936
X8.0089 Y-1.3966
X8.0114 Y-1.3996
X8.0142 Y-1.4026
X8.016 Y-1.4044
X8.0236 Y-1.4121
X8.0247 Y-1.4132
X8.0273 Y-1.4157
X8.0313 Y-1.4192
X8.0378 Y-1.4244
X8.0395 Y-1.4256
X8.0484 Y-1.4322
X8.0518 Y-1.4345
X8.0536 Y-1.4357
X8.0563 Y-1.4373
G3 X8.0711 Y-1.4454 I0.2833 J0.4986
G1 X8.075 Y-1.4473
X8.0786 Y-1.4489
X8.0818 Y-1.4503
X8.0932 Y-1.4545
X8.0945 Y-1.455
X8.0973 Y-1.456
X8.1001 Y-1.4569
X8.1028 Y-1.4577
X8.1053 Y-1.4584
X8.1075 Y-1.4589
X8.1089 Y-1.4592
X8.1166 Y-1.4609
X8.118 Y-1.4612
X8.1257 Y-1.4627
X8.1287 Y-1.4632
X8.1317 Y-1.4636
G3 X8.148 Y-1.4649 I0.0516 J0.5385
G1 X8.1515 Y-1.465
X8.1592 Y-1.4651
X8.1595
X8.1598
X8.8996 Y-1.4671
X8.9018 Y-1.467
X8.9095 Y-1.4668
X8.9114 Y-1.4667
G3 X8.9241 Y-1.4657 I-0.02 J0.3478
G1 X8.9279 Y-1.4652
X8.9318 Y-1.4646
X8.9349 Y-1.4641
G3 X8.9513 Y-1.4604 I-0.1038 J0.5076
G1 X8.9567 Y-1.4589
X8.9622 Y-1.4571
X8.964 Y-1.4564
X8.9739 Y-1.4528
X8.9768 Y-1.4516
X8.9806 Y-1.4499
X8.9844 Y-1.4481
G3 X9.0011 Y-1.4391 I-0.1968 J0.3827
G1 X9.0042 Y-1.4372
X9.0073 Y-1.4351
X9.01 Y-1.4332
X9.0204 Y-1.4255
X9.0227 Y-1.4237
X9.0259 Y-1.4211
X9.029 Y-1.4183
X9.0322 Y-1.4153
X9.0332 Y-1.4143
X9.0409 Y-1.4066
X9.0427 Y-1.4048
X9.0445 Y-1.4028
X9.0476 Y-1.3992
X9.0536 Y-1.3915
X9.0547 Y-1.39
X9.0603 Y-1.3823
X9.0632 Y-1.3779
X9.0652 Y-1.3746
X9.0662 Y-1.3728
G3 X9.073 Y-1.3602 I-0.7835 J0.4333
G1 X9.0747 Y-1.3569
X9.0758 Y-1.3544
X9.0772 Y-1.3513
G3 X9.0823 Y-1.3377 I-0.6255 J0.2462
G1 X9.0831 Y-1.3354
X9.0844 Y-1.3315
X9.0855 Y-1.3277
X9.0865 Y-1.3238
X9.0869 Y-1.322
X9.0895 Y-1.3105
X9.09 Y-1.3073
X9.0907 Y-1.3035
X9.0912 Y-1.2991
G3 X9.0925 Y-1.2829 I-0.6168 J0.0562
G1 X9.0926 Y-1.2793
X9.0927 Y-1.2716
Y-1.2712
X9.1089 Y4.9241
X9.6664
X9.6773 Y-1.2712
Y-1.2715
Y-1.2718
X9.6774 Y-1.2795
X9.6775 Y-1.2829
G3 X9.6788 Y-1.2993 I0.544 J0.035
G1 X9.6796 Y-1.3052
X9.6811 Y-1.3129
X9.6814 Y-1.3143
X9.6831 Y-1.322
X9.6836 Y-1.3243
X9.6846 Y-1.3281
X9.6858 Y-1.332
X9.6871 Y-1.3358
X9.6878 Y-1.3377
X9.6906 Y-1.3454
X9.6911 Y-1.3466
X9.6936 Y-1.3527
X9.6951 Y-1.3561
X9.6958 Y-1.3577
X9.6971 Y-1.3603
G3 X9.7043 Y-1.3735 I0.7875 J0.4211
G1 X9.7058 Y-1.3759
X9.7074 Y-1.3786
X9.71 Y-1.3824
X9.716 Y-1.3907
X9.7173 Y-1.3923
X9.7229 Y-1.3994
X9.7262 Y-1.4033
X9.7283 Y-1.4055
X9.7296 Y-1.4068
X9.7373 Y-1.4145
X9.7387 Y-1.4159
X9.7419 Y-1.4189
X9.7451 Y-1.4216
X9.7483 Y-1.4242
X9.7499 Y-1.4255
X9.759 Y-1.4322
X9.7601 Y-1.433
X9.7614 Y-1.434
X9.7637 Y-1.4355
X9.7669 Y-1.4375
X9.7698 Y-1.4393
G3 X9.7814 Y-1.4456 I0.272 J0.482
G1 X9.7828 Y-1.4464
X9.7866 Y-1.4483
X9.7905 Y-1.4501
X9.7943 Y-1.4517
X9.7966 Y-1.4526
G3 X9.8081 Y-1.4569 I0.1785 J0.465
G1 X9.8106 Y-1.4578
X9.8132 Y-1.4586
X9.8158 Y-1.4593
X9.8194 Y-1.4603
G3 X9.8357 Y-1.4638 I0.1352 J0.5801
G1 X9.8393 Y-1.4645
X9.8432 Y-1.465
X9.8467 Y-1.4654
G3 X9.859 Y-1.4663 I0.0457 J0.5347
G1 X9.8613 Y-1.4665
X9.869 Y-1.4667
X9.8708
X10.5798 Y-1.4655
X10.583 Y-1.4654
G3 X10.5994 Y-1.4643 I-0.0237 J0.4899
G1 X10.6022 Y-1.4641
X10.606 Y-1.4636
X10.6099 Y-1.463
X10.6137 Y-1.4622
X10.6153 Y-1.4619
G3 X10.6305 Y-1.4584 I-0.0782 J0.3753
G1 X10.6339 Y-1.4575
X10.6353 Y-1.4571
X10.6382 Y-1.4561
G3 X10.6546 Y-1.4499 I-0.1763 J0.4939
G1 X10.6584 Y-1.4483
X10.6615 Y-1.4468
X10.6644 Y-1.4454
G3 X10.6771 Y-1.4384 I-0.4492 J0.8356
G1 X10.6791 Y-1.4373
X10.6807 Y-1.4363
X10.6842 Y-1.434
X10.6904 Y-1.4297
X10.6918 Y-1.4286
X10.6995 Y-1.4228
X10.702 Y-1.4208
X10.7049 Y-1.4183
X10.7077 Y-1.4158
G3 X10.7191 Y-1.4044 I-0.2954 J0.3085
G1 X10.7209 Y-1.4026
