(LOWER SHAPING)
(T13 D=0.2362 CR=0. TAPER=45DEG - ZMIN=0.2932 - CHAMFER MILL)
(T14 D=0.125 CR=0. - ZMIN=0.2442 - FLAT END MILL)
(T15 D=0.5 CR=0. - ZMIN=0.1942 - FLAT END MILL)
(T16 D=0.2362 CR=0. - ZMIN=0.1942 - FLAT END MILL)
(T17 D=0.4724 CR=0. - ZMIN=-0.585 - FLAT END MILL)
(T18 D=0.9843 CR=0. TAPER=45DEG - ZMIN=-0.635 - DOVETAIL MILL)
G90 G94 G91.1 G40 G49 G17
G20
G53 G0 Z0.

(POCKET2 5)
T15 M6
S10000 M3
G17 G90 G94
G55
G0 X23.0785 Y3.0065
G43 Z1.2442 H15
G0 Z0.5395
G1 Z0.4176 F50.
Y3.0062 Z0.4122 F100.
Y3.0053 Z0.4069
Y3.0039 Z0.4018
Y3.0019 Z0.3968
Y2.9994 Z0.392
Y2.9965 Z0.3876
Y2.993 Z0.3835
Y2.9892 Z0.3798
Y2.9849 Z0.3765
Y2.9804 Z0.3737
Y2.9755 Z0.3714
Y2.9705 Z0.3696
Y2.9653 Z0.3684
Y2.9599 Z0.3677
X23.0792 Y0.8848 Z0.2226
G2 X23.0696 Y0.8567 Z0.2205 I-0.0461 J0.
G3 X23.05 Y0.8286 Z0.2181 I0.3032 J-0.2329
G2 X22.9872 Y0.8284 Z0.2129 I-0.0314 J0.0199
G3 X22.7879 Y0.9959 Z0.1944 I-0.3683 J-0.2358
G1 X22.7863 Y0.9966 Z0.1943
X22.7847 Y0.9973 Z0.1942
G3 X22.7518 Y1.0093 I-0.1658 J-0.4047
G2 X22.6903 Y1.0935 I0.0269 J0.0841
G1 X22.6957 Y4.4903
G2 X22.7584 Y4.5529 I0.0627 J-0.0001
G1 X23.0153
G2 X23.0779 Y4.4903 I0. J-0.0626
G1 X23.0792 Y0.8848
G2 X23.0696 Y0.8567 I-0.0461 J0.
G3 X23.05 Y0.8286 I0.3032 J-0.2329
G2 X22.9872 Y0.8284 I-0.0314 J0.0199
G3 X22.7847 Y0.9973 I-0.3683 J-0.2358
X22.6461 Y0.9578 I-0.0442 J-0.1079
G2 X22.509 Y1.0023 I-0.0613 J0.0444
G1 X22.5149 Y4.7341
X23.259
X23.2604 Y0.7943
X23.2576 Y0.7921
X23.2523 Y0.7878
X23.2471 Y0.7831
X23.244 Y0.7803
X23.243 Y0.7794
X23.2398 Y0.7763
X23.2345 Y0.771
X23.2295 Y0.7657
X23.2247 Y0.7604
X23.2217 Y0.7568
X23.2202 Y0.755
X23.2175 Y0.7517
X23.2137 Y0.7469
X23.2101 Y0.742
X23.2067 Y0.7371
X23.2028 Y0.7313
X23.1985 Y0.7243
X23.195 Y0.7185
X23.1925 Y0.7139
X23.1898 Y0.7088
X23.1869 Y0.703
X23.1842 Y0.6972
X23.1817 Y0.6915
X23.1785 Y0.6837
X23.175 Y0.6739
X23.173 Y0.6681
X23.1725 Y0.6664
X23.1714 Y0.6627
X23.1698 Y0.6569
X23.1683 Y0.6511
X23.167 Y0.6454
X23.1658 Y0.6396
X23.1647 Y0.6338
X23.1638 Y0.6281
X23.163 Y0.6223
X23.1624 Y0.6166
X23.1618 Y0.6108
X23.1614 Y0.605
X23.1612 Y0.5993
X23.161 Y0.5936
Y0.582
Y0.5816
X23.1616 Y-1.2394
Y-1.2423
X23.1619 Y-1.2538
X23.1622 Y-1.2595
X23.1626 Y-1.2659
X22.8726
X22.873 Y-1.2592
X22.8733 Y-1.255
G3 X22.8736 Y-1.2415 I-0.5247 J0.0184
G1 Y-1.2395
X22.8764 Y0.5814
Y0.5818
Y0.5821
Y0.5936
X22.8762 Y0.5998
X22.8759 Y0.6056
X22.8755 Y0.6113
X22.8749 Y0.6171
X22.8743 Y0.6229
X22.8734 Y0.6286
X22.8725 Y0.6344
X22.8714 Y0.6402
X22.8707 Y0.6435
X22.8705 Y0.6444
X22.8692 Y0.6502
X22.8664 Y0.6608
X22.8639 Y0.669
X22.862 Y0.6747
X22.8599 Y0.6805
X22.8577 Y0.6863
X22.8543 Y0.6941
X22.8498 Y0.7039
X22.8469 Y0.7097
X22.846 Y0.7113
X22.844 Y0.7151
X22.8407 Y0.7209
X22.8372 Y0.7266
X22.8335 Y0.7324
X22.8298 Y0.7378
X22.8262 Y0.743
X22.8218 Y0.7488
X22.8167 Y0.7551
X22.8109 Y0.7618
X22.8045 Y0.7688
X22.7989 Y0.7746
X22.7942 Y0.7791
X22.7884 Y0.7843
X22.7816 Y0.7901
X22.778 Y0.793
X22.7743 Y0.7959
X22.7665 Y0.8016
X22.7607 Y0.8056
X22.757 Y0.8081
X22.7522 Y0.811
X22.7465 Y0.8145
X22.7407 Y0.8177
X22.7349 Y0.8208
X22.7293 Y0.8236
X22.7237 Y0.8262
X22.7179 Y0.8287
X22.712 Y0.8311
X22.7061 Y0.8334
X22.7003 Y0.8354
X22.6945 Y0.8373
X22.6888 Y0.8391
X22.683 Y0.8407
X22.6772 Y0.8421
X22.6715 Y0.8434
X22.6657 Y0.8446
X22.6599 Y0.8457
X22.6542 Y0.8466
X22.6484 Y0.8474
X22.6426 Y0.848
X22.6369 Y0.8485
X22.6311 Y0.8489
X22.6253 Y0.8492
X22.6195 Y0.8493
X22.6168
X22.5088 Y0.8495
X22.509 Y1.0023
X22.5092 Y1.0051 Z0.1943
X22.5095 Y1.0079 Z0.1946
X22.51 Y1.0106 Z0.195
X22.5106 Y1.0133 Z0.1955
X22.5113 Y1.0159 Z0.1962
X22.5122 Y1.0185 Z0.1971
X22.5132 Y1.0209 Z0.1981
X22.5143 Y1.0232 Z0.1992
X22.5155 Y1.0254 Z0.2005
X22.5168 Y1.0274 Z0.2019
X22.5181 Y1.0294 Z0.2035
X22.5194 Y1.0312 Z0.2052
X22.5208 Y1.0328 Z0.207
X22.5221 Y1.0343 Z0.2089
X22.5235 Y1.0357 Z0.2109
X22.5248 Y1.037 Z0.2131
X22.5261 Y1.0381 Z0.2153
X22.5273 Y1.0391 Z0.2176
X22.5284 Y1.0399 Z0.2201
X22.5294 Y1.0407 Z0.2226
X22.5304 Y1.0414 Z0.2251
X22.5312 Y1.0419 Z0.2277
X22.5319 Y1.0424 Z0.2304
X22.5325 Y1.0427 Z0.2331
X22.533 Y1.043 Z0.2359
X22.5333 Y1.0432 Z0.2386
X22.5335 Y1.0433 Z0.2414
X22.5336 Y1.0434 Z0.2442
G0 Z0.8442
X21.1668 Y2.6718
Z0.5395
G1 Z0.4176 F50.
Y2.6721 Z0.4122 F100.
Y2.6729 Z0.4069
Y2.6744 Z0.4018
Y2.6763 Z0.3968
Y2.6788 Z0.392
Y2.6818 Z0.3876
Y2.6852 Z0.3835
Y2.6891 Z0.3798
Y2.6933 Z0.3765
Y2.6979 Z0.3737
Y2.7027 Z0.3714
Y2.7078 Z0.3696
Y2.713 Z0.3684
X21.1669 Y2.7183 Z0.3677
X21.1693 Y4.7341 Z0.2267
X21.4668 Z0.2059
X21.4666 Y4.5686 Z0.1944
Y4.5651 Z0.1942
X21.4574 Y-1.2391
X21.4575 Y-1.2425
X21.4578 Y-1.254
X21.458 Y-1.26
X21.4585 Y-1.2659
X21.1611
X21.1615 Y-1.2593
X21.1617 Y-1.2537
X21.162 Y-1.2422
Y-1.2395
X21.1693 Y4.7341
X21.4668
X21.4666 Y4.5651
X21.4664 Y4.5623 Z0.1943
X21.4661 Y4.5596 Z0.1946
X21.4656 Y4.5568 Z0.195
X21.465 Y4.5541 Z0.1955
X21.4642 Y4.5515 Z0.1962
X21.4634 Y4.549 Z0.1971
X21.4623 Y4.5466 Z0.1981
X21.4612 Y4.5443 Z0.1992
X21.4601 Y4.5421 Z0.2005
X21.4588 Y4.54 Z0.2019
X21.4575 Y4.5381 Z0.2035
X21.4561 Y4.5363 Z0.2052
X21.4548 Y4.5347 Z0.207
X21.4534 Y4.5331 Z0.2089
X21.4521 Y4.5318 Z0.2109
X21.4508 Y4.5305 Z0.2131
X21.4495 Y4.5294 Z0.2153
X21.4483 Y4.5284 Z0.2176
X21.4472 Y4.5275 Z0.2201
X21.4461 Y4.5268 Z0.2226
X21.4452 Y4.5261 Z0.2251
X21.4444 Y4.5256 Z0.2277
X21.4436 Y4.5251 Z0.2304
X21.4431 Y4.5247 Z0.2331
X21.4426 Y4.5245 Z0.2359
X21.4422 Y4.5243 Z0.2386
X21.442 Y4.5241 Z0.2414
Z0.2442
G0 Z0.8442
X19.7204 Y3.6535
Z0.5395
G1 Z0.4176 F50.
Y3.6532 Z0.4122 F100.
Y3.6523 Z0.4069
Y3.6509 Z0.4018
Y3.649 Z0.3968
Y3.6465 Z0.392
Y3.6435 Z0.3876
Y3.6401 Z0.3835
Y3.6362 Z0.3798
Y3.632 Z0.3765
Y3.6274 Z0.3737
Y3.6226 Z0.3714
Y3.6175 Z0.3696
Y3.6123 Z0.3684
Y3.607 Z0.3677
X19.7174 Y1.1436 Z0.1954
G2 X19.7113 Y1.1299 Z0.1944 I-0.0184 J0.
G1 X19.7099 Y1.1288 Z0.1943
X19.7085 Y1.1279 Z0.1942
X19.7082 Y1.1277
X19.7045 Y1.1256
G2 X19.6768 Y1.1415 I-0.0093 J0.0159
G1 X19.6835 Y4.336
G2 X19.7213 Y4.3359 I0.0189 J0.
G1 X19.7174 Y1.1436
G2 X19.7085 Y1.1279 I-0.0184 J0.
G3 X19.6243 Y1.0287 I0.1049 J-0.1742
G2 X19.4966 Y1.0532 I-0.0615 J0.0244
G1 X19.5038 Y4.4903
G2 X19.5666 Y4.5529 I0.0628 J-0.0001
G1 X19.8389
G2 X19.9014 Y4.4903 I0. J-0.0625
G1 X19.8973 Y1.0878
G2 X19.8353 Y0.9912 I-0.1064 J0.0001
G3 X19.6491 Y0.8293 I0.1829 J-0.3984
G2 X19.5861 I-0.0315 J0.02
G3 X19.5593 Y0.8664 I-0.3279 J-0.2086
X19.5287 Y0.9004 I-0.3602 J-0.2939
G2 X19.4965 Y0.9787 I0.0784 J0.078
G1 X19.4966 Y1.0532
G3 X19.4063 Y1.1893 I-0.1472 J0.0003
G2 X19.316 Y1.3254 I0.0569 J0.1358
G1 X19.3232 Y4.7341
X20.0829
X20.0782 Y0.8505
X20.0213 Y0.8506
X20.0164 Y0.8505
X20.0049 Y0.8501
X19.9978 Y0.8496
X19.995 Y0.8494
X19.9892 Y0.8487
X19.9805 Y0.8475
X19.9732 Y0.8463
X19.9674 Y0.8452
X19.9617 Y0.8439
X19.9559 Y0.8425
X19.9501 Y0.841
X19.9444 Y0.8393
X19.9386 Y0.8375
X19.9328 Y0.8355
X19.9249 Y0.8325
X19.915 Y0.8284
X19.9093 Y0.8258
X19.9077 Y0.825
X19.904 Y0.8232
X19.8982 Y0.8202
X19.8924 Y0.8171
X19.8867 Y0.8137
X19.8804 Y0.8099
X19.8737 Y0.8054
X19.8679 Y0.8014
X19.8631 Y0.7978
X19.8584 Y0.7942
X19.8537 Y0.7904
X19.849 Y0.7864
X19.8444 Y0.7822
X19.841 Y0.779
X19.8388 Y0.7769
X19.8354 Y0.7735
X19.8308 Y0.7688
X19.8265 Y0.7641
X19.8224 Y0.7594
X19.8189 Y0.7553
X19.816 Y0.7517
X19.8117 Y0.746
X19.806 Y0.738
G3 X19.8002 Y0.7292 I0.1057 J-0.0757
G1 X19.7943 Y0.7195
X19.791 Y0.7137
X19.7901 Y0.7118
X19.7882 Y0.7081
X19.7853 Y0.7023
X19.7827 Y0.6966
X19.7802 Y0.6908
X19.7778 Y0.685
X19.7757 Y0.6793
X19.7737 Y0.6735
X19.7718 Y0.6677
X19.7703 Y0.6627
X19.769 Y0.6583
X19.7676 Y0.6525
X19.7659 Y0.6454
X19.7646 Y0.6389
X19.7636 Y0.6332
X19.7627 Y0.6274
X19.7619 Y0.6216
X19.7613 Y0.6159
X19.7608 Y0.6101
X19.7604 Y0.6043
X19.7602 Y0.5986
X19.7601 Y0.5933
X19.7599 Y0.4781
X19.7578 Y-1.2391
X19.7579 Y-1.2424
X19.7581 Y-1.254
X19.7584 Y-1.2599
X19.7588 Y-1.2659
X19.4714
X19.4718 Y-1.2591
X19.472 Y-1.2536
X19.4723 Y-1.2421
Y-1.2396
X19.4761 Y0.5813
Y0.5817
Y0.5821
Y0.5937
X19.4759 Y0.6001
X19.4756 Y0.6058
X19.4752 Y0.6116
X19.4746 Y0.6174
X19.4739 Y0.6231
X19.4731 Y0.6289
X19.4721 Y0.6346
X19.471 Y0.6404
X19.4692 Y0.6486
X19.4665 Y0.6592
X19.4649 Y0.6649
X19.4646 Y0.6659
X19.4635 Y0.6692
X19.4615 Y0.675
X19.4594 Y0.6807
X19.4572 Y0.6865
X19.4548 Y0.6923
X19.4522 Y0.698
X19.4495 Y0.7038
X19.4465 Y0.7096
X19.4443 Y0.7138
X19.4427 Y0.7167
X19.4393 Y0.7225
X19.4338 Y0.7312
G3 X19.4281 Y0.7396 I-0.1102 J-0.0689
G1 X19.422 Y0.7479
X19.4175 Y0.7536
X19.4148 Y0.7569
X19.4113 Y0.7609
X19.4071 Y0.7655
X19.4027 Y0.7701
X19.3981 Y0.7748
X19.3946 Y0.7782
X19.3922 Y0.7805
X19.3887 Y0.7836
X19.3841 Y0.7875
X19.3796 Y0.7913
X19.375 Y0.7949
X19.37 Y0.7987
X19.3644 Y0.8027
X19.3586 Y0.8066
X19.3527 Y0.8104
X19.3468 Y0.8139
X19.341 Y0.8171
X19.3352 Y0.8202
X19.3295 Y0.8231
X19.3248 Y0.8253
X19.3213 Y0.8269
X19.3155 Y0.8293
X19.315 Y0.8295
X19.316 Y1.3254
X19.3162 Y1.3282 Z0.1943
X19.3165 Y1.331 Z0.1946
X19.317 Y1.3337 Z0.195
X19.3176 Y1.3364 Z0.1955
X19.3184 Y1.339 Z0.1962
X19.3192 Y1.3415 Z0.1971
X19.3202 Y1.3439 Z0.1981
X19.3214 Y1.3462 Z0.1992
X19.3225 Y1.3484 Z0.2005
X19.3238 Y1.3505 Z0.2019
X19.3251 Y1.3524 Z0.2035
X19.3265 Y1.3542 Z0.2052
X19.3278 Y1.3559 Z0.207
X19.3292 Y1.3574 Z0.2089
X19.3305 Y1.3588 Z0.2109
X19.3318 Y1.36 Z0.2131
X19.3331 Y1.3611 Z0.2153
X19.3343 Y1.3621 Z0.2176
X19.3354 Y1.363 Z0.2201
X19.3365 Y1.3637 Z0.2226
X19.3374 Y1.3644 Z0.2251
X19.3382 Y1.365 Z0.2277
X19.339 Y1.3654 Z0.2304
X19.3396 Y1.3658 Z0.2331
X19.34 Y1.3661 Z0.2359
X19.3404 Y1.3663 Z0.2386
X19.3406 Y1.3664 Z0.2414
Z0.2442
G0 Z0.8442
X17.7914 Y1.9695
Z0.5395
G1 Z0.4176 F50.
Y1.9698 Z0.4122 F100.
Y1.9707 Z0.4069
Y1.9721 Z0.4018
Y1.9741 Z0.3968
Y1.9765 Z0.392
Y1.9795 Z0.3876
Y1.983 Z0.3835
Y1.9868 Z0.3798
Y1.9911 Z0.3765
Y1.9956 Z0.3737
X17.7913 Y2.0005 Z0.3714
Y2.0055 Z0.3696
Y2.0107 Z0.3684
Y2.016 Z0.3677
X17.7844 Y4.3259 Z0.2062
G2 X17.8315 Y4.3731 Z0.201 I0.0471 J0.0001
G1 X17.8344 Z0.2008
G2 X17.8815 Y4.3259 Z0.1956 I0. J-0.0471
G1 X17.8814 Y4.308 Z0.1944
Y4.3045 Z0.1942
X17.8748 Y1.1591
G2 X17.8207 Y1.1279 I-0.0361 J0.0001
G1 X17.8116 Y1.133
G2 X17.7938 Y1.1635 I0.0172 J0.0305
G1 X17.7844 Y4.3259
G2 X17.8315 Y4.3731 I0.0471 J0.0001
G1 X17.8344
G2 X17.8815 Y4.3259 I0. J-0.0471
G1 X17.8814 Y4.3045
G3 X17.9711 Y4.1693 I0.1463 J-0.0003
G2 X18.0608 Y4.0341 I-0.0565 J-0.1349
G1 X18.0545 Y0.9986
G2 X18.0176 Y0.9153 I-0.1129 J0.0002
G3 X17.944 Y0.8272 I0.284 J-0.312
G2 X17.8806 I-0.0317 J0.0198
G3 X17.6773 Y0.9986 I-0.3677 J-0.23
G2 X17.614 Y1.0929 I0.0391 J0.0946
G1 X17.604 Y4.4893
G2 X17.6676 Y4.5531 I0.0636 J0.0002
G1 X17.9981
G2 X18.0618 Y4.4893 I0. J-0.0637
G1 X18.0608 Y4.0341
G3 X18.1511 Y3.8982 I0.1471 J-0.0003
G2 X18.2413 Y3.7622 I-0.0568 J-0.1356
G1 X18.2351 Y0.8379
X18.2336 Y0.8375
X18.2279 Y0.8354
X18.2221 Y0.8333
X18.2156 Y0.8306
X18.2083 Y0.8274
X18.2026 Y0.8247
X18.1983 Y0.8226
X18.1933 Y0.82
X18.1875 Y0.8168
X18.1817 Y0.8134
X18.176 Y0.8098
X18.1712 Y0.8067
X18.1674 Y0.8041
X18.1616 Y0.7998
X18.1538 Y0.7939
X18.1503 Y0.791
X18.1469 Y0.7881
X18.1406 Y0.7825
X18.1348 Y0.7771
X18.1296 Y0.7718
X18.1242 Y0.766
X18.1187 Y0.7598
X18.1157 Y0.7563
X18.1129 Y0.7527
X18.1068 Y0.7448
X18.1026 Y0.739
X18.1002 Y0.7354
X18.0972 Y0.7307
X18.0936 Y0.725
X18.0902 Y0.7192
X18.087 Y0.7134
X18.0843 Y0.7082
X18.082 Y0.7034
X18.0793 Y0.6977
X18.0764 Y0.6909
X18.0738 Y0.6846
X18.0717 Y0.6789
X18.0697 Y0.6731
X18.0679 Y0.6673
X18.0662 Y0.6616
X18.0646 Y0.6558
X18.0632 Y0.65
X18.0619 Y0.6443
X18.0608 Y0.6385
X18.0598 Y0.6328
X18.0589 Y0.6268
X18.0581 Y0.6207
X18.0573 Y0.6121
X18.0566 Y0.6009
X18.0564 Y0.5934
X18.0525 Y-1.239
X18.0526 Y-1.2425
X18.0529 Y-1.254
X18.0532 Y-1.2602
X18.0536 Y-1.2659
X17.7724
X17.7728 Y-1.2604
X17.7731 Y-1.2542
X17.7734 Y-1.2426
Y-1.2389
X17.768 Y0.5935
X17.7679 Y0.5978
X17.7677 Y0.6036
X17.7674 Y0.6093
X17.7669 Y0.6151
X17.7663 Y0.6209
X17.7656 Y0.6266
X17.7647 Y0.6324
X17.7637 Y0.6381
X17.7622 Y0.6458
X17.76 Y0.6553
X17.7585 Y0.6611
X17.7579 Y0.6631
X17.7567 Y0.667
X17.7549 Y0.6727
X17.7529 Y0.6785
X17.7508 Y0.6842
X17.7485 Y0.69
X17.7461 Y0.6958
X17.7435 Y0.7015
X17.7407 Y0.7073
X17.7384 Y0.7119
X17.7366 Y0.7152
X17.7333 Y0.721
X17.7284 Y0.7292
X17.7243 Y0.7356
X17.7212 Y0.7402
X17.7178 Y0.7448
X17.7144 Y0.7495
X17.7117 Y0.7529
X17.7099 Y0.7551
X17.7067 Y0.759
X17.7021 Y0.7643
X17.6973 Y0.7696
X17.6921 Y0.7749
X17.6891 Y0.7779
X17.6881 Y0.7789
X17.685 Y0.7817
X17.6797 Y0.7865
X17.6744 Y0.7911
X17.6691 Y0.7954
X17.6648 Y0.7987
X17.6616 Y0.8012
X17.6558 Y0.8052
X17.6476 Y0.8107
X17.6406 Y0.815
X17.6351 Y0.8182
X17.6293 Y0.8213
X17.6233 Y0.8243
X17.6175 Y0.8272
X17.6117 Y0.8298
X17.6059 Y0.8322
X17.6002 Y0.8345
X17.5944 Y0.8366
X17.5886 Y0.8385
X17.5829 Y0.8403
X17.5771 Y0.842
X17.5713 Y0.8435
X17.5655 Y0.8449
X17.5598 Y0.8461
X17.554 Y0.8472
X17.55 Y0.8479
X17.5478 Y0.8483
X17.542 Y0.8491
X17.5327 Y0.8501
G3 X17.5223 Y0.8509 I-0.0147 J-0.1292
G1 X17.5108 Y0.8513
X17.5061 Y0.8514
X17.4338 Y0.8511
X17.4222 Y4.7341
X18.2433
X18.2413 Y3.7622
X18.2411 Y3.7594 Z0.1943
X18.2408 Y3.7567 Z0.1946
X18.2403 Y3.7539 Z0.195
X18.2397 Y3.7512 Z0.1955
X18.2389 Y3.7486 Z0.1962
X18.2381 Y3.7461 Z0.1971
X18.2371 Y3.7437 Z0.1981
X18.2359 Y3.7414 Z0.1992
X18.2348 Y3.7392 Z0.2005
X18.2335 Y3.7371 Z0.2019
X18.2322 Y3.7352 Z0.2035
X18.2308 Y3.7334 Z0.2052
X18.2295 Y3.7318 Z0.207
X18.2281 Y3.7303 Z0.2089
X18.2268 Y3.7289 Z0.2109
X18.2255 Y3.7276 Z0.2131
X18.2242 Y3.7265 Z0.2153
X18.223 Y3.7255 Z0.2176
X18.2219 Y3.7246 Z0.2201
X18.2208 Y3.7239 Z0.2226
X18.2199 Y3.7232 Z0.2251
X18.2191 Y3.7227 Z0.2277
X18.2183 Y3.7222 Z0.2304
X18.2177 Y3.7219 Z0.2331
X18.2173 Y3.7216 Z0.2359
X18.2169 Y3.7214 Z0.2386
X18.2167 Y3.7213 Z0.2414
Y3.7212 Z0.2442
G0 Z0.8442
X16.0357 Y2.7083
Z0.5395
G1 Z0.4176 F50.
Y2.7086 Z0.4122 F100.
Y2.7094 Z0.4069
Y2.7109 Z0.4018
Y2.7128 Z0.3968
Y2.7153 Z0.392
Y2.7183 Z0.3876
X16.0356 Y2.7217 Z0.3835
Y2.7256 Z0.3798
Y2.7298 Z0.3765
Y2.7344 Z0.3737
X16.0355 Y2.7392 Z0.3714
Y2.7443 Z0.3696
Y2.7495 Z0.3684
X16.0354 Y2.7548 Z0.3677
X16.023 Y4.7341 Z0.2293
X16.3455 Z0.2067
X16.346 Y4.5571 Z0.1944
Y4.5536 Z0.1942
X16.3632 Y-1.2397
Y-1.2421
X16.3634 Y-1.2536
X16.3637 Y-1.2589
X16.3641 Y-1.2659
X16.0594
X16.0598 Y-1.2611
X16.0601 Y-1.2546
X16.0604 Y-1.243
X16.0605 Y-1.2386
X16.0603 Y-1.204
Y-1.2039
X16.023 Y4.7341
X16.3455
X16.346 Y4.5536
X16.3458 Y4.5508 Z0.1943
X16.3455 Y4.548 Z0.1946
X16.3451 Y4.5453 Z0.195
X16.3445 Y4.5426 Z0.1955
X16.3437 Y4.54 Z0.1962
X16.3429 Y4.5375 Z0.1971
X16.3419 Y4.5351 Z0.1981
X16.3408 Y4.5327 Z0.1992
X16.3396 Y4.5305 Z0.2005
X16.3383 Y4.5285 Z0.2019
X16.337 Y4.5265 Z0.2035
X16.3357 Y4.5247 Z0.2052
X16.3343 Y4.5231 Z0.207
X16.333 Y4.5216 Z0.2089
X16.3317 Y4.5202 Z0.2109
X16.3304 Y4.5189 Z0.2131
X16.3291 Y4.5178 Z0.2153
X16.3279 Y4.5168 Z0.2176
X16.3268 Y4.5159 Z0.2201
X16.3257 Y4.5152 Z0.2226
X16.3248 Y4.5145 Z0.2251
X16.324 Y4.5139 Z0.2277
X16.3233 Y4.5135 Z0.2304
X16.3227 Y4.5131 Z0.2331
X16.3222 Y4.5128 Z0.2359
X16.3219 Y4.5126 Z0.2386
X16.3217 Y4.5125 Z0.2414
X16.3216 Z0.2442
G0 Z0.8442
X14.6399 Y3.6758
Z0.5395
G1 Z0.4176 F50.
Y3.6755 Z0.4122 F100.
Y3.6747 Z0.4069
Y3.6733 Z0.4018
Y3.6713 Z0.3968
X14.64 Y3.6688 Z0.392
Y3.6658 Z0.3876
Y3.6624 Z0.3835
Y3.6585 Z0.3798
X14.6401 Y3.6543 Z0.3765
Y3.6497 Z0.3737
Y3.6449 Z0.3714
Y3.6398 Z0.3696
X14.6402 Y3.6346 Z0.3684
Y3.6293 Z0.3677
X14.6557 Y1.1667 Z0.1955
G2 X14.651 Y1.1516 Z0.1944 I-0.026 J-0.0002
G1 X14.6499 Y1.1502 Z0.1943
X14.6488 Y1.1488 Z0.1942
X14.6465 Y1.1467
X14.644 Y1.1448
X14.6412 Y1.1432
X14.64 Y1.1426
G2 X14.6023 Y1.1658 I-0.0116 J0.0233
G1 X14.5946 Y4.3334
G2 X14.6358 Y4.3336 I0.0206 J0.0001
G1 X14.6557 Y1.1667
G2 X14.6488 Y1.1488 I-0.026 J-0.0002
G3 X14.5982 Y0.9966 I0.1427 J-0.1319
G2 X14.5578 Y0.8413 I-0.2267 J-0.0238
G3 X14.541 Y0.8158 I0.3613 J-0.2549
G2 X14.4808 Y0.816 I-0.0301 J0.0182
G3 X14.4417 Y0.8716 I-0.3954 J-0.2359
G2 X14.4229 Y0.924 I0.0639 J0.0526
G1 X14.4142 Y4.4904
G2 X14.4766 Y4.5529 I0.0624 J0.0002
G1 X14.7518
G2 X14.8148 Y4.4902 I0. J-0.0631
G1 X14.8362 Y1.0905
G2 X14.7753 Y1.0046 I-0.0902 J-0.0006
G3 X14.5578 Y0.8413 I0.1437 J-0.4181
X14.5798 Y0.6502 I0.118 J-0.0832
G2 X14.6591 Y0.475 I-0.1572 J-0.1767
G1 X14.6699 Y-1.2401
G3 X14.6701 Y-1.2534 I0.8785 J0.0099
G1 X14.6703 Y-1.2584
X14.6708 Y-1.2659
X14.3646
X14.365 Y-1.2602
X14.3653 Y-1.2541
X14.3656 Y-1.2426
X14.3657 Y-1.239
X14.3612 Y0.5935
X14.3609 Y0.6009
X14.3602 Y0.6125
X14.3594 Y0.6211
X14.3587 Y0.6269
X14.3578 Y0.6326
X14.3568 Y0.6384
X14.3557 Y0.6441
X14.3544 Y0.6499
X14.353 Y0.6557
X14.3515 Y0.6614
X14.3498 Y0.6672
X14.3479 Y0.673
X14.346 Y0.6787
X14.3438 Y0.6845
X14.3413 Y0.6908
X14.3383 Y0.6977
X14.3356 Y0.7035
X14.3334 Y0.7081
X14.3307 Y0.7133
X14.3275 Y0.7191
X14.3241 Y0.7248
X14.3206 Y0.7306
X14.3175 Y0.7353
X14.315 Y0.7391
X14.3108 Y0.7449
X14.3048 Y0.7527
X14.302 Y0.7562
X14.2991 Y0.7597
X14.2935 Y0.7661
X14.2881 Y0.7718
X14.2829 Y0.777
X14.2772 Y0.7825
X14.2708 Y0.7881
X14.2674 Y0.7911
X14.2638 Y0.7939
X14.2563 Y0.7998
X14.2504 Y0.804
X14.2465 Y0.8067
X14.242 Y0.8097
X14.2324 Y4.7341
X14.9945
X15.0189 Y0.8479
X14.9218 Y0.8473
G3 X14.9084 Y0.847 I0.0093 J-0.8243
G1 X14.9009 Y0.8467
X14.8951 Y0.8462
X14.8893 Y0.8456
X14.8836 Y0.8449
X14.8778 Y0.8441
X14.872 Y0.8431
X14.8663 Y0.842
X14.8605 Y0.8407
X14.8547 Y0.8393
X14.849 Y0.8378
X14.8432 Y0.8361
X14.8374 Y0.8343
X14.8319 Y0.8324
X14.8266 Y0.8305
X14.8208 Y0.8282
X14.8146 Y0.8256
X14.8086 Y0.8229
X14.8028 Y0.8201
X14.797 Y0.8172
X14.7913 Y0.814
X14.7859 Y0.811
X14.781 Y0.808
X14.7752 Y0.8042
X14.7686 Y0.7997
X14.7647 Y0.797
X14.7609 Y0.794
X14.752 Y0.787
X14.7463 Y0.7822
X14.7436 Y0.7797
X14.7399 Y0.7763
X14.7352 Y0.7717
X14.7307 Y0.7672
X14.7265 Y0.7626
X14.7231 Y0.7589
X14.7205 Y0.7559
X14.7158 Y0.7502
X14.7093 Y0.7416
G3 X14.7035 Y0.7336 I0.103 J-0.0793
G1 X14.6985 Y0.726
X14.695 Y0.7202
X14.6927 Y0.7162
X14.69 Y0.7114
X14.6869 Y0.7056
X14.6841 Y0.6999
X14.6814 Y0.6941
X14.6782 Y0.6868
X14.6747 Y0.6778
X14.6726 Y0.672
X14.6717 Y0.6694
X14.6704 Y0.6653
X14.6687 Y0.6595
X14.6671 Y0.6538
X14.6656 Y0.648
X14.6643 Y0.6422
X14.6631 Y0.6365
X14.6621 Y0.6307
X14.6612 Y0.6249
X14.6604 Y0.6192
X14.6597 Y0.6134
X14.6592 Y0.6076
X14.6588 Y0.6019
X14.6585 Y0.5943
X14.6584 Y0.5827
Y0.5808
X14.6591 Y0.475
X14.659 Y0.4722 Z0.1943
X14.6587 Y0.4694 Z0.1946
X14.6582 Y0.4667 Z0.195
X14.6576 Y0.464 Z0.1955
X14.6569 Y0.4614 Z0.1962
X14.656 Y0.4588 Z0.1971
X14.655 Y0.4564 Z0.1981
X14.654 Y0.4541 Z0.1992
X14.6528 Y0.4519 Z0.2005
X14.6515 Y0.4498 Z0.2019
X14.6502 Y0.4479 Z0.2035
X14.6489 Y0.4461 Z0.2052
X14.6476 Y0.4444 Z0.207
X14.6462 Y0.4429 Z0.2089
X14.6449 Y0.4415 Z0.2109
X14.6436 Y0.4402 Z0.2131
X14.6423 Y0.4391 Z0.2153
X14.6411 Y0.4381 Z0.2176
X14.64 Y0.4372 Z0.2201
X14.639 Y0.4365 Z0.2226
X14.6381 Y0.4358 Z0.2251
X14.6372 Y0.4352 Z0.2277
X14.6365 Y0.4348 Z0.2304
X14.6359 Y0.4344 Z0.2331
X14.6354 Y0.4341 Z0.2359
X14.6351 Y0.4339 Z0.2386
X14.6349 Y0.4338 Z0.2414
X14.6348 Z0.2442
G0 Z0.8442
X13.0015 Y3.0617
Z0.5395
G1 Z0.4176 F50.
Y3.0614 Z0.4122 F100.
Y3.0606 Z0.4069
Y3.0592 Z0.4018
Y3.0572 Z0.3968
Y3.0547 Z0.392
Y3.0517 Z0.3876
Y3.0483 Z0.3835
X13.0016 Y3.0444 Z0.3798
Y3.0402 Z0.3765
Y3.0356 Z0.3737
Y3.0308 Z0.3714
Y3.0258 Z0.3696
Y3.0205 Z0.3684
Y3.0152 Z0.3677
X13.0064 Y1.0606 Z0.231
G2 X12.946 Y0.9346 Z0.2209 I-0.161 J-0.0004
G3 X12.8932 Y0.8851 Z0.2158 I0.2902 J-0.3626
X12.8492 Y0.8276 Z0.2108 I0.3103 J-0.2833
G2 X12.7866 Y0.8277 Z0.2056 I-0.0313 J0.0199
G3 X12.6792 Y0.943 Z0.1945 I-0.3647 J-0.2318
G1 X12.6779 Y0.944 Z0.1944
X12.6765 Y0.9451 Z0.1943
X12.6751 Y0.9462 Z0.1942
G2 X12.6175 Y1.0655 I0.0943 J0.1191
G1 X12.6211 Y4.4903
G2 X12.6837 Y4.5529 I0.0627 J-0.0001
G1 X12.9352
G2 X12.998 Y4.4903 I0. J-0.0628
G1 X13.0064 Y1.0606
G2 X12.946 Y0.9346 I-0.161 J-0.0004
G3 X12.8932 Y0.8851 I0.2902 J-0.3626
X12.8492 Y0.8276 I0.3103 J-0.2833
G2 X12.7866 Y0.8277 I-0.0313 J0.0199
G3 X12.6792 Y0.943 I-0.3647 J-0.2318
G1 X12.6751 Y0.9462
G3 X12.5512 Y0.9383 I-0.0576 J-0.0728
G2 X12.4362 Y0.9853 I-0.0479 J0.0469
G1 X12.4401 Y4.7341
X13.1786
X13.1881 Y0.847
X13.1846 Y0.8465
X13.1789 Y0.8456
X13.1731 Y0.8446
X13.1673 Y0.8435
X13.1616 Y0.8422
X13.1558 Y0.8408
X13.15 Y0.8393
X13.1443 Y0.8376
X13.1385 Y0.8358
X13.1327 Y0.8338
X13.1267 Y0.8316
X13.1206 Y0.8291
X13.1147 Y0.8266
X13.1091 Y0.824
X13.1036 Y0.8213
X13.098 Y0.8184
X13.0927 Y0.8155
X13.0877 Y0.8126
X13.0827 Y0.8096
X13.0777 Y0.8064
X13.0745 Y0.8042
X13.0729 Y0.8032
X13.0693 Y0.8006
X13.0635 Y0.7964
X13.0577 Y0.7919
X13.052 Y0.7871
X13.0483 Y0.784
X13.0466 Y0.7825
X13.0431 Y0.7793
X13.0379 Y0.7743
X13.033 Y0.7693
X13.0283 Y0.7643
X13.0253 Y0.761
X13.0239 Y0.7595
X13.0209 Y0.7558
X13.0162 Y0.7501
X13.0118 Y0.7443
X13.0076 Y0.7385
X13.0049 Y0.7347
X13.0036 Y0.7327
X13. Y0.727
X12.9943 Y0.7174
X12.99 Y0.7097
X12.9871 Y0.7039
X12.9842 Y0.6978
X12.9813 Y0.6914
X12.9788 Y0.6854
X12.9767 Y0.68
X12.9748 Y0.6746
X12.9729 Y0.6692
X12.9712 Y0.6636
X12.9695 Y0.6578
X12.968 Y0.6521
X12.9667 Y0.6463
X12.9654 Y0.6405
X12.9643 Y0.6348
X12.9634 Y0.629
X12.9625 Y0.6233
X12.9618 Y0.6175
X12.9613 Y0.6117
X12.9608 Y0.606
X12.9605 Y0.6002
X12.9603 Y0.5937
Y0.5822
Y0.5817
Y0.5813
X12.9647 Y-1.2396
Y-1.2421
X12.965 Y-1.2536
X12.9652 Y-1.259
X12.9656 Y-1.2659
X12.6723
X12.6728 Y-1.2594
X12.673 Y-1.2537
X12.6733 Y-1.2422
Y-1.2394
X12.6752 Y0.5815
Y0.5821
Y0.5936
X12.675 Y0.5996
X12.6747 Y0.6053
X12.6743 Y0.6111
X12.6738 Y0.6169
X12.6731 Y0.6226
X12.6723 Y0.6284
X12.6713 Y0.6342
X12.6703 Y0.6399
X12.6691 Y0.6457
X12.6677 Y0.6515
X12.6662 Y0.6572
X12.6646 Y0.663
X12.6628 Y0.6687
X12.6609 Y0.6745
X12.6589 Y0.6803
X12.6566 Y0.686
X12.6552 Y0.6895
X12.6547 Y0.6907
X12.6533 Y0.6939
X12.651 Y0.6991
X12.6485 Y0.7042
X12.6459 Y0.7094
X12.6431 Y0.7147
X12.64 Y0.7202
X12.6365 Y0.726
X12.6327 Y0.732
X12.6287 Y0.7379
X12.6246 Y0.7437
X12.6202 Y0.7494
X12.6156 Y0.7552
X12.612 Y0.7595
X12.6096 Y0.7623
X12.6063 Y0.7659
X12.6022 Y0.7702
X12.5979 Y0.7746
X12.5933 Y0.7789
X12.5896 Y0.7824
X12.5867 Y0.785
X12.5824 Y0.7886
X12.5766 Y0.7933
X12.5708 Y0.7978
X12.565 Y0.8021
X12.5592 Y0.806
X12.5535 Y0.8097
X12.5477 Y0.8132
X12.542 Y0.8165
X12.5346 Y0.8205
X12.5254 Y0.825
X12.5196 Y0.8277
X12.5172 Y0.8287
X12.5132 Y0.8304
X12.5074 Y0.8327
X12.5016 Y0.8348
X12.4959 Y0.8367
X12.4901 Y0.8385
X12.4843 Y0.8402
X12.4786 Y0.8417
X12.4728 Y0.8431
X12.467 Y0.8443
X12.4613 Y0.8454
X12.4555 Y0.8464
X12.4497 Y0.8473
X12.444 Y0.848
X12.4382 Y0.8485
X12.4361 Y0.8487
X12.4362 Y0.9853
X12.4364 Y0.9881 Z0.1943
X12.4367 Y0.9909 Z0.1946
X12.4371 Y0.9936 Z0.195
X12.4378 Y0.9963 Z0.1955
X12.4385 Y0.9989 Z0.1962
X12.4394 Y1.0014 Z0.1971
X12.4404 Y1.0038 Z0.1981
X12.4415 Y1.0062 Z0.1992
X12.4427 Y1.0083 Z0.2005
X12.4439 Y1.0104 Z0.2019
X12.4453 Y1.0123 Z0.2035
X12.4466 Y1.0141 Z0.2052
X12.448 Y1.0158 Z0.207
X12.4493 Y1.0173 Z0.2089
X12.4507 Y1.0187 Z0.2109
X12.452 Y1.0199 Z0.2131
X12.4532 Y1.0211 Z0.2153
X12.4544 Y1.022 Z0.2176
X12.4556 Y1.0229 Z0.2201
X12.4566 Y1.0237 Z0.2226
X12.4575 Y1.0243 Z0.2251
X12.4584 Y1.0249 Z0.2277
X12.4591 Y1.0254 Z0.2304
X12.4597 Y1.0257 Z0.2331
X12.4602 Y1.026 Z0.2359
X12.4605 Y1.0262 Z0.2386
X12.4607 Y1.0263 Z0.2414
X12.4608 Y1.0264 Z0.2442
G0 Z0.8442
X10.7623 Y2.5782
Z0.5395
G1 Z0.4176 F50.
Y2.5785 Z0.4122 F100.
Y2.5793 Z0.4069
Y2.5807 Z0.4018
Y2.5827 Z0.3968
Y2.5852 Z0.392
Y2.5882 Z0.3876
Y2.5916 Z0.3835
Y2.5955 Z0.3798
Y2.5997 Z0.3765
Y2.6043 Z0.3737
Y2.6091 Z0.3714
Y2.6142 Z0.3696
Y2.6194 Z0.3684
Y2.6247 Z0.3677
X10.7607 Y4.4892 Z0.2373
G2 X10.8245 Y4.5531 Z0.2303 I0.0638 J0.0001
G1 X11.0892 Z0.2118
G2 X11.153 Y4.4892 Z0.2048 I0. J-0.0638
G1 X11.1529 Y4.3403 Z0.1944
Y4.3368 Z0.1942
X11.1492 Y0.8435
G2 X11.1423 Y0.819 I-0.0471 J0.
G3 X11.136 Y0.8083 I0.2951 J-0.1806
X11.1301 Y0.7975 I0.4858 J-0.2739
G2 X11.0719 I-0.0291 J0.0156
G3 X10.8493 Y0.9995 I-0.3945 J-0.211
X10.8378 Y1.0036 I-0.0465 J-0.1119
G2 X10.8261 Y1.0074 I0.0839 J0.278
X10.7636 Y1.0953 I0.0306 J0.088
G1 X10.7607 Y4.4892
G2 X10.8245 Y4.5531 I0.0638 J0.0001
G1 X11.0892
G2 X11.153 Y4.4892 I0. J-0.0638
G1 X11.1529 Y4.3368
G3 X11.2432 Y4.201 I0.1471 J-0.0002
G2 X11.3336 Y4.0651 I-0.0567 J-0.1357
G1 X11.3301 Y0.7686
X11.3293 Y0.7678
X11.3254 Y0.7635
X11.3217 Y0.7593
X11.318 Y0.7548
X11.3142 Y0.7501
X11.3099 Y0.7443
X11.3051 Y0.7375
X11.3009 Y0.7313
X11.2974 Y0.7256
X11.294 Y0.7198
X11.2907 Y0.714
X11.2876 Y0.7081
X11.2848 Y0.7024
X11.2821 Y0.6966
X11.2796 Y0.6909
X11.2773 Y0.6851
X11.2751 Y0.6793
X11.2731 Y0.6736
X11.2713 Y0.6678
X11.2693 Y0.6611
X11.2672 Y0.6533
X11.2658 Y0.6475
X11.265 Y0.6438
X11.2641 Y0.639
X11.263 Y0.6332
X11.2621 Y0.6275
X11.2614 Y0.6217
X11.2607 Y0.6159
X11.2602 Y0.6102
X11.2599 Y0.6044
X11.2596 Y0.5986
X11.2595 Y0.5933
X11.2594 Y0.5242
Y0.5241
X11.2576 Y-1.2392
Y-1.2424
X11.2579 Y-1.2539
X11.2582 Y-1.2599
X11.2586 Y-1.2659
X10.9432
X10.9436 Y-1.2598
X10.9439 Y-1.2539
X10.9441 Y-1.2424
X10.9442 Y-1.2392
X10.9426 Y0.5817
Y0.582
X10.9425 Y0.5935
X10.9424 Y0.5987
X10.9422 Y0.6045
X10.9418 Y0.6103
X10.9413 Y0.616
X10.9407 Y0.6218
X10.9399 Y0.6276
X10.939 Y0.6333
X10.938 Y0.6391
X10.9368 Y0.6448
X10.9355 Y0.6506
X10.934 Y0.6564
X10.9325 Y0.6621
X10.9304 Y0.6688
X10.9279 Y0.6764
X10.9258 Y0.6822
X10.9243 Y0.6861
X10.9223 Y0.6909
X10.9198 Y0.6967
X10.9172 Y0.7025
X10.9143 Y0.7082
X10.9106 Y0.7152
X10.9059 Y0.7234
X10.9024 Y0.7292
X10.9003 Y0.7325
X10.8972 Y0.7371
X10.8932 Y0.7428
X10.8889 Y0.7486
X10.8843 Y0.7544
X10.8816 Y0.7577
X10.8808 Y0.7586
X10.8781 Y0.7618
X10.8733 Y0.7671
X10.8683 Y0.7724
X10.8629 Y0.7776
X10.8595 Y0.7809
X10.8581 Y0.7822
X10.8545 Y0.7854
X10.8487 Y0.7903
X10.843 Y0.795
X10.8372 Y0.7994
X10.8337 Y0.802
X10.8325 Y0.8029
X10.8293 Y0.805
X10.8241 Y0.8085
X10.819 Y0.8117
X10.8138 Y0.8148
X10.8064 Y0.819
X10.7967 Y0.824
X10.7909 Y0.8268
X10.7891 Y0.8276
X10.7853 Y0.8293
X10.7795 Y0.8317
X10.7737 Y0.8339
X10.768 Y0.836
X10.7622 Y0.8379
X10.7564 Y0.8397
X10.7507 Y0.8413
X10.7449 Y0.8428
X10.7391 Y0.8442
X10.7334 Y0.8454
X10.7276 Y0.8465
X10.7218 Y0.8474
X10.7156 Y0.8483
X10.709 Y0.8491
X10.7032 Y0.8496
X10.6983 Y0.8499
X10.6911 Y0.8502
X10.6796 Y0.8504
X10.6776
X10.5828 Y0.8503
X10.5794 Y4.7341
X11.3343
X11.3336 Y4.0651
X11.3334 Y4.0623 Z0.1943
X11.3331 Y4.0596 Z0.1946
X11.3326 Y4.0568 Z0.195
X11.332 Y4.0542 Z0.1955
X11.3313 Y4.0515 Z0.1962
X11.3304 Y4.049 Z0.1971
X11.3294 Y4.0466 Z0.1981
X11.3283 Y4.0443 Z0.1992
X11.3271 Y4.0421 Z0.2005
X11.3258 Y4.04 Z0.2019
X11.3245 Y4.0381 Z0.2035
X11.3232 Y4.0363 Z0.2052
X11.3218 Y4.0347 Z0.207
X11.3204 Y4.0331 Z0.2089
X11.3191 Y4.0318 Z0.2109
X11.3178 Y4.0305 Z0.2131
X11.3165 Y4.0294 Z0.2153
X11.3153 Y4.0284 Z0.2176
X11.3142 Y4.0275 Z0.2201
X11.3132 Y4.0268 Z0.2226
X11.3122 Y4.0261 Z0.2251
X11.3114 Y4.0256 Z0.2277
X11.3107 Y4.0251 Z0.2304
X11.3101 Y4.0247 Z0.2331
X11.3096 Y4.0245 Z0.2359
X11.3093 Y4.0243 Z0.2386
X11.3091 Y4.0241 Z0.2414
X11.309 Z0.2442
G0 Z0.8442
X9.5533 Y1.0917
Z0.5395
G1 Z0.4176 F50.
Y1.0914 Z0.4122 F100.
Y1.0906 Z0.4069
Y1.0892 Z0.4018
Y1.0872 Z0.3968
Y1.0847 Z0.392
Y1.0817 Z0.3876
Y1.0783 Z0.3835
Y1.0744 Z0.3798
Y1.0702 Z0.3765
Y1.0656 Z0.3737
Y1.0608 Z0.3714
Y1.0558 Z0.3696
Y1.0505 Z0.3684
Y1.0452 Z0.3677
X9.5553 Y-1.2394 Z0.2079
Y-1.2422 Z0.2077
X9.5556 Y-1.2537 Z0.2069
X9.5557 Y-1.2563 Z0.2068
X9.5558 Y-1.2588 Z0.2066
X9.556 Y-1.2628 Z0.2063
X9.5562 Y-1.2659 Z0.2061
X9.3886 Z0.1944
X9.3851 Z0.1942
X9.2527
X9.2532 Y-1.2574
X9.2533 Y-1.253
X9.2535 Y-1.2414
Y-1.2408
X9.3244 Y4.7341
X9.5501
X9.5553 Y-1.2394
Y-1.2422
X9.5556 Y-1.2537
X9.5557 Y-1.2563
X9.5558 Y-1.2588
X9.556 Y-1.2628
X9.5562 Y-1.2659
X9.3851
X9.3823 Y-1.2657 Z0.1943
X9.3795 Y-1.2654 Z0.1946
X9.3768 Y-1.265 Z0.195
X9.3741 Y-1.2644 Z0.1955
X9.3715 Y-1.2636 Z0.1962
X9.369 Y-1.2627 Z0.1971
X9.3666 Y-1.2617 Z0.1981
X9.3642 Y-1.2606 Z0.1992
X9.3621 Y-1.2594 Z0.2005
X9.36 Y-1.2582 Z0.2019
X9.3581 Y-1.2569 Z0.2035
X9.3563 Y-1.2555 Z0.2052
X9.3546 Y-1.2542 Z0.207
X9.3531 Y-1.2528 Z0.2089
X9.3517 Y-1.2515 Z0.2109
X9.3505 Y-1.2502 Z0.2131
X9.3493 Y-1.2489 Z0.2153
X9.3483 Y-1.2477 Z0.2176
X9.3475 Y-1.2466 Z0.2201
X9.3467 Y-1.2455 Z0.2226
X9.346 Y-1.2446 Z0.2251
X9.3455 Y-1.2438 Z0.2277
X9.345 Y-1.2431 Z0.2304
X9.3447 Y-1.2425 Z0.2331
X9.3444 Y-1.242 Z0.2359
X9.3442 Y-1.2416 Z0.2386
X9.3441 Y-1.2414 Z0.2414
X9.344 Z0.2442
G0 Z0.8442
X7.7565 Y1.9671
Z0.5395
G1 Z0.4176 F50.
Y1.9674 Z0.4122 F100.
Y1.9683 Z0.4069
Y1.9697 Z0.4018
Y1.9716 Z0.3968
X7.7566 Y1.9741 Z0.392
Y1.9771 Z0.3876
Y1.9806 Z0.3835
Y1.9844 Z0.3798
Y1.9886 Z0.3765
Y1.9932 Z0.3737
Y1.998 Z0.3714
Y2.0031 Z0.3696
Y2.0083 Z0.3684
Y2.0136 Z0.3677
X7.7607 Y4.3261 Z0.206
G2 X7.8077 Y4.3731 Z0.2008 I0.0471 J-0.0001
G1 X7.8087
G2 X7.8557 Y4.3255 Z0.1956 I0. J-0.0471
G1 X7.8555 Y4.3085 Z0.1944
Y4.305 Z0.1942
X7.8181 Y1.1574
G2 X7.805 Y1.135 I-0.026 J0.0003
G3 X7.7946 Y1.1289 I0.2427 J-0.4268
G2 X7.7551 Y1.1513 I-0.0134 J0.0223
G1 X7.7607 Y4.3261
G2 X7.8077 Y4.3731 I0.0471 J-0.0001
G1 X7.8087
G2 X7.8557 Y4.3255 I0. J-0.0471
G1 X7.8555 Y4.305
G3 X7.9439 Y4.1689 I0.1462 J-0.0017
G2 X8.0323 Y4.0329 I-0.0578 J-0.1343
G1 X7.9974 Y1.0957
G2 X7.9333 Y0.9984 I-0.1077 J0.0013
G3 X7.8272 Y0.9322 I0.18 J-0.4067
X7.7443 Y0.8386 I0.2745 J-0.3266
G2 X7.6793 Y0.8379 I-0.0328 J0.0214
G3 X7.6118 Y0.9155 I-0.3672 J-0.2512
G2 X7.5749 Y0.9992 I0.0759 J0.0835
G1 X7.5809 Y4.4892
G2 X7.645 Y4.5531 I0.064 J-0.0001
G1 X7.9748
G2 X8.0377 Y4.4894 I0. J-0.063
G1 X8.0323 Y4.0329
G3 X8.1212 Y3.8961 I0.1471 J-0.0017
G2 X8.2101 Y3.7592 I-0.0582 J-0.1351
G1 X8.1756 Y0.8545
X8.1184 Y0.8552
X8.1155
X8.1039 Y0.8551
X8.0957 Y0.8547
X8.09 Y0.8543
X8.0842 Y0.8538
X8.0784 Y0.8531
X8.0727 Y0.8523
X8.0669 Y0.8513
X8.0611 Y0.8502
X8.0554 Y0.849
X8.0489 Y0.8475
X8.0417 Y0.8456
X8.036 Y0.8439
X8.0316 Y0.8425
X8.0265 Y0.8408
X8.0208 Y0.8387
X8.015 Y0.8365
X8.0092 Y0.8341
X8.0035 Y0.8315
X7.9979 Y0.8289
X7.9921 Y0.8259
X7.9862 Y0.8228
X7.9804 Y0.8194
X7.9746 Y0.8159
X7.9688 Y0.8122
X7.9631 Y0.8083
X7.9576 Y0.8044
X7.9524 Y0.8005
X7.9466 Y0.7958
X7.9403 Y0.7904
X7.9339 Y0.7846
X7.9277 Y0.7785
X7.9219 Y0.7725
X7.9167 Y0.7667
X7.9117 Y0.761
X7.9071 Y0.7552
X7.903 Y0.7498
X7.8994 Y0.7448
X7.8959 Y0.7397
X7.8926 Y0.7347
X7.8906 Y0.7314
X7.8897 Y0.73
X7.8876 Y0.7264
X7.8843 Y0.7207
X7.8812 Y0.7149
X7.8783 Y0.7091
X7.8757 Y0.7036
X7.8733 Y0.6982
X7.8709 Y0.6924
X7.8685 Y0.6863
X7.8664 Y0.6803
X7.8645 Y0.6746
X7.8627 Y0.6688
X7.8611 Y0.663
X7.8596 Y0.6573
X7.8582 Y0.6515
X7.857 Y0.6458
X7.856 Y0.64
X7.855 Y0.6342
X7.8542 Y0.6285
X7.8535 Y0.6227
X7.853 Y0.6169
X7.8525 Y0.6089
X7.8521 Y0.5974
X7.852 Y0.5947
X7.8304 Y-1.2262
G3 Y-1.2391 I1.0703 J-0.0085
G1 X7.8305 Y-1.2439
X7.8309 Y-1.2554
X7.8313 Y-1.2619
X7.8316 Y-1.2659
X7.5709
X7.5713 Y-1.2592
X7.5716 Y-1.2537
X7.5718 Y-1.2421
X7.5719 Y-1.2395
X7.575 Y0.5814
Y0.5818
Y0.5821
Y0.5936
X7.5748 Y0.5999
X7.5745 Y0.6057
X7.5741 Y0.6114
X7.5735 Y0.6172
X7.5728 Y0.623
X7.572 Y0.6287
X7.5711 Y0.6345
X7.57 Y0.6402
X7.5688 Y0.646
X7.5674 Y0.6518
X7.5659 Y0.6575
X7.5643 Y0.6633
X7.562 Y0.6704
X7.5591 Y0.6788
X7.557 Y0.6845
X7.5557 Y0.6877
X7.5538 Y0.6921
X7.5512 Y0.6979
X7.5485 Y0.7036
X7.5456 Y0.7094
X7.5418 Y0.7164
X7.537 Y0.7246
X7.5334 Y0.7303
X7.5312 Y0.7337
X7.5281 Y0.7382
X7.524 Y0.744
X7.5196 Y0.7498
X7.5149 Y0.7555
X7.5123 Y0.7587
X7.5117 Y0.7593
X7.509 Y0.7624
X7.504 Y0.7678
X7.4987 Y0.7733
X7.493 Y0.7787
X7.4897 Y0.7818
X7.4888 Y0.7827
X7.4855 Y0.7855
X7.4797 Y0.7904
X7.474 Y0.795
X7.4682 Y0.7993
X7.4642 Y0.8022
X7.462 Y0.8037
X7.4563 Y0.8075
X7.447 Y0.8132
X7.4394 Y0.8176
X7.4336 Y0.8206
X7.4278 Y0.8235
X7.422 Y0.8262
X7.4162 Y0.8287
X7.4105 Y0.8311
X7.4047 Y0.8333
X7.399 Y0.8353
X7.3936 Y0.8371
X7.4004 Y4.7341
X8.2216
X8.2101 Y3.7592
X8.2099 Y3.7564 Z0.1943
X8.2095 Y3.7537 Z0.1946
X8.209 Y3.7509 Z0.195
X8.2084 Y3.7483 Z0.1955
X8.2076 Y3.7457 Z0.1962
X8.2067 Y3.7432 Z0.1971
X8.2056 Y3.7407 Z0.1981
X8.2045 Y3.7385 Z0.1992
X8.2033 Y3.7363 Z0.2005
X8.202 Y3.7342 Z0.2019
X8.2007 Y3.7323 Z0.2035
X8.1993 Y3.7305 Z0.2052
X8.198 Y3.7289 Z0.207
X8.1966 Y3.7274 Z0.2089
X8.1952 Y3.726 Z0.2109
X8.1939 Y3.7248 Z0.2131
X8.1926 Y3.7237 Z0.2153
X8.1914 Y3.7227 Z0.2176
X8.1903 Y3.7218 Z0.2201
X8.1892 Y3.7211 Z0.2226
X8.1883 Y3.7204 Z0.2251
X8.1875 Y3.7199 Z0.2277
X8.1867 Y3.7194 Z0.2304
X8.1861 Y3.7191 Z0.2331
X8.1857 Y3.7188 Z0.2359
X8.1853 Y3.7186 Z0.2386
X8.1851 Y3.7185 Z0.2414
X8.185 Z0.2442
G0 Z0.8442
X5.8784 Y1.946
Z0.5395
G1 Z0.4176 F50.
Y1.9463 Z0.4122 F100.
Y1.9471 Z0.4069
X5.8783 Y1.9486 Z0.4018
Y1.9505 Z0.3968
Y1.953 Z0.392
Y1.956 Z0.3876
Y1.9594 Z0.3835
Y1.9633 Z0.3798
Y1.9675 Z0.3765
Y1.9721 Z0.3737
Y1.9769 Z0.3714
Y1.982 Z0.3696
Y1.9872 Z0.3684
Y1.9925 Z0.3677
X5.8746 Y4.347 Z0.2031
G2 X5.9006 Y4.3731 Z0.2002 I0.026 J0.
G1 X5.9179 Z0.199
G2 X5.9439 Y4.347 Z0.1961 I0. J-0.026
G1 Y4.3219 Z0.1944
X5.9438 Y4.3184 Z0.1942
X5.9383 Y1.1542
G2 X5.8996 Y1.1315 I-0.026 J0.
G1 X5.893 Y1.1351
G2 X5.8796 Y1.1579 I0.0126 J0.0228
G1 X5.8746 Y4.347
G2 X5.9006 Y4.3731 I0.026 J0.
G1 X5.9179
G2 X5.9439 Y4.347 I0. J-0.026
G1 X5.9438 Y4.3184
G3 X6.0336 Y4.1832 I0.1463 J-0.0003
G2 X6.1234 Y4.0481 I-0.0565 J-0.1349
G1 X6.118 Y0.9671
G2 X6.0883 Y0.891 I-0.1129 J0.0002
G3 X6.0336 Y0.8183 I0.3453 J-0.317
G2 X5.972 Y0.8184 I-0.0308 J0.0187
G3 X5.7624 Y0.9984 I-0.3801 J-0.2304
G2 X5.6997 Y1.0924 I0.0393 J0.0941
G1 X5.6944 Y4.4892
G2 X5.7581 Y4.5531 I0.0637 J0.0001
G1 X6.0604
G2 X6.1241 Y4.4892 I0. J-0.0637
G1 X6.1234 Y4.0481
G3 X6.2136 Y3.9122 I0.1471 J-0.0003
G2 X6.3039 Y3.7763 I-0.0568 J-0.1357
G1 X6.2988 Y0.8252
X6.2984 Y0.825
X6.2946 Y0.8231
X6.2898 Y0.8206
X6.284 Y0.8175
X6.2782 Y0.8141
X6.2725 Y0.8106
X6.2674 Y0.8073
X6.2631 Y0.8044
X6.2573 Y0.8002
X6.2501 Y0.7947
X6.2465 Y0.7919
X6.243 Y0.789
X6.2362 Y0.7829
X6.2304 Y0.7775
X6.2258 Y0.7729
X6.2203 Y0.7672
X6.2142 Y0.7603
X6.2084 Y0.7533
X6.203 Y0.7464
X6.1988 Y0.7406
X6.1957 Y0.736
X6.1923 Y0.7309
X6.1887 Y0.7251
X6.1854 Y0.7194
X6.1822 Y0.7136
X6.1798 Y0.7091
X6.1781 Y0.7058
X6.1754 Y0.7
X6.1718 Y0.6918
X6.1689 Y0.6848
X6.1668 Y0.679
X6.1648 Y0.6733
X6.1629 Y0.6675
X6.1612 Y0.6617
X6.1597 Y0.656
X6.1582 Y0.6502
X6.1569 Y0.6444
X6.1558 Y0.6386
X6.1547 Y0.6326
X6.1539 Y0.6268
X6.1531 Y0.6213
X6.1525 Y0.6156
X6.1521 Y0.6099
X6.1517 Y0.6041
X6.1515 Y0.5983
X6.1514 Y0.5934
X6.1482 Y-1.2391
Y-1.2425
X6.1485 Y-1.254
X6.1488 Y-1.2601
X6.1492 Y-1.2659
X5.8561
X5.8565 Y-1.26
X5.8568 Y-1.254
X5.8571 Y-1.2425
Y-1.2391
X5.8543 Y0.5933
X5.8541 Y0.5984
X5.8539 Y0.6042
X5.8536 Y0.6099
X5.8531 Y0.6157
X5.8524 Y0.6215
X5.8517 Y0.6272
X5.8508 Y0.633
X5.8498 Y0.6388
X5.8486 Y0.6445
X5.8473 Y0.6503
X5.8459 Y0.656
X5.8444 Y0.6618
X5.8429 Y0.6668
X5.8416 Y0.671
X5.8396 Y0.6768
X5.8369 Y0.6841
X5.8343 Y0.6906
X5.8318 Y0.6964
X5.8292 Y0.7022
X5.8264 Y0.7079
X5.8232 Y0.714
X5.8196 Y0.7204
X5.8162 Y0.7261
X5.813 Y0.7313
X5.8094 Y0.7367
X5.8055 Y0.7423
X5.8012 Y0.7481
X5.7966 Y0.754
X5.7918 Y0.7598
X5.7867 Y0.7656
X5.7813 Y0.7713
X5.7755 Y0.7771
X5.7695 Y0.7827
X5.7633 Y0.7883
X5.7573 Y0.7933
X5.7515 Y0.7978
X5.7476 Y0.8007
X5.7455 Y0.8022
X5.7398 Y0.8061
X5.7303 Y0.8122
X5.723 Y0.8166
X5.7178 Y0.8195
X5.7127 Y0.8222
X5.7075 Y0.8248
X5.7043 Y0.8263
X5.7031 Y0.8269
X5.6996 Y0.8284
X5.6938 Y0.8309
X5.688 Y0.8332
X5.6823 Y0.8354
X5.6765 Y0.8374
X5.6707 Y0.8392
X5.665 Y0.8409
X5.6592 Y0.8425
X5.6534 Y0.8439
X5.6477 Y0.8452
X5.6419 Y0.8463
X5.6361 Y0.8473
X5.6308 Y0.8481
X5.626 Y0.8488
X5.6203 Y0.8494
X5.6135 Y0.85
X5.6049 Y0.8505
X5.5934 Y0.8507
X5.5905
X5.5191 Y0.8506
X5.513 Y4.7341
X6.3056
X6.3039 Y3.7763
X6.3037 Y3.7735 Z0.1943
X6.3034 Y3.7707 Z0.1946
X6.303 Y3.7679 Z0.195
X6.3023 Y3.7653 Z0.1955
X6.3016 Y3.7627 Z0.1962
X6.3007 Y3.7601 Z0.1971
X6.2997 Y3.7577 Z0.1981
X6.2986 Y3.7554 Z0.1992
X6.2974 Y3.7532 Z0.2005
X6.2961 Y3.7512 Z0.2019
X6.2948 Y3.7492 Z0.2035
X6.2935 Y3.7474 Z0.2052
X6.2921 Y3.7458 Z0.207
X6.2908 Y3.7443 Z0.2089
X6.2894 Y3.7429 Z0.2109
X6.2881 Y3.7416 Z0.2131
X6.2868 Y3.7405 Z0.2153
X6.2856 Y3.7395 Z0.2176
X6.2845 Y3.7387 Z0.2201
X6.2835 Y3.7379 Z0.2226
X6.2825 Y3.7372 Z0.2251
X6.2817 Y3.7367 Z0.2277
X6.281 Y3.7362 Z0.2304
X6.2804 Y3.7359 Z0.2331
X6.2799 Y3.7356 Z0.2359
X6.2796 Y3.7354 Z0.2386
X6.2794 Y3.7353 Z0.2414
X6.2793 Y3.7352 Z0.2442
G0 Z0.8442
X4.4419 Y1.0822
Z0.5395
G1 Z0.4176 F50.
Y1.0819 Z0.4122 F100.
Y1.081 Z0.4069
Y1.0796 Z0.4018
Y1.0776 Z0.3968
Y1.0751 Z0.392
Y1.0722 Z0.3876
Y1.0687 Z0.3835
Y1.0649 Z0.3798
Y1.0606 Z0.3765
X4.442 Y1.0561 Z0.3737
Y1.0512 Z0.3714
Y1.0462 Z0.3696
Y1.041 Z0.3684
Y1.0356 Z0.3677
X4.4456 Y-1.2395 Z0.2086
Y-1.2399
Y-1.2404 Z0.2085
Y-1.2448 Z0.2082
X4.4457 Y-1.2477 Z0.208
X4.4459 Y-1.2548 Z0.2075
X4.4461 Y-1.2592 Z0.2072
X4.4465 Y-1.2659 Z0.2068
X4.2693 Z0.1944
X4.2658 Z0.1942
X4.1243
X4.1248 Y-1.258
X4.1249 Y-1.2533
G3 X4.1252 Y-1.2404 I-1.0951 J0.0263
G1 X4.1742 Y4.7341
X4.4362
X4.4456 Y-1.2395
Y-1.2399
Y-1.2404
Y-1.2448
X4.4457 Y-1.2477
X4.4459 Y-1.2548
X4.4461 Y-1.2592
X4.4465 Y-1.2659
X4.2658
X4.263 Y-1.2657 Z0.1943
X4.2602 Y-1.2654 Z0.1946
X4.2575 Y-1.265 Z0.195
X4.2548 Y-1.2644 Z0.1955
X4.2522 Y-1.2636 Z0.1962
X4.2497 Y-1.2627 Z0.1971
X4.2473 Y-1.2617 Z0.1981
X4.245 Y-1.2606 Z0.1992
X4.2428 Y-1.2594 Z0.2005
X4.2407 Y-1.2582 Z0.2019
X4.2388 Y-1.2569 Z0.2035
X4.237 Y-1.2555 Z0.2052
X4.2353 Y-1.2542 Z0.207
X4.2338 Y-1.2528 Z0.2089
X4.2324 Y-1.2515 Z0.2109
X4.2312 Y-1.2502 Z0.2131
X4.23 Y-1.2489 Z0.2153
X4.2291 Y-1.2477 Z0.2176
X4.2282 Y-1.2466 Z0.2201
X4.2274 Y-1.2455 Z0.2226
X4.2268 Y-1.2446 Z0.2251
X4.2262 Y-1.2438 Z0.2277
X4.2257 Y-1.2431 Z0.2304
X4.2254 Y-1.2425 Z0.2331
X4.2251 Y-1.242 Z0.2359
X4.2249 Y-1.2416 Z0.2386
X4.2248 Y-1.2414 Z0.2414
X4.2247 Z0.2442
G0 Z0.8442
X2.6965 Y1.947
Z0.5395
G1 Z0.4176 F50.
Y1.9473 Z0.4122 F100.
Y1.9481 Z0.4069
X2.6964 Y1.9496 Z0.4018
Y1.9515 Z0.3968
Y1.954 Z0.392
Y1.957 Z0.3876
Y1.9604 Z0.3835
Y1.9643 Z0.3798
Y1.9685 Z0.3765
Y1.9731 Z0.3737
Y1.9779 Z0.3714
Y1.983 Z0.3696
Y1.9882 Z0.3684
Y1.9935 Z0.3677
X2.6939 Y4.338 Z0.2038
G2 X2.729 Y4.3731 Z0.1999 I0.035 J0.
G1 X2.7339 Z0.1996
G2 X2.7689 Y4.3378 Z0.1957 I0. J-0.035
G1 X2.7688 Y4.3188 Z0.1944
X2.7687 Y4.3153 Z0.1942
X2.7429 Y1.1687
G2 X2.7322 Y1.1516 I-0.0193 J0.0002
G1 X2.7252 Y1.1481
G2 X2.6973 Y1.1653 I-0.0086 J0.0172
G1 X2.6939 Y4.338
G2 X2.729 Y4.3731 I0.035 J0.
G1 X2.7339
G2 X2.7689 Y4.3378 I0. J-0.035
G1 X2.7687 Y4.3153
G3 X2.8576 Y4.1796 I0.1462 J-0.0012
G2 X2.9465 Y4.0438 I-0.0574 J-0.1345
G1 X2.9224 Y1.0985
G2 X2.8587 Y1.0097 I-0.0948 J0.0008
G3 X2.7237 Y0.9334 I0.1416 J-0.4078
X2.6234 Y0.8151 I0.2904 J-0.348
G2 X2.5626 Y0.815 I-0.0304 J0.0179
G3 X2.5476 Y0.8387 I-0.4003 J-0.2374
X2.5311 Y0.8613 I-0.3229 J-0.2188
G2 X2.5175 Y0.9002 I0.0495 J0.039
G1 X2.5138 Y4.4892
G2 X2.5776 Y4.5531 I0.0638 J0.0001
G1 X2.8869
G2 X2.9502 Y4.4893 I0. J-0.0632
G1 X2.9465 Y4.0438
G3 X3.0359 Y3.9074 I0.1471 J-0.0012
G2 X3.1253 Y3.7709 I-0.0577 J-0.1353
G1 X3.1013 Y0.8528
X3.0079 Y0.8536
X3.0031 Y0.8535
X2.9916 Y0.8532
X2.983 Y0.8527
X2.9772 Y0.8521
X2.9714 Y0.8514
X2.9657 Y0.8506
X2.9579 Y0.8493
X2.9482 Y0.8473
X2.9425 Y0.846
X2.9406 Y0.8456
X2.9368 Y0.8445
X2.9311 Y0.8429
X2.9253 Y0.8411
X2.9195 Y0.8392
X2.9138 Y0.8371
X2.908 Y0.8349
X2.9022 Y0.8325
X2.8965 Y0.83
X2.8909 Y0.8273
X2.8854 Y0.8246
X2.8797 Y0.8215
X2.8736 Y0.8181
X2.8676 Y0.8145
X2.8618 Y0.8108
X2.8559 Y0.8068
X2.8498 Y0.8024
X2.844 Y0.7979
X2.8384 Y0.7934
X2.8328 Y0.7886
X2.8271 Y0.7835
X2.8234 Y0.78
X2.8215 Y0.7781
X2.8179 Y0.7744
X2.8129 Y0.7691
X2.8081 Y0.7637
X2.8035 Y0.7583
X2.801 Y0.7552
X2.8004 Y0.7544
X2.7979 Y0.7512
X2.7937 Y0.7454
X2.7896 Y0.7397
X2.7858 Y0.7339
X2.7825 Y0.7286
X2.7796 Y0.7238
X2.7764 Y0.718
X2.7729 Y0.7113
X2.7698 Y0.7051
X2.7672 Y0.6993
X2.7647 Y0.6936
X2.7624 Y0.6878
X2.7596 Y0.6804
X2.7566 Y0.6712
X2.7548 Y0.6655
X2.7541 Y0.6631
X2.7531 Y0.659
X2.7516 Y0.6532
X2.7503 Y0.6475
X2.7492 Y0.6417
X2.7482 Y0.6359
X2.7473 Y0.6302
X2.7465 Y0.6244
X2.7459 Y0.6186
X2.7453 Y0.6101
X2.7448 Y0.5986
X2.7447 Y0.5942
X2.7298 Y-1.2267
X2.7297 Y-1.2273
Y-1.2388
X2.7298 Y-1.2433
X2.7301 Y-1.2548
X2.7305 Y-1.2613
X2.7309 Y-1.2659
X2.4439
X2.4444 Y-1.2593
X2.4447 Y-1.2534
X2.4449 Y-1.2423
X2.445 Y-1.2392
X2.4431 Y0.5818
Y0.582
X2.443 Y0.5935
X2.4429 Y0.5987
X2.4427 Y0.6044
X2.4423 Y0.6102
X2.4418 Y0.6159
X2.4412 Y0.6217
X2.4404 Y0.6275
X2.4395 Y0.6332
X2.4385 Y0.639
X2.4373 Y0.6448
X2.436 Y0.6505
X2.4346 Y0.6563
X2.433 Y0.662
X2.4313 Y0.6678
X2.4294 Y0.6736
X2.4274 Y0.6793
X2.4252 Y0.6851
X2.4239 Y0.6885
X2.4235 Y0.6894
X2.4222 Y0.6926
X2.4198 Y0.6978
X2.4174 Y0.7031
X2.4148 Y0.7084
X2.4119 Y0.7138
X2.4088 Y0.7194
X2.4054 Y0.7252
X2.4017 Y0.7311
X2.3978 Y0.737
X2.3938 Y0.7427
X2.3895 Y0.7485
X2.385 Y0.7543
X2.3813 Y0.7587
X2.3785 Y0.7619
X2.3752 Y0.7656
X2.3714 Y0.7698
X2.3673 Y0.7739
X2.363 Y0.7781
X2.3592 Y0.7817
X2.3558 Y0.7848
X2.3514 Y0.7886
X2.346 Y0.793
X2.3407 Y0.7973
X2.3367 Y0.8002
X2.3325 Y4.7341
X3.1332
X3.1253 Y3.7709
X3.1251 Y3.7681 Z0.1943
X3.1248 Y3.7653 Z0.1946
X3.1243 Y3.7626 Z0.195
X3.1236 Y3.7599 Z0.1955
X3.1229 Y3.7573 Z0.1962
X3.122 Y3.7548 Z0.1971
X3.1209 Y3.7524 Z0.1981
X3.1198 Y3.7501 Z0.1992
X3.1186 Y3.7479 Z0.2005
X3.1174 Y3.7458 Z0.2019
X3.116 Y3.7439 Z0.2035
X3.1147 Y3.7421 Z0.2052
X3.1133 Y3.7405 Z0.207
X3.1119 Y3.739 Z0.2089
X3.1106 Y3.7376 Z0.2109
X3.1093 Y3.7364 Z0.2131
X3.108 Y3.7352 Z0.2153
X3.1068 Y3.7343 Z0.2176
X3.1057 Y3.7334 Z0.2201
X3.1046 Y3.7326 Z0.2226
X3.1037 Y3.732 Z0.2251
X3.1028 Y3.7314 Z0.2277
X3.1021 Y3.731 Z0.2304
X3.1015 Y3.7306 Z0.2331
X3.101 Y3.7303 Z0.2359
X3.1007 Y3.7302 Z0.2386
X3.1005 Y3.73 Z0.2414
X3.1004 Z0.2442
G0 Z0.8442
X0.3473 Y4.3731
Z0.2442
G1 X0.3476 Z0.2386 F100.
X0.3486 Z0.2331
X0.3501 Z0.2277
X0.3522 Z0.2226
X0.355 Z0.2176
X0.3582 Z0.2131
X0.3619 Z0.2089
X0.3661 Z0.2052
X0.3707 Z0.2019
X0.3756 Z0.1992
X0.3808 Z0.1971
X0.3862 Z0.1955
X0.3917 Z0.1946
X0.3973 Z0.1942
X0.5458
X0.6107
G2 X0.6746 Y4.3092 I0. J-0.064
G1 X0.68 Y-0.841
G2 X0.6162 Y-0.9049 I-0.0638 J-0.0001
G1 X0.5458
X0.3492
X0.3436 Z0.1946
X0.3381 Z0.1955
X0.3327 Z0.1971
X0.3275 Z0.1992
X0.3226 Z0.2019
X0.3181 Z0.2052
X0.3139 Z0.2089
X0.3101 Z0.2131
X0.3069 Z0.2176
X0.3042 Z0.2226
X0.302 Z0.2277
X0.3005 Z0.2331
X0.2995 Z0.2386
X0.2992 Z0.2442
G0 Z0.8442
X0.3473 Y4.5531
Z0.2442
G1 X0.3476 Z0.2386 F100.
X0.3486 Z0.2331
X0.3501 Z0.2277
X0.3522 Z0.2226
X0.355 Z0.2176
X0.3582 Z0.2131
X0.3619 Z0.2089
X0.3661 Z0.2052
X0.3707 Z0.2019
X0.3756 Z0.1992
X0.3808 Z0.1971
X0.3862 Z0.1955
X0.3917 Z0.1946
X0.3973 Z0.1942
X0.5459
X0.7905
G2 X0.8544 Y4.4892 I0. J-0.064
G1 X0.8602 Y-1.021
G2 X0.7964 Y-1.0849 I-0.0638 J-0.0001
G1 X0.5459
X0.3493
X0.3437 Z0.1946
X0.3381 Z0.1955
X0.3327 Z0.1971
X0.3276 Z0.1992
X0.3227 Z0.2019
X0.3181 Z0.2052
X0.3139 Z0.2089
X0.3102 Z0.2131
X0.3069 Z0.2176
X0.3042 Z0.2226
X0.3021 Z0.2277
X0.3005 Z0.2331
X0.2996 Z0.2386
X0.2993 Z0.2442
G0 Z0.8442
X0.3473 Y4.7033
Z0.2392
G1 X0.3476 Z0.2342 F100.
X0.3484 Y4.7034 Z0.2292
X0.3498 Y4.7037 Z0.2244
X0.3517 Y4.704 Z0.2197
X0.3541 Y4.7043 Z0.2153
X0.357 Y4.7048 Z0.2112
X0.3603 Y4.7053 Z0.2074
X0.364 Y4.7059 Z0.2041
X0.3681 Y4.7066 Z0.2011
X0.3725 Y4.7073 Z0.1987
X0.3771 Y4.708 Z0.1968
X0.3819 Y4.7087 Z0.1954
X0.3868 Y4.7095 Z0.1945
X0.3917 Y4.7103 Z0.1942
X0.538 Y4.7335
X0.5419 Y4.7339
X0.5459 Y4.7341
X1.0352
X1.0414 Y-1.2394
Y-1.2422
X1.0417 Y-1.2537
X1.042 Y-1.2594
X1.0424 Y-1.2659
X0.5458
X0.5419 Y-1.2657
X0.538 Y-1.2653
X0.3438 Y-1.2345
X0.3383 Y-1.2337 Z0.1946
X0.3328 Y-1.2328 Z0.1955
X0.3275 Y-1.2319 Z0.1971
X0.3224 Y-1.2311 Z0.1992
X0.3176 Y-1.2304 Z0.2019
X0.313 Y-1.2297 Z0.2052
X0.3089 Y-1.229 Z0.2089
X0.3052 Y-1.2284 Z0.2131
X0.302 Y-1.2279 Z0.2176
X0.2993 Y-1.2275 Z0.2226
X0.2972 Y-1.2271 Z0.2277
X0.2957 Y-1.2269 Z0.2331
X0.2948 Y-1.2268 Z0.2386
X0.2944 Y-1.2267 Z0.2442
G0 Z0.8442
X24.7261 Y3.5727
Z0.5395
G1 Z0.4176 F50.
Y3.5724 Z0.4122 F100.
Y3.5716 Z0.4069
Y3.5702 Z0.4018
Y3.5682 Z0.3968
X24.726 Y3.5657 Z0.392
Y3.5627 Z0.3876
Y3.5593 Z0.3835
Y3.5554 Z0.3798
Y3.5512 Z0.3765
Y3.5466 Z0.3737
Y3.5418 Z0.3714
X24.7259 Y3.5367 Z0.3696
Y3.5315 Z0.3684
Y3.5262 Z0.3677
X24.7231 Y2.7702 Z0.3148
G2 X24.6872 Y2.7703 Z0.3109 I-0.018 J0.0001
G1 X24.6866 Y4.3539 Z0.2002
G2 X24.7058 Y4.3731 Z0.198 I0.0192 J0.
G1 X24.7097 Z0.1978
G2 X24.7289 Y4.3538 Z0.1957 I0. J-0.0192
G1 Y4.3354 Z0.1944
Y4.3319 Z0.1942
X24.7231 Y2.7702
G2 X24.6872 Y2.7703 I-0.018 J0.0001
G1 X24.6866 Y4.3539
G2 X24.7058 Y4.3731 I0.0192 J0.
G1 X24.7097
G2 X24.7289 Y4.3538 I0. J-0.0192
G1 Y4.3319
G3 X24.8184 Y4.1965 I0.1462 J-0.0005
G2 X24.9079 Y4.0612 I-0.0567 J-0.1348
G1 X24.8969 Y1.0638
G2 X24.8347 Y0.9323 I-0.1715 J0.0006
G3 X24.7407 Y0.8252 I0.2862 J-0.346
G2 X24.6779 Y0.8251 I-0.0315 J0.0197
G3 X24.5697 Y0.9427 I-0.3791 J-0.2402
G2 X24.5078 Y1.0674 I0.0949 J0.1248
G1 X24.5066 Y4.4892
G2 X24.5704 Y4.5531 I0.0638 J0.
G1 X24.8458
G2 X24.9094 Y4.4893 I0. J-0.0636
G1 X24.9079 Y4.0612
G3 X24.9979 Y3.9251 I0.1471 J-0.0005
G2 X25.0879 Y3.789 I-0.0571 J-0.1355
G1 X25.0771 Y0.8489
X25.0769
X25.0738 Y0.8484
X25.068 Y0.8474
X25.0596 Y0.8457
X25.0525 Y0.8441
X25.0467 Y0.8426
X25.041 Y0.841
X25.0352 Y0.8392
X25.0294 Y0.8372
X25.0237 Y0.8352
X25.0179 Y0.8329
X25.0121 Y0.8305
X25.007 Y0.8283
X25.0025 Y0.8262
X24.9967 Y0.8233
X24.9897 Y0.8196
X24.9833 Y0.816
X24.9775 Y0.8125
X24.9715 Y0.8086
X24.9651 Y0.8043
X24.9592 Y0.8
X24.9537 Y0.7958
X24.9482 Y0.7913
X24.9428 Y0.7866
X24.9386 Y0.7829
X24.9359 Y0.7803
X24.9321 Y0.7767
X24.9276 Y0.7721
X24.9232 Y0.7674
X24.919 Y0.7628
X24.916 Y0.7593
X24.9142 Y0.7571
X24.911 Y0.7531
X24.9065 Y0.7474
X24.9024 Y0.7416
X24.8984 Y0.7358
X24.8958 Y0.7319
X24.8945 Y0.7299
X24.8911 Y0.7242
X24.8858 Y0.7147
X24.8818 Y0.707
X24.879 Y0.7012
X24.8764 Y0.6955
X24.874 Y0.6897
X24.8723 Y0.6855
X24.8713 Y0.683
X24.8693 Y0.6772
X24.8663 Y0.6683
X24.8642 Y0.6609
X24.8626 Y0.6551
X24.8612 Y0.6494
X24.86 Y0.6436
X24.8589 Y0.6378
X24.8579 Y0.6321
X24.8571 Y0.6263
X24.8564 Y0.6206
X24.8558 Y0.6148
X24.8553 Y0.609
X24.855 Y0.6033
X24.8548 Y0.5975
Y0.5936
X24.848 Y-1.2388
X24.8481 Y-1.2427
X24.8484 Y-1.2542
X24.8487 Y-1.2606
X24.8491 Y-1.2659
X24.5643
X24.5647 Y-1.2597
X24.565 Y-1.2538
X24.5653 Y-1.2423
Y-1.2393
X24.5647 Y0.5817
Y0.582
X24.5646 Y0.5935
X24.5645 Y0.599
X24.5642 Y0.6047
X24.5638 Y0.6105
X24.5633 Y0.6163
X24.5627 Y0.622
X24.5619 Y0.6278
X24.561 Y0.6335
X24.56 Y0.6393
X24.5588 Y0.6451
X24.5575 Y0.6508
X24.556 Y0.6566
X24.5544 Y0.6624
X24.5528 Y0.6676
X24.5513 Y0.6724
X24.5493 Y0.6782
X24.5468 Y0.6849
X24.5442 Y0.6912
X24.5417 Y0.6969
X24.539 Y0.7027
X24.5362 Y0.7085
X24.5329 Y0.7146
X24.5293 Y0.7211
X24.5259 Y0.7268
X24.5226 Y0.7319
X24.5191 Y0.7372
X24.5152 Y0.7428
X24.5108 Y0.7485
X24.5061 Y0.7545
X24.5012 Y0.7603
X24.4961 Y0.7661
X24.4905 Y0.772
X24.4844 Y0.778
X24.4784 Y0.7835
X24.4727 Y0.7886
X24.4669 Y0.7933
X24.4611 Y0.7978
X24.457 Y0.8009
X24.4545 Y0.8027
X24.4488 Y0.8065
X24.4397 Y0.8123
X24.4324 Y0.8166
X24.4268 Y0.8197
X24.4211 Y0.8227
X24.4151 Y0.8256
X24.4092 Y0.8282
X24.4034 Y0.8307
X24.3977 Y0.833
X24.3919 Y0.8351
X24.3861 Y0.8371
X24.3804 Y0.8389
X24.3746 Y0.8406
X24.3688 Y0.8421
X24.3631 Y0.8435
X24.3573 Y0.8448
X24.3515 Y0.8459
X24.3458 Y0.8469
X24.3376 Y0.848
X24.3272 Y0.8492
X24.3268
X24.3255 Y4.7341
X25.0913
X25.0879 Y3.789
X25.0877 Y3.7862 Z0.1943
X25.0874 Y3.7835 Z0.1946
X25.0869 Y3.7807 Z0.195
X25.0863 Y3.7781 Z0.1955
X25.0855 Y3.7755 Z0.1962
X25.0846 Y3.7729 Z0.1971
X25.0836 Y3.7705 Z0.1981
X25.0825 Y3.7682 Z0.1992
X25.0813 Y3.766 Z0.2005
X25.08 Y3.764 Z0.2019
X25.0787 Y3.762 Z0.2035
X25.0774 Y3.7602 Z0.2052
X25.076 Y3.7586 Z0.207
X25.0747 Y3.7571 Z0.2089
X25.0733 Y3.7557 Z0.2109
X25.072 Y3.7545 Z0.2131
X25.0707 Y3.7533 Z0.2153
X25.0695 Y3.7524 Z0.2176
X25.0684 Y3.7515 Z0.2201
X25.0674 Y3.7507 Z0.2226
X25.0664 Y3.7501 Z0.2251
X25.0656 Y3.7495 Z0.2277
X25.0649 Y3.7491 Z0.2304
X25.0643 Y3.7487 Z0.2331
X25.0638 Y3.7484 Z0.2359
X25.0635 Y3.7482 Z0.2386
X25.0633 Y3.7481 Z0.2414
X25.0632 Z0.2442
G0 Z0.8442
X26.7061 Y3.6553
Z0.5395
G1 Z0.4176 F50.
Y3.655 Z0.4122 F100.
Y3.6542 Z0.4069
Y3.6527 Z0.4018
Y3.6508 Z0.3968
Y3.6483 Z0.392
Y3.6453 Z0.3876
Y3.6419 Z0.3835
Y3.638 Z0.3798
Y3.6338 Z0.3765
X26.706 Y3.6292 Z0.3737
Y3.6244 Z0.3714
Y3.6193 Z0.3696
Y3.6141 Z0.3684
Y3.6088 Z0.3677
X26.7017 Y1.13 Z0.1944
Y1.1265 Z0.1942
X26.7016 Y1.0914
G2 X26.6401 Y1.0001 I-0.0988 J0.0002
G3 X26.5247 Y0.9315 I0.1712 J-0.4196
X26.4352 Y0.8316 I0.2741 J-0.3358
G2 X26.3721 Y0.8315 I-0.0316 J0.0205
G3 X26.3588 Y0.8504 I-0.3206 J-0.2099
X26.3446 Y0.8686 I-0.384 J-0.2858
G2 X26.3305 Y0.9081 I0.0477 J0.0393
G1 X26.3437 Y4.4903
G2 X26.4065 Y4.5529 I0.0629 J-0.0002
G1 X26.6451
G2 X26.7075 Y4.4903 I0. J-0.0625
G1 X26.7017 Y1.1265
G3 X26.792 Y0.9905 I0.1472 J-0.0003
G2 X26.8824 Y0.8544 I-0.0569 J-0.1358
G1 Y0.8507
X26.804 Y0.8508
X26.7999 Y0.8507
X26.7941 Y0.8506
X26.7884 Y0.8503
X26.7826 Y0.8498
X26.7784 Y0.8495
X26.7757 Y0.8492
X26.7699 Y0.8484
X26.761 Y0.8471
X26.7538 Y0.8457
X26.748 Y0.8445
X26.7422 Y0.8431
X26.7365 Y0.8416
X26.7307 Y0.84
X26.7249 Y0.8382
X26.7191 Y0.8363
X26.7134 Y0.8342
X26.7063 Y0.8314
X26.698 Y0.8278
X26.6923 Y0.8252
X26.689 Y0.8236
X26.6845 Y0.8213
X26.6788 Y0.8182
X26.673 Y0.8149
X26.6672 Y0.8114
X26.6619 Y0.808
X26.6569 Y0.8046
X26.6511 Y0.8005
X26.6445 Y0.7955
X26.641 Y0.7927
X26.6375 Y0.7897
X26.63 Y0.7832
X26.6243 Y0.7779
X26.6202 Y0.7739
X26.6148 Y0.7682
X26.608 Y0.7606
X26.6023 Y0.7538
X26.5975 Y0.7477
X26.5932 Y0.7419
X26.5895 Y0.7365
X26.5858 Y0.7309
X26.5822 Y0.7251
X26.5789 Y0.7194
X26.5757 Y0.7136
X26.5736 Y0.7097
X26.5726 Y0.7077
X26.5699 Y0.702
X26.5656 Y0.6925
X26.5624 Y0.6848
X26.5603 Y0.679
X26.5583 Y0.6733
X26.5564 Y0.6675
X26.5547 Y0.6617
X26.5532 Y0.656
X26.5517 Y0.6502
X26.5504 Y0.6445
X26.5496 Y0.6405
X26.5492 Y0.6383
X26.5483 Y0.6326
X26.5469 Y0.6232
X26.546 Y0.6156
X26.5455 Y0.6099
X26.5452 Y0.6041
X26.545 Y0.5983
X26.5449 Y0.5934
X26.5416 Y-1.2391
X26.5417 Y-1.2425
X26.542 Y-1.254
X26.5422 Y-1.2601
X26.5427 Y-1.2659
X26.2563
X26.2567 Y-1.2588
X26.2569 Y-1.2535
X26.2572 Y-1.242
Y-1.2398
X26.2639 Y0.5811
Y0.5817
Y0.5823
X26.2638 Y0.5938
X26.2636 Y0.6008
X26.2632 Y0.6065
X26.2628 Y0.6123
X26.2622 Y0.618
X26.2615 Y0.6238
X26.2606 Y0.6296
X26.2596 Y0.6353
X26.2585 Y0.6411
X26.2572 Y0.6469
X26.2558 Y0.6526
X26.2543 Y0.6584
X26.2526 Y0.6642
X26.2508 Y0.6699
X26.2488 Y0.6757
X26.2465 Y0.6818
X26.2439 Y0.6883
X26.2414 Y0.6942
X26.2389 Y0.6996
X26.2363 Y0.705
X26.2335 Y0.7104
X26.2306 Y0.7157
X26.2276 Y0.7209
X26.2245 Y0.726
X26.2212 Y0.7311
X26.2191 Y0.7343
X26.2182 Y0.7356
X26.2158 Y0.7391
X26.2115 Y0.7448
X26.2071 Y0.7506
X26.2023 Y0.7564
X26.199 Y0.7602
X26.1973 Y0.7622
X26.1941 Y0.7657
X26.1892 Y0.7707
X26.1844 Y0.7755
X26.1796 Y0.78
X26.1762 Y0.7831
X26.1743 Y0.7848
X26.1705 Y0.788
X26.1648 Y0.7926
X26.159 Y0.7971
X26.1532 Y0.8012
X26.1495 Y0.8038
X26.149 Y0.8042
X26.1494 Y0.9249
X26.1634 Y4.7341
X26.8892
X26.8824 Y0.8544
Y0.8542 Z0.1943
Y0.854
X26.8823 Y0.8538
Y0.8536
X26.8822 Y0.8534 Z0.1944
Y0.8532 Z0.1945
X26.8821 Y0.8531
X26.882 Y0.8529 Z0.1946
Y0.8527 Z0.1947
X26.8819 Y0.8526 Z0.1948
X26.8818 Y0.8524 Z0.1949
X26.8817 Y0.8523 Z0.1951
X26.8816 Y0.8522 Z0.1952
X26.8815 Y0.852 Z0.1953
X26.8814 Y0.8519 Z0.1955
X26.8813 Y0.8518 Z0.1956
X26.8812 Z0.1958
X26.8811 Y0.8517 Z0.196
Y0.8516 Z0.1962
X26.881 Y0.8515 Z0.1963
X26.8809 Z0.1965
Z0.1967
X26.8808 Y0.8514 Z0.1969
Z0.1971
X26.8807 Z0.1973
Y0.8513 Z0.1975
Z0.1977
Z0.1979
G0 Z0.8442
X28.2409 Y1.0914
Z0.5395
G1 Z0.4176 F50.
Y1.0911 Z0.4122 F100.
Y1.0902 Z0.4069
Y1.0888 Z0.4018
Y1.0868 Z0.3968
Y1.0843 Z0.392
X28.241 Y1.0814 Z0.3876
Y1.0779 Z0.3835
Y1.0741 Z0.3798
Y1.0698 Z0.3765
Y1.0653 Z0.3737
Y1.0604 Z0.3714
Y1.0554 Z0.3696
Y1.0502 Z0.3684
Y1.0448 Z0.3677
X28.2434 Y-1.2394 Z0.208
Y-1.2422 Z0.2078
X28.2437 Y-1.2537 Z0.207
X28.2439 Y-1.2593 Z0.2066
X28.2443 Y-1.2659 Z0.2061
X28.0763 Z0.1944
X28.0728 Z0.1942
X27.9413
X27.9417 Y-1.2592
X27.9419 Y-1.2537
X27.9422 Y-1.2421
Y-1.2395
X27.9527 Y4.7341
X28.2371
X28.2434 Y-1.2394
Y-1.2422
X28.2437 Y-1.2537
X28.2439 Y-1.2593
X28.2443 Y-1.2659
X28.0728
X28.0701 Y-1.2657 Z0.1943
X28.0673 Y-1.2654 Z0.1946
X28.0645 Y-1.265 Z0.195
X28.0619 Y-1.2644 Z0.1955
X28.0592 Y-1.2636 Z0.1962
X28.0567 Y-1.2627 Z0.1971
X28.0543 Y-1.2617 Z0.1981
X28.052 Y-1.2606 Z0.1992
X28.0498 Y-1.2594 Z0.2005
X28.0477 Y-1.2582 Z0.2019
X28.0458 Y-1.2569 Z0.2035
X28.044 Y-1.2555 Z0.2052
X28.0424 Y-1.2542 Z0.207
X28.0408 Y-1.2528 Z0.2089
X28.0395 Y-1.2515 Z0.2109
X28.0382 Y-1.2502 Z0.2131
X28.0371 Y-1.2489 Z0.2153
X28.0361 Y-1.2477 Z0.2176
X28.0352 Y-1.2466 Z0.2201
X28.0344 Y-1.2455 Z0.2226
X28.0338 Y-1.2446 Z0.2251
X28.0332 Y-1.2438 Z0.2277
X28.0328 Y-1.2431 Z0.2304
X28.0324 Y-1.2425 Z0.2331
X28.0321 Y-1.242 Z0.2359
X28.0319 Y-1.2416 Z0.2386
X28.0318 Y-1.2414 Z0.2414
Z0.2442
G0 Z0.8442
X29.6941 Y1.938
Z0.5395
G1 Z0.4176 F50.
Y1.9383 Z0.4122 F100.
Y1.9392 Z0.4069
Y1.9406 Z0.4018
Y1.9426 Z0.3968
Y1.9451 Z0.392
Y1.948 Z0.3876
Y1.9515 Z0.3835
Y1.9553 Z0.3798
Y1.9596 Z0.3765
Y1.9641 Z0.3737
Y1.969 Z0.3714
Y1.974 Z0.3696
Y1.9792 Z0.3684
Y1.9846 Z0.3677
X29.6916 Y4.347 Z0.2025
G2 X29.7176 Y4.3731 Z0.1996 I0.026 J0.
G1 X29.7296 Z0.1988
G2 X29.7556 Y4.347 Z0.1959 I0. J-0.026
G1 X29.7555 Y4.3245 Z0.1944
Y4.321 Z0.1942
X29.7478 Y1.1554
G2 X29.709 Y1.1327 I-0.026 J0.0001
G1 X29.7082 Y1.1332
G2 X29.6949 Y1.1558 I0.0127 J0.0227
G1 X29.6916 Y4.347
G2 X29.7176 Y4.3731 I0.026 J0.
G1 X29.7296
G2 X29.7556 Y4.347 I0. J-0.026
G1 X29.7555 Y4.321
G3 X29.8452 Y4.1858 I0.1462 J-0.0004
G2 X29.9349 Y4.0506 I-0.0566 J-0.1349
G1 X29.9273 Y0.9763
G2 X29.8954 Y0.8979 I-0.1129 J0.0003
G3 X29.8408 Y0.8289 I0.3094 J-0.3009
G2 X29.7772 Y0.8291 I-0.0318 J0.0203
G3 X29.6903 Y0.9281 I-0.3615 J-0.2293
X29.5779 Y0.9968 I-0.2858 J-0.3417
G2 X29.515 Y1.0915 I0.0401 J0.0949
G1 X29.5114 Y4.4892
G2 X29.5752 Y4.5531 I0.0638 J0.0001
G1 X29.8723
G2 X29.9359 Y4.4893 I0. J-0.0637
G1 X29.9349 Y4.0506
G3 X30.025 Y3.9146 I0.1471 J-0.0004
G2 X30.1152 Y3.7786 I-0.0569 J-0.1356
G1 X30.108 Y0.8293
X30.1075 Y0.8291
X30.1071 Y0.8289
X30.1067 Y0.8287
X30.1022 Y0.8267
X30.0964 Y0.8239
X30.0893 Y0.8202
X30.0829 Y0.8166
X30.0771 Y0.8132
X30.0714 Y0.8096
X30.0656 Y0.8058
X30.0623 Y0.8035
X30.0614 Y0.8029
X30.0583 Y0.8006
X30.053 Y0.7966
X30.0476 Y0.7924
X30.0423 Y0.7879
X30.038 Y0.7841
X30.0347 Y0.7811
X30.0309 Y0.7774
X30.0266 Y0.7732
X30.0225 Y0.7689
X30.0185 Y0.7646
X30.0153 Y0.7609
X30.0128 Y0.758
X30.0093 Y0.7537
X30.0048 Y0.7479
X30.0006 Y0.7421
X29.9966 Y0.7364
X29.9944 Y0.733
X29.9938 Y0.7322
X29.9919 Y0.7291
X29.9886 Y0.7238
X29.9855 Y0.7184
X29.9826 Y0.7131
X29.9798 Y0.7076
X29.977 Y0.7018
X29.9743 Y0.6959
X29.9717 Y0.6898
X29.9694 Y0.684
X29.9673 Y0.6784
X29.9654 Y0.6728
X29.9636 Y0.6671
X29.9619 Y0.6614
X29.9604 Y0.6557
X29.959 Y0.6499
X29.9577 Y0.6442
X29.9566 Y0.6384
X29.9556 Y0.6326
X29.9547 Y0.6269
X29.954 Y0.6211
X29.9533 Y0.6153
X29.9529 Y0.6096
X29.9525 Y0.6038
X29.9523 Y0.5981
X29.9522 Y0.5935
X29.9477 Y-1.239
X29.9478 Y-1.2426
X29.9481 Y-1.2541
X29.9484 Y-1.2602
X29.9488 Y-1.2659
X29.6673
X29.6674 Y-1.2634
X29.6677 Y-1.2582
X29.6679 Y-1.2539
X29.6682 Y-1.2424
Y-1.2392
X29.6663 Y0.5818
Y0.582
Y0.5935
X29.6661 Y0.5986
X29.6659 Y0.6044
X29.6655 Y0.6102
X29.665 Y0.6159
X29.6644 Y0.6217
X29.6636 Y0.6275
X29.6627 Y0.6332
X29.6617 Y0.639
X29.6606 Y0.6447
X29.6593 Y0.6505
X29.6578 Y0.6563
X29.6562 Y0.662
X29.6545 Y0.6678
X29.6527 Y0.6736
X29.6506 Y0.6793
X29.6485 Y0.6851
X29.647 Y0.6888
X29.6463 Y0.6906
X29.6437 Y0.6964
X29.6391 Y0.7062
X29.6351 Y0.7139
X29.6319 Y0.7197
X29.6285 Y0.7255
X29.6247 Y0.7315
X29.6209 Y0.7373
X29.6169 Y0.743
X29.6127 Y0.7486
X29.6082 Y0.7543
X29.6044 Y0.7589
X29.6013 Y0.7624
X29.596 Y0.7683
X29.5882 Y0.7763
X29.5823 Y0.7819
X29.5786 Y0.7852
X29.5741 Y0.7891
X29.5689 Y0.7934
X29.5637 Y0.7974
X29.5585 Y0.8013
X29.5553 Y0.8036
X29.5542 Y0.8044
X29.5508 Y0.8067
X29.545 Y0.8104
X29.5392 Y0.8139
X29.5335 Y0.8173
X29.5269 Y0.8208
X29.5196 Y0.8245
X29.5139 Y0.8272
X29.5096 Y0.8291
X29.5046 Y0.8312
X29.4989 Y0.8335
X29.4931 Y0.8356
X29.4873 Y0.8376
X29.4815 Y0.8394
X29.4758 Y0.841
X29.47 Y0.8426
X29.4642 Y0.844
X29.4585 Y0.8452
X29.4527 Y0.8463
X29.4469 Y0.8473
X29.4412 Y0.8482
X29.4366 Y0.8487
X29.4331 Y0.8491
X29.4273 Y0.8496
X29.4193 Y0.8502
X29.4115 Y0.8504
X29.4 Y0.8505
X29.3995
X29.3991
X29.3342 Y0.8504
X29.3302 Y4.7341
X30.1175
X30.1152 Y3.7786
X30.115 Y3.7758 Z0.1943
X30.1147 Y3.7731 Z0.1946
X30.1142 Y3.7703 Z0.195
X30.1136 Y3.7677 Z0.1955
X30.1129 Y3.765 Z0.1962
X30.112 Y3.7625 Z0.1971
X30.111 Y3.7601 Z0.1981
X30.1099 Y3.7578 Z0.1992
X30.1087 Y3.7556 Z0.2005
X30.1074 Y3.7536 Z0.2019
X30.1061 Y3.7516 Z0.2035
X30.1048 Y3.7498 Z0.2052
X30.1034 Y3.7482 Z0.207
X30.102 Y3.7467 Z0.2089
X30.1007 Y3.7453 Z0.2109
X30.0994 Y3.744 Z0.2131
X30.0981 Y3.7429 Z0.2153
X30.0969 Y3.7419 Z0.2176
X30.0958 Y3.7411 Z0.2201
X30.0947 Y3.7403 Z0.2226
X30.0938 Y3.7396 Z0.2251
X30.093 Y3.7391 Z0.2277
X30.0922 Y3.7386 Z0.2304
X30.0917 Y3.7383 Z0.2331
X30.0912 Y3.738 Z0.2359
X30.0908 Y3.7378 Z0.2386
X30.0906 Y3.7377 Z0.2414
Y3.7376 Z0.2442
G0 Z0.8442
X31.556 Y1.9413
Z0.5395
G1 Z0.4176 F50.
Y1.9416 Z0.4122 F100.
Y1.9425 Z0.4069
Y1.9439 Z0.4018
Y1.9459 Z0.3968
Y1.9484 Z0.392
Y1.9513 Z0.3876
Y1.9548 Z0.3835
Y1.9586 Z0.3798
Y1.9629 Z0.3765
Y1.9674 Z0.3737
Y1.9723 Z0.3714
X31.5561 Y1.9773 Z0.3696
Y1.9825 Z0.3684
Y1.9878 Z0.3677
X31.5619 Y4.3471 Z0.2027
G2 X31.5879 Y4.3731 Z0.1999 I0.026 J-0.0001
G1 X31.602 Z0.1989
G2 X31.628 Y4.347 Z0.196 I0. J-0.026
G1 Y4.3234 Z0.1944
Y4.3199 Z0.1942
X31.6203 Y1.16
G2 X31.6065 Y1.1371 I-0.026 J0.0001
G3 X31.5931 Y1.1296 I0.2324 J-0.4325
G2 X31.554 Y1.1522 I-0.013 J0.0225
G1 X31.5619 Y4.3471
G2 X31.5879 Y4.3731 I0.026 J-0.0001
G1 X31.602
G2 X31.628 Y4.347 I0. J-0.026
G1 Y4.3199
G3 X31.7176 Y4.1847 I0.1462 J-0.0004
G2 X31.8073 Y4.0495 I-0.0566 J-0.1349
G1 X31.8001 Y1.0933
G2 X31.7376 Y1.0002 I-0.101 J0.0002
G3 X31.5237 Y0.8172 I0.1725 J-0.4181
G2 X31.4622 Y0.8173 I-0.0308 J0.0185
G3 X31.4352 Y0.8566 I-0.3467 J-0.2084
X31.4043 Y0.8929 I-0.3956 J-0.3065
G2 X31.3736 Y0.9705 I0.0823 J0.0773
G1 X31.3822 Y4.4892
G2 X31.4463 Y4.5531 I0.0641 J-0.0002
G1 X31.7447
G2 X31.8084 Y4.4893 I0. J-0.0637
G1 X31.8073 Y4.0495
G3 X31.8975 Y3.9135 I0.1471 J-0.0004
G2 X31.9876 Y3.7775 I-0.0569 J-0.1356
G1 X31.9805 Y0.8509
X31.9027 Y0.8511
X31.8994
X31.8937 Y0.851
X31.8879 Y0.8507
X31.8821 Y0.8503
X31.8761 Y0.8498
X31.8699 Y0.8491
X31.8641 Y0.8483
X31.8588 Y0.8474
X31.8533 Y0.8464
X31.8475 Y0.8453
X31.8417 Y0.844
X31.836 Y0.8425
X31.8302 Y0.8409
X31.8244 Y0.8392
X31.8187 Y0.8373
X31.8129 Y0.8352
X31.805 Y0.8322
X31.795 Y0.8279
X31.7893 Y0.8253
X31.7877 Y0.8245
X31.7841 Y0.8226
X31.7783 Y0.8196
X31.7725 Y0.8164
X31.7668 Y0.8129
X31.7607 Y0.8091
X31.7543 Y0.8048
X31.7485 Y0.8007
X31.7434 Y0.7968
X31.7386 Y0.7931
X31.7342 Y0.7894
X31.7298 Y0.7856
X31.7254 Y0.7816
X31.7218 Y0.7782
X31.7191 Y0.7755
X31.7156 Y0.772
X31.7114 Y0.7676
X31.7074 Y0.7632
X31.7036 Y0.7587
X31.6999 Y0.7543
X31.6964 Y0.7498
X31.6921 Y0.7441
X31.6872 Y0.737
X31.683 Y0.7306
X31.6795 Y0.725
X31.6762 Y0.7193
X31.6729 Y0.7134
X31.6699 Y0.7075
X31.6671 Y0.7018
X31.6645 Y0.696
X31.662 Y0.6902
X31.6597 Y0.6845
X31.6576 Y0.6787
X31.6556 Y0.6729
X31.6538 Y0.6672
X31.6517 Y0.6601
X31.6496 Y0.6517
X31.6482 Y0.6459
X31.6476 Y0.6428
X31.6467 Y0.6384
X31.6457 Y0.6326
X31.6449 Y0.6268
X31.6441 Y0.6211
X31.6435 Y0.6153
X31.643 Y0.6095
X31.6427 Y0.6038
X31.6425 Y0.598
X31.6424 Y0.5935
X31.6379 Y-1.239
Y-1.2426
X31.6382 Y-1.2541
X31.6385 Y-1.2602
X31.6389 Y-1.2659
X31.3395
X31.3399 Y-1.259
X31.3401 Y-1.2536
X31.3404 Y-1.2421
Y-1.2396
X31.3449 Y0.5813
Y0.5817
Y0.5822
X31.3448 Y0.5937
X31.3446 Y0.6002
X31.3443 Y0.6059
X31.3439 Y0.6117
X31.3433 Y0.6175
X31.3426 Y0.6232
X31.3418 Y0.629
X31.3408 Y0.6348
X31.3397 Y0.6405
X31.3383 Y0.6471
X31.3365 Y0.6543
X31.335 Y0.6601
X31.3337 Y0.6643
X31.3321 Y0.6693
X31.3302 Y0.6751
X31.3281 Y0.6809
X31.3258 Y0.6866
X31.3234 Y0.6924
X31.3208 Y0.6982
X31.3181 Y0.7039
X31.3151 Y0.7097
X31.3134 Y0.7131
X31.3128 Y0.7141
X31.311 Y0.7173
X31.308 Y0.7225
X31.3047 Y0.7278
X31.3013 Y0.733
X31.2971 Y0.7391
X31.292 Y0.7461
X31.2876 Y0.7518
X31.2838 Y0.7564
X31.2781 Y0.7629
X31.2703 Y0.7711
X31.2646 Y0.7768
X31.2612 Y0.7801
X31.2554 Y0.7851
X31.2474 Y0.7919
X31.2437 Y0.7948
X31.24 Y0.7976
X31.2333 Y0.8024
X31.2275 Y0.8063
X31.2227 Y0.8094
X31.2174 Y0.8127
X31.2116 Y0.816
X31.2058 Y0.8191
X31.2001 Y0.8221
X31.1948 Y0.8246
X31.1922 Y0.8257
X31.2018 Y4.7341
X31.99
X31.9876 Y3.7775
X31.9875 Y3.7747 Z0.1943
X31.9872 Y3.772 Z0.1946
X31.9867 Y3.7692 Z0.195
X31.9861 Y3.7665 Z0.1955
X31.9853 Y3.7639 Z0.1962
X31.9844 Y3.7614 Z0.1971
X31.9834 Y3.759 Z0.1981
X31.9823 Y3.7567 Z0.1992
X31.9811 Y3.7545 Z0.2005
X31.9799 Y3.7524 Z0.2019
X31.9786 Y3.7505 Z0.2035
X31.9772 Y3.7487 Z0.2052
X31.9758 Y3.7471 Z0.207
X31.9745 Y3.7456 Z0.2089
X31.9731 Y3.7442 Z0.2109
X31.9718 Y3.7429 Z0.2131
X31.9706 Y3.7418 Z0.2153
X31.9694 Y3.7408 Z0.2176
X31.9682 Y3.7399 Z0.2201
X31.9672 Y3.7392 Z0.2226
X31.9663 Y3.7385 Z0.2251
X31.9654 Y3.738 Z0.2277
X31.9647 Y3.7375 Z0.2304
X31.9641 Y3.7372 Z0.2331
X31.9636 Y3.7369 Z0.2359
X31.9633 Y3.7367 Z0.2386
X31.9631 Y3.7366 Z0.2414
X31.963 Y3.7365 Z0.2442
G0 Z0.8442
X33.3413 Y1.0965
Z0.5395
G1 Z0.4176 F50.
Y1.0962 Z0.4122 F100.
Y1.0954 Z0.4069
X33.3414 Y1.094 Z0.4018
Y1.092 Z0.3968
Y1.0895 Z0.392
Y1.0865 Z0.3876
Y1.0831 Z0.3835
Y1.0792 Z0.3798
Y1.075 Z0.3765
Y1.0704 Z0.3737
Y1.0656 Z0.3714
Y1.0606 Z0.3696
Y1.0553 Z0.3684
X33.3415 Y1.05 Z0.3677
X33.3466 Y-1.2396 Z0.2076
X33.3467 Y-1.2421 Z0.2074
X33.3469 Y-1.2536 Z0.2066
X33.3472 Y-1.259 Z0.2062
X33.3476 Y-1.2659 Z0.2058
X33.1848 Z0.1944
X33.1813 Z0.1942
X33.0549
X33.0554 Y-1.259
X33.0556 Y-1.2536
X33.0558 Y-1.2421
X33.0559 Y-1.2396
X33.0705 Y4.7341
X33.3331
X33.3466 Y-1.2396
X33.3467 Y-1.2421
X33.3469 Y-1.2536
X33.3472 Y-1.259
X33.3476 Y-1.2659
X33.1813
X33.1785 Y-1.2657 Z0.1943
X33.1757 Y-1.2654 Z0.1946
X33.173 Y-1.265 Z0.195
X33.1703 Y-1.2644 Z0.1955
X33.1677 Y-1.2636 Z0.1962
X33.1651 Y-1.2627 Z0.1971
X33.1627 Y-1.2617 Z0.1981
X33.1604 Y-1.2606 Z0.1992
X33.1582 Y-1.2594 Z0.2005
X33.1562 Y-1.2582 Z0.2019
X33.1542 Y-1.2569 Z0.2035
X33.1524 Y-1.2555 Z0.2052
X33.1508 Y-1.2542 Z0.207
X33.1493 Y-1.2528 Z0.2089
X33.1479 Y-1.2515 Z0.2109
X33.1466 Y-1.2502 Z0.2131
X33.1455 Y-1.2489 Z0.2153
X33.1445 Y-1.2477 Z0.2176
X33.1436 Y-1.2466 Z0.2201
X33.1429 Y-1.2455 Z0.2226
X33.1422 Y-1.2446 Z0.2251
X33.1417 Y-1.2438 Z0.2277
X33.1412 Y-1.2431 Z0.2304
X33.1408 Y-1.2425 Z0.2331
X33.1405 Y-1.242 Z0.2359
X33.1403 Y-1.2416 Z0.2386
X33.1402 Y-1.2414 Z0.2414
Z0.2442
G0 Z0.8442
X34.7606 Y1.9409
Z0.5395
G1 Z0.4176 F50.
Y1.9412 Z0.4122 F100.
Y1.942 Z0.4069
Y1.9434 Z0.4018
Y1.9454 Z0.3968
Y1.9479 Z0.392
Y1.9509 Z0.3876
Y1.9543 Z0.3835
Y1.9582 Z0.3798
Y1.9624 Z0.3765
Y1.967 Z0.3737
Y1.9718 Z0.3714
X34.7605 Y1.9768 Z0.3696
Y1.9821 Z0.3684
Y1.9874 Z0.3677
X34.7552 Y4.338 Z0.2033
G2 X34.7902 Y4.3731 Z0.1995 I0.035 J0.0001
G1 X34.7913 Z0.1994
G2 X34.8263 Y4.3381 Z0.1956 I0. J-0.035
G1 Y4.3211 Z0.1944
Y4.3176 Z0.1942
X34.8285 Y1.1622
G2 X34.7903 Y1.1391 I-0.026 J0.
G3 X34.7767 Y1.1462 I-0.4614 J-0.8744
G2 X34.7624 Y1.1694 I0.0117 J0.0232
G1 X34.7552 Y4.338
G2 X34.7902 Y4.3731 I0.035 J0.0001
G1 X34.7913
G2 X34.8263 Y4.3381 I0. J-0.035
G1 Y4.3176
G3 X34.9164 Y4.1826 I0.1463 J0.0001
G2 X35.0065 Y4.0477 I-0.0562 J-0.135
G1 X35.0087 Y0.9577
G2 X34.9844 Y0.8984 I-0.0844 J-0.0001
G3 X34.9315 Y0.8329 I0.3076 J-0.3028
G2 X34.8671 I-0.0322 J0.0211
G3 X34.7709 Y0.938 I-0.373 J-0.2448
X34.646 Y1.0066 I-0.2654 J-0.3355
G2 X34.5825 Y1.0956 I0.031 J0.0893
G1 X34.5748 Y4.4893
G2 X34.6385 Y4.5531 I0.0637 J0.0001
G1 X34.9423
G2 X35.0062 Y4.4892 I0. J-0.0639
G1 X35.0065 Y4.0477
G3 X35.0971 Y3.912 I0.1471 J0.0001
G2 X35.1877 Y3.7763 I-0.0565 J-0.1358
G1 X35.1897 Y0.8255
X35.1854 Y0.8234
X35.1803 Y0.8209
X35.1752 Y0.8182
X35.1701 Y0.8153
X35.1649 Y0.8123
X35.1598 Y0.8091
X35.1546 Y0.8057
X35.1514 Y0.8036
X35.1502 Y0.8027
X35.1467 Y0.8002
X35.1409 Y0.7959
X35.1351 Y0.7913
X35.1294 Y0.7864
X35.1257 Y0.7832
X35.124 Y0.7817
X35.1205 Y0.7785
X35.1153 Y0.7734
X35.1104 Y0.7683
X35.1057 Y0.7633
X35.1028 Y0.76
X35.1016 Y0.7586
X35.0987 Y0.755
X35.0941 Y0.7493
X35.0897 Y0.7435
X35.0856 Y0.7378
X35.0828 Y0.7336
X35.0812 Y0.7312
X35.0776 Y0.7255
X35.0723 Y0.7164
X35.0683 Y0.7089
X35.0654 Y0.7032
X35.0627 Y0.6974
X35.0602 Y0.6916
X35.0585 Y0.6877
X35.0577 Y0.6857
X35.0556 Y0.68
X35.0522 Y0.6705
X35.0498 Y0.6628
X35.0482 Y0.6571
X35.0467 Y0.6513
X35.0454 Y0.6455
X35.0442 Y0.6398
X35.0431 Y0.634
X35.0422 Y0.6282
X35.0414 Y0.6225
X35.0408 Y0.6167
X35.0402 Y0.611
X35.0398 Y0.6052
X35.0395 Y0.5994
X35.0394 Y0.5936
X35.0393 Y0.5821
Y0.5815
X35.0406 Y-1.2394
Y-1.2422
X35.0409 Y-1.2537
X35.0412 Y-1.2594
X35.0416 Y-1.2659
X34.7615
X34.7619 Y-1.2602
X34.7622 Y-1.2541
X34.7625 Y-1.2426
Y-1.239
X34.7583 Y0.5934
X34.7582 Y0.5981
X34.758 Y0.6039
X34.7577 Y0.6096
X34.7572 Y0.6154
X34.7566 Y0.6212
X34.7559 Y0.6269
X34.755 Y0.6327
X34.754 Y0.6384
X34.7529 Y0.6442
X34.7516 Y0.65
X34.7502 Y0.6557
X34.7486 Y0.6615
X34.7469 Y0.6673
X34.7451 Y0.673
X34.7431 Y0.6788
X34.7409 Y0.6846
X34.7386 Y0.6903
X34.7362 Y0.6961
X34.7336 Y0.7018
X34.7308 Y0.7076
X34.7289 Y0.7112
X34.7282 Y0.7126
X34.7265 Y0.7158
X34.7236 Y0.7209
X34.7206 Y0.7259
X34.7175 Y0.731
X34.7132 Y0.7375
X34.7076 Y0.7453
X34.7033 Y0.751
X34.7004 Y0.7547
X34.6969 Y0.7589
X34.6928 Y0.7637
X34.6885 Y0.7684
X34.684 Y0.7731
X34.6806 Y0.7765
X34.6785 Y0.7786
X34.6751 Y0.7818
X34.6704 Y0.786
X34.6657 Y0.79
X34.661 Y0.7939
X34.6564 Y0.7975
X34.6517 Y0.801
X34.646 Y0.805
X34.6391 Y0.8097
X34.6327 Y0.8136
X34.6269 Y0.817
X34.6212 Y0.8202
X34.6154 Y0.8232
X34.612 Y0.8249
X34.6109 Y0.8255
X34.6077 Y0.8269
X34.6025 Y0.8293
X34.5973 Y0.8315
X34.592 Y0.8336
X34.5866 Y0.8356
X34.5808 Y0.8376
X34.575 Y0.8395
X34.5692 Y0.8412
X34.5635 Y0.8428
X34.5577 Y0.8442
X34.5519 Y0.8455
X34.5462 Y0.8466
X34.5407 Y0.8476
X34.5354 Y0.8484
X34.5297 Y0.8491
X34.5234 Y0.8498
X34.5145 Y0.8505
X34.5029 Y0.851
X34.4975 Y0.8511
X34.4021 Y0.8508
X34.3933 Y4.7341
X35.187
X35.1877 Y3.7763
X35.1875 Y3.7735 Z0.1943
X35.1872 Y3.7707 Z0.1946
X35.1868 Y3.768 Z0.195
X35.1861 Y3.7653 Z0.1955
X35.1854 Y3.7627 Z0.1962
X35.1845 Y3.7602 Z0.1971
X35.1835 Y3.7578 Z0.1981
X35.1824 Y3.7555 Z0.1992
X35.1812 Y3.7533 Z0.2005
X35.18 Y3.7512 Z0.2019
X35.1787 Y3.7493 Z0.2035
X35.1773 Y3.7475 Z0.2052
X35.176 Y3.7458 Z0.207
X35.1746 Y3.7443 Z0.2089
X35.1733 Y3.7429 Z0.2109
X35.172 Y3.7417 Z0.2131
X35.1707 Y3.7405 Z0.2153
X35.1695 Y3.7395 Z0.2176
X35.1684 Y3.7387 Z0.2201
X35.1673 Y3.7379 Z0.2226
X35.1664 Y3.7372 Z0.2251
X35.1656 Y3.7367 Z0.2277
X35.1649 Y3.7362 Z0.2304
X35.1643 Y3.7359 Z0.2331
X35.1638 Y3.7356 Z0.2359
X35.1635 Y3.7354 Z0.2386
X35.1633 Y3.7353 Z0.2414
X35.1632 Y3.7352 Z0.2442
G0 Z0.8442
X36.5923 Y1.953
Z0.5395
G1 Z0.4176 F50.
Y1.9533 Z0.4122 F100.
Y1.9541 Z0.4069
Y1.9556 Z0.4018
Y1.9575 Z0.3968
Y1.96 Z0.392
Y1.963 Z0.3876
Y1.9664 Z0.3835
Y1.9703 Z0.3798
Y1.9745 Z0.3765
Y1.9791 Z0.3737
Y1.9839 Z0.3714
Y1.989 Z0.3696
Y1.9942 Z0.3684
X36.5922 Y1.9995 Z0.3677
X36.5906 Y4.338 Z0.2042
G2 X36.6257 Y4.3731 Z0.2003 I0.035 J0.
G1 X36.6345 Z0.1997
G2 X36.6695 Y4.3377 Z0.1958 I0. J-0.035
G1 X36.6693 Y4.3167 Z0.1944
Y4.3132 Z0.1942
X36.635 Y1.0936
G2 X36.6278 Y1.0789 I-0.0193 J0.0002
G1 X36.6244 Y1.0761
G2 X36.5929 Y1.0909 I-0.0122 J0.0149
G1 X36.5906 Y4.338
G2 X36.6257 Y4.3731 I0.035 J0.
G1 X36.6345
G2 X36.6695 Y4.3377 I0. J-0.035
G1 X36.6693 Y4.3132
G3 X36.7578 Y4.1773 I0.1462 J-0.0016
G2 X36.8464 Y4.0413 I-0.0577 J-0.1344
G1 X36.8148 Y1.0729
G2 X36.7504 Y0.9462 I-0.1602 J0.0017
G3 X36.689 Y0.8901 I0.2497 J-0.3348
X36.6396 Y0.8233 I0.3324 J-0.2979
G2 X36.5774 Y0.8228 I-0.0312 J0.0189
G3 X36.5318 Y0.884 I-0.4015 J-0.2518
X36.4762 Y0.9362 I-0.3018 J-0.2654
G2 X36.4129 Y1.0653 I0.1001 J0.1292
G1 X36.4105 Y4.4892
G2 X36.4743 Y4.5531 I0.0638 J0.
G1 X36.7881
G2 X36.8512 Y4.4894 I0. J-0.063
G1 X36.8464 Y4.0413
G3 X36.9354 Y3.9046 I0.1471 J-0.0016
G2 X37.0245 Y3.7679 I-0.058 J-0.1351
G1 X36.9935 Y0.8536
X36.988 Y0.8531
X36.9822 Y0.8524
X36.9764 Y0.8515
X36.9706 Y0.8506
X36.9649 Y0.8495
X36.9582 Y0.848
X36.9506 Y0.8461
X36.9449 Y0.8446
X36.9409 Y0.8434
X36.936 Y0.8418
X36.9303 Y0.8399
X36.9245 Y0.8378
X36.9187 Y0.8355
X36.913 Y0.8331
X36.9072 Y0.8305
X36.9014 Y0.8277
X36.8957 Y0.8248
X36.8923 Y0.823
X36.8912 Y0.8224
X36.888 Y0.8206
X36.8828 Y0.8175
X36.8775 Y0.8143
X36.8723 Y0.8109
X36.8662 Y0.8067
X36.8593 Y0.8016
X36.8536 Y0.7972
X36.8489 Y0.7933
X36.8425 Y0.7876
X36.8343 Y0.7799
X36.8286 Y0.7742
X36.8252 Y0.7706
X36.8202 Y0.7649
X36.8136 Y0.757
X36.8107 Y0.7533
X36.8079 Y0.7495
X36.8029 Y0.7426
X36.799 Y0.7369
X36.7961 Y0.7322
X36.7929 Y0.727
X36.7896 Y0.7213
X36.7865 Y0.7155
X36.7835 Y0.7097
X36.7809 Y0.7043
X36.7786 Y0.6991
X36.7761 Y0.6933
X36.7736 Y0.687
X36.7714 Y0.6809
X36.7695 Y0.6752
X36.7677 Y0.6694
X36.766 Y0.6636
X36.7645 Y0.6579
X36.7631 Y0.6521
X36.7619 Y0.6463
X36.7608 Y0.6406
X36.7598 Y0.6348
X36.759 Y0.6291
X36.7583 Y0.6233
X36.7577 Y0.6175
X36.7571 Y0.6093
X36.7567 Y0.5977
Y0.5945
X36.7373 Y-1.2264
Y-1.227
Y-1.2275
X36.7372 Y-1.239
X36.7373 Y-1.2437
X36.7377 Y-1.2552
X36.7381 Y-1.2616
X36.7384 Y-1.2659
X36.463
X36.4634 Y-1.2598
X36.4637 Y-1.2539
X36.464 Y-1.2424
Y-1.2392
X36.4627 Y0.5817
Y0.582
Y0.5935
X36.4626 Y0.5988
X36.4623 Y0.6046
X36.4619 Y0.6107
X36.4613 Y0.6172
X36.4602 Y0.6259
X36.4585 Y0.6367
X36.4569 Y0.6449
X36.4556 Y0.6507
X36.4542 Y0.6564
X36.4526 Y0.6622
X36.4508 Y0.668
X36.449 Y0.6737
X36.4469 Y0.6795
X36.4448 Y0.6852
X36.4422 Y0.6914
X36.4394 Y0.698
X36.4367 Y0.7037
X36.4342 Y0.7087
X36.4314 Y0.7141
X36.4282 Y0.7198
X36.4247 Y0.7256
X36.4211 Y0.7314
X36.4182 Y0.7359
X36.416 Y0.7391
X36.4117 Y0.7449
X36.4053 Y0.7532
X36.4025 Y0.7568
X36.3995 Y0.7602
X36.3944 Y0.766
X36.3889 Y0.7718
X36.3832 Y0.7775
X36.3774 Y0.7829
X36.3716 Y0.788
X36.3681 Y0.791
X36.3645 Y0.7938
X36.3561 Y0.8002
X36.3503 Y0.8044
X36.3472 Y0.8065
X36.3427 Y0.8094
X36.337 Y0.813
X36.3312 Y0.8164
X36.3254 Y0.8195
X36.3198 Y0.8225
X36.3144 Y0.8251
X36.3087 Y0.8278
X36.3025 Y0.8304
X36.2966 Y0.8328
X36.2908 Y0.835
X36.2851 Y0.837
X36.2793 Y0.8388
X36.2735 Y0.8405
X36.2678 Y0.8421
X36.262 Y0.8435
X36.2562 Y0.8448
X36.2504 Y0.8459
X36.2447 Y0.8469
X36.2389 Y0.8478
X36.2331 Y0.8486
X36.2326
X36.2321 Y0.8487
X36.2293 Y4.7341
X37.0348
X37.0245 Y3.7679
X37.0243 Y3.7651 Z0.1943
X37.024 Y3.7624 Z0.1946
X37.0235 Y3.7596 Z0.195
X37.0228 Y3.757 Z0.1955
X37.022 Y3.7544 Z0.1962
X37.0211 Y3.7518 Z0.1971
X37.0201 Y3.7494 Z0.1981
X37.019 Y3.7471 Z0.1992
X37.0178 Y3.745 Z0.2005
X37.0165 Y3.7429 Z0.2019
X37.0152 Y3.741 Z0.2035
X37.0138 Y3.7392 Z0.2052
X37.0124 Y3.7376 Z0.207
X37.0111 Y3.7361 Z0.2089
X37.0097 Y3.7347 Z0.2109
X37.0084 Y3.7335 Z0.2131
X37.0071 Y3.7324 Z0.2153
X37.0059 Y3.7314 Z0.2176
X37.0048 Y3.7305 Z0.2201
X37.0037 Y3.7298 Z0.2226
X37.0028 Y3.7291 Z0.2251
X37.0019 Y3.7286 Z0.2277
X37.0012 Y3.7281 Z0.2304
X37.0006 Y3.7277 Z0.2331
X37.0001 Y3.7275 Z0.2359
X36.9998 Y3.7273 Z0.2386
X36.9996 Y3.7272 Z0.2414
X36.9995 Y3.7271 Z0.2442
G0 Z0.8442
X38.6209 Y3.6671
Z0.5395
G1 Z0.4176 F50.
Y3.6668 Z0.4122 F100.
Y3.6659 Z0.4069
Y3.6645 Z0.4018
Y3.6625 Z0.3968
X38.6208 Y3.6601 Z0.392
Y3.6571 Z0.3876
Y3.6536 Z0.3835
Y3.6498 Z0.3798
Y3.6455 Z0.3765
X38.6207 Y3.641 Z0.3737
Y3.6361 Z0.3714
Y3.6311 Z0.3696
Y3.6259 Z0.3684
Y3.6206 Z0.3677
X38.609 Y1.1418 Z0.1944
Y1.1383 Z0.1942
X38.6087 Y1.0944
G2 X38.5469 Y1.0057 I-0.0952 J0.0004
G3 X38.3342 Y0.8378 I0.1563 J-0.4169
G2 X38.2697 Y0.8372 I-0.0324 J0.0217
G3 X38.2354 Y0.8805 I-0.3788 J-0.2648
G2 X38.2194 Y0.9226 I0.0459 J0.0414
G1 X38.2574 Y4.4902
G2 X38.3208 Y4.5529 I0.0634 J-0.0007
G1 X38.5625
G2 X38.6248 Y4.4904 I0. J-0.0622
G1 X38.609 Y1.1383
G3 X38.6989 Y1.002 I0.1472 J-0.0007
G2 X38.7889 Y0.8657 I-0.0573 J-0.1356
G1 X38.7888 Y0.8517
X38.7087 Y0.8521
X38.7082
X38.7077
X38.6962
X38.6896 Y0.8519
X38.6838 Y0.8516
X38.6781 Y0.8511
X38.6723 Y0.8506
X38.6653 Y0.8497
X38.657 Y0.8484
X38.6513 Y0.8474
X38.648 Y0.8467
X38.6435 Y0.8457
X38.6377 Y0.8444
X38.6319 Y0.8429
X38.6262 Y0.8412
X38.6204 Y0.8394
X38.6146 Y0.8375
X38.6088 Y0.8354
X38.6031 Y0.8331
X38.5962 Y0.8302
X38.5882 Y0.8266
X38.5825 Y0.8237
X38.5789 Y0.8219
X38.5742 Y0.8193
X38.5685 Y0.816
X38.5627 Y0.8125
X38.5569 Y0.8088
X38.5522 Y0.8056
X38.5485 Y0.8029
X38.5426 Y0.7986
X38.5348 Y0.7924
X38.5281 Y0.7866
X38.5222 Y0.7813
X38.5165 Y0.7756
X38.5107 Y0.7697
X38.5055 Y0.7639
X38.5007 Y0.7583
X38.4966 Y0.7532
X38.493 Y0.7487
X38.4897 Y0.7441
X38.4864 Y0.7395
X38.4841 Y0.736
X38.4825 Y0.7337
X38.4799 Y0.7296
X38.4764 Y0.7238
X38.4732 Y0.7181
X38.4701 Y0.7123
X38.4668 Y0.7058
X38.4634 Y0.6986
X38.4609 Y0.6928
X38.4591 Y0.6885
X38.4572 Y0.6835
X38.4551 Y0.6777
X38.4532 Y0.672
X38.4514 Y0.6662
X38.4497 Y0.6604
X38.4482 Y0.6547
X38.4469 Y0.6489
X38.4457 Y0.6431
X38.4446 Y0.6374
X38.4436 Y0.6316
X38.4428 Y0.6259
X38.4421 Y0.6201
X38.4416 Y0.6143
X38.4411 Y0.6086
X38.4408 Y0.6028
X38.4407 Y0.597
X38.4406 Y0.5938
X38.432 Y-1.2387
Y-1.2428
X38.4323 Y-1.2544
X38.4327 Y-1.2608
X38.4331 Y-1.2659
X38.1474
X38.1478 Y-1.2576
X38.148 Y-1.2531
X38.1482 Y-1.2415
Y-1.2411
Y-1.2407
X38.1676 Y0.5802
Y0.584
X38.1674 Y0.5955
X38.1669 Y0.604
X38.1664 Y0.6097
X38.1658 Y0.6155
X38.1651 Y0.6213
X38.1642 Y0.627
X38.1632 Y0.6328
X38.1621 Y0.6385
X38.1608 Y0.6443
X38.1594 Y0.6501
X38.1578 Y0.6558
X38.1561 Y0.6616
X38.1543 Y0.6674
X38.1519 Y0.6741
X38.1489 Y0.6819
X38.1466 Y0.6876
X38.1449 Y0.6914
X38.1427 Y0.6962
X38.1399 Y0.7019
X38.1369 Y0.7077
X38.1338 Y0.7135
X38.1302 Y0.7195
X38.1263 Y0.7258
X38.1225 Y0.7315
X38.1188 Y0.7368
X38.1151 Y0.7418
X38.1114 Y0.7467
X38.1075 Y0.7515
X38.1033 Y0.7563
X38.1004 Y0.7596
X38.0987 Y0.7615
X38.0954 Y0.765
X38.0905 Y0.77
X38.0856 Y0.7747
X38.0807 Y0.7792
X38.077 Y0.7825
X38.0746 Y0.7845
X38.0711 Y0.7873
X38.0666 Y0.7909
X38.062 Y0.7944
X38.0574 Y0.7977
X38.0516 Y0.8017
X38.0444 Y0.8063
X38.0386 Y0.8098
X38.037 Y0.8107
X38.0788 Y4.7341
X38.8071
X38.7889 Y0.8657
X38.7888 Y0.8649 Z0.1943
X38.7887 Y0.8641
X38.7886 Y0.8634 Z0.1944
X38.7884 Y0.8626 Z0.1946
X38.7882 Y0.8619 Z0.1948
X38.7879 Y0.8612 Z0.195
X38.7877 Y0.8605 Z0.1953
X38.7873 Y0.8599 Z0.1956
X38.787 Y0.8593 Z0.196
X38.7867 Y0.8587 Z0.1964
X38.7863 Y0.8581 Z0.1968
X38.7859 Y0.8576 Z0.1973
X38.7855 Y0.8572 Z0.1978
X38.7851 Y0.8568 Z0.1983
X38.7848 Y0.8564 Z0.1989
X38.7844 Y0.856 Z0.1995
X38.784 Y0.8557 Z0.2001
X38.7837 Y0.8554 Z0.2008
X38.7834 Y0.8552 Z0.2015
X38.7831 Y0.855 Z0.2022
X38.7828 Y0.8548 Z0.2029
X38.7826 Y0.8546 Z0.2036
X38.7824 Y0.8545 Z0.2044
X38.7822 Y0.8544 Z0.2051
X38.7821 Y0.8543 Z0.2059
X38.782 Z0.2067
Y0.8542 Z0.2074
X38.7819 Z0.2082
G0 Z0.8442
X40.1467 Y1.0864
Z0.5395
G1 Z0.4176 F50.
Y1.0861 Z0.4122 F100.
Y1.0852 Z0.4069
Y1.0838 Z0.4018
Y1.0818 Z0.3968
Y1.0793 Z0.392
Y1.0764 Z0.3876
Y1.0729 Z0.3835
X40.1468 Y1.0691 Z0.3798
Y1.0648 Z0.3765
Y1.0603 Z0.3737
Y1.0554 Z0.3714
Y1.0504 Z0.3696
Y1.0452 Z0.3684
Y1.0398 Z0.3677
X40.1512 Y-1.2396 Z0.2083
Y-1.2421 Z0.2081
X40.1515 Y-1.2537 Z0.2073
X40.1517 Y-1.2591 Z0.2069
X40.1521 Y-1.2659 Z0.2065
X39.9791 Z0.1944
X39.9756 Z0.1942
X39.8388
X39.8393 Y-1.2586
X39.8395 Y-1.2535
X39.8397 Y-1.2419
Y-1.2399
X39.8679 Y4.7341
X40.1397
X40.1512 Y-1.2396
Y-1.2421
X40.1515 Y-1.2537
X40.1517 Y-1.2591
X40.1521 Y-1.2659
X39.9756
X39.9728 Y-1.2657 Z0.1943
X39.9701 Y-1.2654 Z0.1946
X39.9673 Y-1.265 Z0.195
X39.9646 Y-1.2644 Z0.1955
X39.962 Y-1.2636 Z0.1962
X39.9595 Y-1.2627 Z0.1971
X39.9571 Y-1.2617 Z0.1981
X39.9548 Y-1.2606 Z0.1992
X39.9526 Y-1.2594 Z0.2005
X39.9505 Y-1.2582 Z0.2019
X39.9486 Y-1.2569 Z0.2035
X39.9468 Y-1.2555 Z0.2052
X39.9451 Y-1.2542 Z0.207
X39.9436 Y-1.2528 Z0.2089
X39.9422 Y-1.2515 Z0.2109
X39.941 Y-1.2502 Z0.2131
X39.9399 Y-1.2489 Z0.2153
X39.9389 Y-1.2477 Z0.2176
X39.938 Y-1.2466 Z0.2201
X39.9372 Y-1.2455 Z0.2226
X39.9366 Y-1.2446 Z0.2251
X39.936 Y-1.2438 Z0.2277
X39.9356 Y-1.2431 Z0.2304
X39.9352 Y-1.2425 Z0.2331
X39.9349 Y-1.242 Z0.2359
X39.9347 Y-1.2416 Z0.2386
X39.9346 Y-1.2414 Z0.2414
Z0.2442
G0 Z0.8442
X41.5676 Y1.9795
Z0.5395
G1 Z0.4176 F50.
Y1.9798 Z0.4122 F100.
X41.5675 Y1.9806 Z0.4069
Y1.9821 Z0.4018
Y1.984 Z0.3968
Y1.9865 Z0.392
Y1.9895 Z0.3876
Y1.9929 Z0.3835
Y1.9968 Z0.3798
Y2.001 Z0.3765
Y2.0056 Z0.3737
Y2.0104 Z0.3714
Y2.0155 Z0.3696
Y2.0207 Z0.3684
Y2.026 Z0.3677
X41.563 Y4.3259 Z0.2069
G2 X41.6101 Y4.3731 Z0.2017 I0.0471 J0.0001
G1 X41.6194 Z0.201
G2 X41.6665 Y4.3256 Z0.1959 I0. J-0.0471
G1 X41.6663 Y4.3044 Z0.1944
Y4.301 Z0.1942
X41.6388 Y1.1528
G2 X41.5998 Y1.1305 I-0.026 J0.0002
G3 X41.5831 Y1.1397 I-0.2444 J-0.4258
G2 X41.5691 Y1.1627 I0.0121 J0.0231
G1 X41.563 Y4.3259
G2 X41.6101 Y4.3731 I0.0471 J0.0001
G1 X41.6194
G2 X41.6665 Y4.3256 I0. J-0.0471
G1 X41.6663 Y4.301
G3 X41.7551 Y4.1652 I0.1462 J-0.0013
G2 X41.8439 Y4.0294 I-0.0574 J-0.1345
G1 X41.8172 Y0.9668
G2 X41.788 Y0.892 I-0.1129 J0.001
G3 X41.7583 Y0.8559 I0.3656 J-0.3307
X41.7325 Y0.8168 I0.3351 J-0.2497
G2 X41.6714 Y0.8165 I-0.0307 J0.0179
G3 X41.4519 Y1.002 I-0.3801 J-0.227
G2 X41.3893 Y1.0938 I0.0362 J0.0919
G1 X41.3827 Y4.4893
G2 X41.4465 Y4.5531 I0.0637 J0.0001
G1 X41.7847
G2 X41.8479 Y4.4894 I0. J-0.0632
G1 X41.8439 Y4.0294
G3 X41.9332 Y3.8929 I0.1471 J-0.0013
G2 X42.0225 Y3.7563 I-0.0577 J-0.1353
G1 X41.997 Y0.8266
X41.9965 Y0.8263
X41.9926 Y0.8244
X41.9907 Y0.8234
X41.9849 Y0.8201
X41.9753 Y0.8144
G3 X41.9664 Y0.8086 I0.0665 J-0.1117
G1 X41.9582 Y0.8028
X41.9525 Y0.7985
X41.9491 Y0.7958
X41.945 Y0.7924
X41.9402 Y0.7882
X41.9353 Y0.7838
X41.9305 Y0.7791
X41.9272 Y0.7758
X41.9253 Y0.7739
X41.9222 Y0.7705
X41.9178 Y0.7657
X41.9137 Y0.7609
X41.9098 Y0.7561
X41.9062 Y0.7515
X41.9029 Y0.7471
X41.8989 Y0.7414
X41.8941 Y0.7343
X41.8901 Y0.7278
X41.8867 Y0.7221
X41.8836 Y0.7163
X41.8806 Y0.7105
X41.8789 Y0.7072
X41.8785 Y0.7062
X41.877 Y0.7031
X41.8746 Y0.6978
X41.8724 Y0.6925
X41.8703 Y0.6872
X41.8682 Y0.6817
X41.8662 Y0.6759
X41.8644 Y0.6702
X41.8627 Y0.6644
X41.8612 Y0.6587
X41.8597 Y0.6529
X41.8585 Y0.6471
X41.8573 Y0.6414
X41.8564 Y0.6358
X41.8555 Y0.6305
X41.8548 Y0.6247
X41.8541 Y0.6185
X41.8535 Y0.6098
X41.853 Y0.5983
X41.8529 Y0.5943
X41.837 Y-1.2266
Y-1.227
Y-1.2274
Y-1.2389
X41.8371 Y-1.2434
X41.8374 Y-1.2549
X41.8378 Y-1.2614
X41.8382 Y-1.2659
X41.5549
X41.5553 Y-1.2601
X41.5556 Y-1.254
X41.5559 Y-1.2425
X41.556 Y-1.2391
X41.5524 Y0.5934
X41.5523 Y0.5983
X41.5521 Y0.604
X41.5517 Y0.6098
X41.5513 Y0.6156
X41.5506 Y0.6213
X41.5499 Y0.6271
X41.549 Y0.6328
X41.548 Y0.6386
X41.5469 Y0.6441
X41.5458 Y0.6492
X41.5444 Y0.655
X41.5427 Y0.6613
X41.5409 Y0.6674
X41.5391 Y0.6732
X41.5371 Y0.679
X41.5349 Y0.6847
X41.5326 Y0.6905
X41.5301 Y0.6962
X41.5275 Y0.702
X41.5247 Y0.7078
X41.523 Y0.7111
X41.5224 Y0.7122
X41.5207 Y0.7153
X41.5178 Y0.7206
X41.5147 Y0.7258
X41.5114 Y0.7311
X41.5071 Y0.7375
X41.5018 Y0.745
X41.4975 Y0.7507
X41.4943 Y0.7547
X41.4907 Y0.759
X41.4868 Y0.7636
X41.4826 Y0.7682
X41.4782 Y0.7728
X41.4748 Y0.7762
X41.4723 Y0.7786
X41.4689 Y0.7819
X41.4643 Y0.786
X41.4598 Y0.7899
X41.4552 Y0.7936
X41.4505 Y0.7973
X41.4455 Y0.801
X41.4398 Y0.8051
X41.4332 Y0.8095
X41.427 Y0.8133
X41.4212 Y0.8167
X41.4155 Y0.8199
X41.4097 Y0.8229
X41.406 Y0.8248
X41.4045 Y0.8255
X41.3988 Y0.8281
X41.3888 Y0.8323
X41.3809 Y0.8354
X41.3751 Y0.8374
X41.3693 Y0.8392
X41.3636 Y0.841
X41.3578 Y0.8425
X41.352 Y0.844
X41.3462 Y0.8452
X41.3405 Y0.8464
X41.3343 Y0.8475
X41.3276 Y0.8485
X41.3219 Y0.8492
X41.317 Y0.8497
X41.3088 Y0.8503
X41.2972 Y0.8508
X41.2917 Y0.8509
X41.2087 Y0.8507
X41.2013 Y4.7341
X42.031
X42.0225 Y3.7563
X42.0223 Y3.7535 Z0.1943
X42.022 Y3.7508 Z0.1946
X42.0215 Y3.748 Z0.195
X42.0209 Y3.7453 Z0.1955
X42.0201 Y3.7427 Z0.1962
X42.0192 Y3.7402 Z0.1971
X42.0182 Y3.7378 Z0.1981
X42.0171 Y3.7355 Z0.1992
X42.0158 Y3.7333 Z0.2005
X42.0146 Y3.7313 Z0.2019
X42.0133 Y3.7294 Z0.2035
X42.0119 Y3.7276 Z0.2052
X42.0105 Y3.7259 Z0.207
X42.0091 Y3.7244 Z0.2089
X42.0078 Y3.7231 Z0.2109
X42.0065 Y3.7218 Z0.2131
X42.0052 Y3.7207 Z0.2153
X42.004 Y3.7197 Z0.2176
X42.0029 Y3.7189 Z0.2201
X42.0018 Y3.7181 Z0.2226
X42.0009 Y3.7175 Z0.2251
X42. Y3.7169 Z0.2277
X41.9993 Y3.7165 Z0.2304
X41.9987 Y3.7161 Z0.2331
X41.9982 Y3.7158 Z0.2359
X41.9979 Y3.7156 Z0.2386
X41.9977 Y3.7155 Z0.2414
X41.9976 Z0.2442
G0 Z0.8442
X43.4865 Y1.9136
Z0.5395
G1 Z0.4176 F50.
Y1.9139 Z0.4122 F100.
Y1.9147 Z0.4069
X43.4866 Y1.9161 Z0.4018
Y1.9181 Z0.3968
Y1.9206 Z0.392
Y1.9236 Z0.3876
Y1.927 Z0.3835
X43.4867 Y1.9309 Z0.3798
Y1.9351 Z0.3765
X43.4868 Y1.9397 Z0.3737
Y1.9445 Z0.3714
Y1.9496 Z0.3696
X43.4869 Y1.9548 Z0.3684
Y1.9601 Z0.3677
X43.4939 Y2.7601 Z0.3118
G2 X43.5273 Y2.7599 Z0.3081 I0.0167 J-0.0001
G1 X43.5191 Y1.1491 Z0.1954
G2 X43.5128 Y1.1355 Z0.1944 I-0.0178 J0.0001
G1 X43.5114 Y1.1345 Z0.1943
X43.51 Y1.1336 Z0.1942
X43.5099 Y1.1335
X43.5065 Y1.1316
G2 X43.4798 Y1.1473 I-0.0088 J0.0155
G1 X43.4939 Y2.7601
G2 X43.5273 Y2.7599 I0.0167 J-0.0001
G1 X43.5191 Y1.1491
G2 X43.51 Y1.1336 I-0.0178 J0.0001
G1 X43.5099 Y1.1335
G3 X43.4147 Y1.0555 I0.1735 J-0.3086
G2 X43.2995 Y1.0987 I-0.0497 J0.0427
G1 X43.3291 Y4.4902
G2 X43.3923 Y4.5529 I0.0633 J-0.0006
G1 X43.6538
G2 X43.716 Y4.4904 I0. J-0.0622
G1 X43.6988 Y1.0909
G2 X43.6361 Y0.9958 I-0.1044 J0.0005
G3 X43.5275 Y0.9275 I0.1714 J-0.3932
X43.4433 Y0.8306 I0.2919 J-0.3388
G2 X43.3806 Y0.83 I-0.0316 J0.0203
G3 X43.3567 Y0.8627 I-0.4068 J-0.2732
X43.3299 Y0.893 I-0.3164 J-0.2527
G2 X43.2984 Y0.9713 I0.0791 J0.0773
G1 X43.2995 Y1.0987
G3 X43.2101 Y1.2354 I-0.1472 J0.0013
G2 X43.1207 Y1.372 I0.0578 J0.1354
G1 X43.15 Y4.7341
X43.8984
X43.8788 Y0.852
X43.8188 Y0.8523
X43.8156 Y0.8522
X43.804 Y0.852
X43.7957 Y0.8516
X43.79 Y0.8511
X43.7842 Y0.8505
X43.7784 Y0.8497
X43.7729 Y0.8489
X43.7677 Y0.848
X43.762 Y0.8469
X43.7556 Y0.8455
X43.7496 Y0.844
X43.7438 Y0.8425
X43.7381 Y0.8408
X43.7323 Y0.8389
X43.7265 Y0.8369
X43.7208 Y0.8347
X43.715 Y0.8324
X43.7092 Y0.83
X43.7042 Y0.8277
X43.6998 Y0.8256
X43.694 Y0.8226
X43.6868 Y0.8187
X43.6804 Y0.8149
X43.6746 Y0.8114
X43.6688 Y0.8076
X43.663 Y0.8035
X43.6572 Y0.7992
X43.6515 Y0.7947
X43.6457 Y0.79
X43.64 Y0.7849
X43.6361 Y0.7813
X43.634 Y0.7794
X43.6305 Y0.7759
X43.6255 Y0.7707
X43.6208 Y0.7656
X43.6163 Y0.7604
X43.6136 Y0.7572
X43.6126 Y0.756
X43.6098 Y0.7525
X43.6055 Y0.7467
X43.6013 Y0.741
X43.5974 Y0.7352
X43.5944 Y0.7305
X43.5921 Y0.7268
X43.5888 Y0.7211
X43.5845 Y0.7132
X43.581 Y0.7064
X43.5782 Y0.7006
X43.5757 Y0.6948
X43.5733 Y0.6891
X43.571 Y0.6833
X43.5689 Y0.6775
X43.567 Y0.6717
X43.5653 Y0.666
X43.5636 Y0.6603
X43.5622 Y0.6545
X43.5608 Y0.6487
X43.5596 Y0.643
X43.5585 Y0.6372
X43.5576 Y0.6315
X43.5568 Y0.6257
X43.5561 Y0.6199
X43.5555 Y0.6142
X43.5551 Y0.6084
X43.5548 Y0.6026
X43.5546 Y0.5969
Y0.5938
X43.5453 Y-1.2386
X43.5454 Y-1.2429
X43.5457 Y-1.2544
X43.546 Y-1.2609
X43.5464 Y-1.2659
X43.2563
X43.2567 Y-1.2579
X43.2569 Y-1.2532
X43.2571 Y-1.2417
Y-1.2411
Y-1.2404
X43.273 Y0.5805
Y0.5834
X43.2728 Y0.5949
X43.2725 Y0.6031
X43.272 Y0.6089
X43.2714 Y0.6146
X43.2707 Y0.6204
X43.2699 Y0.6262
X43.2689 Y0.6319
X43.2678 Y0.6377
X43.2666 Y0.6435
X43.265 Y0.6499
X43.2631 Y0.6571
X43.2614 Y0.6628
X43.26 Y0.6672
X43.2583 Y0.6723
X43.2562 Y0.678
X43.2539 Y0.6838
X43.2515 Y0.6896
X43.249 Y0.6952
X43.2463 Y0.7008
X43.2434 Y0.7065
X43.2402 Y0.7125
X43.2368 Y0.7184
X43.2333 Y0.7241
X43.2296 Y0.7299
X43.2256 Y0.7357
X43.2217 Y0.7411
X43.2179 Y0.7461
X43.2132 Y0.7519
X43.2077 Y0.7584
X43.2019 Y0.7647
X43.1959 Y0.7708
X43.1899 Y0.7766
X43.1839 Y0.782
X43.1781 Y0.7869
X43.1726 Y0.7913
X43.1672 Y0.7954
X43.162 Y0.7991
X43.1568 Y0.8027
X43.1516 Y0.806
X43.1484 Y0.808
X43.1473 Y0.8087
X43.1439 Y0.8107
X43.1381 Y0.814
X43.1324 Y0.817
X43.1266 Y0.8199
X43.1209 Y0.8226
X43.1159 Y0.8248
X43.1207 Y1.372
X43.1208 Y1.3748 Z0.1943
X43.1212 Y1.3776 Z0.1946
X43.1217 Y1.3804 Z0.195
X43.1223 Y1.383 Z0.1955
X43.1231 Y1.3856 Z0.1962
X43.124 Y1.3881 Z0.1971
X43.125 Y1.3906 Z0.1981
X43.1261 Y1.3929 Z0.1992
X43.1273 Y1.395 Z0.2005
X43.1286 Y1.3971 Z0.2019
X43.1299 Y1.399 Z0.2035
X43.1313 Y1.4008 Z0.2052
X43.1327 Y1.4024 Z0.207
X43.134 Y1.4039 Z0.2089
X43.1354 Y1.4053 Z0.2109
X43.1367 Y1.4066 Z0.2131
X43.138 Y1.4077 Z0.2153
X43.1392 Y1.4086 Z0.2176
X43.1403 Y1.4095 Z0.2201
X43.1414 Y1.4103 Z0.2226
X43.1423 Y1.4109 Z0.2251
X43.1431 Y1.4115 Z0.2277
X43.1439 Y1.4119 Z0.2304
X43.1445 Y1.4123 Z0.2331
X43.1449 Y1.4126 Z0.2359
X43.1453 Y1.4128 Z0.2386
X43.1455 Y1.4129 Z0.2414
X43.1456 Z0.2442
G0 Z0.8442
X45.6127 Y-0.9049
Z0.2442
G1 X45.6124 Z0.2386 F100.
X45.6114 Z0.2331
X45.6099 Z0.2277
X45.6078 Z0.2226
X45.605 Z0.2176
X45.6018 Z0.2131
X45.5981 Z0.2089
X45.5939 Z0.2052
X45.5893 Z0.2019
X45.5844 Z0.1992
X45.5792 Z0.1971
X45.5738 Z0.1955
X45.5683 Z0.1946
X45.5627 Z0.1942
X45.4141
X45.3864
G2 X45.323 Y-0.8411 I0. J0.0635
G1 X45.349 Y4.3092
G2 X45.4133 Y4.3731 I0.0643 J-0.0003
G1 X45.4142
X45.6108
X45.6164 Z0.1946
X45.6219 Z0.1955
X45.6273 Z0.1971
X45.6325 Z0.1992
X45.6374 Z0.2019
X45.6419 Z0.2052
X45.6461 Z0.2089
X45.6499 Z0.2131
X45.6531 Z0.2176
X45.6558 Z0.2226
X45.658 Z0.2277
X45.6595 Z0.2331
X45.6605 Z0.2386
X45.6608 Z0.2442
G0 Z0.8442
X45.6127 Y-1.0849
Z0.2442
G1 X45.6124 Z0.2386 F100.
X45.6114 Z0.2331
X45.6099 Z0.2277
X45.6078 Z0.2226
X45.605 Z0.2176
X45.6018 Z0.2131
X45.5981 Z0.2089
X45.5939 Z0.2052
X45.5893 Z0.2019
X45.5844 Z0.1992
X45.5792 Z0.1971
X45.5738 Z0.1955
X45.5683 Z0.1946
X45.5627 Z0.1942
X45.4141
X45.2055
G2 X45.1421 Y-1.0211 I0. J0.0635
G1 X45.1699 Y4.4892
G2 X45.2342 Y4.5531 I0.0643 J-0.0003
G1 X45.4141
X45.6107
X45.6163 Z0.1946
X45.6219 Z0.1955
X45.6273 Z0.1971
X45.6324 Z0.1992
X45.6373 Z0.2019
X45.6419 Z0.2052
X45.6461 Z0.2089
X45.6498 Z0.2131
X45.6531 Z0.2176
X45.6558 Z0.2226
X45.6579 Z0.2277
X45.6595 Z0.2331
X45.6604 Z0.2386
X45.6607 Z0.2442
G0 Z0.8442
X45.6127 Y-1.2351
Z0.2392
G1 X45.6124 Z0.2342 F100.
X45.6116 Y-1.2353 Z0.2292
X45.6102 Y-1.2355 Z0.2244
X45.6083 Y-1.2358 Z0.2197
X45.6059 Y-1.2362 Z0.2153
X45.603 Y-1.2366 Z0.2112
X45.5997 Y-1.2371 Z0.2074
X45.596 Y-1.2377 Z0.2041
X45.5919 Y-1.2384 Z0.2011
X45.5875 Y-1.2391 Z0.1987
X45.5829 Y-1.2398 Z0.1968
X45.5781 Y-1.2406 Z0.1954
X45.5732 Y-1.2413 Z0.1945
X45.5683 Y-1.2421 Z0.1942
X45.422 Y-1.2653
X45.4181 Y-1.2657
X45.4142 Y-1.2659
X44.959
X44.9595 Y-1.2585
X44.9597 Y-1.2534
X44.9599 Y-1.2419
Y-1.24
X44.9902 Y4.7341
X45.4142
X45.4181 Y4.7339
X45.422 Y4.7335
X45.6162 Y4.7027
X45.6217 Y4.7018 Z0.1946
X45.6272 Y4.701 Z0.1955
X45.6325 Y4.7001 Z0.1971
X45.6376 Y4.6993 Z0.1992
X45.6424 Y4.6986 Z0.2019
X45.647 Y4.6978 Z0.2052
X45.6511 Y4.6972 Z0.2089
X45.6548 Y4.6966 Z0.2131
X45.658 Y4.6961 Z0.2176
X45.6607 Y4.6957 Z0.2226
X45.6628 Y4.6953 Z0.2277
X45.6643 Y4.6951 Z0.2331
X45.6652 Y4.6949 Z0.2386
X45.6656 Z0.2442
G0 Z1.2442
M5
G53 G0 Z0.

(POCKET2 6)
M1
T16 M6
S24000 M3
G17 G90 G94
G55
G0 X0.481 Y4.8904
G43 Z1.2442 H16
G0 Z0.2155
G1 X0.4813 Y4.8905 Z0.2122 F50.
X0.482 Y4.8906 Z0.2089
X0.4833 Y4.8908 Z0.2059
X0.485 Y4.891 Z0.203
X0.4872 Y4.8914 Z0.2005
X0.4897 Y4.8918 Z0.1983
X0.4925 Y4.8922 Z0.1966
X0.4955 Y4.8927 Z0.1953
X0.4987 Y4.8932 Z0.1945
X0.502 Y4.8937 Z0.1942
X0.6919 Y4.9238
X0.6956 Y4.9241
X1.1769
X1.1833 Y-1.237
Y-1.2373
Y-1.2377
X1.1834 Y-1.2454
X1.1835 Y-1.2473
X1.1838 Y-1.2551
X1.184 Y-1.258
X1.1847 Y-1.2658
X1.1851 Y-1.2688
X1.1862 Y-1.2766
X1.1867 Y-1.2791
X1.1882 Y-1.2868
X1.1887 Y-1.2893
X1.1905 Y-1.2971
X1.1912 Y-1.2997
X1.1934 Y-1.3075
X1.1944 Y-1.3105
X1.1971 Y-1.3183
X1.1981 Y-1.3211
X1.2012 Y-1.3289
X1.2024 Y-1.3315
X1.2062 Y-1.3399
X1.2075 Y-1.3425
X1.2113 Y-1.3497
X1.2126 Y-1.352
X1.2166 Y-1.3589
X1.2184 Y-1.3618
X1.2241 Y-1.3705
X1.2258 Y-1.3729
G3 X1.232 Y-1.3812 I0.3771 J0.2757
G1 X1.2338 Y-1.3835
G3 X1.2411 Y-1.3921 I0.2526 J0.2065
G1 X1.2428 Y-1.3939
X1.248 Y-1.3995
X1.2493 Y-1.4008
X1.2515 Y-1.403
X1.2528 Y-1.4042
X1.2583 Y-1.4094
X1.2602 Y-1.4111
G3 X1.2688 Y-1.4183 I0.2313 J0.2661
G1 X1.271 Y-1.4201
G3 X1.2793 Y-1.4263 I0.3117 J0.4098
G1 X1.2818 Y-1.428
X1.2906 Y-1.4338
X1.2936 Y-1.4356
X1.3004 Y-1.4395
X1.3027 Y-1.4408
X1.3105 Y-1.4448
X1.3131 Y-1.4461
X1.3209 Y-1.4497
X1.3235 Y-1.4508
X1.3312 Y-1.4539
X1.334 Y-1.4549
X1.3418 Y-1.4576
X1.3448 Y-1.4585
X1.3526 Y-1.4607
X1.3552 Y-1.4614
X1.363 Y-1.4632
X1.3655 Y-1.4637
X1.3733 Y-1.4652
X1.3754 Y-1.4656
X1.3793 Y-1.4661
X1.3798 Y-1.4662
X1.3802 Y-1.4663
X1.384 Y-1.4668
X1.3867 Y-1.4671
X1.3944 Y-1.4678
X1.3973 Y-1.468
X1.4051 Y-1.4683
X1.4069 Y-1.4684
X1.4147
X1.415 Y-1.4685
X1.4154
X2.076 Y-1.4678
X2.0778 Y-1.4677
X2.0855 Y-1.4675
X2.0885 Y-1.4673
X2.0973 Y-1.4666
X2.0999 Y-1.4663
X2.1067 Y-1.4655
X2.1089 Y-1.4652
X2.1167 Y-1.4639
X2.1196 Y-1.4633
X2.1273 Y-1.4617
X2.1304 Y-1.4609
X2.1381 Y-1.4588
X2.1403 Y-1.4582
X2.1461 Y-1.4563
X2.1478 Y-1.4558
X2.1497 Y-1.4551
X2.151 Y-1.4546
X2.1588 Y-1.4517
X2.1614 Y-1.4507
X2.1692 Y-1.4474
X2.172 Y-1.4461
X2.1798 Y-1.4422
X2.1827 Y-1.4407
X2.1912 Y-1.4359
X2.1941 Y-1.4342
X2.2011 Y-1.4297
X2.2031 Y-1.4283
X2.2078 Y-1.4251
X2.2089 Y-1.4242
X2.2121 Y-1.4219
X2.2139 Y-1.4205
G3 X2.2226 Y-1.4135 I-0.2113 J0.271
G1 X2.2245 Y-1.4118
X2.2323 Y-1.4047
X2.235 Y-1.4022
X2.2427 Y-1.3941
X2.2453 Y-1.3913
X2.2516 Y-1.3839
X2.2524 Y-1.3829
X2.2539 Y-1.3811
X2.2556 Y-1.379
X2.26 Y-1.373
X2.2612 Y-1.3713
X2.2645 Y-1.3664
X2.2655 Y-1.365
X2.2674 Y-1.3621
X2.2685 Y-1.3603
X2.2731 Y-1.3526
X2.2738 Y-1.3513
X2.2751 Y-1.349
X2.2762 Y-1.347
X2.279 Y-1.3415
X2.28 Y-1.3395
X2.2836 Y-1.3318
X2.2848 Y-1.3291
X2.2879 Y-1.3213
X2.289 Y-1.3184
X2.2917 Y-1.3106
X2.2926 Y-1.3077
G3 X2.2962 Y-1.2951 I-0.3373 J0.1023
G1 X2.2969 Y-1.2924
G3 X2.2995 Y-1.2794 I-0.3391 J0.0764
G1 X2.3 Y-1.2767
X2.3012 Y-1.2689
X2.3015 Y-1.266
X2.3023 Y-1.2582
X2.3025 Y-1.2553
X2.3029 Y-1.2476
Y-1.2456
X2.3031 Y-1.2378
Y-1.2375
Y-1.2372
Y-1.2369
X2.3012 Y0.588
X2.3011 Y0.5897
X2.3009 Y0.5975
X2.3005 Y0.6029
X2.3 Y0.6067
X2.2994 Y0.6106
X2.2987 Y0.6145
X2.298 Y0.6178
X2.2973 Y0.6204
X2.2966 Y0.6231
X2.2958 Y0.6258
X2.2949 Y0.6283
X2.2941 Y0.6308
X2.2929 Y0.6339
X2.2912 Y0.6378
X2.2895 Y0.6417
X2.2875 Y0.6456
X2.2857 Y0.6489
X2.2841 Y0.6515
X2.2825 Y0.6542
X2.2807 Y0.6569
X2.2789 Y0.6595
X2.2772 Y0.6619
X2.2749 Y0.6647
X2.2721 Y0.668
X2.2691 Y0.6713
X2.2659 Y0.6746
X2.2636 Y0.6769
X2.2624 Y0.678
X2.2601 Y0.68
X2.2569 Y0.6827
X2.2536 Y0.6852
X2.2504 Y0.6875
X2.2476 Y0.6894
X2.2454 Y0.6908
X2.2431 Y0.6922
X2.2409 Y0.6935
X2.2381 Y0.695
X2.2348 Y0.6966
X2.2312 Y0.6983
X2.2273 Y0.7
X2.2235 Y0.7015
X2.2196 Y0.7028
X2.2157 Y0.704
X2.2118 Y0.705
X2.2079 Y0.706
X2.204 Y0.7067
X2.2001 Y0.7074
X2.1962 Y0.7079
X2.1958
X2.1954 Y0.708
X2.1904 Y4.9241
X3.2766
X3.2421 Y0.7097
X3.0091 Y0.7117
X3.0088
X3.0084
X3.008
X3.0002 Y0.7116
X2.9951 Y0.7113
X2.9913 Y0.7109
X2.9874 Y0.7104
X2.9835 Y0.7098
X2.9801 Y0.7091
X2.9773 Y0.7085
X2.9745 Y0.7078
X2.9717 Y0.707
X2.9692 Y0.7062
X2.9671 Y0.7055
X2.964 Y0.7045
X2.9602 Y0.703
X2.9563 Y0.7013
X2.9524 Y0.6995
X2.9489 Y0.6977
X2.9458 Y0.6959
X2.9426 Y0.6941
X2.9395 Y0.6921
X2.9372 Y0.6905
X2.9357 Y0.6894
X2.933 Y0.6874
X2.9291 Y0.6843
X2.9263 Y0.6819
X2.9244 Y0.6802
X2.9224 Y0.6783
X2.9204 Y0.6763
X2.9177 Y0.6734
X2.9143 Y0.6696
X2.9112 Y0.6657
X2.9084 Y0.6619
X2.9062 Y0.6587
X2.9046 Y0.6563
X2.903 Y0.6537
X2.9015 Y0.6511
X2.9001 Y0.6484
X2.8988 Y0.6458
X2.8972 Y0.6425
X2.8955 Y0.6386
X2.894 Y0.6347
X2.8926 Y0.6309
X2.8914 Y0.627
X2.8904 Y0.6232
X2.8894 Y0.6193
X2.8886 Y0.6154
X2.888 Y0.6114
X2.8874 Y0.6076
X2.887 Y0.6037
X2.8868 Y0.5998
X2.8866 Y0.5962
X2.8862 Y0.5419
Y0.5418
X2.8716 Y-1.2364
Y-1.2381
X2.8717 Y-1.2459
X2.8718 Y-1.2478
X2.872 Y-1.2506
Y-1.252
X2.8724 Y-1.2568
X2.8727 Y-1.2594
X2.8736 Y-1.2672
X2.8739 Y-1.2693
X2.8751 Y-1.2771
X2.8756 Y-1.28
X2.8772 Y-1.2877
X2.8779 Y-1.2908
X2.88 Y-1.2985
X2.8806 Y-1.3006
X2.8822 Y-1.3059
X2.8827 Y-1.3077
X2.8835 Y-1.3101
X2.884 Y-1.3114
X2.8868 Y-1.3192
X2.8878 Y-1.3218
X2.8911 Y-1.3296
X2.8923 Y-1.3324
X2.8961 Y-1.3401
X2.8975 Y-1.343
G3 X2.9031 Y-1.353 I0.2969 J0.1577
G1 X2.9043 Y-1.355
X2.9084 Y-1.3616
X2.9097 Y-1.3636
X2.9134 Y-1.3689
X2.9142 Y-1.37
X2.916 Y-1.3725
X2.9174 Y-1.3744
X2.9235 Y-1.3822
X2.9258 Y-1.3849
G3 X2.9343 Y-1.3943 I0.2938 J0.2539
G1 X2.9362 Y-1.3963
X2.944 Y-1.404
X2.9468 Y-1.4066
X2.955 Y-1.4137
X2.9579 Y-1.416
X2.9652 Y-1.4215
X2.9669 Y-1.4228
X2.97 Y-1.425
X2.9716 Y-1.426
X2.9762 Y-1.4291
X2.9783 Y-1.4304
X2.9862 Y-1.4351
X2.9888 Y-1.4366
X2.9965 Y-1.4407
X2.9992 Y-1.442
X3.007 Y-1.4457
X3.0096 Y-1.4468
X3.0173 Y-1.45
X3.0201 Y-1.4511
X3.0279 Y-1.4538
X3.0309 Y-1.4548
X3.0387 Y-1.4571
X3.0413 Y-1.4578
X3.049 Y-1.4597
X3.0515 Y-1.4602
X3.0593 Y-1.4618
X3.0619 Y-1.4622
X3.0696 Y-1.4634
X3.0727 Y-1.4638
X3.0805 Y-1.4646
X3.0833 Y-1.4648
X3.0911 Y-1.4652
X3.0929 Y-1.4653
X3.1007 Y-1.4654
X3.1011
X3.1014
X3.7543 Y-1.4708
X3.7561
X3.7639 Y-1.4706
X3.7668 Y-1.4705
X3.7746 Y-1.4699
X3.7771 Y-1.4697
X3.7848 Y-1.4688
X3.7873 Y-1.4685
X3.7951 Y-1.4672
X3.7979 Y-1.4667
X3.8057 Y-1.4651
X3.8087 Y-1.4644
X3.8165 Y-1.4623
X3.8191 Y-1.4616
X3.8269 Y-1.4592
X3.8294 Y-1.4583
X3.8372 Y-1.4555
X3.8398 Y-1.4545
X3.8476 Y-1.4512
X3.8504 Y-1.4499
X3.8581 Y-1.4462
X3.8603 Y-1.4451
X3.8618 Y-1.4443
X3.862 Y-1.4442
X3.8623 Y-1.444
X3.8626 Y-1.4439
X3.8689 Y-1.4404
X3.8715 Y-1.4388
X3.8793 Y-1.434
X3.882 Y-1.4322
X3.8898 Y-1.4268
X3.8908 Y-1.426
X3.8932 Y-1.4243
X3.8954 Y-1.4225
X3.9009 Y-1.4181
X3.902 Y-1.4172
X3.906 Y-1.4138
X3.9077 Y-1.4123
X3.9115 Y-1.4087
X3.9128 Y-1.4075
X3.917 Y-1.4033
X3.9184 Y-1.402
X3.9218 Y-1.3984
X3.9233 Y-1.3968
X3.9269 Y-1.3927
X3.928 Y-1.3915
X3.9321 Y-1.3866
X3.9337 Y-1.3846
X3.936 Y-1.3817
X3.937 Y-1.3803
X3.9426 Y-1.3725
X3.9445 Y-1.3699
X3.9495 Y-1.3621
X3.9511 Y-1.3594
X3.9556 Y-1.3516
X3.9571 Y-1.3488
X3.961 Y-1.341
X3.9621 Y-1.3385
X3.9643 Y-1.3337
X3.9644 Y-1.3334
X3.9645 Y-1.3331
X3.9646 Y-1.3328
X3.9659 Y-1.3298
X3.9667 Y-1.3278
X3.9697 Y-1.32
X3.9706 Y-1.3175
X3.9731 Y-1.3097
X3.9738 Y-1.3076
X3.9748 Y-1.3041
X3.9749 Y-1.3038
X3.975 Y-1.3035
Y-1.3032
X3.9762 Y-1.299
X3.9768 Y-1.2964
X3.9786 Y-1.2886
X3.9791 Y-1.2857
X3.9805 Y-1.2779
X3.9808 Y-1.2757
X3.9818 Y-1.268
X3.9821 Y-1.2649
X3.9828 Y-1.2572
X3.9829 Y-1.2546
X3.9832 Y-1.2468
Y-1.2452
X4.0338 Y4.9241
X4.5778
X4.5874 Y-1.237
Y-1.2373
Y-1.2377
X4.5875 Y-1.2454
X4.5876 Y-1.2473
X4.5879 Y-1.255
X4.5881 Y-1.2579
X4.5889 Y-1.2657
X4.5892 Y-1.2687
X4.5903 Y-1.2765
X4.5908 Y-1.279
X4.5922 Y-1.2868
X4.5928 Y-1.2893
X4.5946 Y-1.297
X4.5953 Y-1.2997
X4.5975 Y-1.3074
X4.5985 Y-1.3105
X4.6011 Y-1.3182
X4.6022 Y-1.321
X4.6053 Y-1.3288
X4.6064 Y-1.3314
X4.6099 Y-1.3391
X4.6106 Y-1.3405
X4.6111 Y-1.3416
X4.6119 Y-1.3431
X4.6153 Y-1.3497
X4.6166 Y-1.3521
X4.6209 Y-1.3594
X4.6227 Y-1.3623
X4.6281 Y-1.3704
X4.6298 Y-1.3729
G3 X4.636 Y-1.3812 I0.4142 J0.3029
G1 X4.6378 Y-1.3835
G3 X4.645 Y-1.392 I0.2694 J0.2202
G1 X4.6467 Y-1.3939
X4.6523 Y-1.3998
X4.6536 Y-1.4011
X4.6554 Y-1.403
X4.6568 Y-1.4043
X4.6627 Y-1.4098
X4.6646 Y-1.4115
G3 X4.6731 Y-1.4187 I0.2221 J0.256
G1 X4.6754 Y-1.4205
G3 X4.6837 Y-1.4266 I0.3086 J0.4068
G1 X4.6862 Y-1.4284
X4.6945 Y-1.4338
X4.6974 Y-1.4356
X4.7046 Y-1.4398
X4.7069 Y-1.441
X4.7138 Y-1.4446
X4.7153 Y-1.4454
X4.7161 Y-1.4458
X4.7175 Y-1.4464
X4.7253 Y-1.4499
X4.7279 Y-1.451
X4.7356 Y-1.4541
X4.7384 Y-1.4552
X4.7462 Y-1.4578
X4.7492 Y-1.4588
X4.757 Y-1.4609
X4.7596 Y-1.4616
X4.7674 Y-1.4634
X4.7699 Y-1.464
X4.7777 Y-1.4654
X4.7802 Y-1.4658
X4.788 Y-1.4669
X4.791 Y-1.4673
X4.7988 Y-1.468
X4.8017 Y-1.4682
X4.8095 Y-1.4685
X4.8113
X4.819 Y-1.4686
X4.8194
X4.8197
X5.4882 Y-1.4676
X5.4899
X5.4976 Y-1.4673
X5.5005 Y-1.4672
X5.5082 Y-1.4666
X5.5107 Y-1.4663
X5.5185 Y-1.4654
X5.521 Y-1.465
X5.5287 Y-1.4637
X5.5317 Y-1.4632
X5.5394 Y-1.4615
X5.5424 Y-1.4608
X5.5502 Y-1.4586
X5.5522 Y-1.4581
X5.5576 Y-1.4564
X5.5594 Y-1.4558
X5.5618 Y-1.455
X5.5631 Y-1.4545
X5.5709 Y-1.4516
X5.5735 Y-1.4506
X5.5813 Y-1.4472
X5.5841 Y-1.4459
X5.5919 Y-1.4421
X5.5947 Y-1.4406
X5.603 Y-1.4359
X5.6059 Y-1.4342
X5.6131 Y-1.4296
X5.6151 Y-1.4283
X5.6196 Y-1.4252
X5.6209 Y-1.4242
X5.6242 Y-1.4218
X5.626 Y-1.4204
X5.6327 Y-1.4151
X5.6337 Y-1.4142
X5.6348 Y-1.4133
X5.6366 Y-1.4117
X5.6444 Y-1.4047
X5.647 Y-1.4021
X5.6548 Y-1.3941
X5.6573 Y-1.3913
G3 X5.6659 Y-1.3812 I-0.269 J0.236
G1 X5.6676 Y-1.3789
X5.672 Y-1.373
X5.6732 Y-1.3714
X5.6766 Y-1.3665
X5.6776 Y-1.3649
X5.6794 Y-1.3621
X5.6805 Y-1.3604
X5.6851 Y-1.3526
X5.6859 Y-1.3513
X5.6872 Y-1.3489
X5.6882 Y-1.3471
X5.691 Y-1.3417
X5.6921 Y-1.3396
X5.6957 Y-1.3318
X5.6969 Y-1.3291
X5.7 Y-1.3213
X5.7012 Y-1.3184
X5.7039 Y-1.3106
X5.7047 Y-1.3078
G3 X5.7083 Y-1.2955 I-0.3532 J0.1076
G1 X5.7089 Y-1.2927
G3 X5.7117 Y-1.2795 I-0.3293 J0.0752
G1 X5.7122 Y-1.2767
X5.7133 Y-1.2689
X5.7137 Y-1.266
X5.7145 Y-1.2583
X5.7147 Y-1.2554
X5.7151 Y-1.2476
Y-1.2456
X5.7152 Y-1.2378
X5.7153 Y-1.2375
Y-1.2372
Y-1.2368
X5.7124 Y0.588
Y0.5896
X5.7122 Y0.5973
X5.7118 Y0.6026
X5.7113 Y0.6065
X5.7107 Y0.6104
X5.71 Y0.6143
X5.7093 Y0.6175
X5.7086 Y0.6202
X5.7079 Y0.6228
X5.7072 Y0.6254
X5.7064 Y0.6279
X5.7055 Y0.6305
X5.7043 Y0.6337
X5.7027 Y0.6376
X5.7009 Y0.6415
X5.699 Y0.6454
X5.6967 Y0.6495
X5.6941 Y0.6538
X5.6916 Y0.6577
X5.6891 Y0.6611
X5.6866 Y0.6643
X5.6842 Y0.6673
X5.6815 Y0.6704
X5.6787 Y0.6734
X5.6763 Y0.6757
X5.6744 Y0.6775
X5.672 Y0.6796
X5.6691 Y0.6821
X5.6661 Y0.6845
X5.6632 Y0.6867
X5.6605 Y0.6886
X5.658 Y0.6902
X5.6555 Y0.6917
X5.6531 Y0.6932
X5.6504 Y0.6946
X5.6476 Y0.6961
X5.6442 Y0.6978
X5.6403 Y0.6995
X5.6364 Y0.7011
X5.6325 Y0.7025
X5.6286 Y0.7037
X5.6248 Y0.7048
X5.6209 Y0.7058
X5.617 Y0.7066
X5.6131 Y0.7073
X5.6092 Y0.7079
X5.6053 Y0.7083
X5.6014 Y0.7086
X5.5973 Y0.7088
X5.5895
X5.5893
X5.589
X5.3774 Y0.7085
X5.3708 Y4.9241
X6.4478
X6.4404 Y0.7089
X6.4131
X6.4127
X6.4124
X6.4085
X6.4049 Y0.7088
X6.401 Y0.7085
X6.3971 Y0.7081
X6.3932 Y0.7075
X6.3894 Y0.7069
X6.3855 Y0.7061
X6.3816 Y0.7051
X6.3777 Y0.704
X6.3738 Y0.7028
X6.3699 Y0.7014
X6.3662 Y0.6999
X6.3625 Y0.6984
X6.3586 Y0.6965
X6.3545 Y0.6943
X6.3505 Y0.692
X6.3466 Y0.6896
X6.3427 Y0.6869
X6.3388 Y0.684
X6.3356 Y0.6815
X6.3331 Y0.6793
X6.3305 Y0.6769
X6.3277 Y0.6742
X6.325 Y0.6714
X6.3226 Y0.6687
X6.3204 Y0.6662
X6.3185 Y0.6639
X6.3162 Y0.6608
X6.3135 Y0.6569
X6.311 Y0.653
X6.3087 Y0.6491
X6.3071 Y0.6464
X6.3062 Y0.6447
X6.3051 Y0.6424
X6.3037 Y0.6393
X6.3023 Y0.6362
X6.3011 Y0.6332
X6.2998 Y0.6297
X6.2986 Y0.6258
X6.2974 Y0.622
X6.2964 Y0.6181
X6.2956 Y0.6142
X6.2949 Y0.6103
X6.2943 Y0.6064
X6.2938 Y0.6025
X6.2935 Y0.5973
X6.2933 Y0.5895
X6.2932 Y0.5881
X6.29 Y-1.2368
Y-1.2372
X6.2901 Y-1.2375
Y-1.2378
X6.2902 Y-1.2456
Y-1.2477
X6.2906 Y-1.2554
X6.2908 Y-1.2583
X6.2916 Y-1.2661
X6.292 Y-1.2689
X6.2931 Y-1.2767
X6.2936 Y-1.2795
X6.2952 Y-1.2873
X6.2957 Y-1.2898
X6.2976 Y-1.2976
X6.2983 Y-1.3001
X6.3006 Y-1.3079
X6.3015 Y-1.3106
X6.3042 Y-1.3184
X6.3053 Y-1.3214
X6.3085 Y-1.3291
X6.3097 Y-1.3319
X6.3133 Y-1.3396
X6.3146 Y-1.3422
X6.3187 Y-1.35
X6.3198 Y-1.352
X6.3231 Y-1.3576
X6.3245 Y-1.3599
G3 X6.3318 Y-1.3709 I0.2883 J0.1844
G1 X6.3331 Y-1.3728
G3 X6.3398 Y-1.3816 I0.232 J0.1692
G1 X6.3413 Y-1.3834
X6.3443 Y-1.387
X6.3454 Y-1.3883
X6.3491 Y-1.3925
X6.3503 Y-1.3938
X6.3544 Y-1.3981
X6.3562 Y-1.4
G3 X6.3647 Y-1.4082 I0.2406 J0.2425
G1 X6.3669 Y-1.4101
G3 X6.3752 Y-1.4171 I0.3206 J0.3713
G1 X6.3776 Y-1.4191
X6.3854 Y-1.4249
X6.3882 Y-1.4268
X6.3959 Y-1.432
X6.3974 Y-1.4329
X6.4002 Y-1.4346
X6.4022 Y-1.4358
X6.4072 Y-1.4386
X6.4091 Y-1.4397
X6.4169 Y-1.4437
X6.4181 Y-1.4444
X6.42 Y-1.4453
X6.4218 Y-1.4461
X6.4277 Y-1.4488
X6.4299 Y-1.4497
X6.4376 Y-1.4528
X6.4404 Y-1.4538
X6.4482 Y-1.4565
X6.4512 Y-1.4574
X6.459 Y-1.4597
X6.4617 Y-1.4604
X6.4694 Y-1.4622
X6.4719 Y-1.4627
X6.4797 Y-1.4642
X6.4822 Y-1.4646
X6.49 Y-1.4657
X6.493 Y-1.4661
X6.5008 Y-1.4668
X6.5037 Y-1.467
X6.5115 Y-1.4674
X6.5133
X6.521 Y-1.4675
X6.5214
X6.5217
X7.1979 Y-1.4687
X7.1983
X7.1987
X7.2064 Y-1.4686
X7.2083
X7.216 Y-1.4682
X7.2189 Y-1.468
X7.2266 Y-1.4673
X7.2297 Y-1.467
X7.2375 Y-1.4659
X7.2401 Y-1.4654
X7.2478 Y-1.464
X7.2503 Y-1.4634
X7.2581 Y-1.4616
X7.2607 Y-1.4609
X7.2685 Y-1.4587
X7.2715 Y-1.4578
X7.2793 Y-1.4551
X7.2821 Y-1.4541
X7.2899 Y-1.451
X7.2926 Y-1.4498
X7.3011 Y-1.4459
X7.3038 Y-1.4446
X7.3108 Y-1.4409
X7.3131 Y-1.4397
X7.3202 Y-1.4356
X7.3231 Y-1.4338
X7.3315 Y-1.4282
X7.334 Y-1.4265
G3 X7.3423 Y-1.4203 I-0.2569 J0.3535
G1 X7.3445 Y-1.4186
G3 X7.3532 Y-1.4112 I-0.19 J0.2344
G1 X7.355 Y-1.4096
X7.3607 Y-1.4042
X7.3622 Y-1.4028
X7.3642 Y-1.4008
X7.3654 Y-1.3996
X7.3708 Y-1.3939
X7.3725 Y-1.3919
G3 X7.3797 Y-1.3835 I-0.2921 J0.2536
G1 X7.3815 Y-1.3811
G3 X7.3876 Y-1.3729 I-0.4558 J0.3468
G1 X7.3894 Y-1.3704
X7.395 Y-1.3619
X7.3968 Y-1.359
X7.4009 Y-1.352
X7.4022 Y-1.3495
X7.4062 Y-1.3417
X7.4075 Y-1.3391
X7.4111 Y-1.3313
X7.4122 Y-1.3287
X7.4153 Y-1.321
X7.4163 Y-1.3183
X7.419 Y-1.3105
X7.4199 Y-1.3074
X7.4221 Y-1.2997
X7.4228 Y-1.297
X7.4247 Y-1.2892
X7.4252 Y-1.2867
X7.4267 Y-1.279
X7.427 Y-1.2769
X7.4274 Y-1.2746
Y-1.2742
X7.4275 Y-1.2739
X7.4282 Y-1.2685
X7.4286 Y-1.2657
X7.4293 Y-1.2579
X7.4295 Y-1.255
X7.4298 Y-1.2472
X7.4299 Y-1.2454
X7.43 Y-1.2376
Y-1.2373
Y-1.237
X7.4332 Y0.5878
Y0.5882
Y0.5885
X7.4331 Y0.5888
Y0.5927
X7.4329 Y0.5963
X7.4326 Y0.6002
X7.4322 Y0.6041
X7.4316 Y0.608
X7.4309 Y0.6119
X7.4301 Y0.6158
X7.4292 Y0.6197
X7.4281 Y0.6235
X7.4268 Y0.6274
X7.4254 Y0.6313
X7.4242 Y0.6343
X7.4234 Y0.6363
X7.4223 Y0.6387
X7.4209 Y0.6416
X7.4194 Y0.6445
X7.4179 Y0.6473
X7.416 Y0.6505
X7.4138 Y0.6541
X7.4113 Y0.6576
X7.4087 Y0.6611
X7.4055 Y0.6651
X7.4017 Y0.6695
X7.3987 Y0.6726
X7.3968 Y0.6745
X7.3946 Y0.6766
X7.3921 Y0.6788
X7.3891 Y0.6813
X7.3854 Y0.6841
X7.3818 Y0.6867
X7.3782 Y0.6891
X7.3751 Y0.6909
X7.3728 Y0.6923
X7.3705 Y0.6936
X7.3681 Y0.6948
X7.3654 Y0.6961
X7.3623 Y0.6975
X7.3588 Y0.6989
X7.3549 Y0.7004
X7.3511 Y0.7017
X7.3472 Y0.7029
X7.3433 Y0.7039
X7.3394 Y0.7048
X7.3355 Y0.7056
X7.3316 Y0.7062
X7.3277 Y0.7067
X7.3238 Y0.707
X7.32 Y0.7072
X7.3161 Y0.7073
X7.3147 Y0.7074
X7.2515 Y0.7075
X7.2588 Y4.9241
X8.3658
X8.3158 Y0.711
X8.112 Y0.7134
X8.1085 Y0.7133
X8.1046 Y0.7131
X8.1007 Y0.7128
